%
(Header)
(Generated by gcodetools from Inkscape.)
(Using default header. To add your own header create file "header" in the output dir.)
M3
(Header end.)
G21 (All units in mm)

(Start cutting path id: path9306)
(Change tool to Default tool)

G00 Z5.000000
G00 X2124.032284 Y42.857013

G01 Z-0.125000 F100.0(Penetrate)
G01 X2123.920693 Y47.835667 Z-0.125000 F400.000000
G01 X2117.793479 Y45.484417 Z-0.125000
G01 X2111.666237 Y43.133167 Z-0.125000
G01 X2108.677419 Y47.843541 Z-0.125000
G02 X2106.625772 Y52.804857 Z-0.125000 I13.145388 J8.340864
G02 X2105.998143 Y59.891692 Z-0.125000 I26.686791 J5.934664
G01 X2106.307797 Y67.229470 Z-0.125000
G01 X2108.856659 Y58.067888 Z-0.125000
G01 X2111.405492 Y48.906362 Z-0.125000
G01 X2118.580371 Y48.895355 Z-0.125000
G01 X2125.755251 Y48.884348 Z-0.125000
G01 X2130.304983 Y58.056571 Z-0.125000
G01 X2134.854716 Y67.228793 Z-0.125000
G01 X2132.612856 Y58.056571 Z-0.125000
G02 X2129.885989 Y49.076539 Z-0.125000 I-82.775627 J20.231521
G02 X2127.257491 Y43.381015 Z-0.125000 I-35.765971 J13.051789
G01 X2124.143959 Y37.877682 Z-0.125000
G01 X2124.032425 Y42.856307 Z-0.125000
G01 X2124.032284 Y42.857013 Z-0.125000
G00 Z5.000000

(Change tool to Default tool)

G00 Z5.000000
G00 X2164.408491 Y42.857013

G01 Z-0.125000 F100.0(Penetrate)
G01 X2164.278612 Y47.835667 Z-0.125000 F400.000000
G01 X2158.151399 Y45.484417 Z-0.125000
G01 X2152.024157 Y43.133167 Z-0.125000
G01 X2149.035339 Y47.843541 Z-0.125000
G02 X2146.937265 Y52.805576 Z-0.125000 I13.811538 J8.764444
G02 X2146.155712 Y59.891692 Z-0.125000 I27.862899 J6.659254
G01 X2146.265045 Y67.229470 Z-0.125000
G01 X2150.685633 Y58.057248 Z-0.125000
G01 X2155.106277 Y48.885026 Z-0.125000
G01 X2160.609611 Y48.885026 Z-0.125000
G01 X2166.112944 Y48.885026 Z-0.125000
G01 X2170.401085 Y58.057248 Z-0.125000
G01 X2174.689198 Y67.229470 Z-0.125000
G01 X2174.857233 Y61.726137 Z-0.125000
G02 X2174.055483 Y56.464643 Z-0.125000 I-14.715410 J-0.449489
G02 X2169.781889 Y47.050581 Z-0.125000 I-52.511291 J18.160900
G01 X2164.538567 Y37.878359 Z-0.125000
G01 X2164.408689 Y42.857013 Z-0.125000
G01 X2164.408491 Y42.857013 Z-0.125000
G00 Z5.000000

(Change tool to Default tool)

G00 Z5.000000
G00 X2204.766269 Y42.711725

G01 Z-0.125000 F100.0(Penetrate)
G01 X2204.636390 Y47.545091 Z-0.125000 F400.000000
G01 X2197.724458 Y45.351293 Z-0.125000
G01 X2190.812581 Y43.157580 Z-0.125000
G01 X2188.373730 Y52.874773 Z-0.125000
G02 X2186.833472 Y62.343523 Z-0.125000 I55.022410 J13.810009
G02 X2187.507223 Y64.164367 Z-0.125000 I2.316780 J0.177816
G02 X2188.598118 Y63.995307 Z-0.125000 I0.483602 J-0.483602
G02 X2191.323545 Y56.796138 Z-0.125000 I-29.530171 J-15.294864
G01 X2193.567494 Y47.855535 Z-0.125000
G01 X2200.019178 Y48.370280 Z-0.125000
G01 X2206.470835 Y48.885026 Z-0.125000
G01 X2210.891479 Y58.057248 Z-0.125000
G01 X2215.312095 Y67.229470 Z-0.125000
G01 X2215.348784 Y61.726137 Z-0.125000
G02 X2214.459712 Y56.465052 Z-0.125000 I-15.456449 J-0.093675
G02 X2210.140937 Y47.050581 Z-0.125000 I-54.779885 J19.431782
G01 X2204.897615 Y37.878359 Z-0.125000
G01 X2204.767737 Y42.711725 Z-0.125000
G01 X2204.766269 Y42.711725 Z-0.125000
G00 Z5.000000

(Change tool to Default tool)

G00 Z5.000000
G00 X2248.662916 Y54.563563

G01 Z-0.125000 F100.0(Penetrate)
G01 X2248.662916 Y69.063915 Z-0.125000 F400.000000
G01 X2256.115812 Y69.063915 Z-0.125000
G01 X2263.568765 Y69.063915 Z-0.125000
G01 X2265.718141 Y63.462678 Z-0.125000
G01 X2267.867574 Y57.861442 Z-0.125000
G01 X2258.265245 Y48.962298 Z-0.125000
G01 X2248.662916 Y40.063182 Z-0.125000
G01 X2248.662916 Y54.563563 Z-0.125000
G01 X2248.662916 Y54.563563 Z-0.125000
G00 Z5.000000

(Change tool to Default tool)

G00 Z5.000000
G00 X2262.346997 Y59.197228

G01 Z-0.125000 F100.0(Penetrate)
G03 X2260.320881 Y62.377455 Z-0.125000 I-7.359626 J-2.453273 F400.000000
G03 X2256.688611 Y64.554229 Z-0.125000 I-6.725778 J-7.104077
G01 X2252.331805 Y66.006517 Z-0.125000
G01 X2252.331805 Y58.478154 Z-0.125000
G01 X2252.331805 Y50.949763 Z-0.125000
G01 X2257.990191 Y53.121097 Z-0.125000
G01 X2263.648606 Y55.292430 Z-0.125000
G01 X2262.346997 Y59.197228 Z-0.125000
G01 X2262.346997 Y59.197228 Z-0.125000
G00 Z5.000000

(Change tool to Default tool)

G00 Z5.000000
G00 X2278.865210 Y52.553915

G01 Z-0.125000 F100.0(Penetrate)
G01 X2278.865210 Y67.229470 Z-0.125000 F400.000000
G01 X2280.543105 Y60.808915 Z-0.125000
G01 X2282.220945 Y54.388359 Z-0.125000
G01 X2287.186250 Y54.388359 Z-0.125000
G01 X2292.151526 Y54.388359 Z-0.125000
G01 X2293.829394 Y60.808915 Z-0.125000
G01 X2295.507290 Y67.229470 Z-0.125000
G01 X2295.507290 Y52.553915 Z-0.125000
G01 X2295.507290 Y37.878359 Z-0.125000
G01 X2293.829394 Y44.298914 Z-0.125000
G01 X2292.151526 Y50.719470 Z-0.125000
G01 X2287.186250 Y50.719470 Z-0.125000
G01 X2282.220945 Y50.719470 Z-0.125000
G01 X2280.543105 Y44.298914 Z-0.125000
G01 X2278.865210 Y37.878359 Z-0.125000
G01 X2278.865210 Y52.553915 Z-0.125000
G01 X2278.865210 Y52.553915 Z-0.125000
G00 Z5.000000

(Change tool to Default tool)

G00 Z5.000000
G00 X2307.365139 Y52.553915

G01 Z-0.125000 F100.0(Penetrate)
G01 X2307.365139 Y65.395026 Z-0.125000 F400.000000
G01 X2313.969139 Y65.395026 Z-0.125000
G01 X2320.573139 Y65.395026 Z-0.125000
G01 X2324.975806 Y60.992359 Z-0.125000
G02 X2328.695575 Y56.306802 Z-0.125000 I-18.529492 J-18.529492
G02 X2329.378472 Y53.916653 Z-0.125000 I-3.841325 J-2.390149
G02 X2328.221188 Y50.509560 Z-0.125000 I-5.593950 J-0.000000
G02 X2323.043201 Y45.077992 Z-0.125000 I-27.964638 J21.475160
G02 X2316.832721 Y40.800209 Z-0.125000 I-24.529078 J28.964205
G02 X2312.606401 Y39.712803 Z-0.125000 I-4.226320 J7.669325
G01 X2307.365139 Y39.712803 Z-0.125000
G01 X2307.365139 Y52.553915 Z-0.125000
G01 X2307.365139 Y52.553915 Z-0.125000
G00 Z5.000000

(Change tool to Default tool)

G00 Z5.000000
G00 X2321.907316 Y48.724328

G01 Z-0.125000 F100.0(Penetrate)
G01 X2326.341281 Y54.066936 Z-0.125000 F400.000000
G01 X2323.974453 Y57.896551 Z-0.125000
G03 X2320.992368 Y60.622626 Z-0.125000 I-6.291740 J-3.888500
G03 X2316.320812 Y61.726137 Z-0.125000 I-4.671556 J-9.336429
G01 X2311.034028 Y61.726137 Z-0.125000
G01 X2311.034028 Y52.553915 Z-0.125000
G01 X2311.034028 Y43.381692 Z-0.125000
G01 X2314.253703 Y43.381692 Z-0.125000
G03 X2317.058982 Y44.263965 Z-0.125000 I-0.000000 J4.900975
G03 X2321.907316 Y48.724328 Z-0.125000 I-14.078857 J20.168671
G01 X2321.907316 Y48.724328 Z-0.125000
G00 Z5.000000

(Change tool to Default tool)

G00 Z5.000000
G00 X2338.956361 Y45.481905

G01 Z-0.125000 F100.0(Penetrate)
G01 X2336.742553 Y51.251036 Z-0.125000 F400.000000
G01 X2340.527379 Y58.323017 Z-0.125000
G01 X2344.312205 Y65.395026 Z-0.125000
G01 X2350.092906 Y65.395026 Z-0.125000
G01 X2355.873607 Y65.395026 Z-0.125000
G01 X2347.212123 Y58.317683 Z-0.125000
G01 X2338.550694 Y51.240339 Z-0.125000
G01 X2342.219583 Y47.621686 Z-0.125000
G03 X2346.349746 Y44.893383 Z-0.125000 I8.981732 J9.106420
G03 X2355.060695 Y42.357564 Z-0.125000 I16.298082 J39.756887
G01 X2364.232917 Y40.712068 Z-0.125000
G01 X2352.701543 Y40.212450 Z-0.125000
G01 X2341.170197 Y39.712803 Z-0.125000
G01 X2338.956361 Y45.481905 Z-0.125000
G01 X2338.956361 Y45.481905 Z-0.125000
G00 Z5.000000

(Change tool to Default tool)

G00 Z5.000000
G00 X2371.440844 Y47.459719

G01 Z-0.125000 F100.0(Penetrate)
G01 X2368.982068 Y55.206578 Z-0.125000 F400.000000
G01 X2375.578758 Y61.218052 Z-0.125000
G01 X2382.175449 Y67.229470 Z-0.125000
G01 X2377.379844 Y60.855622 Z-0.125000
G01 X2372.584211 Y54.481803 Z-0.125000
G01 X2374.713973 Y48.931733 Z-0.125000
G01 X2376.843735 Y43.381692 Z-0.125000
G01 X2382.580438 Y43.381692 Z-0.125000
G01 X2388.317141 Y43.381692 Z-0.125000
G01 X2391.635255 Y51.636692 Z-0.125000
G01 X2394.953370 Y59.891692 Z-0.125000
G01 X2395.185978 Y54.204915 Z-0.125000
G02 X2394.257846 Y48.971370 Z-0.125000 I-12.365107 J-0.506208
G02 X2391.015862 Y44.115470 Z-0.125000 I-13.803322 J5.705437
G01 X2386.613196 Y39.712803 Z-0.125000
G01 X2380.256451 Y39.712803 Z-0.125000
G01 X2373.899705 Y39.712803 Z-0.125000
G01 X2371.440929 Y47.459719 Z-0.125000
G01 X2371.440844 Y47.459719 Z-0.125000
G00 Z5.000000

(Change tool to Default tool)

G00 Z5.000000
G00 X2403.335512 Y47.050581

G01 Z-0.125000 F100.0(Penetrate)
G01 X2403.335512 Y56.222803 Z-0.125000 F400.000000
G01 X2405.186071 Y51.636692 Z-0.125000
G01 X2407.036630 Y47.050581 Z-0.125000
G01 X2405.186071 Y42.464470 Z-0.125000
G01 X2403.335512 Y37.878359 Z-0.125000
G01 X2403.335512 Y47.050581 Z-0.125000
G01 X2403.335512 Y47.050581 Z-0.125000
G00 Z5.000000

(Change tool to Default tool)

G00 Z5.000000
G00 X2424.236777 Y50.719470

G01 Z-0.125000 F100.0(Penetrate)
G02 X2423.020678 Y60.380496 Z-0.125000 I96.945230 J17.110203 F400.000000
G02 X2423.219133 Y63.913380 Z-0.125000 I13.418198 J1.018268
G02 X2424.572487 Y65.247755 Z-0.125000 I1.642571 J-0.312444
G02 X2426.862770 Y64.524765 Z-0.125000 I0.450139 J-2.563121
G01 X2428.955984 Y62.431608 Z-0.125000
G01 X2427.729559 Y50.154969 Z-0.125000
G01 X2426.503134 Y37.878359 Z-0.125000
G01 X2424.236777 Y50.719470 Z-0.125000
G01 X2424.236777 Y50.719470 Z-0.125000
G00 Z5.000000

(Change tool to Default tool)

G00 Z5.000000
G00 X2440.160375 Y48.885026

G01 Z-0.125000 F100.0(Penetrate)
G01 X2440.296491 Y59.891692 Z-0.125000 F400.000000
G01 X2441.987821 Y53.401315 Z-0.125000
G02 X2442.771687 Y46.969814 Z-0.125000 I-23.528831 J-6.131194
G02 X2441.851705 Y42.394648 Z-0.125000 I-12.611035 J0.155769
G01 X2440.024401 Y37.878359 Z-0.125000
G01 X2440.160516 Y48.885026 Z-0.125000
G01 X2440.160375 Y48.885026 Z-0.125000
G00 Z5.000000

(Change tool to Default tool)

G00 Z5.000000
G00 X2460.034295 Y42.717849

G01 Z-0.125000 F100.0(Penetrate)
G01 X2458.177103 Y45.722867 Z-0.125000 F400.000000
G01 X2468.989996 Y44.135875 Z-0.125000
G02 X2478.517556 Y42.037749 Z-0.125000 I-9.981202 J-68.005813
G02 X2479.449723 Y41.202661 Z-0.125000 I-0.414573 J-1.400578
G02 X2479.073194 Y40.499016 Z-0.125000 I-0.473887 J-0.198983
G02 X2470.847216 Y39.712803 Z-0.125000 I-8.225978 J42.640247
G01 X2461.891487 Y39.712803 Z-0.125000
G01 X2460.034295 Y42.717849 Z-0.125000
G01 X2460.034295 Y42.717849 Z-0.125000
G00 Z5.000000

(Change tool to Default tool)

G00 Z5.000000
G00 X2497.230112 Y42.137657

G01 Z-0.125000 F100.0(Penetrate)
G01 X2505.485112 Y43.892035 Z-0.125000 F400.000000
G01 X2505.485112 Y47.305766 Z-0.125000
G01 X2505.485112 Y50.719470 Z-0.125000
G01 X2500.715556 Y50.719470 Z-0.125000
G02 X2496.353363 Y51.702854 Z-0.125000 I0.000000 J10.166823
G02 X2491.630625 Y55.034874 Z-0.125000 I7.287827 J15.342585
G01 X2487.315278 Y59.350221 Z-0.125000
G01 X2491.346117 Y64.207096 Z-0.125000
G01 X2495.376928 Y69.063915 Z-0.125000
G01 X2501.348242 Y68.952380 Z-0.125000
G01 X2507.319556 Y68.840846 Z-0.125000
G01 X2500.899001 Y65.101232 Z-0.125000
G03 X2495.508656 Y60.769428 Z-0.125000 I11.680729 J-20.054765
G03 X2494.478445 Y58.130202 Z-0.125000 I2.865517 J-2.639226
G01 X2494.478445 Y54.898786 Z-0.125000
G01 X2502.733445 Y53.726379 Z-0.125000
G01 X2510.988445 Y52.553999 Z-0.125000
G01 X2510.988445 Y47.050666 Z-0.125000
G01 X2510.988445 Y41.547332 Z-0.125000
G01 X2499.981778 Y40.965334 Z-0.125000
G01 X2488.975112 Y40.383335 Z-0.125000
G01 X2497.230112 Y42.137713 Z-0.125000
G01 X2497.230112 Y42.137657 Z-0.125000
G00 Z5.000000

(Change tool to Default tool)

G00 Z5.000000
G00 X2543.309409 Y45.714823

G01 Z-0.125000 F100.0(Penetrate)
G01 X2541.006250 Y51.716872 Z-0.125000 F400.000000
G01 X2544.735026 Y57.638712 Z-0.125000
G01 X2548.463831 Y63.560581 Z-0.125000
G01 X2555.408360 Y64.413118 Z-0.125000
G01 X2562.352890 Y65.265627 Z-0.125000
G01 X2556.849556 Y62.945760 Z-0.125000
G03 X2548.727128 Y56.570260 Z-0.125000 I7.613727 J-18.061701
G03 X2545.899080 Y48.200270 Z-0.125000 I11.519987 J-8.555132
G01 X2545.842946 Y43.846625 Z-0.125000
G01 X2557.766835 Y42.366878 Z-0.125000
G01 X2569.690724 Y40.887102 Z-0.125000
G01 X2557.651688 Y40.299967 Z-0.125000
G01 X2545.612625 Y39.712803 Z-0.125000
G01 X2543.309465 Y45.714823 Z-0.125000
G01 X2543.309409 Y45.714823 Z-0.125000
G00 Z5.000000

(Change tool to Default tool)

G00 Z5.000000
G00 X2576.701773 Y44.744515

G01 Z-0.125000 F100.0(Penetrate)
G02 X2575.438317 Y50.366670 Z-0.125000 I18.570892 J7.126448 F400.000000
G02 X2575.800948 Y56.621696 Z-0.125000 I23.450080 J1.778520
G01 X2577.028445 Y62.952533 Z-0.125000
G01 X2581.706279 Y63.898599 Z-0.125000
G01 X2586.384112 Y64.844692 Z-0.125000
G01 X2582.623501 Y62.979683 Z-0.125000
G01 X2578.862890 Y61.114646 Z-0.125000
G01 X2578.862890 Y52.248183 Z-0.125000
G01 X2578.862890 Y43.381692 Z-0.125000
G01 X2585.894936 Y43.381692 Z-0.125000
G01 X2592.926955 Y43.381692 Z-0.125000
G01 X2594.791992 Y47.142303 Z-0.125000
G01 X2596.657001 Y50.902914 Z-0.125000
G01 X2595.727559 Y46.225081 Z-0.125000
G01 X2594.798116 Y41.547248 Z-0.125000
G01 X2586.814106 Y40.372695 Z-0.125000
G01 X2578.830096 Y39.198171 Z-0.125000
G01 X2576.701773 Y44.744515 Z-0.125000
G01 X2576.701773 Y44.744515 Z-0.125000
G00 Z5.000000

(Change tool to Default tool)

G00 Z5.000000
G00 X2608.214001 Y51.942424

G01 Z-0.125000 F100.0(Penetrate)
G01 X2608.214001 Y65.395026 Z-0.125000 F400.000000
G01 X2611.791168 Y65.395026 Z-0.125000
G01 X2615.368335 Y65.395026 Z-0.125000
G01 X2613.098619 Y53.471137 Z-0.125000
G02 X2610.238102 Y41.337772 Z-0.125000 I-141.033524 J26.845663
G02 X2609.462806 Y40.540180 Z-0.125000 I-1.124163 J0.317130
G02 X2608.819583 Y40.960367 Z-0.125000 I-0.148626 J0.474900
G02 X2608.214001 Y51.942424 Z-0.125000 I99.275499 J10.982057
G01 X2608.214001 Y51.942424 Z-0.125000
G00 Z5.000000

(Change tool to Default tool)

G00 Z5.000000
G00 X2629.694527 Y50.719470

G01 Z-0.125000 F100.0(Penetrate)
G02 X2628.478442 Y60.380496 Z-0.125000 I96.946815 J17.110269 F400.000000
G02 X2628.676897 Y63.913380 Z-0.125000 I13.418228 J1.018263
G02 X2630.030252 Y65.247755 Z-0.125000 I1.642571 J-0.312444
G02 X2632.320549 Y64.524765 Z-0.125000 I0.450142 J-2.563145
G01 X2634.413763 Y62.431608 Z-0.125000
G01 X2633.187310 Y50.154969 Z-0.125000
G01 X2631.960885 Y37.878359 Z-0.125000
G01 X2629.694527 Y50.719470 Z-0.125000
G01 X2629.694527 Y50.719470 Z-0.125000
G00 Z5.000000

(Change tool to Default tool)

G00 Z5.000000
G00 X674.709687 Y50.936019

G01 Z-0.125000 F100.0(Penetrate)
G01 X674.709687 Y54.821401 Z-0.125000 F400.000000
G01 X678.378576 Y52.553915 Z-0.125000
G02 X681.520991 Y49.992886 Z-0.125000 I-8.204874 J-13.275895
G02 X682.047464 Y48.668505 Z-0.125000 I-1.402551 J-1.324382
G02 X681.408943 Y47.689081 Z-0.125000 I-1.070426 J-0.000000
G02 X678.378576 Y47.050581 Z-0.125000 I-3.030367 J6.871920
G01 X674.709687 Y47.050581 Z-0.125000
G01 X674.709687 Y50.936019 Z-0.125000
G01 X674.709687 Y50.936019 Z-0.125000
G00 Z5.000000

(Change tool to Default tool)

G00 Z5.000000
G00 X704.060770 Y49.658766

G01 Z-0.125000 F100.0(Penetrate)
G02 X705.133152 Y52.968090 Z-0.125000 I5.642403 J0.000000 F400.000000
G02 X710.481325 Y58.525257 Z-0.125000 I22.463825 J-16.266903
G01 X716.901881 Y63.560581 Z-0.125000
G01 X711.519508 Y56.222803 Z-0.125000
G03 X706.159896 Y48.868953 Z-0.125000 I1197.795109 J-878.603654
G03 X705.098952 Y47.356312 Z-0.125000 I49.592949 J-35.912128
G02 X704.545547 Y47.404295 Z-0.125000 I-0.263280 J0.178802
G02 X704.060770 Y49.658766 Z-0.125000 I4.999856 J2.254471
G01 X704.060770 Y49.658766 Z-0.125000
G00 Z5.000000

(Change tool to Default tool)

G00 Z5.000000
G00 X570.146353 Y58.057248

G01 Z-0.125000 F100.0(Penetrate)
G02 X577.047282 Y64.808274 Z-0.125000 I58.886581 J-53.291532 F400.000000
G02 X578.621373 Y65.395026 Z-0.125000 I1.574091 J-1.818049
G02 X578.976184 Y64.738486 Z-0.125000 I0.000000 J-0.424144
G02 X573.815242 Y58.057248 Z-0.125000 I-45.406833 J29.740729
G02 X566.914289 Y51.306220 Z-0.125000 I-58.885129 J53.290218
G02 X565.340193 Y50.719470 Z-0.125000 I-1.574096 J1.818067
G02 X564.985385 Y51.376008 Z-0.125000 I0.000000 J0.424142
G02 X570.146353 Y58.057248 Z-0.125000 I45.408150 J-29.741898
G01 X570.146353 Y58.057248 Z-0.125000
G00 Z5.000000

(Change tool to Default tool)

G00 Z5.000000
G00 X578.630658 Y53.225745

G01 Z-0.125000 F100.0(Penetrate)
G01 X583.446075 Y55.152701 Z-0.125000 F400.000000
G01 X585.662677 Y52.936100 Z-0.125000
G01 X587.879306 Y50.719470 Z-0.125000
G01 X580.847260 Y51.008945 Z-0.125000
G01 X573.815242 Y51.298421 Z-0.125000
G01 X578.630658 Y53.225406 Z-0.125000
G01 X578.630658 Y53.225745 Z-0.125000
G00 Z5.000000

(Change tool to Default tool)

G00 Z5.000000
G00 X2409.986925 Y56.351892

G01 Z-0.125000 F100.0(Penetrate)
G02 X2406.679179 Y61.951039 Z-0.125000 I15.790491 J13.104988 F400.000000
G02 X2407.042299 Y63.200766 Z-0.125000 I0.991289 J0.389589
G02 X2408.555464 Y63.402249 Z-0.125000 I0.941689 J-1.289436
G02 X2414.905437 Y59.943932 Z-0.125000 I-9.781834 J-25.519767
G01 X2421.539776 Y55.092786 Z-0.125000
G01 X2418.067060 Y52.946542 Z-0.125000
G01 X2414.594316 Y50.800270 Z-0.125000
G01 X2409.986925 Y56.351892 Z-0.125000
G01 X2409.986925 Y56.351892 Z-0.125000
G00 Z5.000000

(Change tool to Default tool)

G00 Z5.000000
G00 X2617.386223 Y54.388359

G01 Z-0.125000 F100.0(Penetrate)
G01 X2615.118737 Y58.057248 Z-0.125000 F400.000000
G01 X2621.055112 Y58.057248 Z-0.125000
G01 X2626.991488 Y58.057248 Z-0.125000
G01 X2624.724001 Y54.388359 Z-0.125000
G02 X2622.193563 Y51.191032 Z-0.125000 I-14.995798 J9.268032
G02 X2621.055112 Y50.719470 Z-0.125000 I-1.138451 J1.138451
G02 X2619.916662 Y51.191032 Z-0.125000 I-0.000000 J1.610012
G02 X2617.386223 Y54.388359 Z-0.125000 I12.465360 J12.465360
G01 X2617.386223 Y54.388359 Z-0.125000
G00 Z5.000000

(Change tool to Default tool)

G00 Z5.000000
G00 X635.181755 Y60.180519

G01 Z-0.125000 F100.0(Penetrate)
G02 X641.531569 Y65.251400 Z-0.125000 I22.116181 J-21.183032 F400.000000
G02 X643.269905 Y65.037761 Z-0.125000 I0.732409 J-1.219596
G02 X643.286510 Y63.496459 Z-0.125000 I-0.779134 J-0.779134
G02 X636.936697 Y58.425576 Z-0.125000 I-22.116448 J21.183356
G01 X628.848575 Y53.568334 Z-0.125000
G01 X635.181755 Y60.180519 Z-0.125000
G01 X635.181755 Y60.180519 Z-0.125000
G00 Z5.000000

(Change tool to Default tool)

G00 Z5.000000
G00 X2457.789556 Y58.141322

G01 Z-0.125000 F100.0(Penetrate)
G01 X2457.789556 Y61.956430 Z-0.125000 F400.000000
G01 X2463.451131 Y64.128977 Z-0.125000
G02 X2469.478284 Y65.333138 Z-0.125000 I6.537603 J-17.036624
G02 X2470.472369 Y64.603304 Z-0.125000 I0.028087 J-1.003667
G02 X2470.147896 Y63.185893 Z-0.125000 I-1.455615 J-0.412626
G02 X2464.960484 Y58.804488 Z-0.125000 I-17.795443 J15.807555
G01 X2457.789556 Y54.326185 Z-0.125000
G01 X2457.789556 Y58.141322 Z-0.125000
G01 X2457.789556 Y58.141322 Z-0.125000
G00 Z5.000000

(Change tool to Default tool)

G00 Z5.000000
G00 X2591.704001 Y61.726137

G01 Z-0.125000 F100.0(Penetrate)
G01 X2589.436515 Y65.395026 Z-0.125000 F400.000000
G01 X2593.321925 Y65.395026 Z-0.125000
G01 X2597.207334 Y65.395026 Z-0.125000
G01 X2597.207334 Y61.726137 Z-0.125000
G02 X2596.568835 Y58.695753 Z-0.125000 I-7.510503 J0.000000
G02 X2595.589439 Y58.057248 Z-0.125000 I-0.979396 J0.431889
G02 X2594.265059 Y58.583720 Z-0.125000 I0.000000 J1.929023
G02 X2591.704001 Y61.726137 Z-0.125000 I10.715284 J11.347753
G01 X2591.704001 Y61.726137 Z-0.125000
G00 Z5.000000

(Change tool to Default tool)

G00 Z5.000000
G00 X480.258574 Y514.833926

G01 Z-0.125000 F100.0(Penetrate)
G01 X480.258574 Y945.928373 Z-0.125000 F400.000000
G01 X1562.580718 Y945.928373 Z-0.125000
G01 X2644.902890 Y945.928373 Z-0.125000
G01 X2644.902890 Y514.833926 Z-0.125000
G01 X2644.902890 Y83.739470 Z-0.125000
G01 X1562.580718 Y83.739470 Z-0.125000
G01 X480.258574 Y83.739470 Z-0.125000
G01 X480.258574 Y514.833926 Z-0.125000
G01 X480.258574 Y514.833926 Z-0.125000
G00 Z5.000000

(Change tool to Default tool)

G00 Z5.000000
G00 X2633.896224 Y516.668370

G01 Z-0.125000 F100.0(Penetrate)
G01 X2633.896224 Y938.590595 Z-0.125000 F400.000000
G01 X1562.580718 Y938.590595 Z-0.125000
G01 X491.265241 Y938.590595 Z-0.125000
G01 X491.265241 Y516.668370 Z-0.125000
G01 X491.265241 Y94.746137 Z-0.125000
G01 X1562.580718 Y94.746137 Z-0.125000
G01 X2633.896224 Y94.746137 Z-0.125000
G01 X2633.896224 Y516.668370 Z-0.125000
G01 X2633.896224 Y516.668370 Z-0.125000
G00 Z5.000000

(Change tool to Default tool)

G00 Z5.000000
G00 X865.781555 Y189.220035

G01 Z-0.125000 F100.0(Penetrate)
G01 X865.491882 Y204.812813 Z-0.125000 F400.000000
G01 X862.060483 Y204.812813 Z-0.125000
G01 X858.629084 Y204.812813 Z-0.125000
G01 X853.985653 Y191.971702 Z-0.125000
G02 X848.589374 Y180.203445 Z-0.125000 I-73.459145 J26.563003
G02 X846.753878 Y179.130590 Z-0.125000 I-1.835495 J1.033704
G01 X844.165505 Y179.130590 Z-0.125000
G01 X846.089471 Y186.487923 Z-0.125000
G01 X848.013492 Y193.845220 Z-0.125000
G01 X843.462349 Y199.329035 Z-0.125000
G01 X838.911177 Y204.812813 Z-0.125000
G01 X831.621264 Y204.812813 Z-0.125000
G01 X824.331323 Y204.812813 Z-0.125000
G01 X825.800402 Y192.229074 Z-0.125000
G01 X827.269482 Y179.645299 Z-0.125000
G01 X824.367334 Y181.438909 Z-0.125000
G01 X821.465215 Y183.232518 Z-0.125000
G01 X821.465215 Y193.907517 Z-0.125000
G01 X821.465215 Y204.582517 Z-0.125000
G01 X815.961881 Y202.470704 Z-0.125000
G01 X810.458548 Y200.358855 Z-0.125000
G01 X810.458548 Y204.420278 Z-0.125000
G01 X810.458548 Y208.481702 Z-0.125000
G01 X816.879104 Y208.904174 Z-0.125000
G02 X823.294135 Y209.035399 Z-0.125000 I4.657521 J-70.819336
G02 X830.637437 Y208.563334 Z-0.125000 I-2.311228 J-93.304080
G01 X837.975215 Y207.799839 Z-0.125000
G01 X844.553279 Y201.926314 Z-0.125000
G01 X851.131343 Y196.052827 Z-0.125000
G01 X853.052373 Y203.398896 Z-0.125000
G01 X854.973403 Y210.744966 Z-0.125000
G01 X869.461704 Y211.599817 Z-0.125000
G01 X883.949977 Y212.454705 Z-0.125000
G01 X886.345254 Y206.212751 Z-0.125000
G01 X888.740530 Y199.970760 Z-0.125000
G01 X879.429821 Y192.302415 Z-0.125000
G03 X870.974088 Y184.027439 Z-0.125000 I43.974893 J-53.393176
G03 X868.095156 Y179.130737 Z-0.125000 I12.086133 J-10.400497
G01 X866.071171 Y173.627404 Z-0.125000
G01 X865.781696 Y189.220182 Z-0.125000
G01 X865.781555 Y189.220035 Z-0.125000
G00 Z5.000000

(Change tool to Default tool)

G00 Z5.000000
G00 X879.686361 Y198.729832

G01 Z-0.125000 F100.0(Penetrate)
G01 X883.772685 Y203.653517 Z-0.125000 F400.000000
G01 X881.358584 Y206.067609 Z-0.125000
G03 X878.638763 Y207.743619 Z-0.125000 I-4.889241 J-4.889376
G03 X874.052613 Y208.481702 Z-0.125000 I-4.586150 J-13.879217
G01 X869.160771 Y208.481702 Z-0.125000
G01 X869.160771 Y201.143924 Z-0.125000
G01 X869.160771 Y193.806146 Z-0.125000
G01 X872.380446 Y193.806146 Z-0.125000
G03 X875.196090 Y194.666355 Z-0.125000 I0.000000 J5.038199
G03 X879.686361 Y198.729832 Z-0.125000 I-11.912573 J17.676458
G01 X879.686361 Y198.729832 Z-0.125000
G00 Z5.000000

(Change tool to Default tool)

G00 Z5.000000
G00 X902.767934 Y185.251068

G01 Z-0.125000 F100.0(Penetrate)
G03 X901.545171 Y196.748202 Z-0.125000 I-104.088864 J-5.256651 F400.000000
G03 X899.780330 Y203.595512 Z-0.125000 I-38.484238 J-6.267922
G01 X897.379889 Y210.316146 Z-0.125000
G01 X909.401737 Y199.309479 Z-0.125000
G01 X921.423613 Y188.302813 Z-0.125000
G01 X919.775407 Y200.226702 Z-0.125000
G01 X918.127201 Y212.150591 Z-0.125000
G01 X921.160639 Y212.150591 Z-0.125000
G01 X924.194104 Y212.150591 Z-0.125000
G01 X924.194104 Y203.145119 Z-0.125000
G01 X924.194104 Y194.139685 Z-0.125000
G01 X933.199561 Y203.145119 Z-0.125000
G02 X946.508676 Y211.691685 Z-0.125000 I26.264824 J-26.264749
G02 X949.876327 Y209.351705 Z-0.125000 I0.870869 J-2.339980
G02 X948.838901 Y207.230543 Z-0.125000 I-2.687219 J-0.000000
G02 X941.621327 Y202.931150 Z-0.125000 I-20.883799 J26.850599
G01 X933.366327 Y199.309479 Z-0.125000
G01 X932.193919 Y191.054479 Z-0.125000
G01 X931.021540 Y182.799479 Z-0.125000
G01 X940.448919 Y182.799479 Z-0.125000
G01 X949.876327 Y182.799479 Z-0.125000
G01 X949.876327 Y186.468368 Z-0.125000
G01 X949.876327 Y190.137257 Z-0.125000
G01 X944.372993 Y190.137257 Z-0.125000
G01 X938.869660 Y190.137257 Z-0.125000
G01 X938.869660 Y193.806146 Z-0.125000
G01 X938.869660 Y197.475035 Z-0.125000
G01 X947.428726 Y197.475035 Z-0.125000
G01 X955.987821 Y197.475035 Z-0.125000
G01 X955.400262 Y189.220035 Z-0.125000
G01 X954.812788 Y180.965035 Z-0.125000
G01 X944.784897 Y179.782699 Z-0.125000
G01 X934.757061 Y178.600363 Z-0.125000
G01 X929.475583 Y182.983621 Z-0.125000
G01 X924.194104 Y187.366842 Z-0.125000
G01 X924.078167 Y182.331476 Z-0.125000
G01 X923.962230 Y177.296146 Z-0.125000
G01 X915.133896 Y187.325164 Z-0.125000
G01 X906.305561 Y197.354218 Z-0.125000
G01 X904.830329 Y185.490719 Z-0.125000
G01 X903.355069 Y173.627257 Z-0.125000
G01 X902.767934 Y185.251068 Z-0.125000
G01 X902.767934 Y185.251068 Z-0.125000
G00 Z5.000000

(Change tool to Default tool)

G00 Z5.000000
G00 X2001.821764 Y180.347891

G01 Z-0.125000 F100.0(Penetrate)
G02 X2000.099087 Y187.222619 Z-0.125000 I25.596387 J10.067168 F400.000000
G02 X1999.678117 Y198.692336 Z-0.125000 I71.643697 J8.372109
G01 X2000.177735 Y210.316146 Z-0.125000
G01 X2001.767718 Y202.061146 Z-0.125000
G01 X2003.357702 Y193.806146 Z-0.125000
G01 X2008.605878 Y193.806146 Z-0.125000
G01 X2013.854026 Y193.806146 Z-0.125000
G01 X2013.854026 Y202.087599 Z-0.125000
G01 X2013.854026 Y210.369015 Z-0.125000
G01 X2031.281248 Y208.652378 Z-0.125000
G01 X2048.708471 Y206.935742 Z-0.125000
G01 X2038.619026 Y205.630571 Z-0.125000
G01 X2028.529582 Y204.325438 Z-0.125000
G01 X2028.529582 Y198.637889 Z-0.125000
G01 X2028.529582 Y192.950341 Z-0.125000
G01 X2035.867359 Y194.869207 Z-0.125000
G01 X2043.205137 Y196.788072 Z-0.125000
G01 X2043.205137 Y193.462665 Z-0.125000
G01 X2043.205137 Y190.137257 Z-0.125000
G01 X2037.918353 Y190.137257 Z-0.125000
G03 X2033.245599 Y189.035885 Z-0.125000 I-0.000000 J-10.463151
G03 X2030.273150 Y186.321319 Z-0.125000 I3.285367 J-6.582174
G01 X2027.914760 Y182.505381 Z-0.125000
G01 X2038.311630 Y184.783614 Z-0.125000
G01 X2048.708471 Y187.061884 Z-0.125000
G01 X2043.205137 Y183.152426 Z-0.125000
G02 X2037.390704 Y180.203509 Z-0.125000 I-12.776958 J17.985889
G02 X2031.281248 Y179.186761 Z-0.125000 I-6.283632 J18.893523
G01 X2024.860693 Y179.130590 Z-0.125000
G01 X2024.860693 Y189.920719 Z-0.125000
G01 X2024.860693 Y200.710885 Z-0.125000
G01 X2021.073496 Y203.051489 Z-0.125000
G01 X2017.286243 Y205.392130 Z-0.125000
G01 X2018.733253 Y192.261360 Z-0.125000
G01 X2020.180263 Y179.130590 Z-0.125000
G01 X2017.017144 Y179.130590 Z-0.125000
G02 X2014.847933 Y180.124512 Z-0.125000 I0.000000 J2.864088
G02 X2013.854026 Y182.799479 Z-0.125000 I3.102703 J2.674967
G03 X2012.820647 Y185.434973 Z-0.125000 I-3.877424 J0.000000
G03 X2010.454151 Y186.468368 Z-0.125000 I-2.366495 J-2.192963
G01 X2007.054305 Y186.468368 Z-0.125000
G01 X2005.759667 Y180.047813 Z-0.125000
G01 X2004.465029 Y173.627257 Z-0.125000
G01 X2001.821764 Y180.347891 Z-0.125000
G01 X2001.821764 Y180.347891 Z-0.125000
G00 Z5.000000

(Change tool to Default tool)

G00 Z5.000000
G00 X2310.706368 Y179.410747

G01 Z-0.125000 F100.0(Penetrate)
G01 X2305.530694 Y182.687101 Z-0.125000 F400.000000
G01 X2315.620139 Y182.743235 Z-0.125000
G01 X2325.709583 Y182.799479 Z-0.125000
G01 X2325.709583 Y186.468368 Z-0.125000
G01 X2325.709583 Y190.137257 Z-0.125000
G01 X2314.702917 Y190.137257 Z-0.125000
G01 X2303.696250 Y190.137257 Z-0.125000
G01 X2303.696250 Y197.345963 Z-0.125000
G01 X2303.696250 Y204.554633 Z-0.125000
G01 X2310.792841 Y208.352630 Z-0.125000
G02 X2317.307168 Y211.432015 Z-0.125000 I34.137114 J-63.785714
G02 X2319.704057 Y211.949416 Z-0.125000 I2.626947 J-6.358919
G02 X2321.304740 Y211.133073 Z-0.125000 I0.062087 J-1.855740
G02 X2322.040694 Y208.728948 Z-0.125000 I-3.558773 J-2.404125
G01 X2322.040694 Y205.307306 Z-0.125000
G01 X2314.702917 Y202.978368 Z-0.125000
G03 X2308.531209 Y199.796146 Z-0.125000 I6.254599 J-19.706294
G03 X2307.365139 Y197.460249 Z-0.125000 I1.756623 J-2.335897
G01 X2307.365139 Y194.271068 Z-0.125000
G01 X2319.289028 Y193.121385 Z-0.125000
G01 X2331.212917 Y191.971702 Z-0.125000
G01 X2331.212917 Y186.888639 Z-0.125000
G01 X2331.212917 Y181.805614 Z-0.125000
G01 X2323.547451 Y178.969966 Z-0.125000
G01 X2315.882041 Y176.134356 Z-0.125000
G01 X2310.706368 Y179.410747 Z-0.125000
G01 X2310.706368 Y179.410747 Z-0.125000
G00 Z5.000000

(Change tool to Default tool)

G00 Z5.000000
G00 X891.174104 Y193.806146

G01 Z-0.125000 F100.0(Penetrate)
G02 X891.862950 Y207.792844 Z-0.125000 I142.341238 J-0.000000 F400.000000
G02 X892.623174 Y208.481702 Z-0.125000 I0.760225 J-0.075064
G02 X893.451408 Y207.798775 Z-0.125000 I0.000000 J-0.843693
G02 X895.471812 Y193.806146 Z-0.125000 I-143.658212 J-27.885071
G01 X896.871352 Y179.130590 Z-0.125000
G01 X894.022742 Y179.130590 Z-0.125000
G01 X891.174104 Y179.130590 Z-0.125000
G01 X891.174104 Y193.806146 Z-0.125000
G01 X891.174104 Y193.806146 Z-0.125000
G00 Z5.000000

(Change tool to Default tool)

G00 Z5.000000
G00 X982.896327 Y193.389727

G01 Z-0.125000 F100.0(Penetrate)
G01 X982.896327 Y207.648864 Z-0.125000 F400.000000
G01 X993.033382 Y209.136672 Z-0.125000
G01 X1003.170466 Y210.624480 Z-0.125000
G01 X1012.295049 Y208.084361 Z-0.125000
G01 X1021.419660 Y205.544242 Z-0.125000
G01 X1013.164660 Y205.178454 Z-0.125000
G01 X1004.909660 Y204.812813 Z-0.125000
G01 X1004.627523 Y191.054479 Z-0.125000
G01 X1004.345752 Y177.296146 Z-0.125000
G01 X1000.041581 Y190.978570 Z-0.125000
G01 X995.737438 Y204.660994 Z-0.125000
G01 X990.649000 Y201.458274 Z-0.125000
G01 X985.560589 Y198.255554 Z-0.125000
G01 X987.388571 Y188.693072 Z-0.125000
G01 X989.216581 Y179.130590 Z-0.125000
G01 X986.056454 Y179.130590 Z-0.125000
G01 X982.896327 Y179.130590 Z-0.125000
G01 X982.896327 Y193.389727 Z-0.125000
G01 X982.896327 Y193.389727 Z-0.125000
G00 Z5.000000

(Change tool to Default tool)

G00 Z5.000000
G00 X1942.922211 Y181.576529

G01 Z-0.125000 F100.0(Penetrate)
G02 X1941.357936 Y184.387625 Z-0.125000 I4.150008 J4.150112 F400.000000
G02 X1940.476276 Y192.014554 Z-0.125000 I32.548111 J7.626929
G01 X1940.476276 Y200.006642 Z-0.125000
G01 X1947.185714 Y206.078616 Z-0.125000
G02 X1959.035903 Y212.144862 Z-0.125000 I17.216279 J-19.023793
G02 X1962.489609 Y209.351705 Z-0.125000 I0.597382 J-2.793157
G02 X1961.452183 Y207.230543 Z-0.125000 I-2.687219 J0.000000
G02 X1954.234609 Y202.931150 Z-0.125000 I-20.883799 J26.850599
G01 X1945.979609 Y199.309479 Z-0.125000
G01 X1945.979609 Y192.007730 Z-0.125000
G01 X1945.979609 Y184.705981 Z-0.125000
G01 X1956.986276 Y182.352388 Z-0.125000
G01 X1967.992943 Y179.998760 Z-0.125000
G01 X1956.680545 Y179.564657 Z-0.125000
G02 X1945.766958 Y180.148235 Z-0.125000 I-2.286885 J59.572762
G02 X1942.922211 Y181.576529 Z-0.125000 I0.731925 J5.004882
G01 X1942.922211 Y181.576529 Z-0.125000
G00 Z5.000000

(Change tool to Default tool)

G00 Z5.000000
G00 X1971.153465 Y184.635721

G01 Z-0.125000 F100.0(Penetrate)
G01 X1968.852366 Y190.632264 Z-0.125000 F400.000000
G01 X1973.628723 Y199.556983 Z-0.125000
G01 X1978.405080 Y208.481702 Z-0.125000
G01 X1982.839186 Y208.481702 Z-0.125000
G02 X1986.762887 Y207.394714 Z-0.125000 I-0.000000 J-7.625187
G02 X1991.673109 Y203.180304 Z-0.125000 I-9.910908 J-16.514891
G01 X1996.072869 Y197.878906 Z-0.125000
G01 X1994.873989 Y189.421971 Z-0.125000
G01 X1993.675165 Y180.965035 Z-0.125000
G01 X1983.564836 Y179.802107 Z-0.125000
G01 X1973.454535 Y178.639179 Z-0.125000
G01 X1971.153465 Y184.635721 Z-0.125000
G01 X1971.153465 Y184.635721 Z-0.125000
G00 Z5.000000

(Change tool to Default tool)

G00 Z5.000000
G00 X1991.117470 Y192.459444

G01 Z-0.125000 F100.0(Penetrate)
G01 X1992.228663 Y200.209971 Z-0.125000 F400.000000
G01 X1986.799611 Y202.293313 Z-0.125000
G01 X1981.370530 Y204.376655 Z-0.125000
G01 X1977.022953 Y199.138106 Z-0.125000
G01 X1972.675348 Y193.899593 Z-0.125000
G01 X1974.909165 Y188.078387 Z-0.125000
G01 X1977.142954 Y182.257181 Z-0.125000
G01 X1983.574629 Y183.483030 Z-0.125000
G01 X1990.006276 Y184.708879 Z-0.125000
G01 X1991.117470 Y192.459444 Z-0.125000
G01 X1991.117470 Y192.459444 Z-0.125000
G00 Z5.000000

(Change tool to Default tool)

G00 Z5.000000
G00 X2053.132050 Y189.678646

G01 Z-0.125000 F100.0(Penetrate)
G02 X2050.912783 Y202.099402 Z-0.125000 I210.643372 J44.045142 F400.000000
G02 X2050.542915 Y207.105868 Z-0.125000 I33.698348 J5.006466
G01 X2050.542915 Y212.150591 Z-0.125000
G01 X2061.333061 Y212.150591 Z-0.125000
G01 X2072.123207 Y212.150591 Z-0.125000
G01 X2074.533582 Y208.250525 Z-0.125000
G01 X2076.943957 Y204.350423 Z-0.125000
G01 X2070.581822 Y197.320355 Z-0.125000
G01 X2064.219658 Y190.290250 Z-0.125000
G01 X2070.222412 Y187.986775 Z-0.125000
G02 X2075.107056 Y184.914752 Z-0.125000 I-5.334408 J-13.901335
G02 X2076.225137 Y182.322377 Z-0.125000 I-2.446288 J-2.592375
G01 X2076.225137 Y178.961418 Z-0.125000
G01 X2067.363980 Y184.767508 Z-0.125000
G01 X2058.502767 Y190.573598 Z-0.125000
G01 X2057.111948 Y183.934854 Z-0.125000
G01 X2055.721157 Y177.296146 Z-0.125000
G01 X2053.132050 Y189.678646 Z-0.125000
G01 X2053.132050 Y189.678646 Z-0.125000
G00 Z5.000000

(Change tool to Default tool)

G00 Z5.000000
G00 X2068.046563 Y204.124896

G01 Z-0.125000 F100.0(Penetrate)
G01 X2069.498850 Y208.481702 Z-0.125000 F400.000000
G01 X2063.689758 Y208.481702 Z-0.125000
G01 X2057.880693 Y208.481702 Z-0.125000
G01 X2057.880693 Y202.672640 Z-0.125000
G01 X2057.880693 Y196.863541 Z-0.125000
G01 X2062.237498 Y198.315834 Z-0.125000
G03 X2065.827719 Y200.534711 Z-0.125000 I-2.904621 J8.713771
G03 X2068.046563 Y204.124896 Z-0.125000 I-6.494488 J6.494540
G01 X2068.046563 Y204.124896 Z-0.125000
G00 Z5.000000

(Change tool to Default tool)

G00 Z5.000000
G00 X2082.187082 Y190.595868

G01 Z-0.125000 F100.0(Penetrate)
G02 X2080.141417 Y202.085642 Z-0.125000 I269.953982 J53.990192 F400.000000
G02 X2079.894026 Y205.271424 Z-0.125000 I20.388778 J3.185782
G01 X2079.894026 Y208.481702 Z-0.125000
G01 X2093.652360 Y207.931992 Z-0.125000
G01 X2107.410693 Y207.382282 Z-0.125000
G01 X2097.321249 Y205.853860 Z-0.125000
G01 X2087.231804 Y204.325438 Z-0.125000
G01 X2087.231804 Y198.637889 Z-0.125000
G01 X2087.231804 Y192.950341 Z-0.125000
G01 X2094.569582 Y194.869207 Z-0.125000
G01 X2101.907360 Y196.788072 Z-0.125000
G01 X2101.907360 Y193.462665 Z-0.125000
G01 X2101.907360 Y190.137257 Z-0.125000
G01 X2096.620576 Y190.137257 Z-0.125000
G03 X2091.882653 Y189.152758 Z-0.125000 I0.000000 J-11.892926
G03 X2089.393824 Y186.998376 Z-0.125000 I2.192254 J-5.047369
G01 X2087.453857 Y183.859458 Z-0.125000
G01 X2097.432275 Y185.451169 Z-0.125000
G01 X2107.410693 Y187.042843 Z-0.125000
G01 X2101.907360 Y183.142887 Z-0.125000
G02 X2096.106007 Y180.163916 Z-0.125000 I-13.310138 J18.782266
G02 X2090.442082 Y179.186761 Z-0.125000 I-5.832371 J16.902815
G01 X2084.480137 Y179.130590 Z-0.125000
G01 X2082.187082 Y190.595868 Z-0.125000
G01 X2082.187082 Y190.595868 Z-0.125000
G00 Z5.000000

(Change tool to Default tool)

G00 Z5.000000
G00 X2109.263369 Y194.723368

G01 Z-0.125000 F100.0(Penetrate)
G01 X2109.281714 Y210.316146 Z-0.125000 F400.000000
G01 X2118.303765 Y199.309479 Z-0.125000
G01 X2127.325845 Y188.302813 Z-0.125000
G01 X2127.457925 Y199.427434 Z-0.125000
G01 X2127.590005 Y210.552092 Z-0.125000
G01 X2144.676275 Y209.552100 Z-0.125000
G02 X2161.424125 Y207.798055 Z-0.125000 I-10.723145 J-183.218357
G02 X2163.632211 Y206.682442 Z-0.125000 I-0.592898 J-3.916490
G01 X2165.501820 Y204.812813 Z-0.125000
G01 X2157.552608 Y204.812813 Z-0.125000
G01 X2149.603311 Y204.812813 Z-0.125000
G01 X2149.321540 Y191.054479 Z-0.125000
G01 X2149.039403 Y177.296146 Z-0.125000
G01 X2144.735260 Y190.978570 Z-0.125000
G01 X2140.431088 Y204.660994 Z-0.125000
G01 X2135.912654 Y201.810524 Z-0.125000
G01 X2131.394220 Y198.960054 Z-0.125000
G01 X2132.950309 Y190.879767 Z-0.125000
G01 X2134.506426 Y182.799479 Z-0.125000
G01 X2132.201884 Y182.799479 Z-0.125000
G02 X2130.157209 Y183.466855 Z-0.125000 I-0.000000 J3.465876
G02 X2120.903399 Y191.054479 Z-0.125000 I63.297711 J86.634169
G01 X2111.909457 Y199.309479 Z-0.125000
G01 X2113.737636 Y189.220035 Z-0.125000
G01 X2115.565787 Y179.130590 Z-0.125000
G01 X2112.405660 Y179.130590 Z-0.125000
G01 X2109.245561 Y179.130590 Z-0.125000
G01 X2109.263905 Y194.723368 Z-0.125000
G01 X2109.263369 Y194.723368 Z-0.125000
G00 Z5.000000

(Change tool to Default tool)

G00 Z5.000000
G00 X2185.068851 Y181.576529

G01 Z-0.125000 F100.0(Penetrate)
G02 X2183.504576 Y184.387625 Z-0.125000 I4.150008 J4.150112 F400.000000
G02 X2182.622916 Y192.014554 Z-0.125000 I32.548111 J7.626929
G01 X2182.622916 Y200.006642 Z-0.125000
G01 X2189.824042 Y206.523579 Z-0.125000
G01 X2197.025167 Y213.040516 Z-0.125000
G01 X2203.582375 Y210.115605 Z-0.125000
G01 X2210.139583 Y207.190693 Z-0.125000
G01 X2202.151029 Y205.781473 Z-0.125000
G01 X2194.162446 Y204.372289 Z-0.125000
G01 X2189.816647 Y199.135941 Z-0.125000
G01 X2185.470905 Y193.899593 Z-0.125000
G01 X2187.499095 Y188.614155 Z-0.125000
G01 X2189.527313 Y183.328680 Z-0.125000
G01 X2199.833448 Y181.779345 Z-0.125000
G01 X2210.139583 Y180.230010 Z-0.125000
G01 X2198.827185 Y179.680300 Z-0.125000
G01 X2187.514758 Y179.130590 Z-0.125000
G01 X2185.068851 Y181.576529 Z-0.125000
G01 X2185.068851 Y181.576529 Z-0.125000
G00 Z5.000000

(Change tool to Default tool)

G00 Z5.000000
G00 X2214.419962 Y181.576529

G01 Z-0.125000 F100.0(Penetrate)
G02 X2212.785460 Y184.358538 Z-0.125000 I4.536156 J4.536270 F400.000000
G02 X2211.974027 Y190.180110 Z-0.125000 I20.477529 J5.821572
G01 X2211.974027 Y196.337753 Z-0.125000
G01 X2219.311805 Y202.978368 Z-0.125000
G01 X2226.649583 Y209.618984 Z-0.125000
G01 X2233.987361 Y202.978368 Z-0.125000
G01 X2241.325138 Y196.337753 Z-0.125000
G01 X2241.447312 Y203.326949 Z-0.125000
G01 X2241.569486 Y210.316146 Z-0.125000
G01 X2248.576500 Y201.912409 Z-0.125000
G01 X2255.583541 Y193.508672 Z-0.125000
G01 X2259.645171 Y201.097953 Z-0.125000
G01 X2263.706857 Y208.687233 Z-0.125000
G01 X2267.191652 Y206.533485 Z-0.125000
G01 X2270.676475 Y204.379774 Z-0.125000
G01 X2270.242389 Y190.837942 Z-0.125000
G01 X2269.808303 Y177.296146 Z-0.125000
G01 X2267.373121 Y188.302813 Z-0.125000
G01 X2264.937910 Y199.309479 Z-0.125000
G01 X2260.681321 Y191.971702 Z-0.125000
G01 X2256.424705 Y184.633924 Z-0.125000
G01 X2250.468772 Y191.971702 Z-0.125000
G01 X2244.512810 Y199.309479 Z-0.125000
G01 X2246.079200 Y189.220035 Z-0.125000
G01 X2247.645618 Y179.130590 Z-0.125000
G01 X2244.485491 Y179.130590 Z-0.125000
G01 X2241.325364 Y179.130590 Z-0.125000
G01 X2241.213830 Y185.551146 Z-0.125000
G01 X2241.102296 Y191.971702 Z-0.125000
G01 X2237.362654 Y185.551146 Z-0.125000
G01 X2233.623040 Y179.130590 Z-0.125000
G01 X2225.244624 Y179.130590 Z-0.125000
G02 X2217.236259 Y180.024129 Z-0.125000 I0.000000 J36.334368
G02 X2214.420273 Y181.576529 Z-0.125000 I1.275211 J5.643416
G01 X2214.419962 Y181.576529 Z-0.125000
G00 Z5.000000

(Change tool to Default tool)

G00 Z5.000000
G00 X2233.264110 Y192.459444

G01 Z-0.125000 F100.0(Penetrate)
G01 X2234.375303 Y200.209971 Z-0.125000 F400.000000
G01 X2228.946279 Y202.293313 Z-0.125000
G01 X2223.517198 Y204.376655 Z-0.125000
G01 X2219.169593 Y199.138106 Z-0.125000
G01 X2214.822016 Y193.899593 Z-0.125000
G01 X2217.055805 Y188.078387 Z-0.125000
G01 X2219.289622 Y182.257181 Z-0.125000
G01 X2225.721269 Y183.483030 Z-0.125000
G01 X2232.152916 Y184.708879 Z-0.125000
G01 X2233.264110 Y192.459444 Z-0.125000
G01 X2233.264110 Y192.459444 Z-0.125000
G00 Z5.000000

(Change tool to Default tool)

G00 Z5.000000
G00 X2276.657611 Y187.385590

G01 Z-0.125000 F100.0(Penetrate)
G02 X2274.907363 Y195.703266 Z-0.125000 I75.435988 J20.216610 F400.000000
G02 X2274.395205 Y202.061146 Z-0.125000 I43.470134 J6.701302
G01 X2274.345139 Y208.481702 Z-0.125000
G01 X2288.103472 Y207.894533 Z-0.125000
G01 X2301.861805 Y207.307400 Z-0.125000
G01 X2289.937916 Y205.827627 Z-0.125000
G01 X2278.014027 Y204.347891 Z-0.125000
G01 X2278.014027 Y198.679274 Z-0.125000
G01 X2278.014027 Y193.010658 Z-0.125000
G01 X2287.186250 Y195.312739 Z-0.125000
G01 X2296.358472 Y197.614820 Z-0.125000
G01 X2296.358472 Y193.876038 Z-0.125000
G01 X2296.358472 Y190.137257 Z-0.125000
G01 X2289.020694 Y190.137257 Z-0.125000
G01 X2281.682916 Y190.137257 Z-0.125000
G01 X2281.682916 Y186.977133 Z-0.125000
G01 X2281.682916 Y183.817009 Z-0.125000
G01 X2291.772361 Y185.429926 Z-0.125000
G01 X2301.861805 Y187.042843 Z-0.125000
G01 X2296.358472 Y183.142887 Z-0.125000
G02 X2290.556268 Y180.166505 Z-0.125000 I-13.270985 J18.727015
G02 X2284.862488 Y179.186761 Z-0.125000 I-5.862639 J17.036137
G01 X2278.869838 Y179.130627 Z-0.125000
G01 X2276.657611 Y187.385627 Z-0.125000
G01 X2276.657611 Y187.385590 Z-0.125000
G00 Z5.000000

(Change tool to Default tool)

G00 Z5.000000
G00 X2355.745450 Y190.684472

G01 Z-0.125000 F100.0(Penetrate)
G01 X2356.895139 Y202.238353 Z-0.125000 F400.000000
G01 X2363.545536 Y206.277250 Z-0.125000
G01 X2370.195962 Y210.316146 Z-0.125000
G01 X2377.023313 Y202.001160 Z-0.125000
G01 X2383.850663 Y193.686210 Z-0.125000
G01 X2385.540102 Y200.166715 Z-0.125000
G01 X2387.229513 Y206.647257 Z-0.125000
G01 X2387.655104 Y194.454365 Z-0.125000
G01 X2388.080695 Y182.261437 Z-0.125000
G01 X2394.501250 Y183.477747 Z-0.125000
G01 X2400.921806 Y184.694020 Z-0.125000
G01 X2402.042454 Y196.199032 Z-0.125000
G01 X2403.163158 Y207.704081 Z-0.125000
G01 X2411.214676 Y209.209683 Z-0.125000
G01 X2419.266251 Y210.715285 Z-0.125000
G01 X2428.438473 Y208.129782 Z-0.125000
G01 X2437.610695 Y205.544242 Z-0.125000
G01 X2428.954262 Y205.178454 Z-0.125000
G01 X2420.297886 Y204.812666 Z-0.125000
G01 X2421.796994 Y191.971555 Z-0.125000
G01 X2423.296158 Y179.130444 Z-0.125000
G01 X2420.596420 Y179.130444 Z-0.125000
G01 X2417.896711 Y179.130444 Z-0.125000
G01 X2416.747022 Y191.054333 Z-0.125000
G01 X2415.597362 Y202.978222 Z-0.125000
G01 X2411.964484 Y202.978222 Z-0.125000
G01 X2408.331635 Y202.978222 Z-0.125000
G01 X2406.432900 Y192.016352 Z-0.125000
G01 X2404.534138 Y181.054482 Z-0.125000
G01 X2397.467124 Y179.693508 Z-0.125000
G01 X2390.400110 Y178.332534 Z-0.125000
G01 X2386.054537 Y184.275510 Z-0.125000
G01 X2381.708935 Y190.218486 Z-0.125000
G01 X2377.107782 Y184.674465 Z-0.125000
G01 X2372.506656 Y179.130444 Z-0.125000
G01 X2363.551237 Y179.130444 Z-0.125000
G01 X2354.595762 Y179.130444 Z-0.125000
G01 X2355.745450 Y190.684325 Z-0.125000
G01 X2355.745450 Y190.684472 Z-0.125000
G00 Z5.000000

(Change tool to Default tool)

G00 Z5.000000
G00 X2374.981858 Y188.954187

G01 Z-0.125000 F100.0(Penetrate)
G01 X2377.343635 Y195.108895 Z-0.125000 F400.000000
G01 X2372.057584 Y200.394994 Z-0.125000
G01 X2366.771478 Y205.681055 Z-0.125000
G01 X2362.750516 Y203.195970 Z-0.125000
G01 X2358.729584 Y200.710885 Z-0.125000
G01 X2358.729584 Y191.755164 Z-0.125000
G01 X2358.729584 Y182.799479 Z-0.125000
G01 X2365.674818 Y182.799479 Z-0.125000
G01 X2372.620053 Y182.799479 Z-0.125000
G01 X2374.981858 Y188.954187 Z-0.125000
G01 X2374.981858 Y188.954187 Z-0.125000
G00 Z5.000000

(Change tool to Default tool)

G00 Z5.000000
G00 X724.055678 Y230.495035

G01 Z-0.125000 F100.0(Penetrate)
G03 X726.203277 Y239.678126 Z-0.125000 I-888.074679 J212.531797 F400.000000
G03 X728.455494 Y249.756702 Z-0.125000 I-1066.978313 J243.724139
G01 X730.660214 Y259.846146 Z-0.125000
G01 X733.870492 Y259.846146 Z-0.125000
G01 X737.080770 Y259.846146 Z-0.125000
G01 X737.080770 Y254.604882 Z-0.125000
G03 X738.149329 Y249.797740 Z-0.125000 I11.347255 J-0.000000
G03 X741.799413 Y244.515437 Z-0.125000 I17.473677 J8.172092
G01 X746.518027 Y239.667257 Z-0.125000
G01 X747.100816 Y230.495035 Z-0.125000
G01 X747.683605 Y221.322813 Z-0.125000
G01 X744.034330 Y227.743368 Z-0.125000
G03 X739.685915 Y232.962374 Z-0.125000 I-16.694909 J-9.488979
G03 X736.385713 Y234.163924 Z-0.125000 I-3.300202 J-3.931425
G03 X732.902000 Y233.074543 Z-0.125000 I0.000000 J-6.114945
G03 X727.123490 Y227.743368 Z-0.125000 I16.162842 J-23.316333
G01 X721.860610 Y221.322813 Z-0.125000
G01 X724.055678 Y230.495035 Z-0.125000
G01 X724.055678 Y230.495035 Z-0.125000
G00 Z5.000000

(Change tool to Default tool)

G00 Z5.000000
G00 X735.918155 Y245.858507

G01 Z-0.125000 F100.0(Penetrate)
G01 X733.991198 Y250.673924 Z-0.125000 F400.000000
G01 X733.701526 Y243.641875 Z-0.125000
G01 X733.411881 Y236.609862 Z-0.125000
G01 X735.628483 Y238.826458 Z-0.125000
G01 X737.845112 Y241.043091 Z-0.125000
G01 X735.918155 Y245.858507 Z-0.125000
G01 X735.918155 Y245.858507 Z-0.125000
G00 Z5.000000

(Change tool to Default tool)

G00 Z5.000000
G00 X758.176881 Y227.120024

G01 Z-0.125000 F100.0(Penetrate)
G01 X751.756325 Y230.859649 Z-0.125000 F400.000000
G01 X751.756325 Y239.280923 Z-0.125000
G01 X751.756325 Y247.702197 Z-0.125000
G01 X758.957451 Y254.219135 Z-0.125000
G01 X766.158605 Y260.736072 Z-0.125000
G01 X772.715785 Y257.811160 Z-0.125000
G01 X779.272992 Y254.886249 Z-0.125000
G01 X771.284438 Y253.477029 Z-0.125000
G01 X763.295884 Y252.067845 Z-0.125000
G01 X758.950085 Y246.831497 Z-0.125000
G01 X754.604315 Y241.595148 Z-0.125000
G01 X756.734076 Y236.045073 Z-0.125000
G01 X758.863810 Y230.495035 Z-0.125000
G01 X768.151179 Y230.495035 Z-0.125000
G01 X777.438548 Y230.495035 Z-0.125000
G01 X777.438548 Y226.826146 Z-0.125000
G01 X777.438548 Y223.157257 Z-0.125000
G01 X771.017992 Y223.268792 Z-0.125000
G02 X764.835040 Y224.230888 Z-0.125000 I0.397369 J22.902260
G02 X758.176881 Y227.119988 Z-0.125000 I8.854327 J29.522175
G01 X758.176881 Y227.120024 Z-0.125000
G00 Z5.000000

(Change tool to Default tool)

G00 Z5.000000
G00 X783.696572 Y233.705313

G01 Z-0.125000 F100.0(Penetrate)
G02 X781.514284 Y246.129894 Z-0.125000 I191.417046 J40.024952 F400.000000
G02 X781.107437 Y251.866313 Z-0.125000 I40.237388 J5.736419
G01 X781.107437 Y257.644813 Z-0.125000
G01 X784.420218 Y254.159369 Z-0.125000
G02 X787.013648 Y250.295651 Z-0.125000 I-10.035508 J-9.538350
G02 X789.283499 Y243.336146 Z-0.125000 I-31.253229 J-14.043189
G01 X790.834028 Y235.998368 Z-0.125000
G01 X796.678117 Y248.839480 Z-0.125000
G01 X802.522205 Y261.680591 Z-0.125000
G01 X802.709939 Y241.501702 Z-0.125000
G01 X802.897674 Y221.322813 Z-0.125000
G01 X799.158060 Y227.743368 Z-0.125000
G03 X794.828031 Y233.136907 Z-0.125000 I-20.125591 J-11.722302
G03 X792.200830 Y234.163924 Z-0.125000 I-2.627201 J-2.846796
G01 X788.983243 Y234.163924 Z-0.125000
G01 X787.634475 Y227.743368 Z-0.125000
G01 X786.285678 Y221.322813 Z-0.125000
G01 X783.696572 Y233.705313 Z-0.125000
G01 X783.696572 Y233.705313 Z-0.125000
G00 Z5.000000

(Change tool to Default tool)

G00 Z5.000000
G00 X847.147437 Y228.660591

G01 Z-0.125000 F100.0(Penetrate)
G01 X847.147437 Y234.163924 Z-0.125000 F400.000000
G01 X843.478548 Y234.163924 Z-0.125000
G03 X840.884252 Y233.089331 Z-0.125000 I0.000000 J-3.668889
G03 X839.809659 Y230.495035 Z-0.125000 I2.594296 J-2.594296
G02 X838.772794 Y227.863000 Z-0.125000 I-3.859084 J0.000000
G02 X836.388025 Y226.826146 Z-0.125000 I-2.384769 J2.224064
G01 X832.966391 Y226.826146 Z-0.125000
G01 X831.175776 Y233.246702 Z-0.125000
G03 X829.370907 Y239.663209 Z-0.125000 I-1440.087888 J-401.613318
G03 X827.012434 Y247.922257 Z-0.125000 I-2388.260076 J-677.531019
G01 X824.639622 Y256.177257 Z-0.125000
G01 X828.555766 Y256.177257 Z-0.125000
G01 X832.471882 Y256.177257 Z-0.125000
G01 X832.471882 Y247.005035 Z-0.125000
G01 X832.471882 Y237.832813 Z-0.125000
G01 X835.835039 Y237.832813 Z-0.125000
G03 X838.517680 Y238.843280 Z-0.125000 I-0.000000 J4.066242
G03 X841.059057 Y242.418924 Z-0.125000 I-6.282218 J7.156024
G01 X842.919918 Y247.005035 Z-0.125000
G01 X846.758309 Y241.501702 Z-0.125000
G01 X850.596757 Y235.998368 Z-0.125000
G01 X852.999569 Y247.922257 Z-0.125000
G01 X855.402437 Y259.846146 Z-0.125000
G01 X858.682621 Y259.846146 Z-0.125000
G01 X861.962777 Y259.846146 Z-0.125000
G01 X859.521245 Y249.756702 Z-0.125000
G02 X854.382236 Y232.414203 Z-0.125000 I-173.609777 J42.012186
G02 X851.279714 Y225.730639 Z-0.125000 I-36.303296 J12.790175
G02 X849.240100 Y223.258264 Z-0.125000 I-8.713684 J5.110966
G02 X848.310359 Y223.161955 Z-0.125000 I-0.532538 J0.605090
G02 X847.663893 Y224.032245 Z-0.125000 I0.660046 J1.165542
G02 X847.147437 Y228.660591 Z-0.125000 I20.480790 J4.628346
G01 X847.147437 Y228.660591 Z-0.125000
G00 Z5.000000

(Change tool to Default tool)

G00 Z5.000000
G00 X867.377408 Y229.133657

G01 Z-0.125000 F100.0(Penetrate)
G01 X861.400986 Y235.110057 Z-0.125000 F400.000000
G01 X863.446448 Y240.440402 Z-0.125000
G03 X865.288805 Y245.808370 Z-0.125000 I-74.029620 J28.408079
G03 X865.491882 Y247.176005 Z-0.125000 I-4.503676 J1.367635
G02 X866.038098 Y248.254128 Z-0.125000 I1.337107 J0.000000
G02 X872.574869 Y252.371996 Z-0.125000 I32.318910 J-44.056340
G01 X879.657857 Y256.162692 Z-0.125000
G01 X885.415980 Y250.404591 Z-0.125000
G02 X889.736927 Y244.474177 Z-0.125000 I-16.726312 J-16.726267
G02 X890.897399 Y239.665483 Z-0.125000 I-9.367889 J-4.805108
G02 X889.734201 Y234.856884 Z-0.125000 I-10.535674 J0.003589
G02 X885.408643 Y228.922659 Z-0.125000 I-21.086050 J10.826384
G02 X879.867379 Y224.473765 Z-0.125000 I-23.114190 J23.114217
G02 X876.457658 Y223.500895 Z-0.125000 I-3.337097 J5.234232
G02 X873.047473 Y224.535403 Z-0.125000 I0.074696 J6.384201
G02 X867.377324 Y229.133621 Z-0.125000 I19.189317 J29.457806
G01 X867.377408 Y229.133657 Z-0.125000
G00 Z5.000000

(Change tool to Default tool)

G00 Z5.000000
G00 X885.398511 Y236.611880

G01 Z-0.125000 F100.0(Penetrate)
G01 X887.745781 Y242.728688 Z-0.125000 F400.000000
G01 X884.203215 Y246.271257 Z-0.125000
G01 X880.660649 Y249.813826 Z-0.125000
G01 X874.910738 Y247.607357 Z-0.125000
G01 X869.160771 Y245.400887 Z-0.125000
G01 X869.160771 Y237.947943 Z-0.125000
G01 X869.160771 Y230.495035 Z-0.125000
G01 X876.106006 Y230.495035 Z-0.125000
G01 X883.051269 Y230.495035 Z-0.125000
G01 X885.398511 Y236.611880 Z-0.125000
G01 X885.398511 Y236.611880 Z-0.125000
G00 Z5.000000

(Change tool to Default tool)

G00 Z5.000000
G00 X927.116092 Y235.565036

G01 Z-0.125000 F100.0(Penetrate)
G01 X928.564598 Y247.972815 Z-0.125000 F400.000000
G01 X924.544935 Y250.457129 Z-0.125000
G02 X921.429445 Y253.445578 Z-0.125000 I5.417906 J8.766416
G02 X920.525215 Y256.393795 Z-0.125000 I4.354179 J2.948217
G01 X920.525215 Y259.846146 Z-0.125000
G01 X930.798104 Y259.846146 Z-0.125000
G01 X941.070993 Y259.846146 Z-0.125000
G01 X945.473660 Y255.443480 Z-0.125000
G02 X948.756707 Y250.577053 Z-0.125000 I-10.881948 J-10.881948
G02 X949.876327 Y245.076337 Z-0.125000 I-12.952762 J-5.500716
G01 X949.876327 Y239.111898 Z-0.125000
G01 X941.384853 Y231.134559 Z-0.125000
G02 X932.509856 Y224.125712 Z-0.125000 I-45.209315 J48.123143
G02 X929.280454 Y223.157257 Z-0.125000 I-3.229402 J4.900143
G01 X925.667530 Y223.157257 Z-0.125000
G01 X927.116092 Y235.565036 Z-0.125000
G01 X927.116092 Y235.565036 Z-0.125000
G00 Z5.000000

(Change tool to Default tool)

G00 Z5.000000
G00 X946.207438 Y247.181142

G01 Z-0.125000 F100.0(Penetrate)
G01 X946.207438 Y251.723300 Z-0.125000 F400.000000
G01 X940.404017 Y253.950279 Z-0.125000
G03 X934.565941 Y255.691873 Z-0.125000 I-14.280100 J-37.213116
G03 X932.683740 Y255.018971 Z-0.125000 I-0.400571 J-1.848386
G03 X931.827824 Y252.778375 Z-0.125000 I3.120754 J-2.475919
G03 X931.531882 Y242.767505 Z-0.125000 I169.171439 J-10.010869
G01 X931.531882 Y229.357753 Z-0.125000
G01 X938.869660 Y235.998368 Z-0.125000
G03 X945.009142 Y243.170693 Z-0.125000 I-24.956482 J27.576500
G03 X946.207438 Y247.181142 Z-0.125000 I-6.111924 J4.010449
G01 X946.207438 Y247.181142 Z-0.125000
G00 Z5.000000

(Change tool to Default tool)

G00 Z5.000000
G00 X975.004321 Y241.526467

G01 Z-0.125000 F100.0(Penetrate)
G01 X973.724105 Y260.159726 Z-0.125000 F400.000000
G01 X982.896327 Y259.085696 Z-0.125000
G01 X992.068549 Y258.011702 Z-0.125000
G01 X992.068549 Y252.508369 Z-0.125000
G01 X992.068549 Y247.005035 Z-0.125000
G01 X997.571882 Y242.643167 Z-0.125000
G01 X1003.075216 Y238.281298 Z-0.125000
G01 X997.571882 Y232.947467 Z-0.125000
G02 X991.585229 Y228.438169 Z-0.125000 I-21.053781 J21.722844
G02 X984.176543 Y225.253440 Z-0.125000 I-17.443822 J30.370011
G01 X976.284537 Y222.893207 Z-0.125000
G01 X975.004321 Y241.526467 Z-0.125000
G01 X975.004321 Y241.526467 Z-0.125000
G00 Z5.000000

(Change tool to Default tool)

G00 Z5.000000
G00 X991.747408 Y232.713906

G01 Z-0.125000 F100.0(Penetrate)
G01 X997.529718 Y234.932813 Z-0.125000 F400.000000
G01 X995.499835 Y238.217239 Z-0.125000
G01 X993.469952 Y241.501702 Z-0.125000
G01 X986.348667 Y241.501702 Z-0.125000
G01 X979.227438 Y241.501702 Z-0.125000
G01 X979.227438 Y235.998368 Z-0.125000
G01 X979.227438 Y230.495035 Z-0.125000
G01 X982.596240 Y230.495035 Z-0.125000
G03 X985.892102 Y230.888902 Z-0.125000 I0.000000 J13.986754
G03 X991.747408 Y232.713906 Z-0.125000 I-11.252441 J46.407639
G01 X991.747408 Y232.713906 Z-0.125000
G00 Z5.000000

(Change tool to Default tool)

G00 Z5.000000
G00 X990.234105 Y252.900903

G01 Z-0.125000 F100.0(Penetrate)
G01 X990.234105 Y256.177257 Z-0.125000 F400.000000
G01 X984.730771 Y256.177257 Z-0.125000
G01 X979.227438 Y256.177257 Z-0.125000
G01 X979.227438 Y250.789054 Z-0.125000
G01 X979.227438 Y245.400887 Z-0.125000
G01 X984.730771 Y247.512699 Z-0.125000
G03 X989.165465 Y250.359077 Z-0.125000 I-4.654963 J12.130340
G03 X990.234105 Y252.900903 Z-0.125000 I-2.488628 J2.541826
G01 X990.234105 Y252.900903 Z-0.125000
G00 Z5.000000

(Change tool to Default tool)

G00 Z5.000000
G00 X1035.677273 Y231.412257

G01 Z-0.125000 F100.0(Penetrate)
G02 X1033.493538 Y239.768435 Z-0.125000 I62.497964 J20.796137 F400.000000
G02 X1032.678380 Y247.005035 Z-0.125000 I45.985428 J8.844184
G01 X1032.426327 Y254.342813 Z-0.125000
G01 X1036.095216 Y257.038309 Z-0.125000
G02 X1040.066125 Y258.771417 Z-0.125000 I5.822705 J-7.925381
G02 X1048.936327 Y259.500317 Z-0.125000 I7.814201 J-40.756846
G01 X1058.108549 Y259.266976 Z-0.125000
G01 X1048.019105 Y255.581980 Z-0.125000
G01 X1037.929660 Y251.896985 Z-0.125000
G01 X1037.929660 Y248.533861 Z-0.125000
G01 X1037.929660 Y245.170701 Z-0.125000
G01 X1048.019105 Y244.881225 Z-0.125000
G01 X1058.108549 Y244.591750 Z-0.125000
G01 X1047.883271 Y240.861481 Z-0.125000
G01 X1037.657993 Y237.131211 Z-0.125000
G01 X1039.875526 Y230.144473 Z-0.125000
G02 X1041.009322 Y223.950726 Z-0.125000 I-23.827964 J-7.562472
G02 X1040.258586 Y223.157698 Z-0.125000 I-0.750735 J-0.041165
G02 X1038.970850 Y223.915793 Z-0.125000 I0.000000 J1.472752
G02 X1035.677273 Y231.412698 Z-0.125000 I38.668895 J21.460138
G01 X1035.677273 Y231.412257 Z-0.125000
G00 Z5.000000

(Change tool to Default tool)

G00 Z5.000000
G00 X1064.345661 Y227.559924

G01 Z-0.125000 F100.0(Penetrate)
G02 X1060.736618 Y237.238845 Z-0.125000 I8.789854 J8.789854 F400.000000
G02 X1065.908128 Y249.349749 Z-0.125000 I20.150448 J-1.444895
G01 X1071.873233 Y255.941128 Z-0.125000
G01 X1078.317580 Y252.492225 Z-0.125000
G02 X1083.864319 Y248.251438 Z-0.125000 I-10.253566 J-19.158979
G02 X1086.944803 Y243.354858 Z-0.125000 I-10.846342 J-10.240804
G01 X1089.127679 Y237.666392 Z-0.125000
G01 X1081.873100 Y230.411825 Z-0.125000
G02 X1075.524090 Y224.948056 Z-0.125000 I-39.628917 J39.628878
G02 X1072.226455 Y223.559478 Z-0.125000 I-4.520099 J6.124513
G02 X1068.938017 Y224.121650 Z-0.125000 I-0.825233 J5.071764
G02 X1064.345661 Y227.559924 Z-0.125000 I9.666342 J17.696967
G01 X1064.345661 Y227.559924 Z-0.125000
G00 Z5.000000

(Change tool to Default tool)

G00 Z5.000000
G00 X1081.956327 Y239.667257

G01 Z-0.125000 F100.0(Penetrate)
G01 X1081.956327 Y248.839480 Z-0.125000 F400.000000
G01 X1075.011064 Y248.839480 Z-0.125000
G01 X1068.065829 Y248.839480 Z-0.125000
G01 X1065.826932 Y243.005066 Z-0.125000
G01 X1063.588063 Y237.170652 Z-0.125000
G01 X1065.650938 Y233.832843 Z-0.125000
G01 X1067.713814 Y230.495035 Z-0.125000
G01 X1074.835070 Y230.495035 Z-0.125000
G01 X1081.956327 Y230.495035 Z-0.125000
G01 X1081.956327 Y239.667257 Z-0.125000
G01 X1081.956327 Y239.667257 Z-0.125000
G00 Z5.000000

(Change tool to Default tool)

G00 Z5.000000
G00 X1093.388585 Y229.119202

G01 Z-0.125000 F100.0(Penetrate)
G03 X1092.631101 Y236.873563 Z-0.125000 I-90.823053 J-4.957870 F400.000000
G03 X1090.669939 Y248.380869 Z-0.125000 I-202.188794 J-28.537773
G01 X1088.376883 Y259.846146 Z-0.125000
G01 X1099.957279 Y259.846146 Z-0.125000
G01 X1111.537732 Y259.846146 Z-0.125000
G01 X1113.853111 Y253.812255 Z-0.125000
G01 X1116.168547 Y247.778364 Z-0.125000
G01 X1110.227036 Y243.433849 Z-0.125000
G01 X1104.285552 Y239.089297 Z-0.125000
G01 X1110.548148 Y232.529141 Z-0.125000
G01 X1116.810772 Y225.968984 Z-0.125000
G01 X1108.796959 Y230.066472 Z-0.125000
G03 X1101.324859 Y233.498540 Z-0.125000 I-44.502730 J-87.038834
G03 X1098.940863 Y233.756590 Z-0.125000 I-1.639544 J-4.005632
G03 X1097.268736 Y232.505081 Z-0.125000 I0.396888 J-2.273086
G03 X1095.492044 Y227.743368 Z-0.125000 I22.484624 J-11.101788
G01 X1093.814176 Y221.322813 Z-0.125000
G01 X1093.388585 Y229.119202 Z-0.125000
G01 X1093.388585 Y229.119202 Z-0.125000
G00 Z5.000000

(Change tool to Default tool)

G00 Z5.000000
G00 X1108.352092 Y253.262362

G01 Z-0.125000 F100.0(Penetrate)
G01 X1104.608979 Y257.005472 Z-0.125000 F400.000000
G01 X1100.620417 Y254.540383 Z-0.125000
G03 X1097.772559 Y251.439341 Z-0.125000 I4.085213 J-6.609871
G03 X1096.631883 Y246.659426 Z-0.125000 I9.444600 J-4.779915
G01 X1096.631883 Y241.243522 Z-0.125000
G01 X1104.363530 Y245.381405 Z-0.125000
G01 X1112.095206 Y249.519251 Z-0.125000
G01 X1108.352092 Y253.262362 Z-0.125000
G01 X1108.352092 Y253.262362 Z-0.125000
G00 Z5.000000

(Change tool to Default tool)

G00 Z5.000000
G00 X1852.422942 Y235.451044

G01 Z-0.125000 F100.0(Penetrate)
G03 X1851.642831 Y248.094783 Z-0.125000 I-102.852436 J-0.000000 F400.000000
G03 X1850.083771 Y254.335145 Z-0.125000 I-26.316449 J-3.259829
G01 X1847.744601 Y260.430931 Z-0.125000
G01 X1858.338771 Y259.221335 Z-0.125000
G01 X1868.932942 Y258.011702 Z-0.125000
G01 X1868.932942 Y252.508369 Z-0.125000
G03 X1869.963239 Y247.533049 Z-0.125000 I12.528094 J0.000000
G03 X1872.390644 Y244.517712 Z-0.125000 I6.673978 J2.887960
G01 X1875.848346 Y242.030389 Z-0.125000
G01 X1880.757940 Y248.186601 Z-0.125000
G01 X1885.667535 Y254.342813 Z-0.125000
G01 X1884.638016 Y243.336146 Z-0.125000
G01 X1883.608498 Y232.329480 Z-0.125000
G01 X1890.946276 Y232.329480 Z-0.125000
G01 X1898.284053 Y232.329480 Z-0.125000
G01 X1897.769534 Y244.010048 Z-0.125000
G01 X1897.255043 Y255.690653 Z-0.125000
G01 X1933.775050 Y255.438233 Z-0.125000
G01 X1970.295001 Y255.185814 Z-0.125000
G01 X1975.564513 Y249.916299 Z-0.125000
G02 X1979.668589 Y239.667565 Z-0.125000 I-9.917509 J-9.917537
G02 X1975.068649 Y228.922990 Z-0.125000 I-15.715679 J0.371212
G02 X1970.175728 Y224.726943 Z-0.125000 I-29.809773 J29.809761
G02 X1967.343966 Y223.553112 Z-0.125000 I-3.820594 J5.214238
G02 X1964.352189 Y223.887652 Z-0.125000 I-0.879360 J5.680854
G02 X1959.261862 Y226.476208 Z-0.125000 I11.160527 J28.246163
G01 X1954.199670 Y229.682450 Z-0.125000
G01 X1955.900482 Y241.270855 Z-0.125000
G01 X1957.601323 Y252.859261 Z-0.125000
G01 X1949.956008 Y251.766739 Z-0.125000
G01 X1942.310720 Y250.673924 Z-0.125000
G01 X1943.328752 Y235.998368 Z-0.125000
G01 X1944.346756 Y221.322813 Z-0.125000
G01 X1940.633248 Y226.826146 Z-0.125000
G02 X1937.958260 Y232.650953 Z-0.125000 I16.362727 J11.041064
G02 X1936.863549 Y240.584480 Z-0.125000 I29.720400 J8.143270
G01 X1936.807387 Y248.839480 Z-0.125000
G01 X1933.438557 Y248.839480 Z-0.125000
G02 X1930.142818 Y249.233841 Z-0.125000 I-0.000000 J13.968686
G02 X1924.266335 Y251.066459 Z-0.125000 I11.333834 J46.681237
G01 X1918.462942 Y253.293437 Z-0.125000
G01 X1918.088377 Y239.142570 Z-0.125000
G01 X1917.713812 Y224.991702 Z-0.125000
G01 X1913.888741 Y236.915591 Z-0.125000
G01 X1910.063670 Y248.839480 Z-0.125000
G01 X1907.169228 Y248.839480 Z-0.125000
G01 X1904.274756 Y248.839480 Z-0.125000
G01 X1903.113835 Y239.120079 Z-0.125000
G01 X1901.952942 Y229.400679 Z-0.125000
G01 X1895.747158 Y225.515986 Z-0.125000
G01 X1889.541345 Y221.631293 Z-0.125000
G01 X1882.672480 Y227.847491 Z-0.125000
G01 X1875.803614 Y234.063727 Z-0.125000
G01 X1872.368292 Y230.857301 Z-0.125000
G02 X1868.584782 Y228.255949 Z-0.125000 I-10.578547 J11.333740
G02 X1860.677942 Y225.156838 Z-0.125000 I-23.246450 J47.673243
G01 X1852.422942 Y222.662764 Z-0.125000
G01 X1852.422942 Y235.451044 Z-0.125000
G01 X1852.422942 Y235.451044 Z-0.125000
G00 Z5.000000

(Change tool to Default tool)

G00 Z5.000000
G00 X1869.851886 Y236.915591

G01 Z-0.125000 F100.0(Penetrate)
G01 X1871.378878 Y241.501702 Z-0.125000 F400.000000
G01 X1863.735340 Y241.501702 Z-0.125000
G01 X1856.091831 Y241.501702 Z-0.125000
G01 X1856.091831 Y235.729366 Z-0.125000
G01 X1856.091831 Y229.956993 Z-0.125000
G01 X1862.208349 Y231.143254 Z-0.125000
G01 X1868.324894 Y232.329480 Z-0.125000
G01 X1869.851886 Y236.915591 Z-0.125000
G01 X1869.851886 Y236.915591 Z-0.125000
G00 Z5.000000

(Change tool to Default tool)

G00 Z5.000000
G00 X1975.330721 Y239.667257

G01 Z-0.125000 F100.0(Penetrate)
G01 X1975.330721 Y247.005035 Z-0.125000 F400.000000
G01 X1967.992943 Y247.005035 Z-0.125000
G01 X1960.655165 Y247.005035 Z-0.125000
G01 X1959.444262 Y238.456377 Z-0.125000
G01 X1958.233388 Y229.907719 Z-0.125000
G01 X1966.782040 Y231.118599 Z-0.125000
G01 X1975.330721 Y232.329480 Z-0.125000
G01 X1975.330721 Y239.667257 Z-0.125000
G01 X1975.330721 Y239.667257 Z-0.125000
G00 Z5.000000

(Change tool to Default tool)

G00 Z5.000000
G00 X1863.429609 Y250.673924

G01 Z-0.125000 F100.0(Penetrate)
G01 X1867.996980 Y256.177257 Z-0.125000 F400.000000
G01 X1862.044377 Y256.177257 Z-0.125000
G01 X1856.091831 Y256.177257 Z-0.125000
G01 X1856.091831 Y250.673924 Z-0.125000
G03 X1856.698610 Y245.777384 Z-0.125000 I20.060267 J-0.000000
G03 X1857.477062 Y245.170591 Z-0.125000 I0.778453 J0.195940
G03 X1858.647131 Y245.628598 Z-0.125000 I0.000000 J1.723587
G03 X1863.429609 Y250.673924 Z-0.125000 I-35.814446 J38.737934
G01 X1863.429609 Y250.673924 Z-0.125000
G00 Z5.000000

(Change tool to Default tool)

G00 Z5.000000
G00 X1984.369395 Y238.750035

G01 Z-0.125000 F100.0(Penetrate)
G01 X1982.615610 Y256.177257 Z-0.125000 F400.000000
G01 X1984.476470 Y256.113786 Z-0.125000
G02 X1985.978363 Y255.387544 Z-0.125000 I-0.074184 J-2.069519
G02 X1994.592387 Y244.241555 Z-0.125000 I-112.032698 J-95.484540
G01 X2002.847359 Y232.432722 Z-0.125000
G01 X2003.213147 Y247.056620 Z-0.125000
G01 X2003.578936 Y261.680517 Z-0.125000
G01 X2006.028737 Y252.938546 Z-0.125000
G01 X2008.478539 Y244.196574 Z-0.125000
G01 X2013.450053 Y250.186879 Z-0.125000
G01 X2018.421539 Y256.177184 Z-0.125000
G01 X2024.291987 Y256.177184 Z-0.125000
G01 X2030.162435 Y256.177184 Z-0.125000
G01 X2021.091107 Y249.756629 Z-0.125000
G01 X2012.019751 Y243.336073 Z-0.125000
G01 X2024.860862 Y241.501628 Z-0.125000
G01 X2037.701973 Y239.667184 Z-0.125000
G01 X2037.701973 Y234.563723 Z-0.125000
G01 X2037.701973 Y229.460225 Z-0.125000
G01 X2031.780076 Y225.724819 Z-0.125000
G01 X2025.858235 Y221.989413 Z-0.125000
G01 X2018.938965 Y225.106171 Z-0.125000
G01 X2012.019751 Y228.222966 Z-0.125000
G01 X2022.109195 Y229.602651 Z-0.125000
G01 X2032.198640 Y230.982337 Z-0.125000
G01 X2032.198640 Y234.064057 Z-0.125000
G01 X2032.198640 Y237.145777 Z-0.125000
G01 X2024.841304 Y235.221811 Z-0.125000
G01 X2017.483996 Y233.297809 Z-0.125000
G01 X2012.000193 Y237.848956 Z-0.125000
G01 X2006.516417 Y242.400103 Z-0.125000
G01 X2006.400481 Y233.695847 Z-0.125000
G01 X2006.284544 Y224.991628 Z-0.125000
G01 X1997.456209 Y235.020646 Z-0.125000
G01 X1988.627875 Y245.049701 Z-0.125000
G01 X1987.375598 Y233.186202 Z-0.125000
G01 X1986.123322 Y221.322739 Z-0.125000
G01 X1984.369536 Y238.749962 Z-0.125000
G01 X1984.369395 Y238.750035 Z-0.125000
G00 Z5.000000

(Change tool to Default tool)

G00 Z5.000000
G00 X2061.940290 Y228.660591

G01 Z-0.125000 F100.0(Penetrate)
G02 X2062.867672 Y235.856466 Z-0.125000 I34.487491 J-0.786942 F400.000000
G02 X2066.734907 Y248.817907 Z-0.125000 I116.658382 J-27.749090
G01 X2071.361969 Y261.637445 Z-0.125000
G01 X2077.069659 Y248.817907 Z-0.125000
G02 X2082.491355 Y235.891582 Z-0.125000 I-294.580541 J-131.156265
G02 X2085.013566 Y228.660591 Z-0.125000 I-89.539994 J-35.287430
G01 X2087.249838 Y221.322813 Z-0.125000
G01 X2082.250243 Y227.743368 Z-0.125000
G03 X2076.709507 Y233.056718 Z-0.125000 I-20.997314 J-16.350300
G03 X2073.251334 Y234.163924 Z-0.125000 I-3.458173 J-4.846911
G03 X2069.938961 Y232.968775 Z-0.125000 I-0.000000 J-5.187720
G03 X2065.512349 Y227.743368 Z-0.125000 I12.527750 J-15.100332
G01 X2061.772735 Y221.322813 Z-0.125000
G01 X2061.940403 Y228.660591 Z-0.125000
G01 X2061.940290 Y228.660591 Z-0.125000
G00 Z5.000000

(Change tool to Default tool)

G00 Z5.000000
G00 X2076.225137 Y241.501702

G01 Z-0.125000 F100.0(Penetrate)
G03 X2075.150545 Y244.095998 Z-0.125000 I-3.668889 J-0.000000 F400.000000
G03 X2072.556249 Y245.170591 Z-0.125000 I-2.594296 J-2.594296
G03 X2069.961952 Y244.095998 Z-0.125000 I-0.000000 J-3.668889
G03 X2068.887360 Y241.501702 Z-0.125000 I2.594296 J-2.594296
G03 X2069.961952 Y238.907406 Z-0.125000 I3.668889 J0.000000
G03 X2072.556249 Y237.832813 Z-0.125000 I2.594296 J2.594296
G03 X2075.150545 Y238.907406 Z-0.125000 I-0.000000 J3.668889
G03 X2076.225137 Y241.501702 Z-0.125000 I-2.594296 J2.594296
G01 X2076.225137 Y241.501702 Z-0.125000
G00 Z5.000000

(Change tool to Default tool)

G00 Z5.000000
G00 X2090.767145 Y238.750035

G01 Z-0.125000 F100.0(Penetrate)
G02 X2089.611461 Y255.636376 Z-0.125000 I263.475354 J26.514717 F400.000000
G02 X2090.133020 Y256.177257 Z-0.125000 I0.521560 J0.018977
G02 X2091.075125 Y255.784566 Z-0.125000 I-0.000000 J-1.326444
G02 X2100.132944 Y246.087813 Z-0.125000 I-159.206647 J-157.795155
G01 X2109.013264 Y235.998368 Z-0.125000
G01 X2109.129201 Y247.922257 Z-0.125000
G01 X2109.245138 Y259.846146 Z-0.125000
G01 X2121.352471 Y259.846146 Z-0.125000
G01 X2133.459804 Y259.846146 Z-0.125000
G01 X2137.862471 Y255.443480 Z-0.125000
G01 X2142.265138 Y251.040813 Z-0.125000
G01 X2142.265138 Y244.436813 Z-0.125000
G01 X2142.265138 Y237.832813 Z-0.125000
G01 X2134.927360 Y230.495035 Z-0.125000
G02 X2127.101219 Y224.336374 Z-0.125000 I-29.738767 J29.738767
G02 X2122.906499 Y223.157257 Z-0.125000 I-4.194719 J6.871820
G01 X2118.223473 Y223.157257 Z-0.125000
G01 X2119.623013 Y237.832813 Z-0.125000
G01 X2121.022525 Y252.508369 Z-0.125000
G01 X2116.968290 Y252.508369 Z-0.125000
G01 X2112.914027 Y252.508369 Z-0.125000
G01 X2112.798090 Y238.750035 Z-0.125000
G01 X2112.682153 Y224.991702 Z-0.125000
G01 X2103.853818 Y235.020720 Z-0.125000
G01 X2095.025484 Y245.049774 Z-0.125000
G01 X2093.773207 Y233.186275 Z-0.125000
G01 X2092.520959 Y221.322813 Z-0.125000
G01 X2090.767145 Y238.750035 Z-0.125000
G01 X2090.767145 Y238.750035 Z-0.125000
G00 Z5.000000

(Change tool to Default tool)

G00 Z5.000000
G00 X2138.596249 Y247.706270

G01 Z-0.125000 F100.0(Penetrate)
G03 X2137.948638 Y251.860793 Z-0.125000 I-13.649760 J-0.000000 F400.000000
G03 X2137.061891 Y252.508369 Z-0.125000 I-0.886747 J-0.283339
G02 X2135.568539 Y252.729987 Z-0.125000 I-0.000000 J5.142216
G02 X2129.724114 Y254.735347 Z-0.125000 I25.010982 J82.411209
G01 X2123.920693 Y256.962326 Z-0.125000
G01 X2123.920693 Y246.174619 Z-0.125000
G03 X2124.933580 Y235.806449 Z-0.125000 I53.572070 J0.000000
G03 X2126.571663 Y232.735919 Z-0.125000 I5.865857 J1.157137
G01 X2129.222605 Y230.084963 Z-0.125000
G01 X2133.909441 Y236.494549 Z-0.125000
G03 X2137.692173 Y243.199446 Z-0.125000 I-26.456922 J19.345829
G03 X2138.596249 Y247.706270 Z-0.125000 I-10.781230 J4.506824
G01 X2138.596249 Y247.706270 Z-0.125000
G00 Z5.000000

(Change tool to Default tool)

G00 Z5.000000
G00 X2170.600729 Y230.495035

G01 Z-0.125000 F100.0(Penetrate)
G02 X2168.758644 Y239.751947 Z-0.125000 I60.632075 J16.877256 F400.000000
G02 X2168.363158 Y248.839480 Z-0.125000 I58.024280 J7.077566
G01 X2168.678683 Y258.011702 Z-0.125000
G01 X2171.064646 Y249.540164 Z-0.125000
G01 X2173.450581 Y241.068663 Z-0.125000
G01 X2177.119470 Y241.171025 Z-0.125000
G01 X2180.788358 Y241.273387 Z-0.125000
G01 X2181.949280 Y250.559675 Z-0.125000
G01 X2183.110172 Y259.845963 Z-0.125000
G01 X2186.933127 Y259.845963 Z-0.125000
G01 X2190.756081 Y259.845963 Z-0.125000
G01 X2188.453994 Y250.673741 Z-0.125000
G01 X2186.151907 Y241.501518 Z-0.125000
G01 X2188.385386 Y241.501518 Z-0.125000
G03 X2190.267352 Y242.238321 Z-0.125000 I-0.000000 J2.771893
G03 X2197.277531 Y249.724636 Z-0.125000 I-48.462330 J52.405403
G01 X2203.936197 Y257.947753 Z-0.125000
G01 X2211.623930 Y250.990439 Z-0.125000
G01 X2219.311692 Y244.033125 Z-0.125000
G01 X2219.311692 Y239.306496 Z-0.125000
G01 X2219.311692 Y234.579829 Z-0.125000
G01 X2211.406676 Y229.042926 Z-0.125000
G01 X2203.501688 Y223.506059 Z-0.125000
G01 X2196.731120 Y227.129527 Z-0.125000
G01 X2189.960581 Y230.753031 Z-0.125000
G01 X2189.849047 Y226.037812 Z-0.125000
G01 X2189.737512 Y221.322629 Z-0.125000
G01 X2185.997898 Y227.743185 Z-0.125000
G03 X2181.667939 Y233.136706 Z-0.125000 I-20.124805 J-11.721523
G03 X2179.040697 Y234.163741 Z-0.125000 I-2.627241 J-2.846837
G01 X2175.823138 Y234.163741 Z-0.125000
G01 X2174.488509 Y227.743185 Z-0.125000
G01 X2173.153909 Y221.322629 Z-0.125000
G01 X2170.600701 Y230.494852 Z-0.125000
G01 X2170.600729 Y230.495035 Z-0.125000
G00 Z5.000000

(Change tool to Default tool)

G00 Z5.000000
G00 X2212.962285 Y235.081146

G01 Z-0.125000 F100.0(Penetrate)
G03 X2213.715702 Y239.660132 Z-0.125000 I-12.760819 J4.451117 F400.000000
G03 X2212.875332 Y244.253369 Z-0.125000 I-13.680370 J-0.129441
G01 X2211.188970 Y248.839480 Z-0.125000
G01 X2204.636249 Y248.839480 Z-0.125000
G01 X2198.083529 Y248.839480 Z-0.125000
G01 X2195.844632 Y243.005066 Z-0.125000
G01 X2193.605763 Y237.170652 Z-0.125000
G01 X2195.668638 Y233.832843 Z-0.125000
G01 X2197.731513 Y230.495035 Z-0.125000
G01 X2204.547011 Y230.495035 Z-0.125000
G01 X2211.362536 Y230.495035 Z-0.125000
G01 X2212.962285 Y235.081146 Z-0.125000
G01 X2212.962285 Y235.081146 Z-0.125000
G00 Z5.000000

(Change tool to Default tool)

G00 Z5.000000
G00 X2225.842879 Y225.172395

G01 Z-0.125000 F100.0(Penetrate)
G02 X2224.403190 Y228.895264 Z-0.125000 I9.315573 J5.742281 F400.000000
G02 X2222.432449 Y243.336146 Z-0.125000 I143.396454 J26.924164
G01 X2221.172186 Y258.011702 Z-0.125000
G01 X2231.248676 Y257.782396 Z-0.125000
G02 X2241.318961 Y257.416178 Z-0.125000 I-8.446729 J-370.908114
G02 X2256.917916 Y256.499459 Z-0.125000 I-44.468507 J-889.854312
G01 X2272.510694 Y255.445828 Z-0.125000
G01 X2263.610478 Y252.958688 Z-0.125000
G01 X2254.710261 Y250.471512 Z-0.125000
G01 X2253.215302 Y245.986625 Z-0.125000
G01 X2251.720314 Y241.501702 Z-0.125000
G01 X2262.115518 Y241.269094 Z-0.125000
G01 X2272.510694 Y241.036487 Z-0.125000
G01 X2264.255694 Y237.718380 Z-0.125000
G03 X2256.913261 Y233.783514 Z-0.125000 I14.180237 J-35.278121
G03 X2256.000694 Y232.049874 Z-0.125000 I1.190450 J-1.733641
G01 X2256.000694 Y229.699437 Z-0.125000
G01 X2265.172916 Y232.001518 Z-0.125000
G01 X2274.345139 Y234.303599 Z-0.125000
G01 X2274.345139 Y230.564817 Z-0.125000
G01 X2274.345139 Y226.826036 Z-0.125000
G01 X2263.246750 Y226.826036 Z-0.125000
G01 X2252.148361 Y226.826036 Z-0.125000
G01 X2250.048289 Y237.326360 Z-0.125000
G01 X2247.948245 Y247.826646 Z-0.125000
G01 X2239.691382 Y240.078026 Z-0.125000
G03 X2232.234975 Y231.822036 Z-0.125000 I46.146136 J-49.172062
G03 X2229.713811 Y227.006729 Z-0.125000 I12.795229 J-9.766897
G01 X2227.993017 Y221.684125 Z-0.125000
G01 X2225.842879 Y225.172284 Z-0.125000
G01 X2225.842879 Y225.172395 Z-0.125000
G00 Z5.000000

(Change tool to Default tool)

G00 Z5.000000
G00 X2239.490694 Y248.839480

G01 Z-0.125000 F100.0(Penetrate)
G01 X2239.490694 Y254.242322 Z-0.125000 F400.000000
G01 X2233.070138 Y255.478811 Z-0.125000
G01 X2226.649583 Y256.715300 Z-0.125000
G01 X2226.649583 Y248.839480 Z-0.125000
G01 X2226.649583 Y240.963659 Z-0.125000
G01 X2233.070138 Y242.200148 Z-0.125000
G01 X2239.490694 Y243.436637 Z-0.125000
G01 X2239.490694 Y248.839480 Z-0.125000
G01 X2239.490694 Y248.839480 Z-0.125000
G00 Z5.000000

(Change tool to Default tool)

G00 Z5.000000
G00 X2305.728222 Y226.506513

G01 Z-0.125000 F100.0(Penetrate)
G01 X2303.263208 Y230.495035 Z-0.125000 F400.000000
G01 X2312.651923 Y230.495035 Z-0.125000
G01 X2322.040694 Y230.495035 Z-0.125000
G01 X2322.040694 Y234.233816 Z-0.125000
G01 X2322.040694 Y237.972598 Z-0.125000
G01 X2313.513463 Y235.832425 Z-0.125000
G01 X2304.986203 Y233.692215 Z-0.125000
G01 X2300.545690 Y239.042702 Z-0.125000
G01 X2296.105206 Y244.393190 Z-0.125000
G01 X2301.997216 Y250.285205 Z-0.125000
G01 X2307.889282 Y256.177257 Z-0.125000
G01 X2314.047766 Y255.928874 Z-0.125000
G01 X2320.206250 Y255.680490 Z-0.125000
G01 X2311.951250 Y251.699269 Z-0.125000
G03 X2304.804383 Y247.022171 Z-0.125000 I14.299541 J-29.649452
G03 X2303.696250 Y244.609801 Z-0.125000 I2.071757 J-2.412369
G01 X2303.696250 Y241.501555 Z-0.125000
G01 X2310.733941 Y241.501555 Z-0.125000
G02 X2317.661215 Y240.905331 Z-0.125000 I-0.000000 J-40.540628
G02 X2323.575052 Y239.274576 Z-0.125000 I-5.392289 J-31.093294
G01 X2329.378472 Y237.047597 Z-0.125000
G01 X2329.378472 Y242.814394 Z-0.125000
G01 X2329.378472 Y248.581153 Z-0.125000
G01 X2336.540623 Y252.414225 Z-0.125000
G01 X2343.702802 Y256.247297 Z-0.125000
G01 X2351.632767 Y247.957222 Z-0.125000
G01 X2359.562788 Y239.667111 Z-0.125000
G01 X2356.856023 Y248.839333 Z-0.125000
G01 X2354.149258 Y258.011555 Z-0.125000
G01 X2363.430362 Y249.442828 Z-0.125000
G01 X2372.711493 Y240.874102 Z-0.125000
G01 X2375.139987 Y248.525606 Z-0.125000
G01 X2377.568510 Y256.177111 Z-0.125000
G01 X2380.990144 Y256.177111 Z-0.125000
G01 X2384.411806 Y256.177111 Z-0.125000
G01 X2384.411806 Y245.470522 Z-0.125000
G03 X2385.166821 Y234.903808 Z-0.125000 I74.320047 J-0.000000
G03 X2386.869736 Y228.358641 Z-0.125000 I29.981786 J4.306516
G01 X2389.327665 Y221.953385 Z-0.125000
G01 X2385.035291 Y224.606212 Z-0.125000
G01 X2380.742917 Y227.259038 Z-0.125000
G01 X2380.317326 Y237.131982 Z-0.125000
G01 X2379.891735 Y247.004888 Z-0.125000
G01 X2378.213839 Y240.584333 Z-0.125000
G02 X2376.046307 Y235.763645 Z-0.125000 I-15.388024 J4.021299
G02 X2374.057355 Y234.465777 Z-0.125000 I-2.515952 J1.682692
G02 X2371.603577 Y234.893750 Z-0.125000 I-0.636422 J3.599421
G02 X2366.801139 Y238.566444 Z-0.125000 I11.374597 J19.849691
G01 X2362.398472 Y242.969111 Z-0.125000
G01 X2362.032684 Y232.145888 Z-0.125000
G01 X2361.666896 Y221.322666 Z-0.125000
G01 X2359.280933 Y229.707435 Z-0.125000
G01 X2356.894970 Y238.092203 Z-0.125000
G01 X2350.248495 Y230.318818 Z-0.125000
G01 X2343.601964 Y222.545470 Z-0.125000
G01 X2337.407384 Y225.122718 Z-0.125000
G03 X2328.468482 Y226.867881 Z-0.125000 I-8.741999 J-21.011834
G03 X2316.034046 Y224.937806 Z-0.125000 I0.375867 J-43.440728
G01 X2308.193122 Y222.517953 Z-0.125000
G01 X2305.728081 Y226.506476 Z-0.125000
G01 X2305.728222 Y226.506513 Z-0.125000
G00 Z5.000000

(Change tool to Default tool)

G00 Z5.000000
G00 X2349.285073 Y236.611880

G01 Z-0.125000 F100.0(Penetrate)
G01 X2351.632372 Y242.728688 Z-0.125000 F400.000000
G01 X2348.089806 Y246.271257 Z-0.125000
G01 X2344.547239 Y249.813826 Z-0.125000
G01 X2338.797300 Y247.607357 Z-0.125000
G01 X2333.047361 Y245.400887 Z-0.125000
G01 X2333.047361 Y237.947943 Z-0.125000
G01 X2333.047361 Y230.495035 Z-0.125000
G01 X2339.992596 Y230.495035 Z-0.125000
G01 X2346.937831 Y230.495035 Z-0.125000
G01 X2349.285073 Y236.611880 Z-0.125000
G01 X2349.285073 Y236.611880 Z-0.125000
G00 Z5.000000

(Change tool to Default tool)

G00 Z5.000000
G00 X2393.978321 Y226.400959

G01 Z-0.125000 F100.0(Penetrate)
G02 X2393.054221 Y228.782879 Z-0.125000 I7.973448 J4.463633 F400.000000
G02 X2390.230777 Y242.418924 Z-0.125000 I264.252299 J61.825723
G01 X2387.748181 Y256.177257 Z-0.125000
G01 X2417.265549 Y256.177257 Z-0.125000
G01 X2446.782889 Y256.177257 Z-0.125000
G01 X2446.782889 Y246.699307 Z-0.125000
G01 X2446.782889 Y237.221319 Z-0.125000
G01 X2451.369000 Y238.746953 Z-0.125000
G01 X2455.955111 Y240.272624 Z-0.125000
G01 X2458.272720 Y250.976607 Z-0.125000
G01 X2460.590301 Y261.680591 Z-0.125000
G01 X2460.968197 Y243.336146 Z-0.125000
G01 X2461.346092 Y224.991702 Z-0.125000
G01 X2458.143575 Y230.047871 Z-0.125000
G01 X2454.941087 Y235.104003 Z-0.125000
G01 X2450.802129 Y232.546017 Z-0.125000
G01 X2446.663227 Y229.987995 Z-0.125000
G01 X2449.124374 Y226.005746 Z-0.125000
G01 X2451.585549 Y222.023497 Z-0.125000
G01 X2447.349789 Y224.641360 Z-0.125000
G01 X2443.114028 Y227.259185 Z-0.125000
G01 X2443.114028 Y240.152798 Z-0.125000
G01 X2443.114028 Y253.046411 Z-0.125000
G01 X2436.693473 Y251.730381 Z-0.125000
G01 X2430.272917 Y250.414350 Z-0.125000
G01 X2430.862310 Y235.868600 Z-0.125000
G01 X2431.451759 Y221.322813 Z-0.125000
G01 X2427.531100 Y234.804806 Z-0.125000
G01 X2423.610469 Y248.286762 Z-0.125000
G01 X2415.935040 Y250.347466 Z-0.125000
G03 X2408.198654 Y251.959806 Z-0.125000 I-18.039458 J-67.190913
G03 X2401.839028 Y252.458288 Z-0.125000 I-6.713314 J-44.831082
G01 X2395.418473 Y252.508369 Z-0.125000
G01 X2395.418473 Y247.005035 Z-0.125000
G01 X2395.418473 Y241.501702 Z-0.125000
G01 X2403.673473 Y241.269094 Z-0.125000
G01 X2411.928473 Y241.036487 Z-0.125000
G01 X2403.673473 Y237.718380 Z-0.125000
G03 X2396.331040 Y233.783514 Z-0.125000 I14.180237 J-35.278121
G03 X2395.418473 Y232.049874 Z-0.125000 I1.190450 J-1.733641
G01 X2395.418473 Y229.699437 Z-0.125000
G01 X2404.590695 Y232.001518 Z-0.125000
G01 X2413.762917 Y234.303599 Z-0.125000
G01 X2413.762917 Y230.992536 Z-0.125000
G01 X2413.762917 Y227.681438 Z-0.125000
G01 X2404.503093 Y225.911345 Z-0.125000
G01 X2395.243354 Y224.141217 Z-0.125000
G01 X2393.978321 Y226.400849 Z-0.125000
G01 X2393.978321 Y226.400959 Z-0.125000
G00 Z5.000000

(Change tool to Default tool)

G00 Z5.000000
G00 X2478.579964 Y225.603195

G01 Z-0.125000 F100.0(Penetrate)
G02 X2477.145714 Y228.468170 Z-0.125000 I3.587064 J3.587230 F400.000000
G02 X2476.134000 Y242.607982 Z-0.125000 I98.303849 J14.139812
G01 X2476.134000 Y257.166830 Z-0.125000
G01 X2484.389000 Y246.649446 Z-0.125000
G01 X2492.644001 Y236.132099 Z-0.125000
G01 X2494.912700 Y248.906327 Z-0.125000
G01 X2497.181400 Y261.680591 Z-0.125000
G01 X2497.664367 Y251.591146 Z-0.125000
G01 X2498.147334 Y241.501702 Z-0.125000
G01 X2500.933686 Y241.501702 Z-0.125000
G03 X2503.200885 Y242.437999 Z-0.125000 I0.000000 J3.213108
G03 X2508.302564 Y248.839480 Z-0.125000 I-25.248382 J25.355412
G01 X2512.885091 Y256.177257 Z-0.125000
G01 X2521.108962 Y255.944650 Z-0.125000
G01 X2529.332890 Y255.712042 Z-0.125000
G01 X2521.317722 Y252.482650 Z-0.125000
G01 X2513.302583 Y249.253257 Z-0.125000
G01 X2509.522950 Y242.190939 Z-0.125000
G01 X2505.743289 Y235.128622 Z-0.125000
G01 X2508.060135 Y232.811755 Z-0.125000
G03 X2510.710755 Y231.300797 Z-0.125000 I4.084096 J4.084160
G03 X2517.103269 Y230.494925 Z-0.125000 I6.392515 J24.951131
G01 X2523.829556 Y230.494925 Z-0.125000
G01 X2523.829556 Y234.163814 Z-0.125000
G01 X2523.829556 Y237.832703 Z-0.125000
G01 X2518.109702 Y237.832703 Z-0.125000
G01 X2512.389848 Y237.832703 Z-0.125000
G01 X2514.657334 Y241.501592 Z-0.125000
G01 X2516.924820 Y245.170481 Z-0.125000
G01 X2526.797772 Y245.114347 Z-0.125000
G01 X2536.670667 Y245.058213 Z-0.125000
G01 X2531.960294 Y242.069426 Z-0.125000
G01 X2527.249920 Y239.080602 Z-0.125000
G01 X2529.473972 Y233.284822 Z-0.125000
G01 X2531.697997 Y227.489041 Z-0.125000
G01 X2523.915267 Y225.018888 Z-0.125000
G01 X2516.132481 Y222.548735 Z-0.125000
G01 X2506.688197 Y228.736904 Z-0.125000
G01 X2497.243884 Y234.925035 Z-0.125000
G01 X2499.746574 Y230.875609 Z-0.125000
G01 X2502.249265 Y226.826146 Z-0.125000
G01 X2499.418914 Y226.826146 Z-0.125000
G02 X2497.009314 Y227.737587 Z-0.125000 I0.000000 J3.640884
G02 X2487.990212 Y236.915591 Z-0.125000 I60.116299 J68.095957
G01 X2479.391889 Y247.005035 Z-0.125000
G01 X2480.796396 Y235.081146 Z-0.125000
G02 X2481.754467 Y225.898076 Z-0.125000 I-344.782036 J-40.612655
G02 X2481.632074 Y224.140685 Z-0.125000 I-5.499584 J-0.499941
G02 X2480.866454 Y223.816939 Z-0.125000 I-0.500777 J0.117106
G02 X2478.579964 Y225.603195 Z-0.125000 I6.128324 J10.201069
G01 X2478.579964 Y225.603195 Z-0.125000
G00 Z5.000000

(Change tool to Default tool)

G00 Z5.000000
G00 X696.722992 Y235.698290

G01 Z-0.125000 F100.0(Penetrate)
G03 X696.062900 Y244.448157 Z-0.125000 I-58.322085 J-0.000000 F400.000000
G03 X694.496033 Y250.373846 Z-0.125000 I-28.133935 J-4.269158
G01 X692.269045 Y256.177257 Z-0.125000
G01 X706.419922 Y255.627548 Z-0.125000
G01 X720.570770 Y255.077838 Z-0.125000
G01 X710.481325 Y253.549416 Z-0.125000
G01 X700.391881 Y252.020993 Z-0.125000
G01 X700.391881 Y246.761348 Z-0.125000
G01 X700.391881 Y241.501702 Z-0.125000
G01 X710.481325 Y241.076111 Z-0.125000
G01 X720.570770 Y240.650520 Z-0.125000
G01 X713.232992 Y238.885527 Z-0.125000
G03 X706.332570 Y236.354233 Z-0.125000 I7.454539 J-30.992488
G03 X702.226325 Y233.334131 Z-0.125000 I6.904190 J-13.688752
G01 X698.557436 Y229.547655 Z-0.125000
G01 X708.646881 Y231.925682 Z-0.125000
G01 X718.736325 Y234.303709 Z-0.125000
G01 X718.736325 Y230.564927 Z-0.125000
G01 X718.736325 Y226.826146 Z-0.125000
G01 X707.729659 Y226.826146 Z-0.125000
G01 X696.722992 Y226.826146 Z-0.125000
G01 X696.722992 Y235.698290 Z-0.125000
G01 X696.722992 Y235.698290 Z-0.125000
G00 Z5.000000

(Change tool to Default tool)

G00 Z5.000000
G00 X894.899155 Y236.615512

G01 Z-0.125000 F100.0(Penetrate)
G03 X894.122437 Y248.103942 Z-0.125000 I-91.569043 J-0.420398 F400.000000
G03 X892.616006 Y254.042735 Z-0.125000 I-25.800930 J-3.384194
G01 X890.389047 Y259.846146 Z-0.125000
G01 X901.903403 Y259.846146 Z-0.125000
G01 X913.417731 Y259.846146 Z-0.125000
G01 X915.733138 Y253.812255 Z-0.125000
G01 X918.048574 Y247.778364 Z-0.125000
G01 X911.646137 Y243.096825 Z-0.125000
G01 X905.243729 Y238.415249 Z-0.125000
G01 X913.198698 Y234.157907 Z-0.125000
G02 X919.317387 Y229.628633 Z-0.125000 I-12.360216 J-23.095237
G02 X919.319223 Y228.066084 Z-0.125000 I-0.778523 J-0.782191
G02 X917.295807 Y227.507906 Z-0.125000 I-1.503433 J1.503433
G02 X909.366177 Y230.576558 Z-0.125000 I8.531785 J33.826495
G01 X901.247603 Y234.921513 Z-0.125000
G01 X898.101474 Y229.956626 Z-0.125000
G01 X894.955374 Y224.991702 Z-0.125000
G01 X894.899240 Y236.615512 Z-0.125000
G01 X894.899155 Y236.615512 Z-0.125000
G00 Z5.000000

(Change tool to Default tool)

G00 Z5.000000
G00 X910.232119 Y253.262362

G01 Z-0.125000 F100.0(Penetrate)
G01 X906.489006 Y257.005472 Z-0.125000 F400.000000
G01 X902.500444 Y254.540383 Z-0.125000
G03 X899.652557 Y251.439330 Z-0.125000 I4.085166 J-6.609880
G03 X898.511882 Y246.659426 Z-0.125000 I9.444560 J-4.779904
G01 X898.511882 Y241.243522 Z-0.125000
G01 X906.243557 Y245.381405 Z-0.125000
G01 X913.975233 Y249.519251 Z-0.125000
G01 X910.232119 Y253.262362 Z-0.125000
G01 X910.232119 Y253.262362 Z-0.125000
G00 Z5.000000

(Change tool to Default tool)

G00 Z5.000000
G00 X1004.909660 Y235.698290

G01 Z-0.125000 F100.0(Penetrate)
G03 X1004.249567 Y244.448151 Z-0.125000 I-58.321908 J0.000000 F400.000000
G03 X1002.682673 Y250.373846 Z-0.125000 I-28.133035 J-4.269032
G01 X1000.455686 Y256.177257 Z-0.125000
G01 X1014.606562 Y255.627548 Z-0.125000
G01 X1028.757438 Y255.077838 Z-0.125000
G01 X1018.667994 Y253.549416 Z-0.125000
G01 X1008.578549 Y252.020993 Z-0.125000
G01 X1008.578549 Y246.761348 Z-0.125000
G01 X1008.578549 Y241.501702 Z-0.125000
G01 X1018.667994 Y241.336235 Z-0.125000
G01 X1028.757438 Y241.170768 Z-0.125000
G01 X1017.750771 Y235.812099 Z-0.125000
G01 X1006.744105 Y230.453430 Z-0.125000
G01 X1016.833549 Y232.378606 Z-0.125000
G01 X1026.922994 Y234.303745 Z-0.125000
G01 X1026.922994 Y230.564964 Z-0.125000
G01 X1026.922994 Y226.826183 Z-0.125000
G01 X1015.916327 Y226.826183 Z-0.125000
G01 X1004.909660 Y226.826183 Z-0.125000
G01 X1004.909660 Y235.698327 Z-0.125000
G01 X1004.909660 Y235.698290 Z-0.125000
G00 Z5.000000

(Change tool to Default tool)

G00 Z5.000000
G00 X1122.264011 Y233.246702

G01 Z-0.125000 F100.0(Penetrate)
G03 X1121.750925 Y239.604591 Z-0.125000 I-44.200741 J-0.367383 F400.000000
G03 X1120.001633 Y247.922257 Z-0.125000 I-77.039880 J-11.859509
G01 X1117.789406 Y256.177257 Z-0.125000
G01 X1131.975645 Y255.627548 Z-0.125000
G01 X1146.161855 Y255.077838 Z-0.125000
G01 X1136.072411 Y253.549416 Z-0.125000
G01 X1125.982966 Y252.020993 Z-0.125000
G01 X1125.982966 Y246.761348 Z-0.125000
G01 X1125.982966 Y241.501702 Z-0.125000
G01 X1134.237966 Y241.269094 Z-0.125000
G01 X1142.492966 Y241.036487 Z-0.125000
G01 X1134.237966 Y237.718380 Z-0.125000
G03 X1126.895533 Y233.783514 Z-0.125000 I14.180237 J-35.278121
G03 X1125.982966 Y232.049874 Z-0.125000 I1.190450 J-1.733641
G01 X1125.982966 Y229.699437 Z-0.125000
G01 X1135.155188 Y232.001518 Z-0.125000
G01 X1144.327411 Y234.303599 Z-0.125000
G01 X1144.327411 Y230.564817 Z-0.125000
G01 X1144.327411 Y226.826036 Z-0.125000
G01 X1133.320744 Y226.826036 Z-0.125000
G01 X1122.314105 Y226.826036 Z-0.125000
G01 X1122.263842 Y233.246592 Z-0.125000
G01 X1122.264011 Y233.246702 Z-0.125000
G00 Z5.000000

(Change tool to Default tool)

G00 Z5.000000
G00 X2467.354321 Y232.629558

G01 Z-0.125000 F100.0(Penetrate)
G02 X2465.723568 Y238.543412 Z-0.125000 I29.463914 J11.306484 F400.000000
G02 X2465.127334 Y245.470669 Z-0.125000 I39.943549 J6.927257
G01 X2465.127334 Y252.508369 Z-0.125000
G01 X2468.796223 Y252.508369 Z-0.125000
G01 X2472.465111 Y252.508369 Z-0.125000
G01 X2472.465111 Y239.667257 Z-0.125000
G02 X2471.947475 Y229.417241 Z-0.125000 I-101.742095 J0.000000
G02 X2471.220473 Y227.511875 Z-0.125000 I-3.893675 J0.394275
G02 X2470.189825 Y227.503608 Z-0.125000 I-0.518376 J0.376445
G02 X2467.354321 Y232.629558 Z-0.125000 I16.919998 J12.706806
G01 X2467.354321 Y232.629558 Z-0.125000
G00 Z5.000000

(Change tool to Default tool)

G00 Z5.000000
G00 X661.626485 Y283.693925

G01 Z-0.125000 F100.0(Penetrate)
G01 X659.217493 Y296.535036 Z-0.125000 F400.000000
G01 X653.905958 Y296.535036 Z-0.125000
G01 X648.594394 Y296.535036 Z-0.125000
G01 X650.861909 Y300.203925 Z-0.125000
G01 X653.129395 Y303.872814 Z-0.125000
G01 X667.588430 Y303.872814 Z-0.125000
G01 X682.047464 Y303.872814 Z-0.125000
G01 X682.047464 Y294.394863 Z-0.125000
G01 X682.047464 Y284.916875 Z-0.125000
G01 X686.633547 Y286.442509 Z-0.125000
G01 X691.219658 Y287.968180 Z-0.125000
G01 X693.325685 Y298.672164 Z-0.125000
G01 X695.431684 Y309.376147 Z-0.125000
G01 X696.994574 Y290.041543 Z-0.125000
G01 X698.557436 Y270.706938 Z-0.125000
G01 X694.215447 Y276.650612 Z-0.125000
G01 X689.873458 Y282.594285 Z-0.125000
G01 X685.900588 Y280.138918 Z-0.125000
G01 X681.927746 Y277.683551 Z-0.125000
G01 X684.360304 Y273.350960 Z-0.125000
G01 X686.792834 Y269.018369 Z-0.125000
G01 X682.867997 Y272.687258 Z-0.125000
G01 X678.943189 Y276.356147 Z-0.125000
G01 X677.743660 Y287.362814 Z-0.125000
G01 X676.544131 Y298.369480 Z-0.125000
G01 X671.040798 Y298.369480 Z-0.125000
G01 X665.537464 Y298.369480 Z-0.125000
G01 X666.613465 Y284.611147 Z-0.125000
G02 X666.613884 Y272.149528 Z-0.125000 I-79.703329 J-6.233492
G02 X665.824707 Y271.273772 Z-0.125000 I-0.964106 J0.075336
G02 X664.849915 Y271.834219 Z-0.125000 I-0.157177 J0.854577
G02 X661.626485 Y283.693925 Z-0.125000 I72.408579 J26.048332
G01 X661.626485 Y283.693925 Z-0.125000
G00 Z5.000000

(Change tool to Default tool)

G00 Z5.000000
G00 X705.060062 Y285.528369

G01 Z-0.125000 F100.0(Penetrate)
G01 X705.060062 Y302.038369 Z-0.125000 F400.000000
G01 X706.650046 Y293.783369 Z-0.125000
G02 X707.437800 Y285.528369 Z-0.125000 I-42.858811 J-8.255000
G02 X706.650046 Y277.273369 Z-0.125000 I-43.646566 J0.000000
G01 X705.060062 Y269.018369 Z-0.125000
G01 X705.060062 Y285.528369 Z-0.125000
G01 X705.060062 Y285.528369 Z-0.125000
G00 Z5.000000

(Change tool to Default tool)

G00 Z5.000000
G00 X713.844483 Y273.298752

G01 Z-0.125000 F100.0(Penetrate)
G02 X712.406628 Y276.162214 Z-0.125000 I3.600684 J3.600775 F400.000000
G02 X711.398547 Y290.013329 Z-0.125000 I94.653741 J13.851115
G01 X711.398547 Y304.282005 Z-0.125000
G01 X720.454833 Y293.987946 Z-0.125000
G01 X729.511118 Y283.693925 Z-0.125000
G01 X730.178094 Y296.535036 Z-0.125000
G01 X730.845098 Y309.376147 Z-0.125000
G01 X733.124833 Y292.866147 Z-0.125000
G02 X734.545122 Y278.072044 Z-0.125000 I-177.420028 J-24.498217
G02 X733.872291 Y275.316466 Z-0.125000 I-4.892010 J-0.265447
G02 X732.193941 Y274.991747 Z-0.125000 I-0.982812 J0.580049
G02 X726.087424 Y280.942258 Z-0.125000 I22.245225 J28.937000
G03 X718.997005 Y288.363027 Z-0.125000 I-49.043826 J-39.762767
G03 X716.803301 Y289.197258 Z-0.125000 I-2.193705 J-2.467183
G01 X714.212021 Y289.197258 Z-0.125000
G01 X715.965411 Y280.025036 Z-0.125000
G02 X717.143123 Y272.912909 Z-0.125000 I-142.885819 J-27.314329
G02 X717.029985 Y271.553975 Z-0.125000 I-3.061385 J-0.429302
G02 X716.357064 Y271.304850 Z-0.125000 I-0.433137 J0.136575
G02 X713.844483 Y273.298752 Z-0.125000 I7.405436 J11.911882
G01 X713.844483 Y273.298752 Z-0.125000
G00 Z5.000000

(Change tool to Default tool)

G00 Z5.000000
G00 X739.534128 Y285.100943

G01 Z-0.125000 F100.0(Penetrate)
G01 X736.837410 Y301.183518 Z-0.125000 F400.000000
G01 X738.793548 Y303.139660 Z-0.125000
G01 X740.749659 Y305.095764 Z-0.125000
G01 X740.749659 Y298.980974 Z-0.125000
G01 X740.749659 Y292.866147 Z-0.125000
G01 X746.036471 Y292.866147 Z-0.125000
G03 X750.722412 Y293.943862 Z-0.125000 I-0.000000 J10.726173
G03 X753.590770 Y296.535036 Z-0.125000 I-3.028394 J6.235532
G02 X756.409445 Y299.182047 Z-0.125000 I6.320901 J-3.906582
G02 X760.227875 Y300.081861 Z-0.125000 I3.604839 J-6.745611
G01 X764.597437 Y299.959687 Z-0.125000
G01 X755.989546 Y292.787339 Z-0.125000
G01 X747.381655 Y285.614992 Z-0.125000
G01 X757.415587 Y281.800081 Z-0.125000
G01 X767.449546 Y277.985170 Z-0.125000
G01 X765.420510 Y275.956128 Z-0.125000
G01 X763.391445 Y273.927085 Z-0.125000
G01 X755.980656 Y277.893228 Z-0.125000
G03 X748.960253 Y281.232495 Z-0.125000 I-38.696982 J-72.306280
G03 X746.700212 Y281.460346 Z-0.125000 I-1.503480 J-3.590400
G03 X745.148117 Y280.221674 Z-0.125000 I0.419563 J-2.117474
G03 X743.593725 Y275.438814 Z-0.125000 I21.901210 J-9.761735
G01 X742.230817 Y269.018259 Z-0.125000
G01 X739.534128 Y285.100833 Z-0.125000
G01 X739.534128 Y285.100943 Z-0.125000
G00 Z5.000000

(Change tool to Default tool)

G00 Z5.000000
G00 X794.108766 Y275.785304

G01 Z-0.125000 F100.0(Penetrate)
G01 X787.363203 Y280.717795 Z-0.125000 F400.000000
G01 X789.781988 Y290.354939 Z-0.125000
G01 X792.200746 Y299.992120 Z-0.125000
G01 X799.889100 Y304.106815 Z-0.125000
G01 X807.577454 Y308.221474 Z-0.125000
G01 X811.121065 Y304.677841 Z-0.125000
G01 X814.664675 Y301.134245 Z-0.125000
G01 X805.628512 Y298.866321 Z-0.125000
G01 X796.592349 Y296.598361 Z-0.125000
G01 X794.341345 Y290.732284 Z-0.125000
G01 X792.090312 Y284.866208 Z-0.125000
G01 X794.153187 Y281.528400 Z-0.125000
G01 X796.216062 Y278.190591 Z-0.125000
G01 X807.222729 Y278.190591 Z-0.125000
G01 X818.229396 Y278.190591 Z-0.125000
G01 X815.961881 Y274.521702 Z-0.125000
G01 X813.694395 Y270.852813 Z-0.125000
G01 X807.274376 Y270.852813 Z-0.125000
G02 X801.213013 Y271.950981 Z-0.125000 I0.000000 J17.277007
G02 X794.108766 Y275.785304 Z-0.125000 I10.410145 J27.786500
G01 X794.108766 Y275.785304 Z-0.125000
G00 Z5.000000

(Change tool to Default tool)

G00 Z5.000000
G00 X821.465215 Y276.941885

G01 Z-0.125000 F100.0(Penetrate)
G02 X822.247249 Y284.301022 Z-0.125000 I35.016661 J0.000000 F400.000000
G02 X825.665951 Y296.483598 Z-0.125000 I100.074979 J-21.512298
G01 X829.866632 Y308.533807 Z-0.125000
G01 X836.672618 Y294.541508 Z-0.125000
G02 X842.575027 Y280.341143 Z-0.125000 I-117.688400 J-57.244265
G02 X843.478548 Y274.999795 Z-0.125000 I-15.336470 J-5.341348
G01 X843.478548 Y269.450344 Z-0.125000
G01 X837.975215 Y276.572134 Z-0.125000
G01 X832.471882 Y283.693925 Z-0.125000
G01 X826.968548 Y276.572134 Z-0.125000
G01 X821.465215 Y269.450344 Z-0.125000
G01 X821.465215 Y276.941885 Z-0.125000
G01 X821.465215 Y276.941885 Z-0.125000
G00 Z5.000000

(Change tool to Default tool)

G00 Z5.000000
G00 X836.140770 Y287.146276

G01 Z-0.125000 F100.0(Penetrate)
G03 X835.614294 Y288.470662 Z-0.125000 I-1.929030 J0.000000 F400.000000
G03 X832.471882 Y291.031702 Z-0.125000 I-11.347590 J-10.715163
G01 X828.802993 Y293.299186 Z-0.125000
G01 X828.802993 Y289.413796 Z-0.125000
G01 X828.802993 Y285.528369 Z-0.125000
G01 X832.471882 Y285.528369 Z-0.125000
G03 X835.502262 Y286.166873 Z-0.125000 I-0.000000 J7.510448
G03 X836.140770 Y287.146276 Z-0.125000 I-0.431896 J0.979403
G01 X836.140770 Y287.146276 Z-0.125000
G00 Z5.000000

(Change tool to Default tool)

G00 Z5.000000
G00 X851.191851 Y280.025036

G01 Z-0.125000 F100.0(Penetrate)
G03 X850.195628 Y290.951687 Z-0.125000 I-114.857467 J-4.963235 F400.000000
G03 X848.503854 Y299.286702 Z-0.125000 I-68.423111 J-9.548775
G01 X846.291626 Y307.541703 Z-0.125000
G01 X857.841345 Y307.541703 Z-0.125000
G01 X869.391064 Y307.541703 Z-0.125000
G01 X871.706472 Y301.507811 Z-0.125000
G01 X874.021907 Y295.473920 Z-0.125000
G01 X867.221227 Y290.501144 Z-0.125000
G01 X860.420518 Y285.528369 Z-0.125000
G01 X867.542311 Y279.822623 Z-0.125000
G01 X874.664104 Y274.116914 Z-0.125000
G01 X866.650291 Y277.988179 Z-0.125000
G03 X859.151027 Y281.236616 Z-0.125000 I-43.101979 J-89.223641
G03 X856.765592 Y281.449734 Z-0.125000 I-1.565513 J-4.066158
G03 X855.102677 Y280.178249 Z-0.125000 I0.440565 J-2.299360
G03 X853.345404 Y275.438925 Z-0.125000 I22.868106 J-11.174609
G01 X851.667508 Y269.018369 Z-0.125000
G01 X851.191851 Y280.025036 Z-0.125000
G01 X851.191851 Y280.025036 Z-0.125000
G00 Z5.000000

(Change tool to Default tool)

G00 Z5.000000
G00 X867.311566 Y300.227772

G01 Z-0.125000 F100.0(Penetrate)
G01 X865.256903 Y303.552336 Z-0.125000 F400.000000
G01 X859.871031 Y301.485614 Z-0.125000
G01 X854.485215 Y299.418856 Z-0.125000
G01 X854.485215 Y294.178985 Z-0.125000
G01 X854.485215 Y288.939078 Z-0.125000
G01 X861.925750 Y292.921144 Z-0.125000
G01 X869.366313 Y296.903209 Z-0.125000
G01 X867.311566 Y300.227772 Z-0.125000
G01 X867.311566 Y300.227772 Z-0.125000
G00 Z5.000000

(Change tool to Default tool)

G00 Z5.000000
G00 X882.322204 Y274.216194

G01 Z-0.125000 F100.0(Penetrate)
G02 X881.453988 Y276.471510 Z-0.125000 I7.545265 J4.199433 F400.000000
G02 X878.648630 Y290.114480 Z-0.125000 I279.422688 J64.566646
G01 X876.166034 Y303.872814 Z-0.125000
G01 X890.090653 Y303.583338 Z-0.125000
G01 X904.015215 Y303.293863 Z-0.125000
G01 X893.925771 Y299.608868 Z-0.125000
G01 X883.836326 Y295.923872 Z-0.125000
G01 X883.836326 Y291.069785 Z-0.125000
G01 X883.836326 Y286.215662 Z-0.125000
G01 X892.091326 Y287.936554 Z-0.125000
G01 X900.346326 Y289.657447 Z-0.125000
G01 X891.174104 Y283.722872 Z-0.125000
G01 X882.001882 Y277.788298 Z-0.125000
G01 X892.178900 Y279.332019 Z-0.125000
G01 X902.355890 Y280.875741 Z-0.125000
G01 X904.065338 Y278.109802 Z-0.125000
G01 X905.774786 Y275.343864 Z-0.125000
G01 X894.644026 Y273.710217 Z-0.125000
G01 X883.513238 Y272.076571 Z-0.125000
G01 X882.322204 Y274.216524 Z-0.125000
G01 X882.322204 Y274.216194 Z-0.125000
G00 Z5.000000

(Change tool to Default tool)

G00 Z5.000000
G00 X911.156002 Y277.273369

G01 Z-0.125000 F100.0(Penetrate)
G02 X908.998536 Y283.860437 Z-0.125000 I32.817037 J14.395434 F400.000000
G02 X907.539578 Y293.471844 Z-0.125000 I68.795559 J15.359215
G01 X906.739647 Y303.249726 Z-0.125000
G01 X914.549668 Y305.345616 Z-0.125000
G02 X922.409748 Y307.076909 Z-0.125000 I22.992847 J-85.679593
G02 X926.945771 Y307.491622 Z-0.125000 I4.846347 J-27.993792
G01 X931.531882 Y307.541703 Z-0.125000
G01 X931.531882 Y303.872814 Z-0.125000
G01 X931.531882 Y300.203925 Z-0.125000
G01 X922.359660 Y300.203925 Z-0.125000
G01 X913.187438 Y300.203925 Z-0.125000
G01 X913.187438 Y295.209356 Z-0.125000
G01 X913.187438 Y290.214788 Z-0.125000
G01 X923.276882 Y291.456450 Z-0.125000
G01 X933.366327 Y292.698075 Z-0.125000
G01 X923.256703 Y288.397880 Z-0.125000
G01 X913.147052 Y284.097686 Z-0.125000
G01 X915.248902 Y277.475231 Z-0.125000
G02 X916.192180 Y271.658452 Z-0.125000 I-19.229590 J-6.103241
G02 X915.600434 Y271.027907 Z-0.125000 I-0.622400 J-0.008838
G02 X914.547313 Y271.517331 Z-0.125000 I-0.061415 J1.245589
G02 X911.156002 Y277.273442 Z-0.125000 I22.369241 J17.056300
G01 X911.156002 Y277.273369 Z-0.125000
G00 Z5.000000

(Change tool to Default tool)

G00 Z5.000000
G00 X939.603438 Y275.255480

G01 Z-0.125000 F100.0(Penetrate)
G02 X935.567950 Y284.674775 Z-0.125000 I9.752216 J9.752226 F400.000000
G02 X939.089567 Y296.535036 Z-0.125000 I20.098122 J0.485309
G01 X942.866039 Y302.038369 Z-0.125000
G01 X941.785072 Y291.031702 Z-0.125000
G01 X940.704104 Y280.025036 Z-0.125000
G01 X948.041882 Y280.025036 Z-0.125000
G01 X955.379660 Y280.025036 Z-0.125000
G01 X955.256385 Y289.840377 Z-0.125000
G01 X955.133111 Y299.655683 Z-0.125000
G01 X958.008108 Y297.878840 Z-0.125000
G01 X960.883134 Y296.101997 Z-0.125000
G01 X960.883134 Y299.987387 Z-0.125000
G01 X960.883134 Y303.872814 Z-0.125000
G01 X964.552023 Y303.872814 Z-0.125000
G01 X968.220912 Y303.872814 Z-0.125000
G01 X968.220912 Y291.031702 Z-0.125000
G01 X968.220912 Y278.190591 Z-0.125000
G01 X976.475912 Y277.957984 Z-0.125000
G01 X984.730912 Y277.725376 Z-0.125000
G01 X976.002964 Y274.232300 Z-0.125000
G01 X967.275045 Y270.739261 Z-0.125000
G01 X962.571275 Y274.643032 Z-0.125000
G01 X957.867534 Y278.546804 Z-0.125000
G01 X955.489896 Y274.699753 Z-0.125000
G02 X948.938860 Y271.195982 Z-0.125000 I-6.292477 J3.888954
G02 X939.603579 Y275.255370 Z-0.125000 I0.485454 J13.880149
G01 X939.603438 Y275.255480 Z-0.125000
G00 Z5.000000

(Change tool to Default tool)

G00 Z5.000000
G00 X987.181956 Y288.280036

G01 Z-0.125000 F100.0(Penetrate)
G01 X987.798724 Y305.707258 Z-0.125000 F400.000000
G01 X989.237888 Y291.948925 Z-0.125000
G01 X990.677052 Y278.190591 Z-0.125000
G01 X1000.545037 Y277.932668 Z-0.125000
G01 X1010.412994 Y277.674745 Z-0.125000
G01 X1003.075216 Y274.521592 Z-0.125000
G02 X995.620460 Y271.865750 Z-0.125000 I-24.572493 J57.182810
G02 X991.151327 Y271.110590 Z-0.125000 I-5.615076 J19.628678
G01 X986.565216 Y270.852813 Z-0.125000
G01 X987.181956 Y288.280036 Z-0.125000
G01 X987.181956 Y288.280036 Z-0.125000
G00 Z5.000000

(Change tool to Default tool)

G00 Z5.000000
G00 X1017.916718 Y279.380045

G01 Z-0.125000 F100.0(Penetrate)
G01 X1020.056922 Y287.907313 Z-0.125000 F400.000000
G01 X1014.317736 Y292.670412 Z-0.125000
G02 X1009.691446 Y297.937111 Z-0.125000 I14.287603 J17.215515
G02 X1008.695220 Y301.570366 Z-0.125000 I5.462731 J3.451070
G01 X1008.811891 Y305.707258 Z-0.125000
G01 X1014.425347 Y298.369480 Z-0.125000
G01 X1020.038860 Y291.031702 Z-0.125000
G01 X1025.315343 Y298.153493 Z-0.125000
G01 X1030.591826 Y305.275283 Z-0.125000
G01 X1030.591826 Y300.787315 Z-0.125000
G02 X1029.743906 Y295.542161 Z-0.125000 I-16.646011 J-0.000154
G02 X1025.204532 Y283.527279 Z-0.125000 I-149.855823 J49.752457
G02 X1019.572756 Y271.866403 Z-0.125000 I-124.166498 J52.777467
G02 X1017.868063 Y270.852813 Z-0.125000 I-1.704693 J0.926712
G01 X1015.776542 Y270.852813 Z-0.125000
G01 X1017.916718 Y279.380045 Z-0.125000
G01 X1017.916718 Y279.380045 Z-0.125000
G00 Z5.000000

(Change tool to Default tool)

G00 Z5.000000
G00 X1056.664785 Y276.356147

G01 Z-0.125000 F100.0(Penetrate)
G02 X1057.619298 Y283.542402 Z-0.125000 I33.239086 J-0.758455 F400.000000
G02 X1061.630344 Y296.535036 Z-0.125000 I113.605340 J-27.956437
G01 X1066.428376 Y309.376147 Z-0.125000
G01 X1070.174735 Y300.203925 Z-0.125000
G02 X1073.830818 Y290.996707 Z-0.125000 I-469.199075 J-191.643215
G02 X1077.960089 Y280.025036 Z-0.125000 I-662.007616 J-255.414406
G01 X1081.999084 Y269.018369 Z-0.125000
G01 X1076.987128 Y275.438925 Z-0.125000
G03 X1071.435243 Y280.753119 Z-0.125000 I-21.040751 J-16.424650
G03 X1067.975829 Y281.859480 Z-0.125000 I-3.459414 J-4.855337
G03 X1064.663467 Y280.664329 Z-0.125000 I-0.000000 J-5.187681
G03 X1060.236872 Y275.438925 Z-0.125000 I12.527896 J-15.100405
G01 X1056.497230 Y269.018369 Z-0.125000
G01 X1056.664898 Y276.356147 Z-0.125000
G01 X1056.664785 Y276.356147 Z-0.125000
G00 Z5.000000

(Change tool to Default tool)

G00 Z5.000000
G00 X1070.949661 Y289.197258

G01 Z-0.125000 F100.0(Penetrate)
G03 X1069.875068 Y291.791554 Z-0.125000 I-3.668889 J0.000000 F400.000000
G03 X1067.280772 Y292.866147 Z-0.125000 I-2.594296 J-2.594296
G03 X1064.686476 Y291.791554 Z-0.125000 I0.000000 J-3.668889
G03 X1063.611883 Y289.197258 Z-0.125000 I2.594296 J-2.594296
G03 X1064.686476 Y286.602962 Z-0.125000 I3.668889 J0.000000
G03 X1067.280772 Y285.528369 Z-0.125000 I2.594296 J2.594296
G03 X1069.875068 Y286.602962 Z-0.125000 I0.000000 J3.668889
G03 X1070.949661 Y289.197258 Z-0.125000 I-2.594296 J2.594296
G01 X1070.949661 Y289.197258 Z-0.125000
G00 Z5.000000

(Change tool to Default tool)

G00 Z5.000000
G00 X1085.625216 Y283.393846

G01 Z-0.125000 F100.0(Penetrate)
G03 X1084.850212 Y295.791299 Z-0.125000 I-99.546164 J-0.000000 F400.000000
