%
(Header)
(Generated by gcodetools from Inkscape.)
(Using default header. To add your own header create file "header" in the output dir.)
M3
(Header end.)
G21 (All units in mm)

(Start cutting path id: path4151)
(Change tool to Default tool)

G00 Z5.000000
G00 X14.917423 Y501.549268

G01 Z-0.125000 F100.0(Penetrate)
G01 X14.917423 Y980.964201 Z-0.125000 F400.000000
G01 X317.515722 Y980.964201 Z-0.125000
G01 X620.114080 Y980.964201 Z-0.125000
G01 X620.114080 Y501.549268 Z-0.125000
G01 X620.114080 Y22.134327 Z-0.125000
G01 X317.515722 Y22.134327 Z-0.125000
G01 X14.917423 Y22.134327 Z-0.125000
G01 X14.917423 Y501.549268 Z-0.125000
G01 X14.917423 Y501.549268 Z-0.125000
G00 Z5.000000

(Change tool to Default tool)

G00 Z5.000000
G00 X611.529726 Y501.549268

G01 Z-0.125000 F100.0(Penetrate)
G01 X611.529726 Y970.654200 Z-0.125000 F400.000000
G01 X317.515722 Y970.654200 Z-0.125000
G01 X23.501773 Y970.654200 Z-0.125000
G01 X23.501773 Y501.549268 Z-0.125000
G01 X23.501773 Y32.444328 Z-0.125000
G01 X317.515722 Y32.444328 Z-0.125000
G01 X611.529726 Y32.444328 Z-0.125000
G01 X611.529726 Y501.549268 Z-0.125000
G01 X611.529726 Y501.549268 Z-0.125000
G00 Z5.000000

(Change tool to Default tool)

G00 Z5.000000
G00 X298.200941 Y160.976908

G01 Z-0.125000 F100.0(Penetrate)
G01 X298.200941 Y165.789531 Z-0.125000 F400.000000
G01 X309.997039 Y167.420663 Z-0.125000
G01 X321.793138 Y169.051822 Z-0.125000
G01 X321.800476 Y228.334294 Z-0.125000
G01 X321.807814 Y287.616793 Z-0.125000
G01 X303.566070 Y289.201950 Z-0.125000
G01 X285.324354 Y290.787108 Z-0.125000
G01 X284.438317 Y371.681946 Z-0.125000
G02 X284.033325 Y461.977119 Z-0.125000 I6980.804397 J76.458816
G02 X284.734030 Y520.880517 Z-0.125000 I2971.173390 J-5.888695
G01 X285.324354 Y547.944262 Z-0.125000
G01 X304.639135 Y547.944262 Z-0.125000
G01 X323.953916 Y547.944262 Z-0.125000
G01 X323.888187 Y593.050489 Z-0.125000
G01 X323.822457 Y638.156740 Z-0.125000
G01 X320.655105 Y644.135336 Z-0.125000
G01 X317.487753 Y650.113931 Z-0.125000
G01 X304.625165 Y652.384212 Z-0.125000
G01 X291.762605 Y654.654464 Z-0.125000
G01 X323.953916 Y654.601886 Z-0.125000
G01 X356.145255 Y654.549308 Z-0.125000
G01 X342.195688 Y652.470176 Z-0.125000
G01 X328.246093 Y650.391017 Z-0.125000
G01 X328.246093 Y599.167627 Z-0.125000
G01 X328.246093 Y547.944262 Z-0.125000
G01 X347.560902 Y547.944262 Z-0.125000
G01 X366.875683 Y547.944262 Z-0.125000
G01 X366.875683 Y419.069279 Z-0.125000
G01 X366.875683 Y290.194300 Z-0.125000
G01 X347.560902 Y290.194300 Z-0.125000
G01 X328.246093 Y290.194300 Z-0.125000
G01 X328.246093 Y228.334294 Z-0.125000
G01 X328.246093 Y166.474315 Z-0.125000
G01 X342.195688 Y165.864433 Z-0.125000
G01 X356.145255 Y165.254494 Z-0.125000
G01 X343.268725 Y161.319300 Z-0.125000
G02 X330.234065 Y158.320893 Z-0.125000 I-27.750706 J90.806414
G02 X314.296526 Y156.774196 Z-0.125000 I-21.090882 J134.440082
G01 X298.200856 Y156.164314 Z-0.125000
G01 X298.200856 Y160.976908 Z-0.125000
G01 X298.200941 Y160.976908 Z-0.125000
G00 Z5.000000

(Change tool to Default tool)

G00 Z5.000000
G00 X359.306596 Y419.069279

G01 Z-0.125000 F100.0(Penetrate)
G01 X360.437517 Y540.211763 Z-0.125000 F400.000000
G01 X326.100075 Y540.211763 Z-0.125000
G01 X291.762690 Y540.211763 Z-0.125000
G01 X290.611533 Y417.570515 Z-0.125000
G01 X289.460405 Y294.929312 Z-0.125000
G01 X323.818054 Y296.428025 Z-0.125000
G01 X358.175703 Y297.926794 Z-0.125000
G01 X359.306596 Y419.069279 Z-0.125000
G01 X359.306596 Y419.069279 Z-0.125000
G00 Z5.000000

(Change tool to Default tool)

G00 Z5.000000
G00 X172.361960 Y198.614121

G01 Z-0.125000 F100.0(Penetrate)
G01 X167.289628 Y202.401402 Z-0.125000 F400.000000
G01 X180.683934 Y202.480283 Z-0.125000
G01 X194.078240 Y202.559164 Z-0.125000
G01 X194.558317 Y245.087908 Z-0.125000
G03 X194.024701 Y287.492034 Z-0.125000 I-888.266588 J10.027413
G03 X192.678249 Y296.637885 Z-0.125000 I-42.185919 J-1.538572
G01 X190.318112 Y305.659288 Z-0.125000
G01 X171.292561 Y305.659288 Z-0.125000
G01 X152.267015 Y305.659288 Z-0.125000
G01 X152.267015 Y416.209338 Z-0.125000
G01 X152.267015 Y526.759370 Z-0.125000
G01 X172.654844 Y528.330569 Z-0.125000
G01 X193.042677 Y529.901765 Z-0.125000
G01 X193.995865 Y566.972907 Z-0.125000
G01 X194.949051 Y604.044032 Z-0.125000
G01 X178.973252 Y606.057575 Z-0.125000
G01 X162.997451 Y608.071117 Z-0.125000
G01 X195.188762 Y608.112858 Z-0.125000
G01 X227.380073 Y608.154627 Z-0.125000
G01 X213.430506 Y606.075496 Z-0.125000
G01 X199.480939 Y603.996365 Z-0.125000
G01 X199.480939 Y565.465383 Z-0.125000
G01 X199.480939 Y526.934387 Z-0.125000
G01 X209.138332 Y527.931230 Z-0.125000
G02 X218.801895 Y528.471859 Z-0.125000 I10.582622 J-102.524022
G02 X229.526162 Y528.113049 Z-0.125000 I1.129657 J-126.681386
G01 X240.256598 Y527.297999 Z-0.125000
G01 X240.003018 Y464.162593 Z-0.125000
G02 X239.570561 Y401.029052 Z-0.125000 I-11144.484306 J44.770134
G02 X238.929973 Y353.343409 Z-0.125000 I-6357.632909 J61.558575
G01 X238.110512 Y305.659288 Z-0.125000
G01 X218.795725 Y305.659288 Z-0.125000
G01 X199.480939 Y305.659288 Z-0.125000
G01 X199.480939 Y254.109311 Z-0.125000
G01 X199.480939 Y202.559305 Z-0.125000
G01 X212.610775 Y202.559305 Z-0.125000
G01 X225.740610 Y202.559305 Z-0.125000
G01 X223.120327 Y197.467311 Z-0.125000
G01 X220.500043 Y192.375344 Z-0.125000
G01 X198.967173 Y193.601064 Z-0.125000
G02 X177.923829 Y196.171589 Z-0.125000 I9.319372 J163.711969
G02 X172.361960 Y198.614121 Z-0.125000 I2.492873 J13.230209
G01 X172.361960 Y198.614121 Z-0.125000
G00 Z5.000000

(Change tool to Default tool)

G00 Z5.000000
G00 X233.818335 Y416.974648

G01 Z-0.125000 F100.0(Penetrate)
G01 X233.818335 Y522.570664 Z-0.125000 F400.000000
G01 X196.261808 Y521.081217 Z-0.125000
G01 X158.705277 Y519.591766 Z-0.125000
G01 X157.543913 Y415.411238 Z-0.125000
G01 X156.382549 Y311.230778 Z-0.125000
G01 X195.100443 Y311.304494 Z-0.125000
G01 X233.818335 Y311.378606 Z-0.125000
G01 X233.818335 Y416.974648 Z-0.125000
G01 X233.818335 Y416.974648 Z-0.125000
G00 Z5.000000

(Change tool to Default tool)

G00 Z5.000000
G00 X424.721982 Y233.680034

G01 Z-0.125000 F100.0(Penetrate)
G01 X422.167419 Y238.644295 Z-0.125000 F400.000000
G01 X436.573142 Y238.644295 Z-0.125000
G01 X450.978837 Y238.644295 Z-0.125000
G01 X450.775806 Y270.863037 Z-0.125000
G01 X450.572804 Y303.081780 Z-0.125000
G01 X430.184958 Y304.652996 Z-0.125000
G01 X409.797139 Y306.224184 Z-0.125000
G01 X409.797139 Y401.734563 Z-0.125000
G01 X409.797139 Y497.244956 Z-0.125000
G01 X428.956868 Y495.530863 Z-0.125000
G01 X448.116652 Y493.816769 Z-0.125000
G01 X448.271592 Y497.683019 Z-0.125000
G03 X448.357634 Y501.550675 Z-0.125000 I-107.048054 J4.316236
G03 X448.427097 Y534.730155 Z-0.125000 I-7924.237180 J33.179478
G01 X448.427097 Y567.911033 Z-0.125000
G01 X434.477529 Y569.990153 Z-0.125000
G01 X420.527962 Y572.069278 Z-0.125000
G01 X452.719273 Y572.215681 Z-0.125000
G01 X484.910584 Y572.362081 Z-0.125000
G01 X469.887980 Y569.174443 Z-0.125000
G01 X454.865348 Y565.986803 Z-0.125000
G01 X455.394542 Y547.944305 Z-0.125000
G02 X455.918120 Y529.901647 Z-0.125000 I-29528.978364 J-865.944681
G02 X456.467580 Y510.570558 Z-0.125000 I-33414.867826 J-959.423250
G01 X457.011450 Y491.239270 Z-0.125000
G01 X476.437652 Y491.239270 Z-0.125000
G01 X495.863855 Y491.239270 Z-0.125000
G01 X495.110067 Y398.449282 Z-0.125000
G01 X494.356280 Y305.659288 Z-0.125000
G01 X475.683865 Y305.659288 Z-0.125000
G01 X457.011450 Y305.659288 Z-0.125000
G01 X457.011450 Y272.151805 Z-0.125000
G01 X457.011450 Y238.644295 Z-0.125000
G01 X470.603357 Y238.644295 Z-0.125000
G02 X481.219164 Y237.361336 Z-0.125000 I-0.000000 J-44.561558
G02 X481.308737 Y236.257132 Z-0.125000 I-0.139084 J-0.567017
G02 X476.126865 Y234.712835 Z-0.125000 I-9.407828 J22.101856
G02 X453.947476 Y231.554590 Z-0.125000 I-55.673062 J311.516274
G01 X427.276545 Y228.715774 Z-0.125000
G01 X424.721982 Y233.680034 Z-0.125000
G01 X424.721982 Y233.680034 Z-0.125000
G00 Z5.000000

(Change tool to Default tool)

G00 Z5.000000
G00 X487.056659 Y398.449282

G01 Z-0.125000 F100.0(Penetrate)
G01 X487.056659 Y486.084269 Z-0.125000 F400.000000
G01 X453.306916 Y486.084269 Z-0.125000
G01 X419.557146 Y486.084269 Z-0.125000
G01 X417.298183 Y452.285054 Z-0.125000
G01 X415.039220 Y418.485835 Z-0.125000
G01 X417.326941 Y364.650063 Z-0.125000
G01 X419.614691 Y310.814302 Z-0.125000
G01 X453.335675 Y310.814302 Z-0.125000
G01 X487.056659 Y310.814302 Z-0.125000
G01 X487.056659 Y398.449282 Z-0.125000
G01 X487.056659 Y398.449282 Z-0.125000
G00 Z5.000000

(Change tool to Default tool)

G00 Z5.000000
G00 X658.743670 Y501.549268

G01 Z-0.125000 F100.0(Penetrate)
G01 X658.743670 Y980.964201 Z-0.125000 F400.000000
G01 X961.341971 Y980.964201 Z-0.125000
G01 X1263.940301 Y980.964201 Z-0.125000
G01 X1263.940301 Y501.549268 Z-0.125000
G01 X1263.940301 Y22.134327 Z-0.125000
G01 X961.341971 Y22.134327 Z-0.125000
G01 X658.743670 Y22.134327 Z-0.125000
G01 X658.743670 Y501.549268 Z-0.125000
G01 X658.743670 Y501.549268 Z-0.125000
G00 Z5.000000

(Change tool to Default tool)

G00 Z5.000000
G00 X1255.355948 Y501.549268

G01 Z-0.125000 F100.0(Penetrate)
G01 X1255.355948 Y970.654200 Z-0.125000 F400.000000
G01 X961.341971 Y970.654200 Z-0.125000
G01 X667.327995 Y970.654200 Z-0.125000
G01 X667.327995 Y501.549268 Z-0.125000
G01 X667.327995 Y32.444328 Z-0.125000
G01 X961.341971 Y32.444328 Z-0.125000
G01 X1255.355948 Y32.444328 Z-0.125000
G01 X1255.355948 Y501.549268 Z-0.125000
G01 X1255.355948 Y501.549268 Z-0.125000
G00 Z5.000000

(Change tool to Default tool)

G00 Z5.000000
G00 X748.202837 Y120.435262

G01 Z-0.125000 F100.0(Penetrate)
G01 X749.672481 Y151.739972 Z-0.125000 F400.000000
G01 X731.701671 Y138.115017 Z-0.125000
G01 X713.730888 Y124.490090 Z-0.125000
G01 X711.478473 Y127.195275 Z-0.125000
G01 X709.226029 Y129.900460 Z-0.125000
G01 X729.456762 Y144.321169 Z-0.125000
G01 X749.687495 Y158.741821 Z-0.125000
G01 X747.137307 Y189.139243 Z-0.125000
G02 X745.295565 Y219.567508 Z-0.125000 I653.492227 J54.824021
G02 X744.450665 Y261.309223 Z-0.125000 I1229.263932 J45.761130
G01 X744.314182 Y303.081780 Z-0.125000
G01 X737.665280 Y292.771807 Z-0.125000
G03 X731.691574 Y282.104069 Z-0.125000 I82.514232 J-53.212653
G03 X718.205973 Y252.298912 Z-0.125000 I633.492388 J-304.582524
G01 X705.395568 Y222.136045 Z-0.125000
G01 X703.241930 Y224.722611 Z-0.125000
G01 X701.088292 Y227.309122 Z-0.125000
G01 X712.716243 Y254.885478 Z-0.125000
G02 X725.224084 Y282.001197 Z-0.125000 I415.110789 J-175.038157
G02 X734.975138 Y299.215533 Z-0.125000 I176.721340 J-88.734829
G01 X745.606082 Y315.969289 Z-0.125000
G01 X741.761002 Y315.969289 Z-0.125000
G02 X738.456324 Y317.193098 Z-0.125000 I-0.000000 J5.073752
G02 X724.082884 Y331.143701 Z-0.125000 I106.764050 J124.379865
G01 X710.249762 Y346.318113 Z-0.125000
G01 X710.249762 Y369.347969 Z-0.125000
G01 X710.249762 Y392.377773 Z-0.125000
G01 X723.457085 Y405.725047 Z-0.125000
G01 X736.664407 Y419.072268 Z-0.125000
G01 X747.666784 Y422.388841 Z-0.125000
G01 X758.669190 Y425.705362 Z-0.125000
G01 X769.431452 Y421.098544 Z-0.125000
G01 X780.193742 Y416.491780 Z-0.125000
G01 X788.742846 Y402.699526 Z-0.125000
G01 X797.291922 Y388.907275 Z-0.125000
G01 X799.260845 Y364.037032 Z-0.125000
G01 X801.229740 Y339.166788 Z-0.125000
G01 X791.911694 Y324.990550 Z-0.125000
G01 X782.593675 Y310.814302 Z-0.125000
G01 X767.882588 Y310.814302 Z-0.125000
G01 X753.171501 Y310.814302 Z-0.125000
G01 X753.171501 Y290.842423 Z-0.125000
G01 X753.171501 Y270.870516 Z-0.125000
G01 X759.655613 Y248.798312 Z-0.125000
G02 X764.798640 Y227.003931 Z-0.125000 I-199.079216 J-58.482635
G02 X764.067875 Y224.237725 Z-0.125000 I-3.333812 J-0.598915
G02 X762.518580 Y224.358794 Z-0.125000 I-0.731764 J0.609305
G02 X758.200052 Y234.063094 Z-0.125000 I38.194072 J22.809862
G03 X754.392922 Y246.373328 Z-0.125000 I-6798.283918 J-2095.730476
G03 X751.980551 Y254.109311 Z-0.125000 I-2686.790033 J-833.598116
G01 X749.557024 Y261.841805 Z-0.125000
G01 X749.273729 Y246.376789 Z-0.125000
G01 X748.990463 Y230.911801 Z-0.125000
G01 X761.230949 Y200.243785 Z-0.125000
G01 X773.471435 Y169.575768 Z-0.125000
G01 X764.714361 Y161.059233 Z-0.125000
G01 X755.957344 Y152.542782 Z-0.125000
G01 X754.048337 Y120.846009 Z-0.125000
G01 X752.139357 Y89.149320 Z-0.125000
G01 X749.436120 Y89.138878 Z-0.125000
G01 X746.732855 Y89.128718 Z-0.125000
G01 X748.202442 Y120.433428 Z-0.125000
G01 X748.202837 Y120.435262 Z-0.125000
G00 Z5.000000

(Change tool to Default tool)

G00 Z5.000000
G00 X760.531122 Y185.686536

G01 Z-0.125000 F100.0(Penetrate)
G01 X755.337923 Y199.375528 Z-0.125000 F400.000000
G01 X753.891732 Y190.356298 Z-0.125000
G03 X753.455202 Y181.413123 Z-0.125000 I40.186405 J-6.443799
G03 X754.924242 Y173.578921 Z-0.125000 I32.183807 J1.980148
G01 X757.403028 Y165.820858 Z-0.125000
G01 X761.563689 Y168.909159 Z-0.125000
G01 X765.724322 Y171.997489 Z-0.125000
G01 X760.531122 Y185.686536 Z-0.125000
G01 X760.531122 Y185.686536 Z-0.125000
G00 Z5.000000

(Change tool to Default tool)

G00 Z5.000000
G00 X783.752819 Y325.764094

G01 Z-0.125000 F100.0(Penetrate)
G01 X793.824314 Y335.558907 Z-0.125000 F400.000000
G01 X793.386390 Y355.617680 Z-0.125000
G01 X792.948465 Y375.676452 Z-0.125000
G01 X785.892091 Y392.065071 Z-0.125000
G01 X778.835689 Y408.453639 Z-0.125000
G01 X771.042997 Y413.462548 Z-0.125000
G01 X763.250334 Y418.471402 Z-0.125000
G01 X746.612600 Y411.601848 Z-0.125000
G01 X729.974866 Y404.732246 Z-0.125000
G01 X722.258402 Y393.287167 Z-0.125000
G01 X714.541939 Y381.842090 Z-0.125000
G01 X714.541939 Y367.959418 Z-0.125000
G01 X714.541939 Y354.076746 Z-0.125000
G01 X728.491506 Y338.233372 Z-0.125000
G03 X739.789975 Y326.498284 Z-0.125000 I137.342739 J120.926130
G03 X746.836871 Y321.111218 Z-0.125000 I28.568527 J30.068290
G03 X754.771922 Y317.796948 Z-0.125000 I14.939118 J24.611135
G03 X764.499506 Y316.376281 Z-0.125000 I11.892185 J47.414457
G01 X773.681352 Y315.969543 Z-0.125000
G01 X783.752819 Y325.764348 Z-0.125000
G01 X783.752819 Y325.764094 Z-0.125000
G00 Z5.000000

(Change tool to Default tool)

G00 Z5.000000
G00 X1006.409813 Y161.319300

G01 Z-0.125000 F100.0(Penetrate)
G01 X1006.409813 Y166.474315 Z-0.125000 F400.000000
G01 X1019.072757 Y166.474315 Z-0.125000
G01 X1031.735673 Y166.474315 Z-0.125000
G01 X1030.876250 Y227.045554 Z-0.125000
G01 X1030.016770 Y287.616793 Z-0.125000
G01 X1012.187946 Y289.177736 Z-0.125000
G01 X994.359065 Y290.738622 Z-0.125000
G01 X992.873165 Y381.967716 Z-0.125000
G02 X992.108786 Y473.188892 Z-0.125000 I5767.311954 J93.940385
G02 X992.812628 Y510.570516 Z-0.125000 I968.780524 J0.456706
G01 X994.237907 Y547.944262 Z-0.125000
G01 X1013.355894 Y547.944262 Z-0.125000
G01 X1032.473882 Y547.944262 Z-0.125000
G01 X1031.245425 Y598.205503 Z-0.125000
G01 X1030.016770 Y648.466741 Z-0.125000
G01 X1014.994166 Y651.654385 Z-0.125000
G01 X999.971562 Y654.842028 Z-0.125000
G01 X1032.162873 Y654.695612 Z-0.125000
G01 X1064.354184 Y654.549223 Z-0.125000
G01 X1050.404617 Y652.470092 Z-0.125000
G01 X1036.455049 Y650.390961 Z-0.125000
G01 X1036.455049 Y599.167599 Z-0.125000
G01 X1036.455049 Y547.944223 Z-0.125000
G01 X1055.769830 Y547.944223 Z-0.125000
G01 X1075.084611 Y547.944223 Z-0.125000
G01 X1075.084611 Y419.069236 Z-0.125000
G01 X1075.084611 Y290.194244 Z-0.125000
G01 X1055.769830 Y290.194244 Z-0.125000
G01 X1036.455049 Y290.194244 Z-0.125000
G01 X1036.455049 Y228.334266 Z-0.125000
G01 X1036.455049 Y166.474259 Z-0.125000
G01 X1050.404617 Y165.864376 Z-0.125000
G01 X1064.354184 Y165.254438 Z-0.125000
G01 X1051.477654 Y161.319272 Z-0.125000
G02 X1038.443002 Y158.320851 Z-0.125000 I-27.750031 J90.803021
G02 X1022.505482 Y156.774168 Z-0.125000 I-21.090918 J134.441554
G01 X1006.409813 Y156.164314 Z-0.125000
G01 X1006.409813 Y161.319300 Z-0.125000
G01 X1006.409813 Y161.319300 Z-0.125000
G00 Z5.000000

(Change tool to Default tool)

G00 Z5.000000
G00 X1067.674952 Y419.069279

G01 Z-0.125000 F100.0(Penetrate)
G01 X1068.646360 Y540.211763 Z-0.125000 F400.000000
G01 X1034.308947 Y540.211763 Z-0.125000
G01 X999.971562 Y540.211763 Z-0.125000
G01 X998.820434 Y417.570515 Z-0.125000
G01 X997.669277 Y294.929312 Z-0.125000
G01 X1032.186438 Y296.428025 Z-0.125000
G01 X1066.703571 Y297.926794 Z-0.125000
G01 X1067.674952 Y419.069279 Z-0.125000
G01 X1067.674952 Y419.069279 Z-0.125000
G00 Z5.000000

(Change tool to Default tool)

G00 Z5.000000
G00 X880.570818 Y198.614121

G01 Z-0.125000 F100.0(Penetrate)
G01 X875.498494 Y202.401402 Z-0.125000 F400.000000
G01 X889.202246 Y202.480283 Z-0.125000
G01 X902.905997 Y202.559305 Z-0.125000
G01 X902.078776 Y252.820543 Z-0.125000
G01 X901.251526 Y303.081780 Z-0.125000
G01 X880.863708 Y304.652996 Z-0.125000
G01 X860.475861 Y306.224184 Z-0.125000
G01 X860.475861 Y416.491780 Z-0.125000
G01 X860.475861 Y526.759370 Z-0.125000
G01 X880.863708 Y528.330569 Z-0.125000
G01 X901.251526 Y529.901765 Z-0.125000
G01 X902.507161 Y566.951255 Z-0.125000
G01 X903.762796 Y604.000739 Z-0.125000
G01 X887.484556 Y606.035928 Z-0.125000
G01 X871.206317 Y608.071117 Z-0.125000
G01 X903.397628 Y608.112858 Z-0.125000
G01 X935.588939 Y608.154627 Z-0.125000
G01 X921.639372 Y606.075496 Z-0.125000
G01 X907.689805 Y603.996365 Z-0.125000
G01 X907.689805 Y565.465383 Z-0.125000
G01 X907.689805 Y526.934387 Z-0.125000
G01 X917.347196 Y527.931230 Z-0.125000
G02 X927.010985 Y528.475087 Z-0.125000 I10.658265 J-103.256798
G02 X937.735014 Y528.126553 Z-0.125000 I1.222069 J-127.556165
G01 X948.465441 Y527.325039 Z-0.125000
G01 X947.727204 Y430.668573 Z-0.125000
G02 X946.890236 Y334.013698 Z-0.125000 I-47311.284568 J361.353963
G02 X946.654167 Y319.835874 Z-0.125000 I-1017.395284 J9.849325
G01 X946.319367 Y305.659288 Z-0.125000
G01 X927.004586 Y305.659288 Z-0.125000
G01 X907.689805 Y305.659288 Z-0.125000
G01 X907.689805 Y254.109311 Z-0.125000
G01 X907.689805 Y202.559305 Z-0.125000
G01 X920.819630 Y202.559305 Z-0.125000
G01 X933.949454 Y202.559305 Z-0.125000
G01 X931.329218 Y197.467311 Z-0.125000
G01 X928.708926 Y192.375344 Z-0.125000
G01 X907.176019 Y193.601064 Z-0.125000
G02 X886.132668 Y196.171587 Z-0.125000 I9.319427 J163.712615
G02 X880.570818 Y198.614121 Z-0.125000 I2.492841 J13.230066
G01 X880.570818 Y198.614121 Z-0.125000
G00 Z5.000000

(Change tool to Default tool)

G00 Z5.000000
G00 X942.027190 Y416.974648

G01 Z-0.125000 F100.0(Penetrate)
G01 X942.027190 Y522.570664 Z-0.125000 F400.000000
G01 X904.470665 Y521.081217 Z-0.125000
G01 X866.914141 Y519.591766 Z-0.125000
G01 X866.017238 Y415.411755 Z-0.125000
G01 X865.120336 Y311.231794 Z-0.125000
G01 X903.573763 Y311.305002 Z-0.125000
G01 X942.027190 Y311.378211 Z-0.125000
G01 X942.027190 Y416.974236 Z-0.125000
G01 X942.027190 Y416.974648 Z-0.125000
G00 Z5.000000

(Change tool to Default tool)

G00 Z5.000000
G00 X1132.930797 Y233.680034

G01 Z-0.125000 F100.0(Penetrate)
G01 X1130.376291 Y238.644295 Z-0.125000 F400.000000
G01 X1145.238706 Y238.644295 Z-0.125000
G01 X1160.101121 Y238.644295 Z-0.125000
G01 X1159.441596 Y270.863037 Z-0.125000
G01 X1158.782015 Y303.081780 Z-0.125000
G01 X1138.394196 Y304.652996 Z-0.125000
G01 X1118.006350 Y306.224184 Z-0.125000
G01 X1118.006350 Y401.734563 Z-0.125000
G01 X1118.006350 Y497.244956 Z-0.125000
G01 X1137.166106 Y495.530863 Z-0.125000
G01 X1156.325863 Y493.816769 Z-0.125000
G01 X1156.480803 Y497.683019 Z-0.125000
G03 X1156.566508 Y501.550663 Z-0.125000 I-107.555895 J4.318155
G03 X1156.635940 Y534.730155 Z-0.125000 I-7927.650395 J33.179493
G01 X1156.635940 Y567.911033 Z-0.125000
G01 X1142.686373 Y569.990153 Z-0.125000
G01 X1128.736806 Y572.069278 Z-0.125000
G01 X1160.928117 Y572.215681 Z-0.125000
G01 X1193.119428 Y572.362081 Z-0.125000
G01 X1178.096796 Y569.174443 Z-0.125000
G01 X1163.074191 Y565.986803 Z-0.125000
G01 X1163.380656 Y554.388053 Z-0.125000
G03 X1163.700473 Y542.789674 Z-0.125000 I5127.326896 J135.578876
G03 X1164.453693 Y517.014307 Z-0.125000 I24986.267688 J717.260754
G01 X1165.220294 Y491.239270 Z-0.125000
G01 X1184.571594 Y491.239270 Z-0.125000
G01 X1203.922867 Y491.239270 Z-0.125000
G01 X1203.636580 Y398.449282 Z-0.125000
G01 X1203.350294 Y305.659288 Z-0.125000
G01 X1184.285223 Y305.659288 Z-0.125000
G01 X1165.220096 Y305.659288 Z-0.125000
G01 X1165.220096 Y272.151805 Z-0.125000
G01 X1165.220096 Y238.644295 Z-0.125000
G01 X1178.812003 Y238.644295 Z-0.125000
G02 X1189.427824 Y237.361335 Z-0.125000 I0.000000 J-44.561660
G02 X1189.517398 Y236.257132 Z-0.125000 I-0.139083 J-0.567017
G02 X1184.335523 Y234.712835 Z-0.125000 I-9.407832 J22.101867
G02 X1162.156151 Y231.554590 Z-0.125000 I-55.673083 J311.516310
G01 X1135.485219 Y228.715774 Z-0.125000
G01 X1132.930628 Y233.680034 Z-0.125000
G01 X1132.930797 Y233.680034 Z-0.125000
G00 Z5.000000

(Change tool to Default tool)

G00 Z5.000000
G00 X1195.265502 Y398.449282

G01 Z-0.125000 F100.0(Penetrate)
G01 X1195.265502 Y486.084269 Z-0.125000 F400.000000
G01 X1160.928117 Y486.084269 Z-0.125000
G01 X1126.590703 Y486.084269 Z-0.125000
G01 X1125.759192 Y459.020524 Z-0.125000
G03 X1125.280380 Y425.949037 Z-0.125000 I1018.056991 J-31.278724
G03 X1125.949749 Y350.765537 Z-0.125000 I5263.165288 J9.263895
G01 X1126.590703 Y310.814302 Z-0.125000
G01 X1160.928117 Y310.814302 Z-0.125000
G01 X1195.265502 Y310.814302 Z-0.125000
G01 X1195.265502 Y398.449282 Z-0.125000
G01 X1195.265502 Y398.449282 Z-0.125000
G00 Z5.000000

(Change tool to Default tool)

G00 Z5.000000
G00 X1302.569863 Y501.549268

G01 Z-0.125000 F100.0(Penetrate)
G01 X1302.569863 Y981.033826 Z-0.125000 F400.000000
G01 X1604.095156 Y979.710260 Z-0.125000
G01 X1905.620420 Y978.386694 Z-0.125000
G01 X1905.620420 Y501.549268 Z-0.125000
G01 X1905.620420 Y24.711834 Z-0.125000
G01 X1604.095156 Y23.388268 Z-0.125000
G01 X1302.569863 Y22.064674 Z-0.125000
G01 X1302.569863 Y501.549268 Z-0.125000
G01 X1302.569863 Y501.549268 Z-0.125000
G00 Z5.000000

(Change tool to Default tool)

G00 Z5.000000
G00 X1899.182169 Y501.549268

G01 Z-0.125000 F100.0(Penetrate)
G01 X1899.182169 Y970.654200 Z-0.125000 F400.000000
G01 X1603.022119 Y970.654200 Z-0.125000
G01 X1306.862040 Y970.654200 Z-0.125000
G01 X1306.862040 Y501.549268 Z-0.125000
G01 X1306.862040 Y32.444328 Z-0.125000
G01 X1603.022119 Y32.444328 Z-0.125000
G01 X1899.182169 Y32.444328 Z-0.125000
G01 X1899.182169 Y501.549268 Z-0.125000
G01 X1899.182169 Y501.549268 Z-0.125000
G00 Z5.000000

(Change tool to Default tool)

G00 Z5.000000
G00 X1581.561235 Y161.319300

G01 Z-0.125000 F100.0(Penetrate)
G01 X1581.561235 Y166.474315 Z-0.125000 F400.000000
G01 X1594.437765 Y166.474315 Z-0.125000
G01 X1607.314295 Y166.474315 Z-0.125000
G01 X1607.314295 Y228.334294 Z-0.125000
G01 X1607.314295 Y290.194300 Z-0.125000
G01 X1587.999486 Y290.194300 Z-0.125000
G01 X1568.684705 Y290.194300 Z-0.125000
G01 X1568.684705 Y419.069279 Z-0.125000
G01 X1568.684705 Y547.944262 Z-0.125000
G01 X1587.999486 Y547.944262 Z-0.125000
G01 X1607.314295 Y547.944262 Z-0.125000
G01 X1607.314295 Y599.167627 Z-0.125000
G01 X1607.314295 Y650.391017 Z-0.125000
G01 X1593.364728 Y652.470148 Z-0.125000
G01 X1579.415161 Y654.549251 Z-0.125000
G01 X1611.606472 Y654.549251 Z-0.125000
G01 X1643.797783 Y654.549251 Z-0.125000
G01 X1629.848216 Y652.470148 Z-0.125000
G01 X1615.898621 Y650.391017 Z-0.125000
G01 X1615.898621 Y599.167627 Z-0.125000
G01 X1615.898621 Y547.944262 Z-0.125000
G01 X1635.291069 Y547.944262 Z-0.125000
G01 X1654.683461 Y547.944262 Z-0.125000
G01 X1653.703078 Y419.069279 Z-0.125000
G01 X1652.722694 Y290.194300 Z-0.125000
G01 X1634.310657 Y290.194300 Z-0.125000
G01 X1615.898621 Y290.194300 Z-0.125000
G01 X1615.690905 Y276.018052 Z-0.125000
G02 X1615.294246 Y261.847819 Z-0.125000 I-531.244259 J7.780123
G02 X1613.133238 Y214.158046 Z-0.125000 I-6027.343970 J249.228485
G01 X1610.783399 Y166.474315 Z-0.125000
G01 X1625.144531 Y165.960360 Z-0.125000
G01 X1639.505635 Y165.446405 Z-0.125000
G01 X1628.775151 Y161.319300 Z-0.125000
G02 X1617.809435 Y158.366738 Z-0.125000 I-19.603183 J50.966131
G02 X1599.802979 Y156.678156 Z-0.125000 I-21.906015 J136.746531
G01 X1581.561235 Y156.164314 Z-0.125000
G01 X1581.561235 Y161.319300 Z-0.125000
G01 X1581.561235 Y161.319300 Z-0.125000
G00 Z5.000000

(Change tool to Default tool)

G00 Z5.000000
G00 X1645.943857 Y419.069279

G01 Z-0.125000 F100.0(Penetrate)
G01 X1645.943857 Y542.789265 Z-0.125000 F400.000000
G01 X1611.606472 Y542.789265 Z-0.125000
G01 X1577.269059 Y542.789265 Z-0.125000
G01 X1577.269059 Y419.069279 Z-0.125000
G01 X1577.269059 Y295.349287 Z-0.125000
G01 X1611.606472 Y295.349287 Z-0.125000
G01 X1645.943857 Y295.349287 Z-0.125000
G01 X1645.943857 Y419.069279 Z-0.125000
G01 X1645.943857 Y419.069279 Z-0.125000
G00 Z5.000000

(Change tool to Default tool)

G00 Z5.000000
G00 X1458.278355 Y198.330713

G01 Z-0.125000 F100.0(Penetrate)
G01 X1450.649917 Y201.834671 Z-0.125000 F400.000000
G01 X1464.599484 Y202.197073 Z-0.125000
G01 X1478.549051 Y202.559305 Z-0.125000
G01 X1478.549051 Y254.109311 Z-0.125000
G01 X1478.549051 Y305.659288 Z-0.125000
G01 X1457.088168 Y305.659288 Z-0.125000
G01 X1435.627284 Y305.659288 Z-0.125000
G01 X1435.627284 Y347.394630 Z-0.125000
G01 X1435.627284 Y389.130022 Z-0.125000
G01 X1428.635849 Y418.275873 Z-0.125000
G03 X1420.371278 Y446.999877 Z-0.125000 I-325.014060 J-77.963224
G03 X1408.401165 Y478.351770 Z-0.125000 I-399.313260 J-134.496270
G01 X1395.157887 Y509.281768 Z-0.125000
G01 X1395.445020 Y542.789265 Z-0.125000
G01 X1395.732181 Y576.296770 Z-0.125000
G01 X1405.067472 Y604.649258 Z-0.125000
G01 X1414.402734 Y633.001754 Z-0.125000
G01 X1411.696646 Y664.567858 Z-0.125000
G01 X1408.990558 Y696.133962 Z-0.125000
G01 X1414.070050 Y707.533002 Z-0.125000
G01 X1419.149542 Y718.932071 Z-0.125000
G01 X1433.862831 Y726.315456 Z-0.125000
G01 X1448.576091 Y733.698869 Z-0.125000
G01 X1460.343432 Y730.554913 Z-0.125000
G02 X1472.079611 Y727.304706 Z-0.125000 I-172.890511 J-647.104889
G02 X1478.970691 Y725.213519 Z-0.125000 I-64.569215 J-225.174331
G01 X1485.830667 Y723.016052 Z-0.125000
G01 X1490.774184 Y709.985090 Z-0.125000
G01 X1495.717730 Y696.954128 Z-0.125000
G01 X1495.717730 Y679.549709 Z-0.125000
G01 X1495.717730 Y662.145291 Z-0.125000
G01 X1484.453225 Y646.067034 Z-0.125000
G03 X1474.523953 Y630.144696 Z-0.125000 I143.600585 J-100.607394
G03 X1474.795834 Y628.558645 Z-0.125000 I1.129074 J-0.622783
G03 X1476.595622 Y627.457547 Z-0.125000 I3.957509 J4.447245
G03 X1494.733000 Y620.805182 Z-0.125000 I180.902670 J465.171501
G01 X1513.063023 Y614.481852 Z-0.125000
G01 X1517.266892 Y617.602270 Z-0.125000
G01 X1521.470790 Y620.722716 Z-0.125000
G01 X1521.470790 Y610.599010 Z-0.125000
G01 X1521.470790 Y600.475304 Z-0.125000
G01 X1505.072578 Y603.116932 Z-0.125000
G01 X1488.674366 Y605.758532 Z-0.125000
G01 X1487.840653 Y578.140132 Z-0.125000
G02 X1486.753337 Y550.537994 Z-0.125000 I-1501.366724 J45.320066
G02 X1485.997121 Y540.211763 Z-0.125000 I-210.779350 J10.245088
G01 X1484.987302 Y529.901765 Z-0.125000
G01 X1495.717730 Y529.342804 Z-0.125000
G02 X1506.444391 Y528.724409 Z-0.125000 I-50.450469 J-968.454305
G02 X1516.105576 Y528.054053 Z-0.125000 I-49.675734 J-785.881244
G01 X1525.762966 Y527.324266 Z-0.125000
G01 X1525.762966 Y416.491780 Z-0.125000
G01 X1525.762966 Y305.659288 Z-0.125000
G01 X1505.114516 Y305.659288 Z-0.125000
G01 X1484.466009 Y305.659288 Z-0.125000
G01 X1485.112637 Y268.285559 Z-0.125000
G03 X1485.919308 Y230.917045 Z-0.125000 I4371.100200 J75.665626
G03 X1486.446306 Y216.735553 Z-0.125000 I628.544810 J16.256808
G01 X1487.133404 Y202.559305 Z-0.125000
G01 X1497.863832 Y202.559305 Z-0.125000
G01 X1508.594260 Y202.559305 Z-0.125000
G01 X1508.594260 Y197.448938 Z-0.125000
G01 X1508.594260 Y192.338655 Z-0.125000
G01 X1487.250527 Y193.582691 Z-0.125000
G02 X1466.178764 Y195.917039 Z-0.125000 I11.843803 J203.184781
G02 X1458.278355 Y198.330713 Z-0.125000 I4.997381 J30.493968
G01 X1458.278355 Y198.330713 Z-0.125000
G00 Z5.000000

(Change tool to Default tool)

G00 Z5.000000
G00 X1517.926220 Y322.670797

G01 Z-0.125000 F100.0(Penetrate)
G03 X1518.357832 Y334.022736 Z-0.125000 I-203.719299 J13.429793 F400.000000
G03 X1518.999257 Y428.090320 Z-0.125000 I-14001.870100 J142.511424
G01 X1519.324687 Y522.168890 Z-0.125000
G01 X1481.770392 Y522.169082 Z-0.125000
G01 X1444.216068 Y522.169265 Z-0.125000
G01 X1444.403210 Y416.749528 Z-0.125000
G01 X1444.590352 Y311.329781 Z-0.125000
G01 X1480.884271 Y311.329781 Z-0.125000
G01 X1517.178274 Y311.329781 Z-0.125000
G01 X1517.925881 Y322.670797 Z-0.125000
G01 X1517.926220 Y322.670797 Z-0.125000
G00 Z5.000000

(Change tool to Default tool)

G00 Z5.000000
G00 X1437.773387 Y471.906743

G01 Z-0.125000 F100.0(Penetrate)
G01 X1437.773387 Y529.901765 Z-0.125000 F400.000000
G01 X1441.312284 Y551.401654 Z-0.125000
G01 X1444.851181 Y572.901538 Z-0.125000
G01 X1434.994570 Y574.599152 Z-0.125000
G01 X1425.138044 Y576.296770 Z-0.125000
G01 X1420.151600 Y596.916735 Z-0.125000
G01 X1415.165213 Y617.536738 Z-0.125000
G01 X1409.964196 Y602.071750 Z-0.125000
G01 X1404.763208 Y586.606763 Z-0.125000
G01 X1402.493605 Y555.676762 Z-0.125000
G01 X1400.223974 Y524.746767 Z-0.125000
G01 X1416.113988 Y546.655512 Z-0.125000
G02 X1432.775715 Y567.051359 Z-0.125000 I185.557153 J-134.581358
G02 X1436.217241 Y568.564259 Z-0.125000 I3.441526 J-3.157919
G01 X1440.430452 Y568.564259 Z-0.125000
G01 X1423.006278 Y543.746252 Z-0.125000
G01 X1405.582076 Y518.928250 Z-0.125000
G01 X1405.582076 Y510.091757 Z-0.125000
G03 X1406.919079 Y501.522045 Z-0.125000 I28.132894 J0.000000
G03 X1417.840765 Y471.761017 Z-0.125000 I357.988055 J114.489733
G02 X1429.167015 Y441.982396 Z-0.125000 I-483.004148 J-200.753106
G02 X1432.945185 Y428.090526 Z-0.125000 I-100.941994 J-34.912895
G03 X1436.172820 Y414.379943 Z-0.125000 I208.647538 J41.882910
G03 X1436.782109 Y413.912991 Z-0.125000 I0.610124 J0.165120
G03 X1437.281972 Y414.403875 Z-0.125000 I0.000517 J0.499419
G03 X1437.773387 Y471.906743 Z-0.125000 I-3364.105703 J57.502868
G01 X1437.773387 Y471.906743 Z-0.125000
G00 Z5.000000

(Change tool to Default tool)

G00 Z5.000000
G00 X1478.549051 Y553.099263

G01 Z-0.125000 F100.0(Penetrate)
G01 X1478.549051 Y578.874249 Z-0.125000 F400.000000
G01 X1466.013587 Y578.874249 Z-0.125000
G01 X1453.478066 Y578.874249 Z-0.125000
G01 X1450.670519 Y562.120510 Z-0.125000
G02 X1447.674143 Y545.404675 Z-0.125000 I-738.787714 J123.804001
G02 X1445.748084 Y536.345513 Z-0.125000 I-218.866466 J41.798644
G01 X1443.633138 Y527.324266 Z-0.125000
G01 X1461.091095 Y527.324266 Z-0.125000
G01 X1478.549051 Y527.324266 Z-0.125000
G01 X1478.549051 Y553.099263 Z-0.125000
G01 X1478.549051 Y553.099263 Z-0.125000
G00 Z5.000000

(Change tool to Default tool)

G00 Z5.000000
G00 X1446.724544 Y583.316390

G01 Z-0.125000 F100.0(Penetrate)
G01 X1444.438657 Y587.758568 Z-0.125000 F400.000000
G01 X1460.277589 Y587.182637 Z-0.125000
G01 X1476.116549 Y586.606763 Z-0.125000
G01 X1477.591415 Y595.278210 Z-0.125000
G01 X1479.066280 Y603.949685 Z-0.125000
G01 X1464.858112 Y606.051987 Z-0.125000
G01 X1450.649917 Y608.154260 Z-0.125000
G01 X1474.256874 Y609.371428 Z-0.125000
G01 X1497.863832 Y610.588624 Z-0.125000
G01 X1482.841228 Y617.455966 Z-0.125000
G01 X1467.818595 Y624.323336 Z-0.125000
G01 X1451.746209 Y621.564388 Z-0.125000
G01 X1435.673823 Y618.805468 Z-0.125000
G01 X1428.509978 Y625.903611 Z-0.125000
G01 X1421.346106 Y633.001754 Z-0.125000
G01 X1424.351377 Y610.295932 Z-0.125000
G03 X1428.018229 Y587.797268 Z-0.125000 I377.091511 J49.910549
G03 X1429.599187 Y583.232203 Z-0.125000 I16.772352 J3.252257
G01 X1431.841725 Y578.874249 Z-0.125000
G01 X1440.426078 Y578.874249 Z-0.125000
G01 X1449.010431 Y578.874249 Z-0.125000
G01 X1446.724544 Y583.316390 Z-0.125000
G01 X1446.724544 Y583.316390 Z-0.125000
G00 Z5.000000

(Change tool to Default tool)

G00 Z5.000000
G00 X1464.391091 Y635.370558

G01 Z-0.125000 F100.0(Penetrate)
G01 X1478.132265 Y645.433304 Z-0.125000 F400.000000
G01 X1485.051169 Y661.502529 Z-0.125000
G01 X1491.970016 Y677.571755 Z-0.125000
G01 X1489.211830 Y692.654077 Z-0.125000
G01 X1486.453672 Y707.736428 Z-0.125000
G01 X1477.254131 Y715.475328 Z-0.125000
G01 X1468.054618 Y723.214229 Z-0.125000
G01 X1453.704859 Y723.214229 Z-0.125000
G01 X1439.355129 Y723.214229 Z-0.125000
G01 X1431.641629 Y718.256233 Z-0.125000
G01 X1423.928101 Y713.298238 Z-0.125000
G01 X1418.561052 Y697.736307 Z-0.125000
G01 X1413.193976 Y682.174376 Z-0.125000
G01 X1415.737306 Y670.475559 Z-0.125000
G03 X1419.179690 Y659.099213 Z-0.125000 I72.883614 J15.844959
G03 X1426.890869 Y642.022987 Z-0.125000 I172.559316 J67.644103
G01 X1435.501103 Y625.269232 Z-0.125000
G01 X1443.075496 Y625.288423 Z-0.125000
G03 X1450.132680 Y626.882759 Z-0.125000 I-0.042748 J16.605379
G03 X1464.391091 Y635.370473 Z-0.125000 I-37.342304 J78.951021
G01 X1464.391091 Y635.370558 Z-0.125000
G00 Z5.000000

(Change tool to Default tool)

G00 Z5.000000
G00 X1710.326480 Y233.597033

G01 Z-0.125000 F100.0(Penetrate)
G01 X1710.326480 Y238.644295 Z-0.125000 F400.000000
G01 X1723.203010 Y238.644295 Z-0.125000
G01 X1736.079540 Y238.644295 Z-0.125000
G01 X1736.079540 Y272.151805 Z-0.125000
G01 X1736.079540 Y305.659288 Z-0.125000
G01 X1716.764730 Y305.659288 Z-0.125000
G01 X1697.449949 Y305.659288 Z-0.125000
G01 X1697.449949 Y401.727448 Z-0.125000
G01 X1697.449949 Y497.795645 Z-0.125000
G01 X1716.951618 Y494.585308 Z-0.125000
G01 X1736.453343 Y491.374971 Z-0.125000
G01 X1735.193362 Y528.646053 Z-0.125000
G01 X1733.933437 Y565.917136 Z-0.125000
G01 X1721.056907 Y569.208285 Z-0.125000
G01 X1708.180405 Y572.499433 Z-0.125000
G01 X1738.225614 Y572.284366 Z-0.125000
G01 X1768.270851 Y572.069298 Z-0.125000
G01 X1754.138996 Y569.973849 Z-0.125000
G01 X1740.007170 Y567.878397 Z-0.125000
G01 X1741.262466 Y530.847593 Z-0.125000
G01 X1742.517791 Y493.816769 Z-0.125000
G01 X1760.759534 Y492.231617 Z-0.125000
G01 X1779.001278 Y490.646465 Z-0.125000
G01 X1779.001278 Y398.449282 Z-0.125000
G01 X1779.001278 Y306.252124 Z-0.125000
G01 X1760.870786 Y304.666966 Z-0.125000
G01 X1742.740351 Y303.081780 Z-0.125000
G01 X1741.635536 Y270.863037 Z-0.125000
G01 X1740.530720 Y238.644295 Z-0.125000
G01 X1756.189171 Y238.644295 Z-0.125000
G02 X1768.738092 Y237.289241 Z-0.125000 I0.000000 J-58.784226
G02 X1768.847776 Y236.144413 Z-0.125000 I-0.128926 J-0.590021
G02 X1763.506379 Y234.568292 Z-0.125000 I-9.248876 J21.505069
G02 X1739.209074 Y231.341513 Z-0.125000 I-57.358859 J338.814629
G01 X1710.326480 Y228.549742 Z-0.125000
G01 X1710.326480 Y233.597033 Z-0.125000
G01 X1710.326480 Y233.597033 Z-0.125000
G00 Z5.000000

(Change tool to Default tool)

G00 Z5.000000
G00 X1774.709102 Y398.449282

G01 Z-0.125000 F100.0(Penetrate)
G01 X1774.709102 Y486.084269 Z-0.125000 F400.000000
G01 X1738.225614 Y486.084269 Z-0.125000
G01 X1701.742126 Y486.084269 Z-0.125000
G01 X1701.742126 Y401.885964 Z-0.125000
G01 X1701.742126 Y317.687599 Z-0.125000
G01 X1704.603605 Y314.250979 Z-0.125000
G01 X1707.465028 Y310.814302 Z-0.125000
G01 X1741.087093 Y310.814302 Z-0.125000
G01 X1774.709102 Y310.814302 Z-0.125000
G01 X1774.709102 Y398.449282 Z-0.125000
G01 X1774.709102 Y398.449282 Z-0.125000
G00 Z5.000000

(Change tool to Default tool)

G00 Z5.000000
G00 X1943.154734 Y500.260518

G01 Z-0.125000 F100.0(Penetrate)
G01 X1944.250010 Y978.386694 Z-0.125000 F400.000000
G01 X2245.775275 Y979.710260 Z-0.125000
G01 X2547.300567 Y981.033826 Z-0.125000
G01 X2547.300567 Y501.584080 Z-0.125000
G01 X2547.300567 Y22.134327 Z-0.125000
G01 X2244.679999 Y22.134327 Z-0.125000
G01 X1942.059458 Y22.134327 Z-0.125000
G01 X1943.154734 Y500.260518 Z-0.125000
G01 X1943.154734 Y500.260518 Z-0.125000
G00 Z5.000000

(Change tool to Default tool)

G00 Z5.000000
G00 X2543.008391 Y501.549268

G01 Z-0.125000 F100.0(Penetrate)
G01 X2543.008391 Y970.654200 Z-0.125000 F400.000000
G01 X2246.848340 Y970.654200 Z-0.125000
G01 X1950.688261 Y970.654200 Z-0.125000
G01 X1950.688261 Y501.549268 Z-0.125000
G01 X1950.688261 Y32.444328 Z-0.125000
G01 X2246.848340 Y32.444328 Z-0.125000
G01 X2543.008391 Y32.444328 Z-0.125000
G01 X2543.008391 Y501.549268 Z-0.125000
G01 X2543.008391 Y501.549268 Z-0.125000
G00 Z5.000000

(Change tool to Default tool)

G00 Z5.000000
G00 X2221.095280 Y161.319300

G01 Z-0.125000 F100.0(Penetrate)
G01 X2221.095280 Y166.474315 Z-0.125000 F400.000000
G01 X2234.108039 Y166.474315 Z-0.125000
G01 X2247.120741 Y166.474315 Z-0.125000
G01 X2245.911504 Y227.045554 Z-0.125000
G01 X2244.702238 Y287.616793 Z-0.125000
G01 X2226.460494 Y289.201950 Z-0.125000
G01 X2208.218750 Y290.787108 Z-0.125000
G01 X2208.128185 Y307.244445 Z-0.125000
G01 X2208.037620 Y323.701783 Z-0.125000
G01 X2197.278688 Y359.786785 Z-0.125000
G01 X2186.519756 Y395.871780 Z-0.125000
G01 X2183.902088 Y427.703902 Z-0.125000
G01 X2181.284420 Y459.535972 Z-0.125000
G01 X2186.264627 Y484.408880 Z-0.125000
G02 X2192.062546 Y509.053389 Z-0.125000 I371.144229 J-74.311906
G02 X2198.237509 Y528.613014 Z-0.125000 I239.826249 J-64.958493
G01 X2205.230242 Y547.944262 Z-0.125000
G01 X2213.162691 Y547.944262 Z-0.125000
G01 X2221.095195 Y547.944262 Z-0.125000
G01 X2221.091809 Y554.388011 Z-0.125000
G03 X2220.043956 Y560.625293 Z-0.125000 I-19.178360 J-0.015272
G03 X2207.312365 Y594.339256 Z-0.125000 I-587.728793 J-202.686350
G01 X2193.536336 Y627.846739 Z-0.125000
G01 X2191.967886 Y610.234718 Z-0.125000
G01 X2190.399493 Y592.622696 Z-0.125000
G01 X2176.483651 Y566.417234 Z-0.125000
G01 X2162.567838 Y540.211763 Z-0.125000
G01 X2163.371663 Y439.689275 Z-0.125000
G02 X2163.229990 Y339.221260 Z-0.125000 I-5340.039228 J-42.703932
G02 X2162.102989 Y322.413043 Z-0.125000 I-150.123185 J1.623950
G01 X2160.030434 Y305.659288 Z-0.125000
G01 X2141.202797 Y305.659288 Z-0.125000
G01 X2122.375160 Y305.659288 Z-0.125000
G01 X2122.375160 Y254.109311 Z-0.125000
G01 X2122.375160 Y202.559305 Z-0.125000
G01 X2135.505012 Y202.559305 Z-0.125000
G01 X2148.634837 Y202.559305 Z-0.125000
G01 X2145.957677 Y197.356764 Z-0.125000
G01 X2143.280517 Y192.154251 Z-0.125000
G01 X2119.452636 Y194.519048 Z-0.125000
G02 X2096.202843 Y197.973588 Z-0.125000 I23.898666 J240.808429
G02 X2093.261990 Y199.721589 Z-0.125000 I0.998833 J5.028306
G01 X2090.899338 Y202.559305 Z-0.125000
G01 X2104.646637 Y202.559305 Z-0.125000
G01 X2118.393935 Y202.559305 Z-0.125000
G01 X2117.165450 Y252.820543 Z-0.125000
G01 X2115.936993 Y303.081780 Z-0.125000
G01 X2095.549175 Y304.652996 Z-0.125000
G01 X2075.161329 Y306.224184 Z-0.125000
G01 X2075.161329 Y416.491780 Z-0.125000
G01 X2075.161329 Y526.759370 Z-0.125000
G01 X2095.549175 Y528.330569 Z-0.125000
G01 X2115.936993 Y529.901765 Z-0.125000
G01 X2117.192628 Y566.951255 Z-0.125000
G01 X2118.448263 Y604.000739 Z-0.125000
G01 X2102.170024 Y606.035928 Z-0.125000
G01 X2085.891785 Y608.071117 Z-0.125000
G01 X2118.083096 Y608.112858 Z-0.125000
G01 X2150.274407 Y608.154627 Z-0.125000
G01 X2136.324840 Y606.075496 Z-0.125000
G01 X2122.375273 Y603.996365 Z-0.125000
G01 X2122.375273 Y565.703894 Z-0.125000
G01 X2122.375273 Y527.411405 Z-0.125000
G01 X2135.207494 Y529.098617 Z-0.125000
G01 X2148.039715 Y530.785831 Z-0.125000
G01 X2161.805414 Y553.541468 Z-0.125000
G03 X2174.294638 Y576.862917 Z-0.125000 I-216.126944 J130.746299
G03 X2180.976093 Y594.339256 Z-0.125000 I-114.360258 J53.736942
G01 X2186.381072 Y612.381751 Z-0.125000
G01 X2186.569483 Y636.532410 Z-0.125000
G01 X2186.757923 Y660.683069 Z-0.125000
G01 X2191.178765 Y674.648187 Z-0.125000
G02 X2196.694472 Y688.092954 Z-0.125000 I83.830011 J-26.537417
G02 X2207.798860 Y707.202520 Z-0.125000 I181.149396 J-92.483086
G01 X2219.998056 Y725.791736 Z-0.125000
G01 X2217.996762 Y741.863586 Z-0.125000
G01 X2215.995440 Y757.935408 Z-0.125000
G01 X2222.926874 Y774.033787 Z-0.125000
G01 X2229.858280 Y790.132138 Z-0.125000
G01 X2240.358160 Y798.394927 Z-0.125000
G01 X2250.858125 Y806.657745 Z-0.125000
G01 X2268.150982 Y803.148819 Z-0.125000
G01 X2285.443866 Y799.639894 Z-0.125000
G01 X2294.045209 Y786.506880 Z-0.125000
G01 X2302.646609 Y773.373838 Z-0.125000
G01 X2302.646609 Y752.933527 Z-0.125000
G01 X2302.646609 Y732.493244 Z-0.125000
G01 X2287.508068 Y714.311500 Z-0.125000
G01 X2272.369527 Y696.129785 Z-0.125000
G01 X2252.887839 Y698.767067 Z-0.125000
G01 X2233.406180 Y701.404349 Z-0.125000
G01 X2241.800005 Y690.400561 Z-0.125000
G02 X2250.654882 Y677.128437 Z-0.125000 I-100.276904 J-76.492555
G02 X2265.726379 Y649.786423 Z-0.125000 I-634.734242 J-367.703813
G02 X2279.933943 Y620.911512 Z-0.125000 I-564.782142 J-295.827283
G02 X2281.185725 Y615.206880 Z-0.125000 I-12.372706 J-5.704632
G01 X2281.185725 Y609.804244 Z-0.125000
G01 X2265.948943 Y609.804244 Z-0.125000
G01 X2250.712104 Y609.804244 Z-0.125000
G01 X2251.999376 Y580.163008 Z-0.125000
G01 X2253.286591 Y550.521761 Z-0.125000
G01 X2272.601372 Y547.944262 Z-0.125000
G01 X2291.916153 Y545.366763 Z-0.125000
G01 X2302.034074 Y509.281768 Z-0.125000
G01 X2312.151995 Y473.196772 Z-0.125000
G01 X2312.227969 Y441.870975 Z-0.125000
G01 X2312.303943 Y410.545177 Z-0.125000
G01 X2301.407315 Y364.545986 Z-0.125000
G03 X2290.788125 Y318.488531 Z-0.125000 I3835.098935 J-908.488625
G03 X2287.912520 Y304.370548 Z-0.125000 I357.341405 J-80.136494
G01 X2285.314326 Y290.194300 Z-0.125000
G01 X2268.227379 Y290.194300 Z-0.125000
G01 X2251.140460 Y290.194300 Z-0.125000
G01 X2251.140460 Y228.334294 Z-0.125000
G01 X2251.140460 Y166.474315 Z-0.125000
G01 X2265.090028 Y165.864433 Z-0.125000
G01 X2279.039595 Y165.254494 Z-0.125000
G01 X2266.163065 Y161.319300 Z-0.125000
G02 X2253.128417 Y158.320894 Z-0.125000 I-27.750739 J90.806520
G02 X2237.190893 Y156.774196 Z-0.125000 I-21.090849 J134.439608
G01 X2221.095280 Y156.164314 Z-0.125000
G01 X2221.095280 Y161.319300 Z-0.125000
G01 X2221.095280 Y161.319300 Z-0.125000
G00 Z5.000000

(Change tool to Default tool)

G00 Z5.000000
G00 X2284.111523 Y319.835536

G01 Z-0.125000 F100.0(Penetrate)
G02 X2288.984856 Y344.269971 Z-0.125000 I1184.691099 J-223.577854 F400.000000
G02 X2298.469889 Y388.139281 Z-0.125000 I3827.462472 J-804.579957
G01 X2308.207149 Y431.956776 Z-0.125000
G01 X2303.330772 Y466.498710 Z-0.125000
G03 X2297.262791 Y500.760491 Z-0.125000 I-491.694475 J-69.414013
G03 X2291.500073 Y521.914955 Z-0.125000 I-192.831390 J-41.167333
G01 X2284.545807 Y542.789265 Z-0.125000
G01 X2248.638589 Y542.789265 Z-0.125000
G01 X2212.731370 Y542.789265 Z-0.125000
G01 X2206.632830 Y528.613014 Z-0.125000
G03 X2201.354282 Y514.170296 Z-0.125000 I126.493722 J-54.417097
G03 X2195.295145 Y491.239270 Z-0.125000 I313.497176 J-95.102370
G01 X2190.056028 Y468.041772 Z-0.125000
G01 X2190.561912 Y439.050880 Z-0.125000
G01 X2191.067795 Y410.059989 Z-0.125000
G01 X2203.935435 Y363.163929 Z-0.125000
G02 X2215.661279 Y316.114017 Z-0.125000 I-992.869893 J-272.430516
G02 X2216.803103 Y305.808527 Z-0.125000 I-45.934969 J-10.305490
G01 X2216.803103 Y295.349287 Z-0.125000
G01 X2248.146788 Y295.349287 Z-0.125000
G01 X2279.490501 Y295.349287 Z-0.125000
G01 X2284.111523 Y319.835536 Z-0.125000
G01 X2284.111523 Y319.835536 Z-0.125000
G00 Z5.000000

(Change tool to Default tool)

G00 Z5.000000
G00 X2156.712658 Y416.773912

G01 Z-0.125000 F100.0(Penetrate)
G01 X2156.712658 Y522.169265 Z-0.125000 F400.000000
G01 X2120.570236 Y522.169265 Z-0.125000
G01 X2084.427757 Y522.169265 Z-0.125000
G01 X2082.297769 Y507.993017 Z-0.125000
G03 X2081.079620 Y493.747967 Z-0.125000 I110.825276 J-16.651707
G03 X2080.032315 Y402.524359 Z-0.125000 I4562.213628 J-97.994924
G01 X2079.897103 Y311.231963 Z-0.125000
G01 X2118.304979 Y311.305143 Z-0.125000
G01 X2156.712884 Y311.378352 Z-0.125000
G01 X2156.712884 Y416.773655 Z-0.125000
G01 X2156.712658 Y416.773912 Z-0.125000
G00 Z5.000000

(Change tool to Default tool)

G00 Z5.000000
G00 X2245.989453 Y577.585509

G01 Z-0.125000 F100.0(Penetrate)
G01 X2244.702238 Y607.226737 Z-0.125000 F400.000000
G01 X2230.985081 Y608.821292 Z-0.125000
G01 X2217.267952 Y610.415848 Z-0.125000
G01 X2219.560217 Y617.590304 Z-0.125000
G01 X2221.852510 Y624.764759 Z-0.125000
G01 X2210.389519 Y642.814677 Z-0.125000
G01 X2198.926527 Y660.864566 Z-0.125000
G01 X2201.382312 Y672.708135 Z-0.125000
G01 X2203.838125 Y684.551731 Z-0.125000
G01 X2197.403938 Y667.716103 Z-0.125000
G01 X2190.969779 Y650.880447 Z-0.125000
G01 X2211.397758 Y599.607216 Z-0.125000
G01 X2231.825708 Y548.333975 Z-0.125000
G01 X2239.551202 Y548.139117 Z-0.125000
G01 X2247.276725 Y547.944257 Z-0.125000
G01 X2245.989453 Y577.585509 Z-0.125000
G01 X2245.989453 Y577.585509 Z-0.125000
G00 Z5.000000

(Change tool to Default tool)

G00 Z5.000000
G00 X2219.307374 Y592.499563

G01 Z-0.125000 F100.0(Penetrate)
G02 X2217.774434 Y601.707715 Z-0.125000 I30.919414 J9.879027 F400.000000
G02 X2218.666077 Y603.039063 Z-0.125000 I1.396656 J0.028873
G02 X2220.212035 Y602.650895 Z-0.125000 I0.498740 J-1.286296
G02 X2225.190691 Y594.780765 Z-0.125000 I-24.484696 J-20.998875
G01 X2229.981668 Y584.029255 Z-0.125000
G01 X2225.997678 Y584.029255 Z-0.125000
G02 X2223.054878 Y585.454917 Z-0.125000 I-0.000000 J3.750042
G02 X2219.307374 Y592.499563 Z-0.125000 I17.523436 J13.840945
G01 X2219.307374 Y592.499563 Z-0.125000
G00 Z5.000000

(Change tool to Default tool)

G00 Z5.000000
G00 X2270.002726 Y619.234756

G01 Z-0.125000 F100.0(Penetrate)
G01 X2272.202846 Y623.510282 Z-0.125000 F400.000000
G01 X2255.307810 Y654.031006 Z-0.125000
G03 X2238.082885 Y684.353026 Z-0.125000 I-1382.186627 J-765.120518
G03 X2230.167003 Y697.172032 Z-0.125000 I-254.755143 J-148.460632
G01 X2221.921260 Y709.792361 Z-0.125000
G01 X2215.070005 Y690.098753 Z-0.125000
G03 X2208.886194 Y670.292364 Z-0.125000 I304.630798 J-105.978209
G03 X2208.218750 Y665.386726 Z-0.125000 I17.694230 J-4.905638
G03 X2209.001646 Y661.702839 Z-0.125000 I9.058633 J0.000000
G03 X2216.075009 Y647.266895 Z-0.125000 I199.619848 J88.859376
G03 X2223.789711 Y633.720591 Z-0.125000 I271.515295 J145.659680
G03 X2231.709489 Y621.599073 Z-0.125000 I173.458798 J104.683914
G01 X2236.117884 Y615.351406 Z-0.125000
G01 X2251.960231 Y615.155318 Z-0.125000
G01 X2267.802607 Y614.959202 Z-0.125000
G01 X2270.002726 Y619.234728 Z-0.125000
G01 X2270.002726 Y619.234756 Z-0.125000
G00 Z5.000000

(Change tool to Default tool)

G00 Z5.000000
G00 X2277.275198 Y714.352451

G01 Z-0.125000 F100.0(Penetrate)
G01 X2291.802841 Y726.110675 Z-0.125000 F400.000000
G01 X2295.892946 Y740.078756 Z-0.125000
G01 X2299.983052 Y754.046809 Z-0.125000
G01 X2293.214121 Y771.094838 Z-0.125000
G01 X2286.445191 Y788.142866 Z-0.125000
G01 X2271.602503 Y793.613942 Z-0.125000
G01 X2256.759872 Y799.084989 Z-0.125000
G01 X2245.473749 Y791.982895 Z-0.125000
G01 X2234.187625 Y784.880772 Z-0.125000
G01 X2229.787527 Y775.006381 Z-0.125000
G01 X2225.387457 Y765.132018 Z-0.125000
G01 X2225.387457 Y746.516302 Z-0.125000
G01 X2225.387457 Y727.900585 Z-0.125000
G01 X2235.922812 Y715.247406 Z-0.125000
G01 X2246.458140 Y702.594226 Z-0.125000
G01 X2254.602819 Y702.594226 Z-0.125000
G01 X2262.747527 Y702.594226 Z-0.125000
G01 X2277.275198 Y714.352451 Z-0.125000
G01 X2277.275198 Y714.352451 Z-0.125000
G00 Z5.000000

(Change tool to Default tool)

G00 Z5.000000
G00 X2347.616265 Y233.680034

G01 Z-0.125000 F100.0(Penetrate)
G01 X2345.061731 Y238.644295 Z-0.125000 F400.000000
G01 X2360.542466 Y238.644295 Z-0.125000
G01 X2376.023174 Y238.644295 Z-0.125000
G01 X2374.745356 Y270.863037 Z-0.125000
G01 X2373.467482 Y303.081780 Z-0.125000
G01 X2352.983765 Y304.657681 Z-0.125000
G01 X2332.500019 Y306.233610 Z-0.125000
G01 X2333.668984 Y400.025163 Z-0.125000
G01 X2334.837920 Y493.816769 Z-0.125000
G01 X2352.992598 Y493.816769 Z-0.125000
G01 X2371.147361 Y493.816769 Z-0.125000
G01 X2371.234483 Y497.683019 Z-0.125000
G03 X2371.282461 Y501.549705 Z-0.125000 I-192.178164 J4.318169
G03 X2371.321408 Y534.714359 Z-0.125000 I-14120.388987 J33.164699
G01 X2371.321408 Y567.879444 Z-0.125000
G01 X2359.517915 Y570.026972 Z-0.125000
G01 X2347.714422 Y572.174491 Z-0.125000
G01 X2377.759659 Y572.268262 Z-0.125000
G01 X2407.804896 Y572.362030 Z-0.125000
G01 X2392.782263 Y569.174390 Z-0.125000
G01 X2377.759659 Y565.986749 Z-0.125000
G01 X2378.188862 Y559.543000 Z-0.125000
G02 X2378.496129 Y553.093922 Z-0.125000 I-170.390287 J-11.350126
G02 X2379.261928 Y522.169257 Z-0.125000 I-3918.367752 J-112.503711
G01 X2379.905733 Y491.239259 Z-0.125000
G01 X2399.220542 Y491.239259 Z-0.125000
G01 X2418.535323 Y491.239259 Z-0.125000
G01 X2418.535323 Y398.745683 Z-0.125000
G01 X2418.535323 Y306.252095 Z-0.125000
G01 X2400.293579 Y304.666938 Z-0.125000
G01 X2382.051835 Y303.081780 Z-0.125000
G01 X2380.773961 Y270.863037 Z-0.125000
G01 X2379.496144 Y238.644295 Z-0.125000
G01 X2393.292831 Y238.644295 Z-0.125000
G02 X2404.116650 Y237.363698 Z-0.125000 I0.000000 J-46.382666
G02 X2404.211300 Y236.261817 Z-0.125000 I-0.135996 J-0.566687
G02 X2399.097053 Y234.724884 Z-0.125000 I-9.211522 J21.374489
G02 X2376.841787 Y231.554562 Z-0.125000 I-55.811889 J312.092734
G01 X2350.170856 Y228.715774 Z-0.125000
G01 X2347.616265 Y233.680034 Z-0.125000
G01 X2347.616265 Y233.680034 Z-0.125000
G00 Z5.000000

(Change tool to Default tool)

G00 Z5.000000
G00 X2410.756263 Y366.230536

G01 Z-0.125000 F100.0(Penetrate)
G03 X2411.446428 Y421.641755 Z-0.125000 I-2360.306521 J57.108304 F400.000000
G03 X2410.819368 Y453.865524 Z-0.125000 I-798.776078 J0.574160
G01 X2409.541381 Y486.084269 Z-0.125000
G01 X2375.408748 Y486.084269 Z-0.125000
G01 X2341.276171 Y486.084269 Z-0.125000
G01 X2341.276171 Y398.449282 Z-0.125000
G01 X2341.276171 Y310.814302 Z-0.125000
G01 X2375.345812 Y310.814302 Z-0.125000
G01 X2409.415425 Y310.814302 Z-0.125000
G01 X2410.756263 Y366.230536 Z-0.125000
G01 X2410.756263 Y366.230536 Z-0.125000
G00 Z5.000000

(Change tool to Default tool)

G00 Z5.000000
G00 X2278.719442 Y578.252005

G01 Z-0.125000 F100.0(Penetrate)
G02 X2281.930694 Y581.730290 Z-0.125000 I7.883568 J-4.056835 F400.000000
G02 X2290.776258 Y585.728120 Z-0.125000 I19.645302 J-31.682295
G01 X2300.500506 Y588.671472 Z-0.125000
G01 X2292.168855 Y581.195349 Z-0.125000
G02 X2283.470818 Y574.676089 Z-0.125000 I-41.235108 J45.954021
G02 X2280.112039 Y573.719260 Z-0.125000 I-3.358779 J5.416780
G01 X2276.386932 Y573.719260 Z-0.125000
G01 X2278.719442 Y578.252005 Z-0.125000
G01 X2278.719442 Y578.252005 Z-0.125000
G00 Z5.000000

(Change tool to Default tool)

G00 Z5.000000
G00 X2268.309195 Y591.160785

G01 Z-0.125000 F100.0(Penetrate)
G02 X2269.170234 Y592.451605 Z-0.125000 I1.398082 J0.000000 F400.000000
G02 X2278.909744 Y595.571128 Z-0.125000 I23.330058 J-56.075436
G01 X2289.510322 Y598.004900 Z-0.125000
G01 X2287.240775 Y593.594585 Z-0.125000
G02 X2284.371744 Y591.073442 Z-0.125000 I-4.640692 J2.388020
G02 X2276.950766 Y589.280208 Z-0.125000 I-11.885345 J32.933559
G02 X2269.876585 Y589.345490 Z-0.125000 I-3.300473 J25.673256
G02 X2268.309195 Y591.160785 Z-0.125000 I0.267510 J1.815295
G01 X2268.309195 Y591.160785 Z-0.125000
G00 Z5.000000

(Change tool to Default tool)

G00 Z5.000000
G00 X2294.493152 Y659.831040

G01 Z-0.125000 F100.0(Penetrate)
G02 X2300.459014 Y668.748385 Z-0.125000 I38.192256 J-19.096990 F400.000000
G02 X2302.228638 Y668.729563 Z-0.125000 I0.876805 J-0.762205
G02 X2302.512088 Y666.282598 Z-0.125000 I-1.729850 J-1.440282
G02 X2296.546206 Y657.365236 Z-0.125000 I-38.190824 J19.096054
G01 X2288.810721 Y648.466741 Z-0.125000
G01 X2294.493152 Y659.831040 Z-0.125000
G01 X2294.493152 Y659.831040 Z-0.125000
G00 Z5.000000

(Change tool to Default tool)

G00 Z5.000000
G00 X2170.266860 Y671.664251

G01 Z-0.125000 F100.0(Penetrate)
G01 X2170.266860 Y684.551731 Z-0.125000 F400.000000
G01 X2172.431815 Y678.107977 Z-0.125000
G01 X2174.596742 Y671.664251 Z-0.125000
G01 X2172.431815 Y665.220497 Z-0.125000
G01 X2170.266860 Y658.776742 Z-0.125000
G01 X2170.266860 Y671.664251 Z-0.125000
G01 X2170.266860 Y671.664251 Z-0.125000
G00 Z5.000000

(Change tool to Default tool)

G00 Z5.000000
G00 X2346.546276 Y693.317158

G01 Z-0.125000 F100.0(Penetrate)
G01 X2336.793776 Y714.885061 Z-0.125000 F400.000000
G01 X2344.369552 Y722.915892 Z-0.125000
G01 X2351.945272 Y730.946722 Z-0.125000
G01 X2346.946128 Y723.874826 Z-0.125000
G01 X2341.946985 Y716.802902 Z-0.125000
G01 X2344.216870 Y709.698578 Z-0.125000
G01 X2346.486783 Y702.594226 Z-0.125000
G01 X2352.600507 Y702.594226 Z-0.125000
G01 X2358.714287 Y702.594226 Z-0.125000
G01 X2361.205858 Y710.392393 Z-0.125000
G01 X2363.697428 Y718.190532 Z-0.125000
G01 X2357.852042 Y726.701366 Z-0.125000
G01 X2352.006599 Y735.212173 Z-0.125000
G01 X2361.663989 Y729.031845 Z-0.125000
G01 X2371.321408 Y722.851488 Z-0.125000
G01 X2371.563470 Y726.899120 Z-0.125000
G02 X2372.246160 Y727.007770 Z-0.125000 I0.353364 J-0.021189
G02 X2376.928684 Y713.291408 Z-0.125000 I-144.817382 J-57.095537
G01 X2382.051666 Y695.636122 Z-0.125000
G01 X2387.416880 Y693.530603 Z-0.125000
G01 X2392.782094 Y691.425056 Z-0.125000
G01 X2392.782094 Y702.503548 Z-0.125000
G03 X2391.691553 Y713.370915 Z-0.125000 I-54.692546 J0.000000
G03 X2388.253133 Y724.841889 Z-0.125000 I-64.436242 J-13.063919
G01 X2383.724369 Y736.101737 Z-0.125000
G01 X2390.399376 Y726.095210 Z-0.125000
G01 X2397.074440 Y716.088682 Z-0.125000
G01 X2397.074440 Y727.222179 Z-0.125000
G01 X2397.074440 Y738.355649 Z-0.125000
G01 X2403.512719 Y735.388420 Z-0.125000
G01 X2409.950970 Y732.421164 Z-0.125000
G01 X2409.950970 Y740.931180 Z-0.125000
G01 X2409.950970 Y749.441196 Z-0.125000
G01 X2415.316184 Y748.133661 Z-0.125000
G03 X2420.409937 Y748.375212 Z-0.125000 I2.136807 J8.768197
G03 X2430.674181 Y753.459646 Z-0.125000 I-14.919207 J43.021007
G01 X2440.666964 Y760.093138 Z-0.125000
G01 X2446.769850 Y757.280455 Z-0.125000
G01 X2452.872708 Y754.467800 Z-0.125000
G01 X2452.872708 Y741.765909 Z-0.125000
G01 X2452.872708 Y729.063990 Z-0.125000
G01 X2444.109003 Y725.723354 Z-0.125000
G01 X2435.345269 Y722.382717 Z-0.125000
G01 X2437.847649 Y712.913428 Z-0.125000
G01 X2440.350085 Y703.444139 Z-0.125000
G01 X2432.946070 Y704.749247 Z-0.125000
G01 X2425.542083 Y706.054355 Z-0.125000
G01 X2420.342674 Y726.233047 Z-0.125000
G01 X2415.143266 Y746.411738 Z-0.125000
G01 X2414.693178 Y734.812969 Z-0.125000
G01 X2414.243146 Y723.214229 Z-0.125000
G01 X2408.104531 Y723.214229 Z-0.125000
G01 X2401.965859 Y723.214229 Z-0.125000
G01 X2405.682528 Y707.649758 Z-0.125000
G01 X2409.399254 Y692.085315 Z-0.125000
G01 X2405.382949 Y695.066513 Z-0.125000
G02 X2402.620751 Y698.717688 Z-0.125000 I4.859350 J6.546631
G02 X2400.938768 Y706.764709 Z-0.125000 I24.573875 J9.335711
G01 X2400.510919 Y715.481735 Z-0.125000
G01 X2397.601264 Y702.976412 Z-0.125000
G01 X2394.691553 Y690.471117 Z-0.125000
G01 X2389.718289 Y688.480124 Z-0.125000
G01 X2384.745054 Y686.489102 Z-0.125000
G01 X2377.734964 Y699.338483 Z-0.125000
G01 X2370.724903 Y712.187863 Z-0.125000
G01 X2362.219233 Y701.972350 Z-0.125000
G01 X2353.713620 Y691.756865 Z-0.125000
G01 X2356.368484 Y681.710544 Z-0.125000
G02 X2357.782205 Y673.128412 Z-0.125000 I-44.280795 J-11.701810
G02 X2356.991426 Y672.807748 Z-0.125000 I-0.448002 J-0.030586
G02 X2354.876483 Y675.987672 Z-0.125000 I12.658474 J10.712334
G02 X2346.546276 Y693.317158 Z-0.125000 I365.718683 J186.466235
G01 X2346.546276 Y693.317158 Z-0.125000
G00 Z5.000000

(Change tool to Default tool)

G00 Z5.000000
G00 X2440.226077 Y729.935097

G01 Z-0.125000 F100.0(Penetrate)
G01 X2448.580532 Y732.559002 Z-0.125000 F400.000000
G01 X2448.580532 Y743.351631 Z-0.125000
G01 X2448.580532 Y754.144232 Z-0.125000
G01 X2442.395604 Y754.144232 Z-0.125000
G03 X2437.769307 Y753.093551 Z-0.125000 I0.000000 J-10.710452
G03 X2434.506050 Y749.924781 Z-0.125000 I3.085126 J-6.441786
G03 X2432.744103 Y744.911662 Z-0.125000 I17.161486 J-8.847893
G03 X2430.435703 Y730.946722 Z-0.125000 I192.069575 J-38.922291
G03 X2429.692813 Y721.469709 Z-0.125000 I95.341631 J-12.241326
G03 X2430.161016 Y721.396464 Z-0.125000 I0.238756 J-0.006869
G01 X2431.871791 Y727.311164 Z-0.125000
G01 X2440.226246 Y729.935097 Z-0.125000
G01 X2440.226077 Y729.935097 Z-0.125000
G00 Z5.000000

(Change tool to Default tool)

G00 Z5.000000
G00 X2364.492110 Y780.753724

G01 Z-0.125000 F100.0(Penetrate)
G01 X2359.808886 Y804.785736 Z-0.125000 F400.000000
G01 X2370.059282 Y810.394988 Z-0.125000
G02 X2380.562801 Y815.014262 Z-0.125000 I31.922124 J-58.334664
G02 X2386.545942 Y816.004211 Z-0.125000 I5.983142 J-17.585754
G01 X2392.782263 Y816.004211 Z-0.125000
G01 X2392.782263 Y810.544989 Z-0.125000
G01 X2392.782263 Y805.085767 Z-0.125000
G01 X2397.074440 Y808.271717 Z-0.125000
G01 X2401.366616 Y811.457696 Z-0.125000
G01 X2401.366616 Y798.687563 Z-0.125000
G03 X2402.150983 Y786.039748 Z-0.125000 I102.364414 J-0.000000
G03 X2403.971923 Y777.763325 Z-0.125000 I45.427486 J5.656214
G01 X2406.577229 Y769.609220 Z-0.125000
G01 X2412.267026 Y769.609220 Z-0.125000
G01 X2417.956824 Y769.609220 Z-0.125000
G01 X2420.712019 Y780.035073 Z-0.125000
G01 X2423.467213 Y790.460898 Z-0.125000
G01 X2421.012162 Y807.098802 Z-0.125000
G01 X2418.557111 Y823.736733 Z-0.125000
G01 X2422.097984 Y813.768898 Z-0.125000
G01 X2425.638828 Y803.801063 Z-0.125000
G01 X2428.907498 Y810.152954 Z-0.125000
G01 X2432.176111 Y816.504873 Z-0.125000
G01 X2437.871271 Y810.828142 Z-0.125000
G01 X2443.566431 Y805.151412 Z-0.125000
G01 X2446.632747 Y816.754555 Z-0.125000
G01 X2449.699035 Y828.357699 Z-0.125000
G01 X2457.395884 Y816.941697 Z-0.125000
G01 X2465.092790 Y805.525695 Z-0.125000
G01 X2467.069220 Y814.631200 Z-0.125000
G01 X2469.045622 Y823.736733 Z-0.125000
G01 X2469.543519 Y812.137964 Z-0.125000
G01 X2470.041415 Y800.539223 Z-0.125000
G01 X2476.226344 Y800.539223 Z-0.125000
G03 X2481.564563 Y801.927239 Z-0.125000 I-0.000000 J10.959235
G03 X2484.901008 Y805.377387 Z-0.125000 I-4.041954 J7.247065
G01 X2487.390631 Y810.215551 Z-0.125000
G01 X2479.789060 Y815.530642 Z-0.125000
G01 X2472.187489 Y820.845705 Z-0.125000
G01 X2476.479666 Y820.923542 Z-0.125000
G02 X2480.485904 Y820.126879 Z-0.125000 I0.173932 J-9.596898
G02 X2486.762518 Y816.445578 Z-0.125000 I-12.161501 J-27.926807
G01 X2492.753164 Y811.889778 Z-0.125000
G01 X2490.116334 Y803.637007 Z-0.125000
G01 X2487.479531 Y795.384237 Z-0.125000
G01 X2476.886320 Y795.384237 Z-0.125000
G01 X2466.293137 Y795.384237 Z-0.125000
G01 X2464.562014 Y778.630481 Z-0.125000
G01 X2462.830863 Y761.876726 Z-0.125000
G01 X2461.578954 Y782.496728 Z-0.125000
G01 X2460.327016 Y803.116731 Z-0.125000
G01 X2457.103079 Y787.651715 Z-0.125000
G01 X2453.879141 Y772.186727 Z-0.125000
G01 X2455.113497 Y791.517002 Z-0.125000
G01 X2456.347824 Y810.847249 Z-0.125000
G01 X2452.952154 Y813.367747 Z-0.125000
G01 X2449.556484 Y815.888246 Z-0.125000
G01 X2447.319619 Y805.614962 Z-0.125000
G01 X2445.082754 Y795.341678 Z-0.125000
G01 X2437.944874 Y798.631345 Z-0.125000
G01 X2430.807023 Y801.921040 Z-0.125000
G01 X2433.088677 Y781.898869 Z-0.125000
G01 X2435.370302 Y761.876726 Z-0.125000
G01 X2433.076343 Y770.897988 Z-0.125000
G03 X2430.004531 Y778.918797 Z-0.125000 I-35.732533 J-9.086230
G03 X2428.351181 Y779.919221 Z-0.125000 I-1.653350 J-0.865992
G03 X2426.406338 Y779.045811 Z-0.125000 I-0.000000 J-2.602019
G03 X2420.332938 Y770.897988 Z-0.125000 I44.189650 J-39.276510
G01 X2414.745925 Y761.876726 Z-0.125000
G01 X2406.983234 Y767.551679 Z-0.125000
G01 X2399.220542 Y773.226603 Z-0.125000
G01 X2397.892715 Y786.505667 Z-0.125000
G01 X2396.564887 Y799.784730 Z-0.125000
G01 X2390.587393 Y805.742893 Z-0.125000
G01 X2384.609869 Y811.701028 Z-0.125000
G01 X2375.819550 Y808.350231 Z-0.125000
G01 X2367.029231 Y804.999463 Z-0.125000
G01 X2367.029231 Y797.614329 Z-0.125000
G01 X2367.029231 Y790.229222 Z-0.125000
G01 X2374.755149 Y790.229222 Z-0.125000
G01 X2382.481039 Y790.229222 Z-0.125000
G01 X2388.168184 Y796.672976 Z-0.125000
G01 X2393.855300 Y803.116731 Z-0.125000
G01 X2391.909547 Y795.384237 Z-0.125000
G01 X2389.963766 Y787.651715 Z-0.125000
G01 X2380.902175 Y786.045306 Z-0.125000
G01 X2371.840527 Y784.438869 Z-0.125000
G01 X2370.507930 Y770.580290 Z-0.125000
G01 X2369.175305 Y756.721740 Z-0.125000
G01 X2364.492110 Y780.753724 Z-0.125000
G01 X2364.492110 Y780.753724 Z-0.125000
G00 Z5.000000

(Change tool to Default tool)

G00 Z5.000000
G00 X2324.001236 Y818.581718

G01 Z-0.125000 F100.0(Penetrate)
G02 X2319.816443 Y831.469579 Z-0.125000 I70821.650880 J23006.152917 F400.000000
G02 X2315.430852 Y844.983748 Z-0.125000 I83378.510359 J27061.769172
G01 X2311.046417 Y858.498298 Z-0.125000
G01 X2316.034272 Y865.716414 Z-0.125000
G01 X2321.022126 Y872.934558 Z-0.125000
G01 X2335.305760 Y871.779225 Z-0.125000
G01 X2349.589422 Y870.623920 Z-0.125000
G01 X2355.090187 Y850.127051 Z-0.125000
G01 X2360.590952 Y829.630210 Z-0.125000
G01 X2365.956166 Y827.542641 Z-0.125000
G01 X2371.321408 Y825.455043 Z-0.125000
G01 X2371.321408 Y841.688522 Z-0.125000
G01 X2371.321408 Y857.922001 Z-0.125000
G01 X2366.878214 Y867.893109 Z-0.125000
G01 X2362.435020 Y877.864218 Z-0.125000
G01 X2366.878214 Y877.864218 Z-0.125000
G01 X2371.321408 Y877.864218 Z-0.125000
G01 X2371.387053 Y871.420464 Z-0.125000
G01 X2371.452726 Y864.976709 Z-0.125000
G01 X2375.133327 Y871.952707 Z-0.125000
G01 X2378.813900 Y878.928676 Z-0.125000
G01 X2387.944127 Y873.060062 Z-0.125000
G01 X2397.074327 Y867.191477 Z-0.125000
G01 X2397.074327 Y877.378598 Z-0.125000
G01 X2397.074327 Y887.565748 Z-0.125000
G01 X2401.366504 Y890.751727 Z-0.125000
G01 X2405.658652 Y893.937677 Z-0.125000
G01 X2405.658652 Y887.847236 Z-0.125000
G01 X2405.658652 Y881.756824 Z-0.125000
G01 X2412.097044 Y888.174219 Z-0.125000
G01 X2418.535323 Y894.591614 Z-0.125000
G01 X2418.535323 Y883.650423 Z-0.125000
G01 X2418.535323 Y872.709203 Z-0.125000
G01 X2424.720251 Y872.709203 Z-0.125000
G03 X2429.981639 Y874.223176 Z-0.125000 I0.000000 J9.899223
G03 X2433.854515 Y878.440572 Z-0.125000 I-5.754829 J9.171663
G01 X2436.803794 Y884.171913 Z-0.125000
G01 X2430.888726 Y888.671636 Z-0.125000
G01 X2424.973574 Y893.171331 Z-0.125000
G01 X2432.484890 Y893.250268 Z-0.125000
G01 X2439.996207 Y893.329206 Z-0.125000
G01 X2439.996207 Y882.536604 Z-0.125000
G01 X2439.996207 Y871.744003 Z-0.125000
G01 X2431.013440 Y868.922741 Z-0.125000
G01 X2422.030702 Y866.101506 Z-0.125000
G01 X2423.798542 Y851.635105 Z-0.125000
G01 X2425.566382 Y837.168705 Z-0.125000
G01 X2422.050881 Y839.778216 Z-0.125000
G01 X2418.535323 Y842.387671 Z-0.125000
G01 X2418.469594 Y853.682204 Z-0.125000
G03 X2417.124164 Y864.622941 Z-0.125000 I-47.397937 J-0.275632
G03 X2413.835505 Y872.709203 Z-0.125000 I-28.882217 J-7.034440
G01 X2409.267174 Y880.441725 Z-0.125000
G01 X2411.346869 Y858.531798 Z-0.125000
G01 X2413.426565 Y836.621899 Z-0.125000
G01 X2409.542651 Y839.504799 Z-0.125000
G01 X2405.658793 Y842.387671 Z-0.125000
G01 X2405.658793 Y853.682204 Z-0.125000
G01 X2405.658793 Y864.976709 Z-0.125000
G01 X2391.709226 Y864.953567 Z-0.125000
G01 X2377.759659 Y864.930425 Z-0.125000
G01 X2377.109560 Y852.066228 Z-0.125000
G03 X2376.474220 Y839.201334 Z-0.125000 I5631.903687 J-284.582959
G03 X2376.036523 Y829.822263 Z-0.125000 I2987.018079 J-144.096106
G01 X2375.613584 Y820.442268 Z-0.125000
G01 X2366.099394 Y822.089543 Z-0.125000
G01 X2356.585287 Y823.736846 Z-0.125000
G01 X2352.843444 Y839.479343 Z-0.125000
G01 X2349.101657 Y855.221839 Z-0.125000
G01 X2337.125388 Y842.056822 Z-0.125000
G01 X2325.149146 Y828.891832 Z-0.125000
G01 X2328.814225 Y817.293092 Z-0.125000
G02 X2331.173196 Y806.651405 Z-0.125000 I-59.183780 J-18.701728
G02 X2330.333286 Y805.694323 Z-0.125000 I-0.839910 J-0.110000
G02 X2328.855833 Y806.614561 Z-0.125000 I0.000000 J1.646154
G02 X2324.001236 Y818.581831 Z-0.125000 I81.335867 J39.962682
G01 X2324.001236 Y818.581718 Z-0.125000
G00 Z5.000000

(Change tool to Default tool)

G00 Z5.000000
G00 X2338.812173 Y850.375491

G01 Z-0.125000 F100.0(Penetrate)
G01 X2341.304026 Y858.174618 Z-0.125000 F400.000000
G01 X2338.890716 Y862.864417 Z-0.125000
G03 X2332.277220 Y866.926404 Z-0.125000 I-6.658734 J-3.426519
G03 X2320.445179 Y862.975867 Z-0.125000 I-0.116857 J-19.344028
G01 X2314.636820 Y858.555392 Z-0.125000
G01 X2319.437618 Y847.781756 Z-0.125000
G01 X2324.238415 Y837.008148 Z-0.125000
G01 X2330.279354 Y839.792271 Z-0.125000
G03 X2335.163712 Y843.599164 Z-0.125000 I-5.680079 J12.324548
G03 X2338.812173 Y850.375491 Z-0.125000 I-16.316754 J13.155502
G01 X2338.812173 Y850.375491 Z-0.125000
G00 Z5.000000

(Change tool to Default tool)

G00 Z5.000000
G00 X2383.950739 Y839.982601

G01 Z-0.125000 F100.0(Penetrate)
G02 X2380.731838 Y853.670809 Z-0.125000 I88.721580 J28.086235 F400.000000
G02 X2381.021583 Y858.687077 Z-0.125000 I11.739456 J1.838418
G01 X2382.419289 Y863.723219 Z-0.125000
G01 X2387.199061 Y845.018716 Z-0.125000
G02 X2390.441009 Y828.587252 Z-0.125000 I-146.567910 J-37.453581
G02 X2390.048750 Y826.805692 Z-0.125000 I-2.590729 J-0.363545
G02 X2389.201054 Y826.855962 Z-0.125000 I-0.409669 J0.264237
G02 X2383.950739 Y839.982601 Z-0.125000 I86.023785 J42.020591
G01 X2383.950739 Y839.982601 Z-0.125000
G00 Z5.000000

(Change tool to Default tool)

G00 Z5.000000
G00 X2585.930129 Y501.549268

G01 Z-0.125000 F100.0(Penetrate)
G01 X2585.930129 Y980.964201 Z-0.125000 F400.000000
G01 X2888.528657 Y980.964201 Z-0.125000
G01 X3191.127043 Y980.964201 Z-0.125000
G01 X3191.127043 Y501.549268 Z-0.125000
G01 X3191.127043 Y22.134327 Z-0.125000
G01 X2888.528657 Y22.134327 Z-0.125000
G01 X2585.930129 Y22.134327 Z-0.125000
G01 X2585.930129 Y501.549268 Z-0.125000
G01 X2585.930129 Y501.549268 Z-0.125000
G00 Z5.000000

(Change tool to Default tool)

G00 Z5.000000
G00 X3182.542690 Y501.549268

G01 Z-0.125000 F100.0(Penetrate)
G01 X3182.542690 Y970.654200 Z-0.125000 F400.000000
G01 X2888.528657 Y970.654200 Z-0.125000
G01 X2594.514483 Y970.654200 Z-0.125000
G01 X2594.514483 Y501.549268 Z-0.125000
G01 X2594.514483 Y32.444328 Z-0.125000
G01 X2888.528657 Y32.444328 Z-0.125000
G01 X3182.542690 Y32.444328 Z-0.125000
G01 X3182.542690 Y501.549268 Z-0.125000
G01 X3182.542690 Y501.549268 Z-0.125000
G00 Z5.000000

(Change tool to Default tool)

G00 Z5.000000
G00 X3090.823854 Y149.720560

G01 Z-0.125000 F100.0(Penetrate)
G01 X3093.423402 Y189.671796 Z-0.125000 F400.000000
G01 X3087.550076 Y181.262929 Z-0.125000
G01 X3081.676467 Y172.853977 Z-0.125000
G01 X3063.810107 Y169.675308 Z-0.125000
G03 X3046.146745 Y165.848438 Z-0.125000 I42.461970 J-238.665226
G03 X3039.130055 Y163.356409 Z-0.125000 I10.204269 J-39.855977
G01 X3032.316647 Y160.216235 Z-0.125000
G01 X3032.316647 Y165.745250 Z-0.125000
G01 X3032.316647 Y171.274181 Z-0.125000
G01 X3053.873627 Y174.708741 Z-0.125000
G03 X3074.474022 Y179.464579 Z-0.125000 I-24.158880 J151.640899
G03 X3077.343791 Y181.860534 Z-0.125000 I-1.399589 J4.592986
G03 X3080.440520 Y191.965940 Z-0.125000 I-26.552059 J13.663874
G03 X3090.303436 Y289.836583 Z-0.125000 I-2568.486814 J308.271600
G01 X3093.008536 Y322.986434 Z-0.125000
G01 X3085.533316 Y315.611572 Z-0.125000
G03 X3079.045870 Y307.495381 Z-0.125000 I31.022927 J-31.448164
G03 X3059.072160 Y273.070523 Z-0.125000 I550.377495 J-342.342454
G02 X3039.821161 Y240.558557 Z-0.125000 I-420.343527 J226.938545
G02 X3037.968993 Y240.447046 Z-0.125000 I-0.967104 J0.625581
G02 X3037.412062 Y243.858686 Z-0.125000 I2.616486 J2.178405
G02 X3047.961565 Y267.295802 Z-0.125000 I229.131915 J-89.043923
G02 X3060.167480 Y289.368881 Z-0.125000 I375.450040 J-193.204064
G02 X3075.265507 Y312.924534 Z-0.125000 I344.025080 J-203.886950
G01 X3092.764978 Y338.232291 Z-0.125000
G01 X3079.223673 Y355.011969 Z-0.125000
G01 X3065.682369 Y371.791592 Z-0.125000
G01 X3063.562598 Y394.378997 Z-0.125000
G01 X3061.442544 Y416.966452 Z-0.125000
G01 X3072.988538 Y433.446209 Z-0.125000
G01 X3084.534531 Y449.926023 Z-0.125000
G01 X3098.128047 Y454.271585 Z-0.125000
G01 X3111.721845 Y458.617144 Z-0.125000
G01 X3124.598234 Y454.379272 Z-0.125000
G01 X3137.474905 Y450.141449 Z-0.125000
G01 X3144.986249 Y439.189240 Z-0.125000
G01 X3152.497312 Y428.237084 Z-0.125000
G01 X3152.497312 Y402.867632 Z-0.125000
G01 X3152.497312 Y377.498126 Z-0.125000
G01 X3146.266692 Y359.588422 Z-0.125000
G01 X3140.036072 Y341.678715 Z-0.125000
G01 X3128.152540 Y336.252254 Z-0.125000
G01 X3116.268727 Y330.825846 Z-0.125000
G01 X3108.630100 Y333.224929 Z-0.125000
G01 X3100.991474 Y335.624067 Z-0.125000
G01 X3101.065980 Y319.352936 Z-0.125000
G03 X3102.832048 Y297.335078 Z-0.125000 I146.501789 J0.671251
G03 X3116.142291 Y223.179307 Z-0.125000 I1683.932354 J263.977158
G01 X3118.750871 Y210.291799 Z-0.125000
G01 X3114.180847 Y218.817506 Z-0.125000
G02 X3110.528917 Y227.684610 Z-0.125000 I41.783196 J22.394049
G02 X3103.437776 Y254.902496 Z-0.125000 I390.793974 J116.347174
G01 X3097.264165 Y282.461806 Z-0.125000
G01 X3096.773380 Y269.574298 Z-0.125000
G03 X3096.521451 Y256.682902 Z-0.125000 I347.391026 J-13.237028
G03 X3096.687867 Y183.228070 Z-0.125000 I11266.926019 J-11.201758
G01 X3097.093420 Y109.769323 Z-0.125000
G01 X3092.658862 Y109.769323 Z-0.125000
G01 X3088.224305 Y109.769323 Z-0.125000
G01 X3090.823854 Y149.720560 Z-0.125000
G01 X3090.823854 Y149.720560 Z-0.125000
G00 Z5.000000

(Change tool to Default tool)

G00 Z5.000000
G00 X3137.050443 Y358.889764

G01 Z-0.125000 F100.0(Penetrate)
G01 X3146.059258 Y373.457689 Z-0.125000 F400.000000
G01 X3145.821345 Y402.105310 Z-0.125000
G01 X3145.583714 Y430.752929 Z-0.125000
G01 X3135.688720 Y440.376128 Z-0.125000
G01 X3125.793727 Y449.999274 Z-0.125000
G01 X3110.817323 Y449.999274 Z-0.125000
G01 X3095.840918 Y449.999274 Z-0.125000
G01 X3080.704493 Y431.819963 Z-0.125000
G01 X3065.568069 Y413.640703 Z-0.125000
G01 X3068.108351 Y394.446217 Z-0.125000
G01 X3070.648916 Y375.251784 Z-0.125000
G01 X3086.036236 Y358.190798 Z-0.125000
G01 X3101.423838 Y341.129759 Z-0.125000
G01 X3114.732874 Y342.725799 Z-0.125000
G01 X3128.041909 Y344.321789 Z-0.125000
G01 X3137.050725 Y358.889764 Z-0.125000
G01 X3137.050443 Y358.889764 Z-0.125000
G00 Z5.000000

(Change tool to Default tool)

G00 Z5.000000
G00 X2789.808424 Y161.319300

G01 Z-0.125000 F100.0(Penetrate)
G01 X2787.155732 Y166.474315 Z-0.125000 F400.000000
G01 X2800.000512 Y166.474315 Z-0.125000
G01 X2812.845264 Y166.474315 Z-0.125000
G01 X2814.203402 Y219.313060 Z-0.125000
G03 X2814.814474 Y272.097301 Z-0.125000 I-1868.708759 J48.029287
G03 X2814.046741 Y280.902557 Z-0.125000 I-52.407247 J-0.133307
G01 X2812.531997 Y289.653336 Z-0.125000
G01 X2794.940804 Y291.212558 Z-0.125000
G01 X2777.349582 Y292.771807 Z-0.125000
G01 X2757.919118 Y338.067228 Z-0.125000
G01 X2738.488626 Y383.362658 Z-0.125000
G01 X2739.138810 Y423.124716 Z-0.125000
G01 X2739.788965 Y462.886774 Z-0.125000
G01 X2746.732930 Y486.084269 Z-0.125000
G02 X2754.914626 Y508.748547 Z-0.125000 I207.759726 J-62.191353
G02 X2764.815106 Y528.613014 Z-0.125000 I169.330488 J-71.995126
G01 X2775.953288 Y547.944262 Z-0.125000
G01 X2794.431026 Y547.944262 Z-0.125000
G01 X2812.908792 Y547.944262 Z-0.125000
G01 X2815.446704 Y552.876262 Z-0.125000
G01 X2817.984672 Y557.808262 Z-0.125000
G01 X2815.104058 Y591.576837 Z-0.125000
G01 X2812.223472 Y625.345403 Z-0.125000
G01 X2798.869874 Y629.997413 Z-0.125000
G01 X2785.516275 Y634.649395 Z-0.125000
G01 X2816.887843 Y635.114328 Z-0.125000
G01 X2848.259214 Y635.579233 Z-0.125000
G01 X2845.606608 Y630.424246 Z-0.125000
G01 X2842.954001 Y625.269232 Z-0.125000
G01 X2832.476783 Y625.269232 Z-0.125000
G01 X2821.999735 Y625.269232 Z-0.125000
G01 X2821.999735 Y586.606763 Z-0.125000
G01 X2821.999735 Y547.944262 Z-0.125000
G01 X2838.420101 Y547.944262 Z-0.125000
G01 X2854.840637 Y547.944262 Z-0.125000
G01 X2863.925088 Y536.330327 Z-0.125000
G02 X2871.699300 Y523.972366 Z-0.125000 I-56.307667 J-44.046632
G02 X2884.955723 Y493.801583 Z-0.125000 I-326.498478 J-161.454425
G01 X2896.901344 Y462.886774 Z-0.125000
G01 X2896.545744 Y421.646778 Z-0.125000
G01 X2896.189861 Y380.406784 Z-0.125000
G01 X2887.473992 Y354.614775 Z-0.125000
G02 X2878.031328 Y329.122611 Z-0.125000 I-446.303181 J150.822198
G02 X2869.269248 Y309.508517 Z-0.125000 I-272.763881 J110.085915
G01 X2859.780937 Y290.194300 Z-0.125000
G01 X2840.890110 Y290.194300 Z-0.125000
G01 X2821.999452 Y290.194300 Z-0.125000
G01 X2821.999452 Y228.334294 Z-0.125000
G01 X2821.999452 Y166.474315 Z-0.125000
G01 X2835.948963 Y165.864433 Z-0.125000
G01 X2849.898643 Y165.254494 Z-0.125000
G01 X2837.021972 Y161.319300 Z-0.125000
G02 X2823.988586 Y158.311912 Z-0.125000 I-28.020481 J91.689175
G02 X2808.303208 Y156.774196 Z-0.125000 I-20.806238 J131.465052
G01 X2792.461143 Y156.164314 Z-0.125000
G01 X2789.808424 Y161.319300 Z-0.125000
G01 X2789.808424 Y161.319300 Z-0.125000
G00 Z5.000000

(Change tool to Default tool)

G00 Z5.000000
G00 X2871.768890 Y333.989159

G01 Z-0.125000 F100.0(Penetrate)
G01 X2887.669572 Y372.629022 Z-0.125000 F400.000000
G01 X2889.701008 Y410.648947 Z-0.125000
G01 X2891.732443 Y448.668873 Z-0.125000
G01 X2884.648383 Y474.284426 Z-0.125000
G01 X2877.564606 Y499.899956 Z-0.125000
G01 X2864.433370 Y521.344609 Z-0.125000
G01 X2851.302417 Y542.789265 Z-0.125000
G01 X2820.061178 Y542.789265 Z-0.125000
G01 X2788.820025 Y542.789265 Z-0.125000
G01 X2778.107067 Y532.668485 Z-0.125000
G01 X2767.394137 Y522.547700 Z-0.125000
G01 X2757.595240 Y495.294738 Z-0.125000
G01 X2747.796344 Y468.041772 Z-0.125000
G01 X2745.735190 Y433.974857 Z-0.125000
G01 X2743.674036 Y399.907939 Z-0.125000
G01 X2749.085873 Y379.847363 Z-0.125000
G03 X2755.644645 Y360.214145 Z-0.125000 I169.740965 J45.792386
G03 X2770.007007 Y327.666808 Z-0.125000 I481.965188 J193.237162
G01 X2785.516275 Y295.546786 Z-0.125000
G01 X2820.692227 Y295.448318 Z-0.125000
G01 X2855.868208 Y295.349343 Z-0.125000
G01 X2871.768890 Y333.989210 Z-0.125000
G01 X2871.768890 Y333.989159 Z-0.125000
G00 Z5.000000

(Change tool to Default tool)

G00 Z5.000000
G00 X2666.115503 Y198.614121

G01 Z-0.125000 F100.0(Penetrate)
G01 X2661.043207 Y202.401402 Z-0.125000 F400.000000
G01 X2672.846672 Y202.480283 Z-0.125000
G01 X2684.650165 Y202.559305 Z-0.125000
G01 X2684.650165 Y254.109311 Z-0.125000
G01 X2684.650165 Y305.659288 Z-0.125000
G01 X2663.484853 Y305.659288 Z-0.125000
G01 X2642.319484 Y305.659288 Z-0.125000
G01 X2643.905771 Y404.893031 Z-0.125000
G02 X2645.527384 Y504.126084 Z-0.125000 I139601.671193 J-2231.665924
G02 X2645.756359 Y515.725516 Z-0.125000 I1906.543997 J-31.833513
G01 X2646.020575 Y527.324266 Z-0.125000
G01 X2665.335356 Y527.324266 Z-0.125000
G01 X2684.650165 Y527.324266 Z-0.125000
G01 X2684.650165 Y565.660150 Z-0.125000
G01 X2684.650165 Y603.996026 Z-0.125000
G01 X2670.700598 Y606.075129 Z-0.125000
G01 X2656.751031 Y608.154260 Z-0.125000
G01 X2688.942342 Y608.154260 Z-0.125000
G01 X2721.133653 Y608.154260 Z-0.125000
G01 X2707.184086 Y606.075129 Z-0.125000
G01 X2693.234519 Y603.996026 Z-0.125000
G01 X2693.234519 Y565.465033 Z-0.125000
G01 X2693.234519 Y526.934037 Z-0.125000
G01 X2702.891909 Y527.930880 Z-0.125000
G02 X2712.553812 Y528.477155 Z-0.125000 I10.716149 J-103.817574
G02 X2722.206690 Y528.125997 Z-0.125000 I1.050327 J-103.975885
G01 X2731.864081 Y527.324266 Z-0.125000
G01 X2731.864081 Y416.774222 Z-0.125000
G01 X2731.864081 Y306.224184 Z-0.125000
G01 X2711.931092 Y304.652996 Z-0.125000
G01 X2691.998047 Y303.081780 Z-0.125000
G01 X2692.028103 Y266.996791 Z-0.125000
G03 X2692.265285 Y230.916160 Z-0.125000 I3161.641844 J2.742486
G03 X2692.646339 Y216.735553 Z-0.125000 I486.282828 J5.971717
G01 X2693.234519 Y202.559305 Z-0.125000
G01 X2703.964946 Y202.559305 Z-0.125000
G01 X2714.695374 Y202.559305 Z-0.125000
G01 X2714.695374 Y197.448938 Z-0.125000
G01 X2714.695374 Y192.338655 Z-0.125000
G01 X2692.941600 Y193.582691 Z-0.125000
G02 X2671.678434 Y196.173904 Z-0.125000 I9.541542 J166.833733
G02 X2666.115503 Y198.614121 Z-0.125000 I2.477347 J13.208554
G01 X2666.115503 Y198.614121 Z-0.125000
G00 Z5.000000

(Change tool to Default tool)

G00 Z5.000000
G00 X2726.060322 Y417.780528

G01 Z-0.125000 F100.0(Penetrate)
G01 X2726.694785 Y522.169265 Z-0.125000 F400.000000
G01 X2688.503797 Y522.169265 Z-0.125000
G01 X2650.312752 Y522.169265 Z-0.125000
G01 X2650.312752 Y417.094398 Z-0.125000
G01 X2650.312752 Y312.019476 Z-0.125000
G01 X2687.869277 Y312.705671 Z-0.125000
G01 X2725.425830 Y313.391781 Z-0.125000
G01 X2726.060322 Y417.780528 Z-0.125000
G01 X2726.060322 Y417.780528 Z-0.125000
G00 Z5.000000

(Change tool to Default tool)

G00 Z5.000000
G00 X2916.427735 Y233.597033

G01 Z-0.125000 F100.0(Penetrate)
G01 X2916.427735 Y238.644295 Z-0.125000 F400.000000
G01 X2929.304406 Y238.644295 Z-0.125000
G01 X2942.180795 Y238.644295 Z-0.125000
G01 X2942.180795 Y272.151805 Z-0.125000
G01 X2942.180795 Y305.659288 Z-0.125000
G01 X2922.866070 Y305.659288 Z-0.125000
G01 X2903.551346 Y305.659288 Z-0.125000
G01 X2903.551346 Y401.727448 Z-0.125000
G01 X2903.551346 Y497.795645 Z-0.125000
G01 X2923.052901 Y494.585308 Z-0.125000
G01 X2942.554739 Y491.374971 Z-0.125000
G01 X2941.294617 Y528.646053 Z-0.125000
G01 X2940.034777 Y565.917136 Z-0.125000
G01 X2927.158388 Y569.208285 Z-0.125000
G01 X2914.281717 Y572.499433 Z-0.125000
G01 X2944.327095 Y572.284366 Z-0.125000
G01 X2974.372191 Y572.069298 Z-0.125000
G01 X2960.240195 Y569.973849 Z-0.125000
G01 X2946.108482 Y567.878397 Z-0.125000
G01 X2947.363806 Y530.847593 Z-0.125000
G01 X2948.619130 Y493.816769 Z-0.125000
G01 X2968.579579 Y492.266528 Z-0.125000
G01 X2988.540311 Y490.716284 Z-0.125000
G01 X2987.894586 Y398.211016 Z-0.125000
G01 X2987.248580 Y305.705741 Z-0.125000
G01 X2969.439228 Y305.680059 Z-0.125000
G01 X2951.629595 Y305.654377 Z-0.125000
G01 X2950.124222 Y283.745635 Z-0.125000
G03 X2949.329513 Y261.854323 Z-0.125000 I338.355900 J-23.243236
G03 X2949.990730 Y250.238153 Z-0.125000 I95.666713 J-0.381347
G01 X2951.362331 Y238.639384 Z-0.125000
G01 X2964.655844 Y238.639384 Z-0.125000
G02 X2973.002738 Y238.337746 Z-0.125000 I-0.000000 J-115.637892
G02 X2975.441310 Y237.911309 Z-0.125000 I-0.887188 J-12.259046
G02 X2975.855091 Y237.122832 Z-0.125000 I-0.165776 J-0.589808
G02 X2974.852815 Y236.089284 Z-0.125000 I-1.599412 J0.548270
G02 X2968.711563 Y234.430806 Z-0.125000 I-11.575226 J30.662824
G02 X2945.310639 Y231.336602 Z-0.125000 I-55.755852 J331.636079
G01 X2916.427735 Y228.549912 Z-0.125000
G01 X2916.427735 Y233.597230 Z-0.125000
G01 X2916.427735 Y233.597033 Z-0.125000
G00 Z5.000000

(Change tool to Default tool)

G00 Z5.000000
G00 X2980.810526 Y398.449282

G01 Z-0.125000 F100.0(Penetrate)
G01 X2980.810526 Y486.084269 Z-0.125000 F400.000000
G01 X2944.327095 Y486.084269 Z-0.125000
G01 X2907.843381 Y486.084269 Z-0.125000
G01 X2907.843381 Y401.885964 Z-0.125000
G01 X2907.843381 Y317.687599 Z-0.125000
G01 X2910.704832 Y314.250979 Z-0.125000
G01 X2913.566284 Y310.814302 Z-0.125000
G01 X2947.188546 Y310.814302 Z-0.125000
G01 X2980.810526 Y310.814302 Z-0.125000
G01 X2980.810526 Y398.449282 Z-0.125000
G01 X2980.810526 Y398.449282 Z-0.125000
G00 Z5.000000

(End cutting path id: path4151)


(Footer)
M5
G00 X0.0000 Y0.0000
M2
(Using default footer. To add your own footer create file "footer" in the output dir.)
(end)
%