%
(Header)
(Generated by gcodetools from Inkscape.)
(Using default header. To add your own header create file "header" in the output dir.)
M3
(Header end.)
G21 (All units in mm)

(Start cutting path id: path59292)
(Change tool to Default tool)

G00 Z5.000000
G00 X1981.005250 Y9.371287

G01 Z-0.125000 F100.0(Penetrate)
G02 X1952.639938 Y13.102354 Z-0.125000 I17.261541 J240.918994 F400.000000
G02 X1929.423551 Y19.293712 Z-0.125000 I32.185137 J167.312130
G02 X1903.391356 Y33.403939 Z-0.125000 I29.218086 J84.973668
G02 X1878.847042 Y58.726874 Z-0.125000 I78.370109 J100.516696
G02 X1863.724807 Y84.856022 Z-0.125000 I114.821594 J83.893523
G02 X1857.362960 Y107.056244 Z-0.125000 I76.039229 J33.801979
G02 X1855.961594 Y122.326340 Z-0.125000 I157.058324 J22.112899
G02 X1855.883576 Y136.904578 Z-0.125000 I192.678393 J8.320477
G02 X1857.315008 Y151.328035 Z-0.125000 I109.058063 J-3.540527
G02 X1858.842228 Y152.621474 Z-0.125000 I1.527220 J-0.254909
G02 X1860.704939 Y150.918895 Z-0.125000 I0.000000 J-1.870242
G02 X1860.031145 Y139.412740 Z-0.125000 I-38.855946 J-3.497423
G03 X1859.369939 Y130.830293 Z-0.125000 I32.526304 J-6.822576
G03 X1861.489105 Y111.918425 Z-0.125000 I162.209025 J8.601642
G03 X1868.622406 Y86.464095 Z-0.125000 I126.654578 J21.766896
G03 X1880.209329 Y64.535769 Z-0.125000 I105.206409 J41.565617
G03 X1901.514420 Y40.467580 Z-0.125000 I103.695776 J70.327503
G03 X1926.137140 Y25.087809 Z-0.125000 I60.184029 J68.953342
G03 X1954.683563 Y17.147770 Z-0.125000 I45.176802 J107.136111
G03 X2000.050819 Y14.001425 Z-0.125000 I43.823404 J303.241953
G03 X2045.793692 Y18.346905 Z-0.125000 I-1.291691 J256.526871
G03 X2078.404853 Y28.615230 Z-0.125000 I-26.041321 J139.623628
G03 X2111.647498 Y46.098982 Z-0.125000 I-132.674382 J292.604536
G03 X2129.401872 Y59.370143 Z-0.125000 I-57.782598 J95.814119
G02 X2134.282742 Y63.423170 Z-0.125000 I44.516902 J-48.644196
G02 X2135.204728 Y63.734766 Z-0.125000 I0.932766 J-1.240139
G03 X2137.808235 Y65.132618 Z-0.125000 I-0.022457 J3.165275
G03 X2150.328456 Y85.358185 Z-0.125000 I-258.902926 J174.256506
G03 X2161.131818 Y105.729650 Z-0.125000 I-351.047909 J199.217493
G03 X2166.732873 Y119.291735 Z-0.125000 I-97.683018 J48.280112
G03 X2169.086115 Y129.763553 Z-0.125000 I-49.361611 J16.592931
G03 X2169.562574 Y143.198667 Z-0.125000 I-81.134911 J9.603353
G03 X2167.601085 Y156.408334 Z-0.125000 I-66.483889 J-3.121659
G03 X2163.844103 Y165.791318 Z-0.125000 I-36.958000 J-9.354475
G02 X2159.294997 Y176.643493 Z-0.125000 I43.942182 J24.799607
G02 X2160.328037 Y178.015547 Z-0.125000 I1.033041 J0.297131
G02 X2161.537657 Y177.353587 Z-0.125000 I0.000000 J-1.436166
G02 X2166.285008 Y169.131996 Z-0.125000 I-87.539278 J-56.028770
G02 X2170.265018 Y160.747180 Z-0.125000 I-118.471816 J-61.371873
G02 X2172.067438 Y155.353865 Z-0.125000 I-30.427958 J-13.166712
G02 X2172.751025 Y150.897981 Z-0.125000 I-25.978658 J-6.265822
G02 X2173.198726 Y138.689009 Z-0.125000 I-195.831153 J-13.293784
G02 X2169.668629 Y117.075376 Z-0.125000 I-65.705233 J-0.363639
G02 X2154.093128 Y82.787758 Z-0.125000 I-183.861730 J62.839599
G02 X2138.927323 Y62.747640 Z-0.125000 I-87.732750 J50.635119
G02 X2119.085521 Y46.843089 Z-0.125000 I-74.296063 J72.359280
G03 X2107.200560 Y39.469736 Z-0.125000 I1472.219126 J-2386.306147
G03 X2097.659294 Y33.476141 Z-0.125000 I960.064956 J-1538.928450
G02 X2068.801509 Y19.454078 Z-0.125000 I-76.951467 J121.662122
G02 X2035.761244 Y11.536129 Z-0.125000 I-53.932814 J152.157825
G02 X2005.605751 Y8.977400 Z-0.125000 I-43.403338 J332.547397
G02 X1981.005250 Y9.371287 Z-0.125000 I-8.756815 J221.504886
G01 X1981.005250 Y9.371287 Z-0.125000
G00 Z5.000000

(Change tool to Default tool)

G00 Z5.000000
G00 X1972.585517 Y82.855209

G01 Z-0.125000 F100.0(Penetrate)
G02 X1965.206803 Y84.893638 Z-0.125000 I6.166579 J36.695773 F400.000000
G02 X1949.712901 Y91.794570 Z-0.125000 I66.500975 J170.151151
G02 X1935.456408 Y100.587752 Z-0.125000 I43.165442 J85.938358
G02 X1929.277077 Y107.005783 Z-0.125000 I16.244382 J21.823990
G02 X1922.623427 Y122.203157 Z-0.125000 I36.332583 J24.962201
G02 X1921.347476 Y139.113507 Z-0.125000 I56.050574 J12.732546
G02 X1925.335048 Y155.304168 Z-0.125000 I49.514586 J-3.608491
G02 X1933.534145 Y165.420083 Z-0.125000 I22.311249 J-9.702895
G02 X1938.118356 Y167.255516 Z-0.125000 I6.076047 J-8.533120
G02 X1939.163636 Y166.544223 Z-0.125000 I0.133459 J-0.927567
G02 X1938.934400 Y164.606671 Z-0.125000 I-2.763248 J-0.655411
G02 X1935.046744 Y159.042989 Z-0.125000 I-21.475402 J10.865964
G03 X1927.656287 Y145.422001 Z-0.125000 I22.513621 J-21.030855
G03 X1926.534463 Y128.310093 Z-0.125000 I47.153260 J-11.684005
G03 X1931.467472 Y111.945079 Z-0.125000 I47.227688 J5.310137
G03 X1941.587498 Y100.870413 Z-0.125000 I25.319356 J12.975648
G03 X1961.476463 Y90.710869 Z-0.125000 I65.401524 J103.486436
G03 X1976.243879 Y86.991430 Z-0.125000 I21.160194 J52.837524
G01 X1984.973097 Y86.004555 Z-0.125000
G01 X1978.082557 Y89.402115 Z-0.125000
G02 X1962.093520 Y100.690331 Z-0.125000 I27.736327 J56.254571
G02 X1953.521293 Y113.285566 Z-0.125000 I26.495160 J27.247132
G02 X1949.160953 Y129.999195 Z-0.125000 I56.871692 J23.762577
G02 X1950.820059 Y136.750171 Z-0.125000 I9.918507 J1.141805
G02 X1953.361194 Y136.587213 Z-0.125000 I1.222546 J-0.830316
G02 X1955.586905 Y127.331653 Z-0.125000 I-18.428544 J-9.326957
G03 X1966.507608 Y103.121750 Z-0.125000 I32.544487 J0.112271
G03 X1999.257239 Y88.506032 Z-0.125000 I39.428387 J44.348578
G03 X2011.096762 Y90.700284 Z-0.125000 I2.322699 J20.505790
G03 X2027.053136 Y102.952084 Z-0.125000 I-26.564323 J51.113021
G03 X2041.365191 Y121.641915 Z-0.125000 I-100.042439 J91.433958
G03 X2041.008432 Y124.889867 Z-0.125000 I-2.203266 J1.401560
G03 X2040.372044 Y125.168764 Z-0.125000 I-0.675224 J-0.675224
G03 X2011.139020 Y126.105765 Z-0.125000 I-68.847191 J-1691.446849
G02 X1985.237759 Y127.380980 Z-0.125000 I11.762896 J502.600979
G02 X1974.493268 Y129.303561 Z-0.125000 I4.012577 J53.409087
G02 X1965.306021 Y133.825767 Z-0.125000 I7.955135 J27.754980
G02 X1956.395782 Y141.796276 Z-0.125000 I37.768822 J51.187431
G02 X1948.479716 Y151.515935 Z-0.125000 I72.572526 J67.189276
G02 X1944.606937 Y158.307208 Z-0.125000 I31.303252 J22.350819
G02 X1938.909708 Y176.981058 Z-0.125000 I74.355361 J32.891184
G02 X1936.565635 Y203.584825 Z-0.125000 I149.796056 J26.603766
G03 X1936.108411 Y215.649407 Z-0.125000 I-159.400105 J0.000000
G03 X1935.615167 Y216.106629 Z-0.125000 I-0.493244 J-0.037440
G03 X1930.314327 Y214.332860 Z-0.125000 I0.000000 J-8.807561
G03 X1919.382581 Y204.388558 Z-0.125000 I48.241134 J-64.012128
G03 X1910.148184 Y192.822168 Z-0.125000 I82.097367 J-75.014537
G03 X1903.367186 Y180.813809 Z-0.125000 I60.908928 J-42.313412
G02 X1888.392244 Y161.846488 Z-0.125000 I-45.040436 J20.164884
G02 X1870.849570 Y155.830482 Z-0.125000 I-17.706025 J23.045550
G02 X1855.402873 Y164.049581 Z-0.125000 I-0.102853 J18.431250
G02 X1852.429377 Y183.507648 Z-0.125000 I19.417775 J12.923571
G02 X1859.531639 Y201.442478 Z-0.125000 I99.580431 J-29.060560
G02 X1864.962584 Y208.170992 Z-0.125000 I18.583667 J-9.443814
G03 X1867.570667 Y210.753256 Z-0.125000 I-11.872347 J14.599269
G03 X1873.204750 Y217.872670 Z-0.125000 I-150.324667 J124.751283
G03 X1878.374381 Y225.175197 Z-0.125000 I-118.315568 J89.239503
G03 X1878.130649 Y225.629428 Z-0.125000 I-0.243732 J0.161725
G03 X1876.830086 Y225.231850 Z-0.125000 I0.000000 J-2.325997
G03 X1874.752788 Y223.351415 Z-0.125000 I5.521796 J-8.187479
G02 X1871.640508 Y220.892784 Z-0.125000 I-7.338479 J6.090309
G02 X1860.491556 Y215.992051 Z-0.125000 I-60.021015 J121.413124
G02 X1849.045477 Y212.108944 Z-0.125000 I-51.810216 J133.907753
G02 X1843.721946 Y211.345258 Z-0.125000 I-5.323531 J18.172912
G03 X1840.037743 Y211.173674 Z-0.125000 I-0.000000 J-39.638782
G03 X1839.041234 Y210.781445 Z-0.125000 I0.178905 J-1.916529
G03 X1838.669094 Y209.947990 Z-0.125000 I0.587791 J-0.762259
G03 X1839.090934 Y207.774216 Z-0.125000 I9.407124 J0.697716
G02 X1844.113767 Y182.243464 Z-0.125000 I-107.938950 J-34.495004
G02 X1842.020090 Y170.862823 Z-0.125000 I-22.340875 J-1.772894
G02 X1835.619981 Y164.015109 Z-0.125000 I-13.942454 J6.616361
G02 X1826.931925 Y162.410888 Z-0.125000 I-6.700865 J11.961922
G02 X1823.727421 Y163.652876 Z-0.125000 I1.119285 J7.642944
G02 X1822.737913 Y164.911014 Z-0.125000 I1.467303 J2.172201
G02 X1822.990474 Y166.000547 Z-0.125000 I0.950618 J0.353680
G02 X1825.259618 Y166.905616 Z-0.125000 I2.269144 J-2.392009
G03 X1833.322051 Y169.232196 Z-0.125000 I0.000000 J15.132900
G03 X1838.269131 Y175.095846 Z-0.125000 I-6.739175 J10.704464
G03 X1839.725462 Y185.378273 Z-0.125000 I-19.240189 J7.969392
G03 X1834.832595 Y205.844888 Z-0.125000 I-84.977568 J-9.497061
G03 X1831.291854 Y213.045394 Z-0.125000 I-38.020386 J-14.225154
G03 X1826.215247 Y220.068088 Z-0.125000 I-52.679823 J-32.735255
G03 X1820.069929 Y226.122904 Z-0.125000 I-34.191440 J-28.556506
G03 X1816.983112 Y227.216561 Z-0.125000 I-3.086817 J-3.809397
G02 X1815.087819 Y227.947702 Z-0.125000 I-0.000000 J2.822099
G02 X1814.356667 Y229.597247 Z-0.125000 I1.495186 J1.649545
G02 X1817.411895 Y231.694937 Z-0.125000 I2.247741 J-0.000000
G02 X1828.787367 Y224.042295 Z-0.125000 I-11.050796 J-28.707755
G03 X1836.837878 Y217.493213 Z-0.125000 I28.313907 J26.582473
G03 X1841.762534 Y216.106629 Z-0.125000 I4.924656 J8.052032
G03 X1851.743812 Y217.831073 Z-0.125000 I-0.000000 J29.748621
G03 X1868.085598 Y225.482136 Z-0.125000 I-31.673013 J88.927502
G02 X1876.688647 Y229.629342 Z-0.125000 I28.815436 J-48.778566
G02 X1879.195502 Y229.724840 Z-0.125000 I1.394331 J-3.651032
G03 X1881.525904 Y230.139976 Z-0.125000 I0.751279 J2.531154
G03 X1895.639236 Y241.996370 Z-0.125000 I-95.751845 J128.306951
G02 X1918.578066 Y260.291145 Z-0.125000 I121.332803 J-128.604377
G02 X1935.562787 Y268.737434 Z-0.125000 I41.125414 J-61.398969
G02 X1952.922758 Y271.892774 Z-0.125000 I18.912785 J-54.720883
G02 X1955.611205 Y269.275490 Z-0.125000 I0.070221 J-2.617284
G02 X1954.673488 Y267.832450 Z-0.125000 I-1.579197 J-0.000000
G02 X1950.255784 Y266.894776 Z-0.125000 I-4.417704 J9.937833
G03 X1930.258606 Y261.500755 Z-0.125000 I-0.000000 J-39.764634
G03 X1895.203683 Y234.864925 Z-0.125000 I90.355691 J-155.300938
G03 X1870.030113 Y206.977656 Z-0.125000 I205.305455 J-210.632865
G03 X1859.566297 Y189.919004 Z-0.125000 I65.398804 J-51.854365
G03 X1857.396198 Y183.402437 Z-0.125000 I28.807507 J-13.212881
G03 X1856.535033 Y175.896228 Z-0.125000 I37.485554 J-8.103113
G03 X1857.765133 Y168.828298 Z-0.125000 I19.203576 J-0.298824
G03 X1860.868696 Y164.389548 Z-0.125000 I10.243551 J3.857889
G03 X1872.756901 Y160.901990 Z-0.125000 I9.794235 J11.380349
G03 X1887.902424 Y168.196923 Z-0.125000 I-3.855323 J27.374114
G03 X1891.946718 Y172.827807 Z-0.125000 I-22.249617 J23.512722
G03 X1898.942365 Y183.570499 Z-0.125000 I-114.325939 J82.098244
G02 X1917.372744 Y209.760528 Z-0.125000 I169.435621 J-99.654890
G02 X1927.593509 Y217.949766 Z-0.125000 I25.254307 J-21.046463
G02 X1933.739079 Y220.354096 Z-0.125000 I14.813673 J-28.808049
G02 X1935.882658 Y220.251599 Z-0.125000 I0.916449 J-3.299978
G03 X1937.401832 Y220.719419 Z-0.125000 I0.461399 J1.202232
G03 X1939.818106 Y225.919694 Z-0.125000 I-13.766251 J9.557889
G02 X1942.008818 Y232.237764 Z-0.125000 I45.680167 J-12.300197
G02 X1945.055557 Y238.153604 Z-0.125000 I43.064564 J-18.436368
G03 X1948.456875 Y243.928604 Z-0.125000 I-198.872979 J121.019887
G03 X1950.579549 Y247.849235 Z-0.125000 I-89.465910 J50.972807
G02 X1959.010445 Y259.406939 Z-0.125000 I41.043410 J-21.085715
G02 X1962.147471 Y259.406236 Z-0.125000 I1.568161 J-1.569647
G02 X1962.475455 Y257.718743 Z-0.125000 I-1.087013 J-1.086893
G02 X1957.510419 Y248.481554 Z-0.125000 I-52.656763 J22.350315
G03 X1948.688360 Y233.060092 Z-0.125000 I113.408030 J-75.110743
G03 X1943.906377 Y220.623624 Z-0.125000 I68.748153 J-33.572158
G03 X1941.266200 Y191.859235 Z-0.125000 I74.126449 J-21.307153
G03 X1949.950053 Y158.409090 Z-0.125000 I109.884283 J10.674339
G03 X1960.158584 Y143.003229 Z-0.125000 I48.914435 J21.327414
G03 X1972.924748 Y134.200604 Z-0.125000 I27.249815 J25.861041
G03 X1985.889759 Y134.793329 Z-0.125000 I5.855369 J14.014076
G03 X1993.095565 Y144.885650 Z-0.125000 I-6.490659 J12.252853
G03 X1992.519578 Y149.886752 Z-0.125000 I-9.283833 J1.464481
G03 X1987.375316 Y158.969978 Z-0.125000 I-37.441503 J-15.206565
G02 X1976.172415 Y175.944135 Z-0.125000 I132.320887 J99.515479
G02 X1971.037549 Y187.658661 Z-0.125000 I51.053123 J29.360933
G02 X1969.113261 Y199.972266 Z-0.125000 I39.972668 J12.553821
G02 X1970.714863 Y212.018528 Z-0.125000 I44.197129 J0.253404
G02 X1977.871674 Y231.172541 Z-0.125000 I112.761995 J-31.218951
G02 X1984.695052 Y241.327560 Z-0.125000 I37.808228 J-18.034271
G02 X1997.450419 Y251.831136 Z-0.125000 I42.667098 J-38.817467
G02 X2005.916498 Y254.197740 Z-0.125000 I8.466079 J-13.959602
G02 X2008.973491 Y253.194854 Z-0.125000 I-0.000000 J-5.160602
G02 X2009.474734 Y251.969518 Z-0.125000 I-0.752038 J-1.022822
G02 X2008.640980 Y250.564864 Z-0.125000 I-2.198652 J0.355274
G02 X2005.065541 Y248.931501 Z-0.125000 I-5.257994 J6.779766
G03 X2000.951753 Y247.251548 Z-0.125000 I2.304320 J-11.519504
G03 X1992.765281 Y240.908234 Z-0.125000 I34.859336 J-53.442569
G01 X1984.973097 Y233.786638 Z-0.125000
G01 X1993.913304 Y234.672252 Z-0.125000
G02 X2008.691207 Y234.066764 Z-0.125000 I5.235886 J-52.851745
G02 X2026.238445 Y228.768614 Z-0.125000 I-14.655834 J-80.246396
G02 X2036.859872 Y222.644741 Z-0.125000 I-20.697016 J-48.170506
G02 X2060.284351 Y203.409621 Z-0.125000 I-191.421680 J-256.993531
G03 X2073.876151 Y192.700322 Z-0.125000 I86.015093 J95.187077
G03 X2083.412942 Y188.543371 Z-0.125000 I15.646805 J22.878551
G03 X2094.047337 Y187.839752 Z-0.125000 I7.551189 J33.412388
G03 X2116.030465 Y190.810967 Z-0.125000 I-22.585826 J249.914645
G02 X2157.502180 Y193.788399 Z-0.125000 I34.610802 J-191.771021
G02 X2161.938031 Y189.193523 Z-0.125000 I-0.161876 J-4.594876
G02 X2161.398258 Y188.633064 Z-0.125000 I-0.560856 J0.000000
G02 X2149.637770 Y188.730876 Z-0.125000 I-4.815874 J128.023219
G03 X2137.392311 Y188.532372 Z-0.125000 I-4.715880 J-86.886011
G03 X2119.204732 Y186.087668 Z-0.125000 I16.909023 J-194.672389
G02 X2088.400840 Y182.889271 Z-0.125000 I-36.092515 J197.672563
G02 X2077.202388 Y184.981752 Z-0.125000 I-0.715658 J27.181921
G02 X2072.317975 Y187.811631 Z-0.125000 I8.437351 J20.193212
G02 X2056.735746 Y200.684511 Z-0.125000 I170.779687 J222.590965
G03 X2031.952119 Y220.109471 Z-0.125000 I-169.542475 J-190.790554
G03 X2018.998994 Y226.670744 Z-0.125000 I-30.778704 J-44.696135
G03 X2007.482072 Y229.479312 Z-0.125000 I-20.420003 J-58.717384
G03 X1995.250586 Y230.107194 Z-0.125000 I-9.503007 J-65.671819
G01 X1982.850842 Y229.597247 Z-0.125000
G01 X1979.291484 Y222.455162 Z-0.125000
G03 X1976.739290 Y215.047808 Z-0.125000 I26.939477 J-13.425313
G03 X1975.000323 Y201.425683 Z-0.125000 I90.604448 J-18.488403
G03 X1974.728160 Y190.648506 Z-0.125000 I196.462723 J-10.353431
G03 X1975.826853 Y188.286588 Z-0.125000 I3.102482 J0.006682
G03 X1978.323588 Y187.636847 Z-0.125000 I1.925101 J2.275587
G03 X1988.567761 Y189.947903 Z-0.125000 I-34.842370 J178.305182
G02 X2002.902476 Y191.449344 Z-0.125000 I12.257252 J-47.844069
G02 X2018.627526 Y189.017057 Z-0.125000 I-3.010727 J-71.513122
G02 X2033.330830 Y183.076325 Z-0.125000 I-17.461871 J-64.383807
G02 X2043.044722 Y175.172977 Z-0.125000 I-16.876317 J-30.663718
G02 X2053.306809 Y159.656993 Z-0.125000 I-57.314012 J-49.058407
G02 X2055.600337 Y149.877794 Z-0.125000 I-19.701621 J-9.779199
G02 X2055.026605 Y145.107296 Z-0.125000 I-20.119840 J-0.000000
G02 X2051.937181 Y133.985272 Z-0.125000 I-177.687334 J43.367055
G02 X2048.036752 Y122.892660 Z-0.125000 I-157.610628 J49.187634
G02 X2046.622792 Y121.111222 Z-0.125000 I-3.615642 J1.417940
G03 X2045.374138 Y119.861273 Z-0.125000 I2.746302 J-3.992111
G03 X2040.966043 Y112.870050 Z-0.125000 I87.412930 J-60.000781
G02 X2026.082854 Y94.308653 Z-0.125000 I-67.921155 J39.213965
G02 X2009.910845 Y84.361401 Z-0.125000 I-33.776629 J36.793587
G02 X1995.395058 Y81.414834 Z-0.125000 I-16.390725 J43.518141
G02 X1972.585517 Y82.855209 Z-0.125000 I-4.464154 J110.630638
G01 X1972.585517 Y82.855209 Z-0.125000
G00 Z5.000000

(Change tool to Default tool)

G00 Z5.000000
G00 X2038.832160 Y130.362297

G01 Z-0.125000 F100.0(Penetrate)
G03 X2041.994218 Y132.537172 Z-0.125000 I-2.878941 J7.571801 F400.000000
G03 X2042.903301 Y134.919254 Z-0.125000 I-2.666362 J2.382082
G03 X2039.985270 Y138.249061 Z-0.125000 I-3.358860 J0.000000
G03 X2012.113082 Y138.995644 Z-0.125000 I-17.483489 J-132.061596
G03 X1998.430064 Y136.686734 Z-0.125000 I6.082050 J-77.741789
G03 X1995.092090 Y134.535799 Z-0.125000 I1.618615 J-6.177402
G01 X1992.378495 Y131.195219 Z-0.125000
G01 X2007.721337 Y130.312146 Z-0.125000
G03 X2023.064787 Y129.439671 Z-0.125000 I640.849065 J11134.709744
G03 X2028.912614 Y129.121789 Z-0.125000 I90.869262 J1617.700982
G03 X2034.680365 Y129.329240 Z-0.125000 I1.714235 J32.623126
G03 X2038.832160 Y130.362297 Z-0.125000 I-2.227120 J17.810116
G01 X2038.832160 Y130.362297 Z-0.125000
G00 Z5.000000

(Change tool to Default tool)

G00 Z5.000000
G00 X2050.019901 Y146.122009

G01 Z-0.125000 F100.0(Penetrate)
G03 X2048.596857 Y158.957985 Z-0.125000 I-23.218695 J3.922760 F400.000000
G03 X2038.917166 Y173.271759 Z-0.125000 I-39.018410 J-15.956372
G01 X2033.554887 Y178.469135 Z-0.125000
G01 X2032.483289 Y174.199593 Z-0.125000
G03 X2032.020881 Y167.181834 Z-0.125000 I19.039851 J-4.778670
G03 X2034.179110 Y155.582031 Z-0.125000 I84.225255 J9.670047
G03 X2038.076045 Y144.676967 Z-0.125000 I62.631541 J16.232628
G03 X2040.543895 Y143.098675 Z-0.125000 I2.467849 J1.140243
G02 X2042.287553 Y142.614982 Z-0.125000 I0.000000 J-3.384688
G02 X2044.475927 Y140.735459 Z-0.125000 I-4.432683 J-7.374834
G03 X2046.563457 Y139.237766 Z-0.125000 I3.907875 J3.243236
G03 X2047.826092 Y139.496602 Z-0.125000 I0.428873 J1.116963
G03 X2048.756232 Y140.988255 Z-0.125000 I-2.553440 J2.628059
G03 X2050.019901 Y146.122009 Z-0.125000 I-34.000785 J11.091663
G01 X2050.019901 Y146.122009 Z-0.125000
G00 Z5.000000

(Change tool to Default tool)

G00 Z5.000000
G00 X2033.380530 Y143.692584

G01 Z-0.125000 F100.0(Penetrate)
G03 X2033.287105 Y144.270417 Z-0.125000 I-1.833650 J0.000000 F400.000000
G03 X2030.877247 Y151.231445 Z-0.125000 I-275.498794 J-91.478030
G02 X2029.118904 Y158.310092 Z-0.125000 I33.537352 J12.088423
G02 X2028.269119 Y169.607075 Z-0.125000 I85.145092 J12.085264
G03 X2028.041908 Y177.412838 Z-0.125000 I-195.955539 J-1.797708
G03 X2027.542654 Y179.793357 Z-0.125000 I-7.734454 J-0.379493
G03 X2026.175790 Y181.419278 Z-0.125000 I-3.021562 J-1.152636
G03 X2023.233540 Y182.807568 Z-0.125000 I-8.660731 J-14.543035
G03 X2012.030573 Y185.247435 Z-0.125000 I-14.919967 J-41.567089
G03 X1997.426918 Y185.427095 Z-0.125000 I-8.547962 J-101.202557
G03 X1983.198110 Y183.154470 Z-0.125000 I4.358429 J-72.967243
G03 X1979.924762 Y180.220691 Z-0.125000 I1.225233 J-4.660047
G03 X1980.060700 Y178.269273 Z-0.125000 I2.162489 J-0.829802
G03 X1988.798478 Y164.187675 Z-0.125000 I145.438898 J80.494604
G02 X1997.615658 Y149.952291 Z-0.125000 I-135.945821 J-94.051080
G02 X1998.463686 Y146.657836 Z-0.125000 I-5.975205 J-3.294455
G03 X2000.063753 Y144.698668 Z-0.125000 I1.999464 J0.000000
G03 X2015.922122 Y143.098675 Z-0.125000 I15.858369 J77.790308
G03 X2033.088655 Y143.390610 Z-0.125000 I-0.000000 J504.864754
G03 X2033.380530 Y143.692584 Z-0.125000 I-0.010274 J0.301974
G01 X2033.380530 Y143.692584 Z-0.125000
G00 Z5.000000

(Change tool to Default tool)

G00 Z5.000000
G00 X1973.169435 Y141.908347

G01 Z-0.125000 F100.0(Penetrate)
G02 X1973.133178 Y148.933254 Z-0.125000 I9.178487 J3.559918 F400.000000
G02 X1976.640655 Y151.139553 Z-0.125000 I3.205959 J-1.205526
G03 X1977.832531 Y151.067219 Z-0.125000 I1.851041 J20.644443
G03 X1979.869503 Y151.034821 Z-0.125000 I2.036972 J64.019627
G02 X1982.159222 Y150.047642 Z-0.125000 I0.000000 J-3.149042
G02 X1984.703232 Y146.434842 Z-0.125000 I-11.258997 J-10.630305
G02 X1986.066116 Y142.304733 Z-0.125000 I-12.834674 J-6.525200
G02 X1985.387766 Y140.180751 Z-0.125000 I-2.397824 J-0.404507
G02 X1978.323098 Y137.820354 Z-0.125000 I-5.896954 J5.897106
G02 X1973.169435 Y141.908826 Z-0.125000 I0.910763 J6.440472
G01 X1973.169435 Y141.908347 Z-0.125000
G00 Z5.000000

(Change tool to Default tool)

G00 Z5.000000
G00 X1981.005250 Y145.479389

G01 Z-0.125000 F100.0(Penetrate)
G03 X1980.307976 Y147.162775 Z-0.125000 I-2.380686 J-0.000000 F400.000000
G03 X1978.624564 Y147.860075 Z-0.125000 I-1.683412 J-1.683386
G03 X1976.941165 Y147.162788 Z-0.125000 I0.000000 J-2.380686
G03 X1976.243879 Y145.479389 Z-0.125000 I1.683399 J-1.683399
G03 X1976.941175 Y143.795960 Z-0.125000 I2.380734 J-0.000000
G03 X1978.624564 Y143.098675 Z-0.125000 I1.683389 J1.683381
G03 X1980.307966 Y143.795973 Z-0.125000 I0.000000 J2.380666
G03 X1981.005250 Y145.479389 Z-0.125000 I-1.683450 J1.683416
G01 X1981.005250 Y145.479389 Z-0.125000
G00 Z5.000000

(Change tool to Default tool)

G00 Z5.000000
G00 X1564.383780 Y147.922135

G01 Z-0.125000 F100.0(Penetrate)
G02 X1525.082406 Y159.128210 Z-0.125000 I20.433293 J146.183523 F400.000000
G02 X1499.984789 Y176.422064 Z-0.125000 I33.225210 J75.076238
G02 X1485.245195 Y194.688409 Z-0.125000 I82.046269 J81.285346
G02 X1476.700665 Y212.182160 Z-0.125000 I66.592631 J43.359650
G02 X1472.213949 Y236.482461 Z-0.125000 I78.717657 J27.098487
G02 X1473.922815 Y269.455661 Z-0.125000 I193.442783 J6.505534
G02 X1481.492966 Y301.561073 Z-0.125000 I173.358102 J-23.931000
G02 X1491.298214 Y317.927977 Z-0.125000 I42.592923 J-14.396430
G01 X1494.761532 Y321.619331 Z-0.125000
G01 X1489.719181 Y326.396422 Z-0.125000
G02 X1485.882898 Y331.782667 Z-0.125000 I11.823974 J12.480764
G02 X1483.595777 Y339.913060 Z-0.125000 I25.546459 J11.573235
G02 X1484.932158 Y355.451770 Z-0.125000 I37.324610 J4.616782
G02 X1491.520373 Y367.042123 Z-0.125000 I28.941386 J-8.783309
G02 X1502.475013 Y374.967467 Z-0.125000 I24.498619 J-22.329117
G02 X1519.431000 Y379.230059 Z-0.125000 I20.558619 J-45.923726
G01 X1530.027768 Y379.990789 Z-0.125000
G01 X1531.835457 Y373.040587 Z-0.125000
G03 X1541.315500 Y340.482975 Z-0.125000 I567.986161 J147.725780
G03 X1557.133265 Y294.669564 Z-0.125000 I1141.000375 J368.310054
G02 X1561.797876 Y281.969391 Z-0.125000 I-9518.113362 J-3503.086375
G02 X1566.892368 Y268.043872 Z-0.125000 I-11411.878391 J-4182.802524
G03 X1570.457738 Y258.699053 Z-0.125000 I326.665856 J119.281704
G03 X1571.668852 Y256.467907 Z-0.125000 I9.979789 J3.972961
G03 X1573.169566 Y255.875765 Z-0.125000 I1.203033 J0.851183
G03 X1574.885692 Y256.746376 Z-0.125000 I-0.739108 J3.583607
G02 X1577.906714 Y257.910441 Z-0.125000 I3.021195 J-3.338546
G02 X1581.801519 Y256.746376 Z-0.125000 I0.000272 J-7.096869
G02 X1585.418194 Y252.305620 Z-0.125000 I-5.188715 J-7.918972
G02 X1585.187001 Y249.778605 Z-0.125000 I-2.618883 J-1.034485
G02 X1582.968293 Y248.324003 Z-0.125000 I-2.687601 J1.680003
G02 X1577.055783 Y249.154316 Z-0.125000 I-1.554847 J10.394334
G03 X1574.557704 Y249.507424 Z-0.125000 I-1.847020 J-4.053888
G03 X1574.095836 Y248.717069 Z-0.125000 I0.085718 J-0.580223
G03 X1577.694974 Y245.182191 Z-0.125000 I5.673971 J2.177394
G03 X1624.190705 Y230.521440 Z-0.125000 I193.774555 J533.485257
G02 X1642.505089 Y225.371682 Z-0.125000 I-212.180914 J-789.732452
G02 X1651.747898 Y222.425642 Z-0.125000 I-59.925510 J-203.980378
G03 X1660.846698 Y219.542129 Z-0.125000 I63.513278 J184.616236
G03 X1661.247894 Y219.668810 Z-0.125000 I0.105649 J0.364041
G03 X1661.444270 Y220.121742 Z-0.125000 I-0.728560 J0.584918
G03 X1662.375230 Y227.569198 Z-0.125000 I-213.742913 J30.500581
G01 X1663.180580 Y235.068548 Z-0.125000
G01 X1654.591203 Y238.282325 Z-0.125000
G03 X1645.960622 Y241.268065 Z-0.125000 I-64.141067 J-171.439550
G03 X1644.493038 Y241.495962 Z-0.125000 I-1.467585 J-4.611451
G02 X1642.195782 Y241.803754 Z-0.125000 I0.000000 J8.726867
G02 X1616.994172 Y248.858120 Z-0.125000 I525.606362 J1926.263615
G02 X1592.227648 Y256.136505 Z-0.125000 I560.964148 J1954.596949
G02 X1588.199271 Y257.652140 Z-0.125000 I9.166260 J30.474124
G02 X1585.467738 Y260.411161 Z-0.125000 I2.267311 J4.976392
G02 X1575.728831 Y285.765453 Z-0.125000 I244.645642 J108.519085
G02 X1567.381849 Y312.194031 Z-0.125000 I1310.156443 J428.321307
G02 X1566.001477 Y317.678182 Z-0.125000 I54.903301 J16.735063
G03 X1561.768531 Y335.016559 Z-0.125000 I-207.644248 J-41.507828
G03 X1554.598486 Y357.094213 Z-0.125000 I-344.058100 J-99.534850
G02 X1553.284991 Y362.711595 Z-0.125000 I23.295357 J8.409339
G02 X1553.484883 Y365.249638 Z-0.125000 I6.643156 J0.753688
G02 X1554.563657 Y366.056285 Z-0.125000 I1.060593 J-0.293714
G02 X1556.777439 Y364.962399 Z-0.125000 I-0.047642 J-2.883461
G02 X1559.662001 Y359.624768 Z-0.125000 I-13.739076 J-10.873124
G02 X1565.888955 Y337.599967 Z-0.125000 I-236.601089 J-78.785614
G03 X1567.313655 Y334.947612 Z-0.125000 I5.632407 J1.316608
G03 X1568.296593 Y335.047549 Z-0.125000 I0.453096 J0.427388
G02 X1570.114494 Y336.188683 Z-0.125000 I2.070332 J-1.279588
G02 X1580.923554 Y336.364228 Z-0.125000 I6.403196 J-61.404395
G02 X1616.065549 Y323.860815 Z-0.125000 I-4.982650 J-69.640811
G02 X1647.429390 Y289.660571 Z-0.125000 I-62.101844 J-88.432878
G02 X1655.037429 Y272.970789 Z-0.125000 I-81.027199 J-47.015207
G02 X1660.650147 Y251.018732 Z-0.125000 I-135.253534 J-46.275286
G03 X1662.589739 Y242.513075 Z-0.125000 I80.807130 J13.952919
G03 X1663.526895 Y240.916813 Z-0.125000 I3.549853 J1.010868
G03 X1665.117442 Y240.939569 Z-0.125000 I0.784243 J0.782367
G03 X1667.511209 Y244.526259 Z-0.125000 I-9.436752 J8.890263
G03 X1669.017896 Y249.289739 Z-0.125000 I-19.849203 J8.898317
G03 X1668.595606 Y252.223369 Z-0.125000 I-4.435338 J0.858752
G02 X1667.543791 Y255.114867 Z-0.125000 I10.680296 J5.522130
G02 X1663.705541 Y274.032120 Z-0.125000 I461.737180 J103.533007
G03 X1655.232230 Y314.697896 Z-0.125000 I-797.013297 J-144.853761
G03 X1653.517432 Y317.335988 Z-0.125000 I-4.524148 J-1.064395
G03 X1651.559779 Y318.523140 Z-0.125000 I-6.668279 J-8.788512
G03 X1646.120952 Y320.828629 Z-0.125000 I-31.352744 J-66.395519
G02 X1630.723611 Y329.364777 Z-0.125000 I21.427230 J56.804814
G02 X1623.725546 Y337.914080 Z-0.125000 I14.503283 J19.010517
G03 X1620.039293 Y344.012822 Z-0.125000 I-35.316210 J-17.182710
G03 X1618.760608 Y344.659360 Z-0.125000 I-1.278685 J-0.941185
G02 X1617.131266 Y344.947004 Z-0.125000 I0.000000 J4.758481
G02 X1590.453013 Y354.975712 Z-0.125000 I483.486514 J1326.664228
G03 X1563.761918 Y364.935678 Z-0.125000 I-411.415237 J-1061.782290
G03 X1561.714296 Y365.292063 Z-0.125000 I-2.047622 J-5.704146
G02 X1558.168665 Y366.066226 Z-0.125000 I-0.000000 J8.506496
G02 X1542.324119 Y373.875725 Z-0.125000 I131.499890 J286.775754
G02 X1527.247244 Y382.323816 Z-0.125000 I162.709304 J308.056459
G02 X1521.092866 Y386.747499 Z-0.125000 I22.086034 J37.219769
G02 X1511.632689 Y397.625258 Z-0.125000 I32.756656 J38.040377
G02 X1509.674324 Y404.494621 Z-0.125000 I10.364560 J6.668634
G02 X1510.414850 Y406.989269 Z-0.125000 I4.837618 J-0.078792
G02 X1514.248384 Y412.255781 Z-0.125000 I40.368192 J-25.355826
G02 X1518.778195 Y416.928577 Z-0.125000 I34.535245 J-28.946485
G02 X1520.715337 Y417.667315 Z-0.125000 I1.937142 J-2.170451
G02 X1522.019081 Y415.898859 Z-0.125000 I0.000000 J-1.364802
G02 X1518.329600 Y409.961801 Z-0.125000 I-13.196375 J4.085746
G03 X1515.206525 Y405.878693 Z-0.125000 I11.087823 J-11.716757
G03 X1514.389185 Y402.629922 Z-0.125000 I6.047954 J-3.248771
G03 X1516.641204 Y397.162587 Z-0.125000 I7.762666 J-0.000000
G03 X1530.312639 Y386.084524 Z-0.125000 I57.757570 J57.303617
G03 X1545.981961 Y377.299080 Z-0.125000 I79.007552 J122.548033
G03 X1567.557510 Y368.351888 Z-0.125000 I90.224968 J187.083830
G02 X1580.244969 Y363.876600 Z-0.125000 I-990.818635 J-2829.197033
G02 X1595.332805 Y358.484383 Z-0.125000 I-1418.956452 J-3994.153257
G03 X1611.434048 Y352.889304 Z-0.125000 I269.628216 J749.957646
G03 X1615.667819 Y351.934711 Z-0.125000 I6.780820 J20.207977
G03 X1618.413950 Y353.007081 Z-0.125000 I0.372818 J3.097623
G03 X1619.651922 Y355.557400 Z-0.125000 I-4.282458 J3.654411
G02 X1621.191914 Y359.776367 Z-0.125000 I14.486318 J-2.897198
G02 X1626.184633 Y367.442286 Z-0.125000 I53.717295 J-29.526609
G03 X1629.942424 Y373.892774 Z-0.125000 I-23.896499 J18.240936
G03 X1629.330028 Y374.819603 Z-0.125000 I-0.612396 J0.261096
G02 X1622.100263 Y375.676840 Z-0.125000 I-0.000000 J30.915815
G02 X1588.190720 Y384.714878 Z-0.125000 I167.915854 J698.129505
G02 X1540.490654 Y404.924148 Z-0.125000 I62.989244 J215.071920
G02 X1518.583685 Y424.254240 Z-0.125000 I35.205552 J61.977505
G02 X1513.532768 Y434.527112 Z-0.125000 I25.008914 J18.674406
G02 X1509.555339 Y456.556747 Z-0.125000 I114.951845 J32.128319
G03 X1507.143314 Y472.192769 Z-0.125000 I-115.419848 J-9.800704
G03 X1502.410460 Y488.299353 Z-0.125000 I-127.238865 J-28.639966
G02 X1496.104787 Y506.218037 Z-0.125000 I753.728961 J275.309771
G02 X1494.577107 Y512.099213 Z-0.125000 I39.784811 J13.473407
G02 X1494.832767 Y517.236064 Z-0.125000 I11.024788 J2.026088
G02 X1496.482580 Y520.555377 Z-0.125000 I9.941934 J-2.871821
G02 X1499.902616 Y523.991181 Z-0.125000 I13.745300 J-10.262148
G02 X1501.752078 Y524.632907 Z-0.125000 I1.919768 J-2.546849
G02 X1503.200711 Y523.891470 Z-0.125000 I0.037752 J-1.712141
G02 X1504.318508 Y520.728210 Z-0.125000 I-5.316482 J-3.657806
G03 X1508.058755 Y511.172781 Z-0.125000 I17.515405 J1.346261
G03 X1522.788852 Y497.389477 Z-0.125000 I53.239079 J42.133524
G03 X1542.372341 Y486.223895 Z-0.125000 I75.384233 J109.460901
G03 X1566.386936 Y477.221510 Z-0.125000 I72.218989 J156.118394
G02 X1584.970946 Y471.636407 Z-0.125000 I-343.501051 J-1176.684915
G02 X1601.578439 Y466.340940 Z-0.125000 I-292.302252 J-945.399713
G03 X1617.606333 Y462.730021 Z-0.125000 I26.785985 J81.518559
G03 X1620.624008 Y463.934205 Z-0.125000 I0.420693 J3.328974
G02 X1623.554057 Y466.186841 Z-0.125000 I6.283160 J-5.140729
G02 X1629.456096 Y467.939983 Z-0.125000 I9.307086 J-20.521443
G03 X1635.410524 Y469.670163 Z-0.125000 I-3.583766 J23.444750
G03 X1638.827201 Y472.056194 Z-0.125000 I-4.308656 J9.809049
G02 X1642.302485 Y473.966901 Z-0.125000 I4.796667 J-4.608545
G02 X1650.131358 Y474.347359 Z-0.125000 I5.161105 J-25.463140
G02 X1666.613449 Y469.779564 Z-0.125000 I-5.264905 J-51.017764
G02 X1673.177653 Y463.557580 Z-0.125000 I-6.081477 J-12.989584
G02 X1674.270777 Y460.183296 Z-0.125000 I-8.825526 J-4.723298
G02 X1673.867619 Y459.404623 Z-0.125000 I-0.755179 J-0.102710
G02 X1672.852992 Y459.391364 Z-0.125000 I-0.520460 J0.999405
G02 X1669.524851 Y461.655261 Z-0.125000 I6.178591 J12.661400
G03 X1659.521439 Y467.922273 Z-0.125000 I-22.124499 J-24.197916
G03 X1648.431872 Y470.047364 Z-0.125000 I-11.089567 J-27.872323
G03 X1641.997708 Y468.835948 Z-0.125000 I0.000000 J-17.692510
G03 X1640.224483 Y466.843267 Z-0.125000 I1.068006 J-2.735696
G02 X1638.681171 Y464.634217 Z-0.125000 I-3.759888 J0.983148
G02 X1636.008478 Y463.915804 Z-0.125000 I-2.337931 J3.366968
G03 X1627.952674 Y463.428559 Z-0.125000 I-2.325293 J-28.393496
G03 X1623.235523 Y461.292916 Z-0.125000 I2.359034 J-11.487947
G03 X1621.937885 Y458.823473 Z-0.125000 I1.979333 J-2.615758
G03 X1622.994223 Y455.888416 Z-0.125000 I4.097402 J-0.182947
G02 X1623.994914 Y451.684490 Z-0.125000 I-3.330235 J-3.013784
G02 X1620.427243 Y446.547200 Z-0.125000 I-9.072621 J2.493166
G03 X1617.458058 Y441.106492 Z-0.125000 I4.201298 J-5.823344
G03 X1619.933298 Y437.291552 Z-0.125000 I3.860023 J-0.205981
G02 X1621.617850 Y434.834653 Z-0.125000 I-0.940562 J-2.450837
G02 X1619.911002 Y427.626711 Z-0.125000 I-16.231109 J0.037481
G03 X1619.319830 Y420.640873 Z-0.125000 I8.492308 J-4.236589
G03 X1623.122324 Y417.016595 Z-0.125000 I5.099578 J1.543462
G02 X1625.812664 Y415.160501 Z-0.125000 I-1.135491 J-4.523673
G02 X1627.372083 Y410.921554 Z-0.125000 I-7.305665 J-5.093912
G03 X1629.082270 Y406.620459 Z-0.125000 I8.269328 J0.797476
G03 X1633.424000 Y403.136031 Z-0.125000 I9.488060 J7.375288
G03 X1639.097398 Y401.335779 Z-0.125000 I9.449651 J19.940236
G03 X1643.958904 Y401.306074 Z-0.125000 I2.519473 J14.505007
G03 X1647.709361 Y403.346548 Z-0.125000 I-1.022987 J6.347251
G03 X1649.913962 Y407.906490 Z-0.125000 I-6.717129 J6.060441
G02 X1655.178777 Y425.731414 Z-0.125000 I76.191770 J-12.814217
G02 X1667.501882 Y448.621110 Z-0.125000 I138.757263 J-59.940587
G02 X1688.831040 Y473.581629 Z-0.125000 I108.298185 J-70.949199
G02 X1721.491120 Y498.577325 Z-0.125000 I166.000951 J-183.066375
G02 X1757.906864 Y517.673358 Z-0.125000 I127.725828 J-199.300486
G02 X1786.660507 Y524.986323 Z-0.125000 I39.079180 J-93.470036
G02 X1802.950442 Y524.773979 Z-0.125000 I7.226823 J-70.541562
G02 X1804.833982 Y522.632138 Z-0.125000 I-0.276013 J-2.141841
G02 X1804.205989 Y521.905533 Z-0.125000 I-0.734347 J0.000000
G02 X1789.359455 Y520.367135 Z-0.125000 I-25.688275 J175.499934
G03 X1774.156028 Y518.220408 Z-0.125000 I5.941267 J-96.986665
G03 X1760.031373 Y513.828329 Z-0.125000 I19.622759 J-88.013625
G03 X1721.420778 Y493.844350 Z-0.125000 I86.644541 J-214.695291
G03 X1690.014099 Y468.787186 Z-0.125000 I106.972447 J-166.290551
G03 X1664.639028 Y434.785440 Z-0.125000 I96.482474 J-98.473066
G03 X1652.381657 Y397.658069 Z-0.125000 I103.490167 J-54.753669
G03 X1651.640597 Y385.194254 Z-0.125000 I67.369818 J-10.259540
G03 X1653.120769 Y374.819603 Z-0.125000 I47.982665 J1.552865
G03 X1659.190629 Y359.347999 Z-0.125000 I65.717301 J16.855910
G03 X1665.654222 Y351.474978 Z-0.125000 I23.618885 J12.800882
G03 X1674.328217 Y347.573578 Z-0.125000 I11.385940 J13.721238
G03 X1684.608923 Y348.690510 Z-0.125000 I3.048699 J19.810916
G02 X1686.581447 Y348.590586 Z-0.125000 I0.874316 J-2.259808
G02 X1687.386385 Y347.278298 Z-0.125000 I-0.667242 J-1.312288
G02 X1686.453815 Y345.485510 Z-0.125000 I-2.189528 J0.000000
G02 X1681.192905 Y342.935914 Z-0.125000 I-10.519790 J15.004283
G02 X1675.102581 Y342.326283 Z-0.125000 I-4.618719 J15.415297
G02 X1668.924282 Y344.062460 Z-0.125000 I1.617959 J17.618633
G02 X1658.332851 Y352.670864 Z-0.125000 I13.412327 J27.321818
G02 X1650.831297 Y367.270412 Z-0.125000 I34.716357 J27.064995
G03 X1647.647736 Y372.933024 Z-0.125000 I-13.959012 J-4.121642
G03 X1644.285886 Y374.478848 Z-0.125000 I-3.495930 J-3.174351
G03 X1640.391065 Y373.321020 Z-0.125000 I-0.185171 J-6.506918
G03 X1632.607672 Y366.380029 Z-0.125000 I24.439096 J-35.239693
G03 X1625.455886 Y353.965946 Z-0.125000 I27.362089 J-24.030493
G03 X1625.299810 Y344.667460 Z-0.125000 I14.542657 J-4.894653
G03 X1631.705218 Y335.118796 Z-0.125000 I18.649140 J5.587403
G03 X1650.349826 Y324.404271 Z-0.125000 I42.824878 J52.941391
G03 X1665.154487 Y319.029711 Z-0.125000 I189.046630 J497.666648
G03 X1668.811280 Y318.715779 Z-0.125000 I2.448805 J7.069764
G03 X1671.086297 Y320.643394 Z-0.125000 I-0.467608 J2.858205
G03 X1673.129760 Y328.131016 Z-0.125000 I-60.587728 J20.557779
G02 X1677.048935 Y338.944749 Z-0.125000 I39.786628 J-8.302626
G02 X1679.052221 Y339.243121 Z-0.125000 I1.112147 J-0.592744
G02 X1679.428193 Y338.093478 Z-0.125000 I-0.945440 J-0.945489
G02 X1676.636851 Y323.609590 Z-0.125000 I-196.496156 J30.357921
G03 X1672.578816 Y282.655877 Z-0.125000 I156.170630 J-36.152594
G03 X1678.278904 Y268.809965 Z-0.125000 I21.210171 J0.635545
G01 X1681.831433 Y265.005158 Z-0.125000
G01 X1677.872166 Y265.553177 Z-0.125000
G02 X1674.603849 Y267.071666 Z-0.125000 I0.843059 J6.091077
G02 X1671.084580 Y271.656176 Z-0.125000 I10.573717 J11.759871
G03 X1669.335695 Y274.222526 Z-0.125000 I-10.905010 J-5.552332
G03 X1668.973642 Y274.036861 Z-0.125000 I-0.157167 J-0.139359
G02 X1669.651715 Y270.854545 Z-0.125000 I-128.918338 J-29.132710
G02 X1670.721529 Y265.307643 Z-0.125000 I-390.148574 J-78.123377
G03 X1672.357134 Y257.591799 Z-0.125000 I152.354183 J28.264765
G03 X1673.248088 Y256.321342 Z-0.125000 I2.048680 J0.489075
G03 X1674.548295 Y256.368783 Z-0.125000 I0.616767 J0.937373
G03 X1678.801354 Y259.991395 Z-0.125000 I-33.627870 J43.788080
G02 X1686.316016 Y265.448740 Z-0.125000 I24.954200 J-26.459020
G02 X1687.421172 Y265.183586 Z-0.125000 I0.406080 J-0.743174
G02 X1687.457408 Y263.837854 Z-0.125000 I-1.025108 J-0.700956
G02 X1681.434657 Y256.140388 Z-0.125000 I-35.472092 J21.549603
G03 X1675.996318 Y249.764139 Z-0.125000 I39.267082 J-38.998436
G03 X1670.721783 Y241.459442 Z-0.125000 I61.607893 J-44.956163
G03 X1667.280252 Y232.433509 Z-0.125000 I31.004681 J-16.990973
G03 X1665.960384 Y220.868029 Z-0.125000 I50.021846 J-11.566612
G03 X1667.229037 Y209.251165 Z-0.125000 I53.811548 J-0.001060
G03 X1670.872603 Y198.648222 Z-0.125000 I48.362353 J10.691600
G03 X1696.727419 Y170.253524 Z-0.125000 I59.784400 J28.468325
G03 X1744.121829 Y154.941200 Z-0.125000 I57.073996 J95.651037
G03 X1756.400356 Y155.089128 Z-0.125000 I5.395000 J61.850167
G03 X1762.882749 Y157.034160 Z-0.125000 I-2.091076 J18.743891
G03 X1770.897234 Y162.898627 Z-0.125000 I-14.184898 J27.793936
G03 X1776.867819 Y171.191358 Z-0.125000 I-23.503464 J23.217694
G03 X1778.587280 Y179.466710 Z-0.125000 I-14.455475 J7.319884
G03 X1776.027898 Y185.410616 Z-0.125000 I-9.482640 J-0.560148
G02 X1774.436664 Y188.625585 Z-0.125000 I4.502119 J4.229574
G02 X1775.254553 Y190.055035 Z-0.125000 I1.284332 J0.213854
G02 X1779.675128 Y189.121442 Z-0.125000 I1.489251 J-3.880919
G02 X1783.545028 Y181.809574 Z-0.125000 I-9.827950 J-9.881599
G02 X1781.331139 Y168.132983 Z-0.125000 I-20.080159 J-3.767018
G02 X1768.184067 Y154.114966 Z-0.125000 I-34.377725 J19.067693
G02 X1759.736643 Y150.803110 Z-0.125000 I-12.525143 J19.518213
G02 X1744.826058 Y149.942875 Z-0.125000 I-11.049024 J61.860572
G02 X1729.560345 Y151.509262 Z-0.125000 I11.575065 J187.979887
G02 X1722.057470 Y153.221394 Z-0.125000 I6.748234 J46.867564
G02 X1698.258058 Y163.426758 Z-0.125000 I39.268500 J124.429452
G02 X1683.590439 Y174.460535 Z-0.125000 I31.685976 J57.387372
G01 X1676.266321 Y181.784654 Z-0.125000
G01 X1668.529707 Y173.758056 Z-0.125000
G02 X1644.728928 Y157.812399 Z-0.125000 I-48.672203 J46.913453
G02 X1605.294374 Y148.737758 Z-0.125000 I-49.620260 J125.408393
G02 X1575.003274 Y147.289838 Z-0.125000 I-41.150654 J543.314069
G02 X1564.383864 Y147.922135 Z-0.125000 I-1.336521 J67.045646
G01 X1564.383780 Y147.922135 Z-0.125000
G00 Z5.000000

(Change tool to Default tool)

G00 Z5.000000
G00 X1608.029842 Y154.377940

G01 Z-0.125000 F100.0(Penetrate)
G03 X1647.323361 Y164.957667 Z-0.125000 I-19.958340 J152.384748 F400.000000
G03 X1666.143969 Y178.660538 Z-0.125000 I-19.392718 J46.411790
G03 X1670.344108 Y184.837655 Z-0.125000 I-25.658800 J21.963235
G03 X1671.187753 Y187.979865 Z-0.125000 I-6.473280 J3.422357
G03 X1670.124634 Y190.154272 Z-0.125000 I-2.555134 J0.097830
G03 X1666.619881 Y191.090480 Z-0.125000 I-2.988489 J-4.159362
G02 X1660.388903 Y193.892553 Z-0.125000 I-0.688774 J6.797329
G02 X1655.968221 Y205.866478 Z-0.125000 I19.343959 J13.944645
G03 X1654.322052 Y214.010797 Z-0.125000 I-35.559145 J-2.948863
G03 X1652.665431 Y215.963317 Z-0.125000 I-3.220595 J-1.053480
G03 X1649.995579 Y217.075652 Z-0.125000 I-7.861139 J-15.108202
G03 X1618.346165 Y226.947067 Z-0.125000 I-682.272348 J-2131.807269
G02 X1583.318188 Y237.688507 Z-0.125000 I2030.831702 J6685.053314
G02 X1574.796615 Y240.648314 Z-0.125000 I39.090904 J126.293613
G02 X1569.516503 Y244.226398 Z-0.125000 I5.100024 J13.210936
G02 X1568.600518 Y246.151161 Z-0.125000 I2.610712 J2.422762
G03 X1567.708460 Y249.919494 Z-0.125000 I-20.831313 J-2.941537
G03 X1560.856143 Y269.164549 Z-0.125000 I-554.871738 J-186.722980
G02 X1553.826470 Y288.376725 Z-0.125000 I1095.054225 J411.568945
G02 X1552.201573 Y293.474127 Z-0.125000 I75.386602 J26.838649
G01 X1550.746773 Y298.627053 Z-0.125000
G01 X1544.641996 Y295.512646 Z-0.125000
G03 X1536.741467 Y289.710695 Z-0.125000 I13.835620 J-27.120052
G03 X1529.230088 Y280.206793 Z-0.125000 I40.543211 J-39.763449
G03 X1523.932258 Y269.323075 Z-0.125000 I47.096603 J-29.656311
G03 X1522.324851 Y260.071236 Z-0.125000 I25.821944 J-9.251839
G03 X1524.833343 Y245.726620 Z-0.125000 I42.268523 J-0.000000
G03 X1532.106447 Y232.959247 Z-0.125000 I40.478520 J14.603833
G03 X1546.857829 Y220.787282 Z-0.125000 I38.759574 J31.948602
G03 X1564.528926 Y215.316407 Z-0.125000 I22.462471 J41.279951
G03 X1568.959799 Y214.944637 Z-0.125000 I12.302415 J120.033827
G03 X1569.759492 Y214.990469 Z-0.125000 I0.213763 J3.269781
G03 X1569.790601 Y215.188049 Z-0.125000 I-0.018942 J0.104221
G03 X1568.020467 Y215.950956 Z-0.125000 I-5.352239 J-9.983501
G02 X1558.657822 Y220.528125 Z-0.125000 I12.432707 J37.295501
G02 X1551.196636 Y227.158141 Z-0.125000 I19.992978 J30.012678
G02 X1549.384367 Y229.770209 Z-0.125000 I12.255130 J10.437397
G02 X1544.195436 Y239.743926 Z-0.125000 I175.952074 J97.877579
G02 X1539.004597 Y259.606699 Z-0.125000 I47.375829 J22.990627
G02 X1542.031949 Y276.102982 Z-0.125000 I35.083256 J2.087546
G02 X1545.713429 Y281.564526 Z-0.125000 I17.684095 J-7.948810
G02 X1546.734325 Y281.466880 Z-0.125000 I0.471892 J-0.451932
G02 X1547.187308 Y279.600259 Z-0.125000 I-2.454425 J-1.583904
G02 X1545.409725 Y270.868804 Z-0.125000 I-42.754597 J4.157472
G03 X1545.477595 Y244.791140 Z-0.125000 I41.114252 J-12.931916
G03 X1559.838619 Y225.815921 Z-0.125000 I34.180586 J10.946869
G03 X1583.490973 Y218.241976 Z-0.125000 I25.241817 J38.108163
G03 X1603.620119 Y224.292570 Z-0.125000 I1.138482 J32.720661
G02 X1608.171804 Y226.378080 Z-0.125000 I7.722836 J-10.845464
G02 X1610.019170 Y225.861923 Z-0.125000 I0.465472 J-1.898051
G02 X1610.174869 Y222.561404 Z-0.125000 I-1.735795 J-1.735817
G02 X1602.782180 Y216.145964 Z-0.125000 I-22.968900 J19.000580
G02 X1592.811113 Y211.235137 Z-0.125000 I-31.547557 J51.476790
G02 X1581.909243 Y208.634768 Z-0.125000 I-15.295823 J39.973834
G02 X1557.615709 Y211.368619 Z-0.125000 I-5.884587 J57.013868
G02 X1533.685029 Y224.989800 Z-0.125000 I23.355122 J68.864146
G02 X1518.896614 Y250.434898 Z-0.125000 I28.990112 J33.868721
G02 X1523.069042 Y280.162241 Z-0.125000 I45.546281 J8.763764
G02 X1534.717352 Y295.931804 Z-0.125000 I52.534938 J-26.618499
G02 X1545.028443 Y301.343922 Z-0.125000 I14.425850 J-14.955594
G03 X1548.106518 Y302.995339 Z-0.125000 I-1.196929 J5.925275
G03 X1548.488318 Y304.804813 Z-0.125000 I-1.198148 J1.197827
G02 X1547.542681 Y307.383119 Z-0.125000 I71.748486 J27.777548
G02 X1543.326051 Y319.696692 Z-0.125000 I1633.908130 J566.390295
G01 X1539.155512 Y332.026783 Z-0.125000
G01 X1533.048420 Y331.115770 Z-0.125000
G03 X1527.062601 Y329.777463 Z-0.125000 I6.294774 J-42.209990
G03 X1519.731595 Y327.114593 Z-0.125000 I19.861977 J-66.103681
G02 X1512.403290 Y324.433801 Z-0.125000 I-28.335103 J66.100971
G02 X1506.414178 Y323.047432 Z-0.125000 I-13.033557 J42.675281
G03 X1501.166546 Y320.733720 Z-0.125000 I1.783219 J-11.152266
G03 X1494.843828 Y313.843516 Z-0.125000 I18.694023 J-23.500445
G03 X1486.328561 Y298.894324 Z-0.125000 I104.932296 J-69.670701
G03 X1481.320180 Y285.070957 Z-0.125000 I65.137518 J-31.419126
G03 X1478.881501 Y270.342688 Z-0.125000 I88.733417 J-22.258348
G03 X1477.830231 Y246.018319 Z-0.125000 I309.472431 J-25.559923
G03 X1478.803806 Y223.934168 Z-0.125000 I230.185635 J-0.915849
G03 X1481.439631 Y211.202983 Z-0.125000 I57.884502 J5.345777
G03 X1486.984238 Y199.644970 Z-0.125000 I46.607702 J15.249699
G03 X1497.577433 Y185.664870 Z-0.125000 I104.902863 J68.484992
G03 X1511.082615 Y172.917501 Z-0.125000 I73.108498 J63.926990
G03 X1526.369783 Y163.585317 Z-0.125000 I48.868548 J62.865035
G03 X1543.461257 Y157.435694 Z-0.125000 I42.624270 J91.638693
G03 X1569.938731 Y152.007246 Z-0.125000 I64.227544 J245.985724
G03 X1579.260712 Y151.602000 Z-0.125000 I6.572464 J43.767506
G03 X1608.029842 Y154.377940 Z-0.125000 I-26.388714 J423.951614
G01 X1608.029842 Y154.377940 Z-0.125000
G00 Z5.000000

(Change tool to Default tool)

G00 Z5.000000
G00 X1665.217406 Y201.425683

G01 Z-0.125000 F100.0(Penetrate)
G03 X1663.797396 Y205.752668 Z-0.125000 I-88.848989 J-26.761555 F400.000000
G03 X1662.254552 Y209.758125 Z-0.125000 I-77.700419 J-27.629198
G03 X1661.087176 Y212.288415 Z-0.125000 I-33.384670 J-13.867935
G03 X1660.827679 Y212.325688 Z-0.125000 I-0.142871 J-0.072720
G03 X1660.648916 Y211.908894 Z-0.125000 I0.479819 J-0.452526
G03 X1660.505706 Y207.903869 Z-0.125000 I108.389226 J-5.880829
G03 X1662.031477 Y198.744858 Z-0.125000 I25.597244 J-0.442428
G03 X1664.431953 Y197.061088 Z-0.125000 I2.400476 J0.869243
G03 X1665.420209 Y197.887375 Z-0.125000 I0.000000 J1.004131
G03 X1665.217406 Y201.425683 Z-0.125000 I-7.480655 J1.346201
G01 X1665.217406 Y201.425683 Z-0.125000
G00 Z5.000000

(Change tool to Default tool)

G00 Z5.000000
G00 X1657.230855 Y247.075664

G01 Z-0.125000 F100.0(Penetrate)
G03 X1655.409400 Y259.023248 Z-0.125000 I-40.094984 J-0.000000 F400.000000
G03 X1646.588650 Y281.167206 Z-0.125000 I-148.871636 J-46.472232
G03 X1632.736046 Y301.958607 Z-0.125000 I-85.127143 J-41.706864
G03 X1615.097741 Y317.747249 Z-0.125000 I-73.856715 J-64.762490
G03 X1594.212529 Y328.326667 Z-0.125000 I-47.855701 J-68.568835
G03 X1575.696573 Y330.644374 Z-0.125000 I-14.862634 J-43.616247
G03 X1570.358583 Y329.788634 Z-0.125000 I2.695404 J-33.890273
G03 X1568.844905 Y328.479673 Z-0.125000 I0.517528 J-2.128154
G03 X1568.655378 Y326.221521 Z-0.125000 I3.560185 J-1.435836
G03 X1570.705416 Y318.268591 Z-0.125000 I110.232888 J24.174200
G01 X1573.059206 Y310.342464 Z-0.125000
G01 X1583.005649 Y310.320169 Z-0.125000
G02 X1608.398077 Y303.751367 Z-0.125000 I-0.114241 J-52.804629
G02 X1625.624252 Y286.809703 Z-0.125000 I-21.646591 J-39.238679
G02 X1629.031548 Y278.480167 Z-0.125000 I-29.548092 J-16.948662
G02 X1630.234747 Y269.181454 Z-0.125000 I-35.772827 J-9.355997
G02 X1627.329331 Y255.907877 Z-0.125000 I-31.550576 J-0.048749
G02 X1623.810805 Y255.267249 Z-0.125000 I-1.984389 J0.916148
G02 X1622.914987 Y257.362577 Z-0.125000 I2.110141 J2.141311
G02 X1623.703984 Y262.249370 Z-0.125000 I14.184187 J0.216982
G03 X1621.191203 Y284.202543 Z-0.125000 I-24.015035 J8.371610
G03 X1597.712926 Y303.398387 Z-0.125000 I-40.503284 J-25.583266
G03 X1595.011849 Y303.422065 Z-0.125000 I-1.382518 J-3.636154
G03 X1594.412845 Y302.209469 Z-0.125000 I0.330572 J-0.917545
G02 X1593.665212 Y300.622881 Z-0.125000 I-1.229332 J-0.390157
G02 X1587.510451 Y299.430399 Z-0.125000 I-6.154760 J15.287037
G03 X1579.935068 Y298.925885 Z-0.125000 I-0.000000 J-57.125281
G03 X1578.523734 Y298.227991 Z-0.125000 I0.325750 J-2.434755
G03 X1578.115940 Y296.835063 Z-0.125000 I1.069037 J-1.069128
G03 X1581.829629 Y283.150269 Z-0.125000 I140.948683 J30.903422
G03 X1585.451116 Y272.751830 Z-0.125000 I249.468341 J81.053042
G03 X1587.098178 Y268.953376 Z-0.125000 I36.611853 J13.619081
G03 X1588.132001 Y267.256830 Z-0.125000 I10.458691 J5.209944
G03 X1588.500569 Y267.043287 Z-0.125000 I0.427760 J0.313460
G03 X1588.768226 Y267.223366 Z-0.125000 I0.027812 J0.247616
G03 X1588.984272 Y268.787697 Z-0.125000 I-5.555430 J1.564332
G02 X1591.377172 Y271.897435 Z-0.125000 I3.217109 J-0.000000
G02 X1598.268339 Y271.248224 Z-0.125000 I2.564581 J-9.676157
G02 X1603.301466 Y265.307563 Z-0.125000 I-4.117461 J-8.590898
G02 X1600.904492 Y262.146359 Z-0.125000 I-2.375625 J-0.688040
G02 X1599.907480 Y262.736040 Z-0.125000 I0.021482 J1.174018
G02 X1599.317359 Y264.923821 Z-0.125000 I3.860226 J2.214716
G03 X1598.350744 Y266.835693 Z-0.125000 I-2.402639 J-0.014451
G03 X1594.936029 Y268.189979 Z-0.125000 I-4.222170 J-5.663740
G03 X1591.665686 Y267.464998 Z-0.125000 I-0.586159 J-5.094516
G03 X1590.571405 Y265.508529 Z-0.125000 I1.201849 J-1.956469
G03 X1592.192153 Y263.153910 Z-0.125000 I2.520768 J0.000000
G03 X1627.868963 Y251.252130 Z-0.125000 I155.795401 J407.589415
G03 X1655.302876 Y245.402013 Z-0.125000 I56.174783 J196.179383
G03 X1657.230855 Y247.075128 Z-0.125000 I0.238019 J1.673115
G01 X1657.230855 Y247.075664 Z-0.125000
G00 Z5.000000

(Change tool to Default tool)

G00 Z5.000000
G00 X1607.050389 Y273.933709

G01 Z-0.125000 F100.0(Penetrate)
G02 X1603.480286 Y277.185624 Z-0.125000 I2.988689 J6.866790 F400.000000
G02 X1600.145512 Y286.461864 Z-0.125000 I27.328204 J15.061929
G02 X1599.789190 Y298.407943 Z-0.125000 I37.632771 J7.100847
G02 X1601.790981 Y299.363004 Z-0.125000 I1.308341 J-0.166869
G02 X1602.692762 Y298.118757 Z-0.125000 I-1.062063 J-1.718652
G02 X1603.426656 Y292.591844 Z-0.125000 I-25.851036 J-6.244827
G03 X1604.118205 Y285.054844 Z-0.125000 I58.692844 J1.585071
G03 X1605.339526 Y281.572022 Z-0.125000 I10.111619 J1.590290
G03 X1607.776093 Y279.016837 Z-0.125000 I6.369933 J3.634905
G03 X1612.438209 Y276.799732 Z-0.125000 I11.360400 J17.878296
G02 X1618.536710 Y274.131240 Z-0.125000 I-11.617792 J-34.853910
G02 X1619.139745 Y273.110947 Z-0.125000 I-0.561615 J-1.020293
G02 X1617.335257 Y271.425093 Z-0.125000 I-1.689753 J0.000000
G02 X1607.050389 Y273.933709 Z-0.125000 I2.108565 J30.982078
G01 X1607.050389 Y273.933709 Z-0.125000
G00 Z5.000000

(Change tool to Default tool)

G00 Z5.000000
G00 X1582.205915 Y253.569400

G01 Z-0.125000 F100.0(Penetrate)
G03 X1581.145659 Y254.034370 Z-0.125000 I-1.125747 J-1.125687 F400.000000
G03 X1579.163927 Y253.694791 Z-0.125000 I-0.197595 J-4.799208
G03 X1579.062585 Y253.200891 Z-0.125000 I0.112185 J-0.280366
G03 X1580.122805 Y252.735998 Z-0.125000 I1.125626 J1.125667
G03 X1582.104517 Y253.075768 Z-0.125000 I0.196016 J4.805792
G03 X1582.205915 Y253.569569 Z-0.125000 I-0.112086 J0.280328
G01 X1582.205915 Y253.569400 Z-0.125000
G00 Z5.000000

(Change tool to Default tool)

G00 Z5.000000
G00 X1667.972064 Y287.924255

G01 Z-0.125000 F100.0(Penetrate)
G02 X1667.633976 Y293.090361 Z-0.125000 I29.968432 J4.555352 F400.000000
G02 X1668.263317 Y302.376658 Z-0.125000 I97.955387 J-1.974054
G03 X1667.767102 Y310.783479 Z-0.125000 I-24.141903 J2.793073
G03 X1665.658717 Y313.347539 Z-0.125000 I-3.674089 J-0.872270
G03 X1662.069851 Y314.581199 Z-0.125000 I-8.172646 J-17.938149
G03 X1661.383614 Y314.369635 Z-0.125000 I-0.164113 J-0.686409
G03 X1661.132871 Y313.488168 Z-0.125000 I0.762393 J-0.693268
G03 X1664.173501 Y298.279662 Z-0.125000 I558.047855 J103.662048
G03 X1667.625997 Y283.185416 Z-0.125000 I545.805409 J116.899723
G03 X1668.151642 Y282.769720 Z-0.125000 I0.529012 J0.128747
G03 X1668.425744 Y283.051137 Z-0.125000 I0.002309 J0.271949
G03 X1667.972064 Y287.924255 Z-0.125000 I-42.182427 J-1.469446
G01 X1667.972064 Y287.924255 Z-0.125000
G00 Z5.000000

(Change tool to Default tool)

G00 Z5.000000
G00 X1587.397139 Y305.296190

G01 Z-0.125000 F100.0(Penetrate)
G03 X1585.709643 Y306.926415 Z-0.125000 I-1.631197 J0.000000 F400.000000
G03 X1577.080816 Y304.939715 Z-0.125000 I0.801678 J-23.214048
G03 X1575.970496 Y304.188515 Z-0.125000 I1.547576 J-3.483575
G03 X1576.040799 Y303.885647 Z-0.125000 I0.126647 J-0.130196
G03 X1576.877467 Y303.743947 Z-0.125000 I0.894716 J2.741956
G03 X1580.651859 Y303.774448 Z-0.125000 I1.346706 J66.899978
G03 X1586.820670 Y304.575222 Z-0.125000 I-1.220447 J33.563058
G03 X1587.397139 Y305.296190 Z-0.125000 I-0.162608 J0.720968
G01 X1587.397139 Y305.296190 Z-0.125000
G00 Z5.000000

(Change tool to Default tool)

G00 Z5.000000
G00 X1516.460103 Y332.080885

G01 Z-0.125000 F100.0(Penetrate)
G02 X1528.017808 Y336.010351 Z-0.125000 I31.663688 J-74.170109 F400.000000
G02 X1533.087706 Y336.361547 Z-0.125000 I3.484780 J-13.536262
G03 X1536.751926 Y336.928171 Z-0.125000 I0.796630 J6.979516
G03 X1537.269392 Y338.231665 Z-0.125000 I-0.410177 J0.917294
G02 X1536.349047 Y340.732593 Z-0.125000 I29.354922 J12.222458
G02 X1534.949074 Y345.457682 Z-0.125000 I103.544737 J33.248697
G03 X1533.614358 Y350.207446 Z-0.125000 I-277.795097 J-75.499936
G03 X1531.033071 Y358.948300 Z-0.125000 I-943.290565 J-273.814223
G02 X1528.485418 Y367.697461 Z-0.125000 I517.421169 J155.412495
G02 X1527.563657 Y371.248560 Z-0.125000 I84.263147 J23.767414
G03 X1525.730597 Y373.572708 Z-0.125000 I-3.418612 J-0.811324
G03 X1520.501723 Y374.819603 Z-0.125000 I-5.228874 J-10.340233
G03 X1495.481624 Y363.268494 Z-0.125000 I-0.000000 J-32.872752
G03 X1489.191341 Y338.078192 Z-0.125000 I22.209446 J-18.926458
G03 X1492.548874 Y330.520813 Z-0.125000 I20.154808 J4.429702
G03 X1497.040925 Y327.553741 Z-0.125000 I6.102375 J4.354853
G03 X1503.072658 Y327.622883 Z-0.125000 I2.866841 J13.035134
G03 X1516.460103 Y332.080885 Z-0.125000 I-20.415280 J83.637722
G01 X1516.460103 Y332.080885 Z-0.125000
G00 Z5.000000

(Change tool to Default tool)

G00 Z5.000000
G00 X1647.708085 Y388.718398

G01 Z-0.125000 F100.0(Penetrate)
G01 X1647.708085 Y397.855823 Z-0.125000 F400.000000
G01 X1640.850762 Y397.310315 Z-0.125000
G02 X1634.398667 Y398.029687 Z-0.125000 I-1.359721 J17.098894
G02 X1628.947306 Y401.011039 Z-0.125000 I4.664676 J15.003843
G02 X1624.838654 Y405.693666 Z-0.125000 I13.326268 J15.836623
G02 X1623.901145 Y408.898755 Z-0.125000 I5.009905 J3.205089
G03 X1622.975401 Y411.825693 Z-0.125000 I-5.089948 J-0.000000
G03 X1620.765119 Y413.360491 Z-0.125000 I-3.199705 J-2.249011
G02 X1615.544488 Y418.105938 Z-0.125000 I1.925321 J7.362534
G02 X1615.590716 Y427.489128 Z-0.125000 I12.640660 J4.629433
G03 X1616.266622 Y432.073584 Z-0.125000 I-10.180865 J3.843061
G03 X1615.102895 Y434.632624 Z-0.125000 I-3.995530 J-0.272850
G02 X1612.584431 Y441.728919 Z-0.125000 I6.193046 J6.192950
G02 X1616.592774 Y449.000275 Z-0.125000 I10.591936 J-1.098337
G03 X1619.044959 Y452.259936 Z-0.125000 I-4.916989 J6.251160
G03 X1618.894607 Y454.670458 Z-0.125000 I-2.583593 J1.048804
G03 X1617.000722 Y456.677964 Z-0.125000 I-4.943795 J-2.766885
G03 X1614.699233 Y457.350328 Z-0.125000 I-2.301490 J-3.602799
G02 X1612.060366 Y457.710383 Z-0.125000 I0.000000 J9.850216
G02 X1595.335768 Y462.734817 Z-0.125000 I113.385221 J407.767502
G03 X1578.648665 Y468.058249 Z-0.125000 I-734.301975 J-2272.964733
G03 X1562.229436 Y473.162731 Z-0.125000 I-692.415749 J-2198.285837
G02 X1546.031891 Y478.781009 Z-0.125000 I69.483873 J226.480593
G02 X1537.076832 Y482.920564 Z-0.125000 I28.366922 J73.121853
G02 X1524.285683 Y490.686290 Z-0.125000 I71.647181 J132.429313
G02 X1513.981328 Y498.394685 Z-0.125000 I76.936002 J113.587255
G02 X1504.677699 Y507.356100 Z-0.125000 I53.062086 J64.398557
G02 X1503.336375 Y510.721513 Z-0.125000 I3.976826 J3.535017
G03 X1502.830503 Y512.291596 Z-0.125000 I-2.985141 J-0.095260
G03 X1500.692179 Y514.658231 Z-0.125000 I-9.271473 J-6.227712
G03 X1499.110872 Y515.717780 Z-0.125000 I-5.947568 J-7.166578
G03 X1498.716482 Y515.576896 Z-0.125000 I-0.132909 J-0.250404
G03 X1498.634821 Y514.901645 Z-0.125000 I1.149886 J-0.481624
G03 X1499.304407 Y511.344801 Z-0.125000 I59.345337 J9.330483
G03 X1500.809681 Y505.983807 Z-0.125000 I47.291623 J10.386843
G03 X1503.660677 Y498.678865 Z-0.125000 I90.822167 J31.237536
G02 X1511.715910 Y475.766390 Z-0.125000 I-148.681714 J-65.143553
G02 X1514.154743 Y459.731013 Z-0.125000 I-69.904239 J-18.834942
G03 X1518.436188 Y436.149520 Z-0.125000 I85.253692 J3.299204
G03 X1526.530526 Y422.451574 Z-0.125000 I35.685633 J11.846710
G03 X1550.088997 Y405.041107 Z-0.125000 I57.674804 J53.397029
G03 X1602.092648 Y386.044568 Z-0.125000 I121.860572 J252.918214
G03 X1625.484538 Y381.000824 Z-0.125000 I76.158843 J296.444299
G03 X1637.788510 Y379.796987 Z-0.125000 I14.084390 J80.472246
G01 X1647.708085 Y379.580974 Z-0.125000
G01 X1647.708085 Y388.718398 Z-0.125000
G00 Z5.000000

(Change tool to Default tool)

G00 Z5.000000
G00 X1784.353425 Y148.298112

G01 Z-0.125000 F100.0(Penetrate)
G02 X1776.516898 Y153.458401 Z-0.125000 I6.755973 J18.790274 F400.000000
G02 X1776.570978 Y156.630074 Z-0.125000 I1.667871 J1.557858
G02 X1777.664712 Y156.927792 Z-0.125000 I0.807013 J-0.806846
G02 X1782.387776 Y155.119141 Z-0.125000 I-5.697804 J-21.950256
G03 X1801.220837 Y152.985589 Z-0.125000 I12.212937 J23.617369
G03 X1813.584056 Y163.139219 Z-0.125000 I-4.716615 J18.346664
G03 X1817.426662 Y179.477723 Z-0.125000 I-35.259936 J16.913801
G03 X1813.959891 Y188.683576 Z-0.125000 I-13.431502 J0.197611
G02 X1811.691309 Y191.600023 Z-0.125000 I18.552288 J16.771588
G02 X1811.317928 Y192.703620 Z-0.125000 I1.879966 J1.251014
G02 X1811.747154 Y193.448490 Z-0.125000 I0.773153 J0.050581
G02 X1813.619503 Y193.886822 Z-0.125000 I1.872349 J-3.779733
G02 X1815.455824 Y192.972633 Z-0.125000 I-0.000000 J-2.301391
G02 X1819.314691 Y186.347961 Z-0.125000 I-25.654056 J-19.379703
G02 X1821.288725 Y178.686230 Z-0.125000 I-23.409430 J-10.116575
G02 X1820.813997 Y170.844873 Z-0.125000 I-25.023841 J-2.420065
G02 X1815.517816 Y157.043679 Z-0.125000 I-48.594877 J10.731391
G02 X1809.274269 Y150.478053 Z-0.125000 I-16.264768 J9.215446
G02 X1797.719193 Y146.564969 Z-0.125000 I-13.797565 J21.726063
G02 X1784.353425 Y148.298112 Z-0.125000 I-2.737191 J31.295235
G01 X1784.353425 Y148.298112 Z-0.125000
G00 Z5.000000

(Change tool to Default tool)

G00 Z5.000000
G00 X2163.175236 Y179.858826

G01 Z-0.125000 F100.0(Penetrate)
G02 X2163.421169 Y181.565080 Z-0.125000 I1.823826 J0.607972 F400.000000
G02 X2165.777720 Y183.597790 Z-0.125000 I5.142446 J-3.579366
G03 X2168.891570 Y188.112578 Z-0.125000 I-2.514432 J5.065409
G03 X2167.256427 Y198.024892 Z-0.125000 I-19.372837 J1.895266
G03 X2161.214954 Y208.424206 Z-0.125000 I-53.923305 J-24.372147
G03 X2146.145157 Y227.034810 Z-0.125000 I-184.401719 J-133.911278
G02 X2141.829488 Y233.818672 Z-0.125000 I18.010022 J16.222058
G02 X2142.713532 Y235.152199 Z-0.125000 I0.884045 J0.373730
G02 X2144.758951 Y234.297013 Z-0.125000 I-0.000000 J-2.873689
G02 X2154.921729 Y223.194570 Z-0.125000 I-142.738515 J-140.860264
G02 X2164.034007 Y211.806118 Z-0.125000 I-192.553477 J-163.408166
G02 X2168.978092 Y204.203173 Z-0.125000 I-52.243481 J-39.382189
G02 X2175.404450 Y187.788116 Z-0.125000 I-57.645300 J-32.033115
G02 X2174.284011 Y182.436022 Z-0.125000 I-6.164852 J-1.502740
G02 X2166.987751 Y177.723576 Z-0.125000 I-10.194701 J7.779805
G02 X2163.175236 Y179.858826 Z-0.125000 I-0.733536 J3.161533
G01 X2163.175236 Y179.858826 Z-0.125000
G00 Z5.000000

(Change tool to Default tool)

G00 Z5.000000
G00 X1815.449855 Y235.392172

G01 Z-0.125000 F100.0(Penetrate)
G02 X1809.595077 Y237.280481 Z-0.125000 I7.051839 J31.885152 F400.000000
G02 X1790.055782 Y246.318434 Z-0.125000 I158.049546 J367.329996
G03 X1773.235361 Y253.788918 Z-0.125000 I-96.873102 J-195.446367
G03 X1761.252224 Y257.223056 Z-0.125000 I-23.699515 J-60.073327
G03 X1748.696275 Y258.463170 Z-0.125000 I-13.643194 J-73.951584
G03 X1726.142862 Y258.109707 Z-0.125000 I-5.412773 J-374.336342
G02 X1702.469280 Y258.231521 Z-0.125000 I-10.642495 J232.161772
G02 X1696.780970 Y259.758590 Z-0.125000 I0.806579 J14.362468
G02 X1686.040189 Y267.242379 Z-0.125000 I21.163731 J41.823834
G02 X1684.212062 Y271.436212 Z-0.125000 I3.896389 J4.193833
G02 X1685.008432 Y271.971528 Z-0.125000 I0.578104 J-0.000000
G02 X1688.576657 Y269.656547 Z-0.125000 I-4.288138 J-10.517026
G03 X1694.964539 Y264.734523 Z-0.125000 I26.029606 J27.175483
G03 X1701.530788 Y262.165067 Z-0.125000 I10.500604 J17.159554
G03 X1708.923917 Y261.521280 Z-0.125000 I6.611658 J33.154468
G03 X1724.727066 Y262.447490 Z-0.125000 I-5.165880 J223.421989
G02 X1745.743535 Y263.510732 Z-0.125000 I22.744226 J-241.329937
G02 X1759.461139 Y262.324921 Z-0.125000 I0.526376 J-73.847177
G02 X1772.712827 Y258.608259 Z-0.125000 I-13.116261 J-72.248424
G02 X1791.848909 Y250.261981 Z-0.125000 I-85.248303 J-221.565061
G03 X1808.484068 Y242.833954 Z-0.125000 I113.492880 J231.827359
G03 X1816.881043 Y240.314103 Z-0.125000 I17.688977 J43.694844
G03 X1825.117938 Y240.108961 Z-0.125000 I4.703637 J23.394006
G03 X1831.720728 Y242.245403 Z-0.125000 I-3.140887 J20.978446
G03 X1838.426069 Y247.777945 Z-0.125000 I-9.462261 J18.297736
G03 X1845.513556 Y258.930134 Z-0.125000 I-50.822869 J40.127398
G03 X1850.124631 Y271.285573 Z-0.125000 I-55.355793 J27.697044
G03 X1850.142361 Y279.063296 Z-0.125000 I-15.337419 J3.923844
G02 X1850.224319 Y281.906687 Z-0.125000 I5.085227 J1.276300
G02 X1851.188192 Y282.402323 Z-0.125000 I0.726353 J-0.227504
G02 X1853.781446 Y278.929551 Z-0.125000 I-1.177094 J-3.583610
G02 X1851.757236 Y263.046310 Z-0.125000 I-51.457445 J-1.512710
G03 X1849.417427 Y254.482292 Z-0.125000 I263.030463 J-76.465246
G03 X1849.273511 Y253.339276 Z-0.125000 I4.467114 J-1.143016
G03 X1850.249700 Y252.375487 Z-0.125000 I0.963868 J0.000000
G03 X1860.098247 Y253.128410 Z-0.125000 I-0.994459 J77.795903
G03 X1869.988668 Y254.983463 Z-0.125000 I-15.387843 J109.335482
G03 X1875.617771 Y257.046971 Z-0.125000 I-5.715136 J24.300138
G03 X1881.800531 Y260.675109 Z-0.125000 I-27.670077 J54.235087
G03 X1890.408727 Y266.941456 Z-0.125000 I-74.640369 J111.580641
G02 X1898.690147 Y272.045229 Z-0.125000 I25.931104 J-32.805369
G02 X1900.615124 Y271.693316 Z-0.125000 I0.714213 J-1.534034
G02 X1900.419502 Y267.483528 Z-0.125000 I-2.062256 J-2.013610
G02 X1879.977991 Y254.153007 Z-0.125000 I-62.590942 J73.641114
G02 X1871.153387 Y250.745881 Z-0.125000 I-24.934272 J51.449229
G02 X1861.710671 Y248.604603 Z-0.125000 I-21.789405 J74.196892
G02 X1852.061794 Y247.927999 Z-0.125000 I-8.559004 J52.919347
G02 X1848.860790 Y249.120195 Z-0.125000 I0.105254 J5.175993
G03 X1847.025873 Y249.271839 Z-0.125000 I-1.025885 J-1.236163
G03 X1843.668635 Y246.093390 Z-0.125000 I5.100979 J-8.750181
G02 X1831.789449 Y236.577308 Z-0.125000 I-20.645093 J13.599239
G02 X1815.449855 Y235.392172 Z-0.125000 I-10.155060 J26.778457
G01 X1815.449855 Y235.392172 Z-0.125000
G00 Z5.000000

(Change tool to Default tool)

G00 Z5.000000
G00 X2066.710269 Y240.916334

G01 Z-0.125000 F100.0(Penetrate)
G02 X2028.827986 Y249.165142 Z-0.125000 I46.913511 J306.558938 F400.000000
G02 X2008.538511 Y257.451988 Z-0.125000 I27.096203 J95.323970
G03 X1997.153129 Y261.735884 Z-0.125000 I-21.038623 J-38.643190
G03 X1992.175098 Y261.131770 Z-0.125000 I-1.640411 J-7.294757
G02 X1979.807593 Y257.217396 Z-0.125000 I-18.610562 J37.305442
G02 X1971.954919 Y258.069067 Z-0.125000 I-2.314878 J15.283994
G03 X1969.081048 Y259.063539 Z-0.125000 I-16.375367 J-42.672500
G03 X1968.308241 Y259.196403 Z-0.125000 I-0.896086 J-2.898150
G02 X1965.501405 Y261.267630 Z-0.125000 I0.127438 J3.110163
G02 X1963.546842 Y272.644010 Z-0.125000 I32.130376 J11.376380
G03 X1962.906641 Y282.125893 Z-0.125000 I-70.537202 J-0.000000
G03 X1962.173746 Y282.766079 Z-0.125000 I-0.732895 J-0.099421
G03 X1960.918962 Y282.424249 Z-0.125000 I0.000000 J-2.473938
G03 X1956.722060 Y279.557862 Z-0.125000 I19.172872 J-32.578201
G02 X1945.812913 Y274.151320 Z-0.125000 I-18.364727 J23.346425
G02 X1926.249284 Y271.656176 Z-0.125000 I-19.563629 J75.448499
G02 X1892.103631 Y281.156517 Z-0.125000 I-0.000000 J66.112471
G02 X1882.603222 Y297.981413 Z-0.125000 I10.147950 J16.824896
G01 X1882.603222 Y302.244436 Z-0.125000
G01 X1878.457519 Y298.098705 Z-0.125000
G02 X1868.184424 Y292.842091 Z-0.125000 I-13.273165 J13.273232
G02 X1854.833487 Y293.351879 Z-0.125000 I-5.409438 J33.411234
G02 X1842.610139 Y298.957113 Z-0.125000 I8.220236 J34.056249
G02 X1835.247547 Y308.528368 Z-0.125000 I12.237927 J17.031331
G02 X1834.514175 Y319.847158 Z-0.125000 I17.995739 J6.849141
G02 X1840.584849 Y330.893097 Z-0.125000 I23.127323 J-5.519270
G02 X1857.117766 Y337.554618 Z-0.125000 I15.785761 J-15.331041
G02 X1875.951611 Y329.691479 Z-0.125000 I-0.979557 J-28.833290
G02 X1881.481149 Y322.043561 Z-0.125000 I-17.361550 J-18.375530
G02 X1884.350545 Y311.769436 Z-0.125000 I-29.245602 J-13.705572
G03 X1889.462407 Y291.381946 Z-0.125000 I75.300275 J8.045826
G03 X1895.640675 Y283.899456 Z-0.125000 I14.959533 J6.060105
G03 X1902.642062 Y280.023024 Z-0.125000 I31.297964 J48.267608
G03 X1908.694808 Y277.816777 Z-0.125000 I15.747020 J33.795429
G03 X1916.504405 Y276.620754 Z-0.125000 I9.267399 J34.417855
G03 X1929.233791 Y276.753511 Z-0.125000 I5.072898 J123.930082
G03 X1941.925461 Y278.234969 Z-0.125000 I-7.248897 J117.207002
G03 X1948.175326 Y280.258563 Z-0.125000 I-3.927455 J22.793078
G03 X1960.036503 Y288.908492 Z-0.125000 I-18.605088 J37.969400
G03 X1969.773285 Y302.701072 Z-0.125000 I-40.298332 J38.781446
G03 X1972.181284 Y310.341888 Z-0.125000 I-22.791186 J11.382477
G03 X1972.731877 Y322.626525 Z-0.125000 I-59.371364 J8.815662
G03 X1971.579794 Y332.114612 Z-0.125000 I-75.767932 J-4.386072
G03 X1969.633314 Y337.283613 Z-0.125000 I-15.480463 J-2.878455
G03 X1966.043940 Y341.556847 Z-0.125000 I-14.852304 J-8.831345
G03 X1957.595114 Y348.083139 Z-0.125000 I-66.621536 J-77.515097
G02 X1951.618960 Y353.155180 Z-0.125000 I22.732248 J32.841105
G02 X1950.849805 Y355.056653 Z-0.125000 I1.965794 J1.901473
G02 X1951.198719 Y357.012231 Z-0.125000 I5.654726 J0.000000
G02 X1951.699210 Y357.361167 Z-0.125000 I0.500490 J-0.184467
G02 X1954.910460 Y356.386561 Z-0.125000 I-0.000000 J-5.777715
G02 X1965.296705 Y348.270083 Z-0.125000 I-49.539070 J-74.096245
G03 X1969.914008 Y345.636945 Z-0.125000 I8.222227 J9.053099
G03 X1980.455227 Y343.594084 Z-0.125000 I14.709979 J47.685987
G03 X1990.648630 Y344.381607 Z-0.125000 I2.668312 J31.825961
G03 X1994.286035 Y346.947223 Z-0.125000 I-1.426452 J5.883629
G02 X1997.059937 Y349.599419 Z-0.125000 I7.107425 J-4.656884
G02 X1998.871007 Y349.729462 Z-0.125000 I1.035626 J-1.746725
G02 X2000.426494 Y348.367807 Z-0.125000 I-1.228016 J-2.972109
G02 X2002.354148 Y343.613614 Z-0.125000 I-15.989467 J-9.251044
G03 X2005.889462 Y338.320983 Z-0.125000 I9.178003 J2.303566
G03 X2018.822915 Y331.380015 Z-0.125000 I30.011252 J40.401207
G03 X2030.465312 Y328.230592 Z-0.125000 I24.983548 J69.262302
G03 X2054.254984 Y324.851989 Z-0.125000 I52.953220 J287.414032
G03 X2078.266591 Y322.478423 Z-0.125000 I847.988569 J8455.832502
G03 X2078.968337 Y322.444323 Z-0.125000 I0.701747 J7.203500
G03 X2079.262345 Y322.735865 Z-0.125000 I0.000000 J0.294018
G03 X2078.984989 Y324.428232 Z-0.125000 I-5.042800 J0.042463
G02 X2078.943838 Y326.362140 Z-0.125000 I2.977578 J1.030750
G02 X2081.233425 Y331.943443 Z-0.125000 I29.361315 J-8.784456
G03 X2083.350692 Y347.473307 Z-0.125000 I-20.059238 J10.644041
G03 X2074.327786 Y363.287833 Z-0.125000 I-29.926753 J-6.593320
G03 X2062.370003 Y370.060708 Z-0.125000 I-20.102119 J-21.548687
G03 X2039.877286 Y373.194539 Z-0.125000 I-22.239970 J-77.338496
G03 X2018.972651 Y370.344376 Z-0.125000 I0.249549 J-79.918361
G03 X2010.583719 Y365.154282 Z-0.125000 I4.625305 J-16.850751
G03 X2007.486699 Y359.606440 Z-0.125000 I10.771608 J-9.651489
G03 X2006.785121 Y352.316642 Z-0.125000 I18.425244 J-5.451924
G02 X2006.628099 Y346.304384 Z-0.125000 I-24.616237 J-2.365279
G02 X2005.942504 Y345.103783 Z-0.125000 I-1.886656 J0.281309
G02 X2005.105153 Y345.222087 Z-0.125000 I-0.363642 J0.448674
G02 X2003.223844 Y349.430271 Z-0.125000 I10.084240 J7.032879
G02 X2005.855217 Y364.878977 Z-0.125000 I19.558362 J4.617084
G02 X2019.576420 Y374.985126 Z-0.125000 I20.016235 J-12.808438
G02 X2033.014544 Y376.970653 Z-0.125000 I14.855888 J-54.077610
G02 X2049.826716 Y376.075075 Z-0.125000 I2.713684 J-107.308093
G02 X2066.264591 Y372.427200 Z-0.125000 I-12.775881 J-96.429748
G02 X2075.715642 Y367.547357 Z-0.125000 I-9.354408 J-29.709275
G02 X2085.489458 Y355.786242 Z-0.125000 I-20.318379 J-26.826859
G02 X2088.910857 Y341.191329 Z-0.125000 I-28.916799 J-14.477279
G02 X2088.115752 Y336.142472 Z-0.125000 I-16.834451 J0.064090
G02 X2085.146916 Y329.386425 Z-0.125000 I-33.402717 J10.647960
G01 X2081.402081 Y322.838079 Z-0.125000
G01 X2089.530645 Y321.870734 Z-0.125000
G03 X2097.675813 Y321.087418 Z-0.125000 I21.399535 J179.779474
G03 X2128.608235 Y319.002143 Z-0.125000 I190.333513 J2592.892545
G03 X2173.787671 Y319.458329 Z-0.125000 I19.402739 J315.857819
G03 X2177.027719 Y322.959350 Z-0.125000 I-0.287325 J3.515682
G02 X2177.725505 Y325.451263 Z-0.125000 I4.869280 J-0.019843
G02 X2179.650946 Y327.316494 Z-0.125000 I4.478402 J-2.696552
G03 X2185.978242 Y332.943396 Z-0.125000 I-9.618412 J17.186525
G03 X2195.103178 Y348.631949 Z-0.125000 I-73.255339 J53.105460
G03 X2198.030389 Y367.067418 Z-0.125000 I-31.988170 J14.529257
G03 X2191.721789 Y378.856453 Z-0.125000 I-17.914942 J-2.004262
G03 X2186.297955 Y381.752097 Z-0.125000 I-9.533665 J-11.330002
G03 X2180.261534 Y382.167371 Z-0.125000 I-3.980301 J-13.777296
G03 X2164.639249 Y378.491934 Z-0.125000 I13.212433 J-91.197510
G03 X2159.497429 Y375.326530 Z-0.125000 I4.081614 J-12.388932
G02 X2156.949813 Y374.221928 Z-0.125000 I-2.671613 J2.671547
G02 X2154.564269 Y375.164478 Z-0.125000 I-0.105810 J3.222314
G02 X2154.388197 Y377.210523 Z-0.125000 I1.127620 J1.127635
G02 X2158.604139 Y380.899093 Z-0.125000 I9.700286 J-6.833538
G02 X2165.236840 Y383.645871 Z-0.125000 I18.908338 J-36.276905
G02 X2175.220340 Y386.125990 Z-0.125000 I25.203738 J-80.121512
G02 X2185.175778 Y386.663460 Z-0.125000 I7.061004 J-38.319416
G02 X2190.570237 Y384.982623 Z-0.125000 I-0.929671 J-12.480546
G02 X2199.820461 Y375.670607 Z-0.125000 I-12.949088 J-22.113589
G02 X2203.072925 Y363.769142 Z-0.125000 I-21.079496 J-12.155815
G02 X2200.746723 Y350.904640 Z-0.125000 I-34.727539 J-0.363019
G02 X2191.110523 Y333.296304 Z-0.125000 I-70.876577 J27.346475
G03 X2186.734744 Y326.256770 Z-0.125000 I43.395693 J-31.854560
G03 X2187.122385 Y325.618589 Z-0.125000 I0.387641 J-0.201361
G02 X2188.378692 Y324.999384 Z-0.125000 I-0.000000 J-1.584065
G02 X2191.434373 Y320.004258 Z-0.125000 I-21.961738 J-16.866905
G02 X2193.098162 Y311.629494 Z-0.125000 I-15.778348 J-7.487288
G02 X2189.055155 Y273.243309 Z-0.125000 I-356.443544 J18.136243
G02 X2184.416839 Y254.225731 Z-0.125000 I-120.646205 J19.350737
G02 X2181.179349 Y249.430639 Z-0.125000 I-10.134088 J3.351737
G02 X2169.005326 Y243.220384 Z-0.125000 I-19.303183 J22.802657
G02 X2135.750320 Y238.267565 Z-0.125000 I-43.149455 J175.601527
G02 X2097.746049 Y237.955967 Z-0.125000 I-22.346932 J407.794908
G02 X2066.710184 Y240.916334 Z-0.125000 I10.536303 J274.627379
G01 X2066.710269 Y240.916334 Z-0.125000
G00 Z5.000000

(Change tool to Default tool)

G00 Z5.000000
G00 X2151.621679 Y244.736719

G01 Z-0.125000 F100.0(Penetrate)
G03 X2175.949262 Y250.961479 Z-0.125000 I-11.880594 J97.082563 F400.000000
G03 X2181.597518 Y256.682565 Z-0.125000 I-3.711263 J9.312738
G03 X2182.841286 Y261.139704 Z-0.125000 I-22.945309 J8.805016
G03 X2186.149759 Y281.113767 Z-0.125000 I-727.369874 J130.741440
G03 X2188.882140 Y300.819912 Z-0.125000 I-776.145615 J117.659999
G03 X2189.450944 Y308.487728 Z-0.125000 I-74.735290 J9.398917
G03 X2189.033708 Y316.484115 Z-0.125000 I-53.336679 J1.226076
G03 X2188.072267 Y318.919244 Z-0.125000 I-5.273291 J-0.674645
G03 X2186.288001 Y319.602178 Z-0.125000 I-1.412843 J-1.018964
G03 X2182.723613 Y317.815455 Z-0.125000 I1.719530 J-7.879059
G02 X2178.760906 Y315.547531 Z-0.125000 I-7.734405 J8.918250
G02 X2170.176549 Y313.585113 Z-0.125000 I-14.026260 J41.599351
G02 X2146.228242 Y312.804616 Z-0.125000 I-16.216966 J129.793712
G02 X2046.390071 Y320.914481 Z-0.125000 I135.116152 J2281.969647
G02 X2014.361122 Y327.864878 Z-0.125000 I15.241507 J147.509582
G02 X2002.077147 Y335.817000 Z-0.125000 I9.423395 J28.020563
G01 X1996.961417 Y341.350531 Z-0.125000
G01 X1995.141846 Y334.674903 Z-0.125000
G03 X1994.105035 Y326.616872 Z-0.125000 I28.463000 J-7.757994
G03 X1995.058834 Y300.428114 Z-0.125000 I499.507815 J5.080399
G03 X1997.452606 Y274.025703 Z-0.125000 I476.279014 J29.872075
G03 X1999.257182 Y269.060437 Z-0.125000 I11.486275 J1.364010
G03 X2005.866557 Y263.024465 Z-0.125000 I15.040064 J9.832222
G03 X2028.440315 Y253.555599 Z-0.125000 I63.057149 J118.685801
G03 X2055.589024 Y247.050464 Z-0.125000 I59.432096 J188.131374
G03 X2093.691448 Y242.732631 Z-0.125000 I60.911858 J367.237544
G03 X2121.321989 Y242.363396 Z-0.125000 I17.662921 J287.741670
G03 X2151.621679 Y244.736719 Z-0.125000 I-12.058645 J348.551315
G01 X2151.621679 Y244.736719 Z-0.125000
G00 Z5.000000

(Change tool to Default tool)

G00 Z5.000000
G00 X1989.820772 Y265.340353

G01 Z-0.125000 F100.0(Penetrate)
G03 X1992.573304 Y267.745428 Z-0.125000 I-1.869588 J4.917314 F400.000000
G03 X1993.053627 Y271.288271 Z-0.125000 I-4.422071 J2.403507
G02 X1992.425898 Y275.673653 Z-0.125000 I25.068468 J5.825950
G02 X1991.061025 Y306.831733 Z-0.125000 I1273.494383 J71.394067
G01 X1990.076098 Y338.039612 Z-0.125000
G01 X1982.293256 Y338.574311 Z-0.125000
G01 X1974.510442 Y339.109178 Z-0.125000
G01 X1975.773951 Y332.760674 Z-0.125000
G02 X1976.606755 Y326.372328 Z-0.125000 I-47.315126 J-9.416598
G02 X1976.896969 Y314.905462 Z-0.125000 I-152.640388 J-9.600278
G01 X1976.756507 Y303.398754 Z-0.125000
G01 X1981.961504 Y303.398754 Z-0.125000
G02 X1986.265259 Y302.865680 Z-0.125000 I-0.000000 J-17.639662
G02 X1987.816352 Y302.065673 Z-0.125000 I-0.935026 J-3.716546
G02 X1988.024409 Y301.063248 Z-0.125000 I-0.541443 J-0.635183
G02 X1986.421320 Y299.597107 Z-0.125000 I-2.667250 J1.306905
G02 X1983.860755 Y298.956754 Z-0.125000 I-3.906672 J10.181911
G02 X1978.705675 Y298.637382 Z-0.125000 I-5.155080 J41.445168
G03 X1974.223512 Y297.275070 Z-0.125000 I0.000000 J-8.054568
G03 X1969.340723 Y292.365191 Z-0.125000 I9.793079 J-14.621909
G03 X1966.324662 Y286.342350 Z-0.125000 I23.397246 J-15.483247
G03 X1966.749133 Y285.129324 Z-0.125000 I0.961424 J-0.344352
G02 X1967.626659 Y283.785769 Z-0.125000 I-0.993184 J-1.607035
G02 X1968.308241 Y274.059552 Z-0.125000 I-69.055989 J-9.726217
G03 X1969.466100 Y264.826606 Z-0.125000 I37.391400 J-0.000000
G03 X1971.085731 Y263.159650 Z-0.125000 I2.260491 J0.576013
G03 X1978.442841 Y262.560691 Z-0.125000 I5.178405 J18.123416
G03 X1989.820800 Y265.340353 Z-0.125000 I-5.483581 J47.122340
G01 X1989.820772 Y265.340353 Z-0.125000
G00 Z5.000000

(Change tool to Default tool)

G00 Z5.000000
G00 X1870.645326 Y299.305882

G01 Z-0.125000 F100.0(Penetrate)
G03 X1878.235913 Y305.490484 Z-0.125000 I-6.646303 J15.907653 F400.000000
G03 X1881.016117 Y314.491047 Z-0.125000 I-13.178992 J9.000562
G03 X1880.216761 Y317.171748 Z-0.125000 I-4.894647 J0.000000
G03 X1875.503739 Y323.328409 Z-0.125000 I-44.010433 J-28.808415
G03 X1870.041935 Y328.763171 Z-0.125000 I-47.403671 J-42.177664
G03 X1865.645928 Y331.765700 Z-0.125000 I-14.348884 J-16.288860
G03 X1857.789610 Y333.315472 Z-0.125000 I-6.607632 J-12.808263
G03 X1847.716887 Y330.206337 Z-0.125000 I2.163871 J-24.881297
G03 X1839.208760 Y322.405065 Z-0.125000 I12.400647 J-22.064388
G03 X1836.576475 Y313.875238 Z-0.125000 I12.504156 J-8.529827
G03 X1839.062041 Y307.731399 Z-0.125000 I8.835971 J0.000000
G03 X1849.942322 Y300.059924 Z-0.125000 I25.623841 J24.790348
G03 X1860.762908 Y297.510760 Z-0.125000 I11.865221 J26.125034
G03 X1870.645326 Y299.305882 Z-0.125000 I0.852689 J23.405476
G01 X1870.645326 Y299.305882 Z-0.125000
G00 Z5.000000

(Change tool to Default tool)

G00 Z5.000000
G00 X2148.554601 Y320.683708

G01 Z-0.125000 F100.0(Penetrate)
G02 X2148.446591 Y321.985909 Z-0.125000 I1.225248 J0.757208 F400.000000
G02 X2154.202912 Y334.501731 Z-0.125000 I148.207163 J-60.582318
G03 X2159.302250 Y347.291060 Z-0.125000 I-64.771449 J33.236817
G03 X2159.882888 Y353.910746 Z-0.125000 I-16.275094 J4.762860
G03 X2155.124556 Y365.332291 Z-0.125000 I-21.870199 J-2.409392
G03 X2146.240464 Y370.789385 Z-0.125000 I-12.150621 J-9.820931
G03 X2118.780968 Y372.305348 Z-0.125000 I-18.565608 J-86.836672
G03 X2096.276010 Y365.759790 Z-0.125000 I6.459644 J-64.170650
G02 X2088.738157 Y363.076609 Z-0.125000 I-14.552487 J28.952638
G02 X2086.766504 Y363.651279 Z-0.125000 I-0.462118 J2.084140
G02 X2086.251727 Y365.291655 Z-0.125000 I1.312797 J1.312938
G02 X2087.356208 Y366.942668 Z-0.125000 I2.439616 J-0.437094
G02 X2099.617218 Y372.544682 Z-0.125000 I25.960706 J-40.600937
G02 X2117.757919 Y375.957410 Z-0.125000 I25.691969 J-86.647526
G01 X2128.337725 Y376.844293 Z-0.125000
G01 X2127.534379 Y382.577158 Z-0.125000
G03 X2123.763814 Y395.961479 Z-0.125000 I-51.015917 J-7.148682
G03 X2118.857260 Y402.542772 Z-0.125000 I-16.465739 J-7.156071
G03 X2110.380839 Y406.785368 Z-0.125000 I-13.080913 J-15.545825
G03 X2097.801760 Y407.442093 Z-0.125000 I-8.131042 J-34.944240
G03 X2079.143170 Y400.116700 Z-0.125000 I5.025635 J-40.226299
G03 X2063.507781 Y382.755240 Z-0.125000 I32.178093 J-44.700149
G02 X2061.963313 Y381.718461 Z-0.125000 I-1.818009 J1.039479
G02 X2060.184191 Y382.317344 Z-0.125000 I-0.278580 J2.114503
G02 X2059.698781 Y384.402177 Z-0.125000 I1.413999 J1.428145
G02 X2063.560810 Y392.084068 Z-0.125000 I30.645790 J-10.595253
G02 X2076.736184 Y404.581742 Z-0.125000 I35.482520 J-24.212849
G02 X2095.954051 Y411.767967 Z-0.125000 I28.476093 J-46.862661
G03 X2105.860869 Y414.000312 Z-0.125000 I-16.499364 J96.320422
G03 X2106.388484 Y414.696390 Z-0.125000 I-0.195357 J0.696078
G03 X2105.997972 Y415.657870 Z-0.125000 I-1.378886 J-0.000000
G03 X2099.754286 Y421.516120 Z-0.125000 I-67.269928 J-65.439490
G03 X2090.659063 Y427.025514 Z-0.125000 I-21.265341 J-24.843889
G03 X2088.930076 Y425.855964 Z-0.125000 I-0.468930 J-1.169550
G02 X2088.065022 Y423.631351 Z-0.125000 I-3.292985 J-0.000000
G02 X2077.582132 Y413.074116 Z-0.125000 I-136.679045 J125.233384
G02 X2066.753591 Y403.582672 Z-0.125000 I-168.441502 J181.247803
G02 X2058.149622 Y397.250343 Z-0.125000 I-60.657739 J73.406473
G02 X2040.702834 Y388.157407 Z-0.125000 I-55.013979 J84.272157
G02 X2021.743245 Y382.033997 Z-0.125000 I-53.053043 J131.851814
G02 X2002.887475 Y379.637227 Z-0.125000 I-19.729144 J79.843277
G02 X1998.776981 Y382.579388 Z-0.125000 I-0.045442 J4.278980
G02 X1999.025231 Y383.549076 Z-0.125000 I0.883267 J0.290497
G02 X1999.908128 Y383.636902 Z-0.125000 I0.498897 J-0.533603
G03 X2002.463579 Y383.025711 Z-0.125000 I2.203576 J3.565473
G03 X2013.875609 Y384.619223 Z-0.125000 I-8.848583 J105.030363
G03 X2024.855851 Y387.178548 Z-0.125000 I-30.469932 J155.558656
G03 X2035.585222 Y390.625176 Z-0.125000 I-31.866051 J117.622774
G03 X2049.558110 Y397.449231 Z-0.125000 I-27.992353 J75.034376
G03 X2066.535115 Y409.151894 Z-0.125000 I-103.978754 J169.007116
G03 X2082.117303 Y422.962619 Z-0.125000 I-91.124790 J118.508909
G03 X2084.168677 Y427.982396 Z-0.125000 I-5.116089 J5.019777
G03 X2081.930715 Y430.618176 Z-0.125000 I-2.671138 J0.000000
G03 X2061.466044 Y431.713430 Z-0.125000 I-15.217153 J-92.592968
G02 X2052.685324 Y432.276522 Z-0.125000 I-2.055385 J36.692579
G02 X2051.632519 Y433.543387 Z-0.125000 I0.235821 J1.266865
G02 X2052.712386 Y434.841825 Z-0.125000 I1.320558 J-0.000000
G02 X2064.329555 Y435.896923 Z-0.125000 I11.482264 J-61.942581
G02 X2076.976478 Y435.424627 Z-0.125000 I-0.408503 J-180.501614
G02 X2082.866645 Y434.550892 Z-0.125000 I-2.878836 J-39.698049
G03 X2086.689187 Y433.924866 Z-0.125000 I7.140960 J31.619676
G03 X2088.329116 Y434.248784 Z-0.125000 I0.291832 J2.835785
G03 X2089.581712 Y435.421205 Z-0.125000 I-1.579272 J2.942606
G03 X2091.788988 Y439.339413 Z-0.125000 I-41.790263 J26.122868
G03 X2094.675797 Y445.525719 Z-0.125000 I-98.989627 J49.959737
G03 X2096.054325 Y449.266270 Z-0.125000 I-34.747204 J14.929894
G01 X2097.237316 Y453.085696 Z-0.125000
G01 X2083.481776 Y452.028350 Z-0.125000
G03 X2069.822742 Y450.421740 Z-0.125000 I13.057522 J-169.878333
G03 X2060.279215 Y448.344475 Z-0.125000 I13.474001 J-84.864732
G02 X2050.749680 Y447.410474 Z-0.125000 I-7.429834 J26.724434
G02 X2049.872327 Y449.134556 Z-0.125000 I0.085700 J1.128887
G02 X2051.725764 Y450.575104 Z-0.125000 I2.860686 J-1.768007
G02 X2063.103924 Y453.498079 Z-0.125000 I33.381201 J-106.334634
G02 X2074.420558 Y455.381227 Z-0.125000 I33.476647 J-166.230584
G02 X2085.755810 Y456.361054 Z-0.125000 I16.587678 J-125.840026
G01 X2099.246399 Y456.919741 Z-0.125000
G01 X2101.239848 Y462.844009 Z-0.125000
G03 X2105.790096 Y482.839489 Z-0.125000 I-96.542884 J32.485145
G03 X2105.633766 Y498.408892 Z-0.125000 I-58.280275 J7.200302
G03 X2100.803176 Y523.692815 Z-0.125000 I-278.422725 J-40.090302
G03 X2096.602739 Y536.203838 Z-0.125000 I-71.913966 J-17.183680
G03 X2076.337172 Y563.304669 Z-0.125000 I-68.319922 J-29.960994
G03 X2043.074271 Y581.282601 Z-0.125000 I-59.992095 J-71.237214
G02 X2033.843947 Y585.933319 Z-0.125000 I8.489069 J28.333451
G02 X2033.673166 Y588.316600 Z-0.125000 I0.946932 J1.265615
G02 X2035.075290 Y588.646434 Z-0.125000 I0.967449 J-0.967499
G02 X2046.068797 Y584.382207 Z-0.125000 I-40.103072 J-119.691990
G02 X2056.440345 Y579.427339 Z-0.125000 I-80.408191 J-181.643033
G02 X2065.986341 Y574.012444 Z-0.125000 I-60.634283 J-118.014882
G02 X2089.746936 Y551.608049 Z-0.125000 I-43.761826 J-70.212494
G02 X2105.073893 Y518.806531 Z-0.125000 I-82.990744 J-58.760182
G02 X2109.312730 Y483.887083 Z-0.125000 I-124.208896 J-32.794592
G02 X2104.079398 Y458.691278 Z-0.125000 I-68.744159 J1.137205
G03 X2104.502491 Y456.873329 Z-0.125000 I1.480196 J-0.613721
G03 X2108.260436 Y455.021063 Z-0.125000 I5.325934 J6.067187
G02 X2119.109571 Y451.683298 Z-0.125000 I-10.723785 J-54.157792
G02 X2129.798648 Y445.878079 Z-0.125000 I-24.771252 J-58.354442
G02 X2136.239135 Y440.717161 Z-0.125000 I-28.198038 J-41.788416
G02 X2136.064260 Y440.112790 Z-0.125000 I-0.243163 J-0.257126
G02 X2134.525048 Y440.247225 Z-0.125000 I-0.536989 J2.730572
G02 X2124.243697 Y444.785653 Z-0.125000 I42.817708 J110.914101
G03 X2111.742255 Y450.202250 Z-0.125000 I-56.245371 J-112.678766
G03 X2106.493302 Y451.360500 Z-0.125000 I-6.807883 J-18.379222
G03 X2103.098775 Y451.302581 Z-0.125000 I-1.398604 J-17.532931
G03 X2101.243989 Y450.382910 Z-0.125000 I0.345800 J-3.027603
G03 X2099.936357 Y448.426448 Z-0.125000 I4.887994 J-4.682188
G03 X2097.109526 Y441.564256 Z-0.125000 I143.330192 J-63.057195
G03 X2094.863731 Y431.923866 Z-0.125000 I33.538010 J-12.894690
G03 X2096.026978 Y429.660800 Z-0.125000 I2.364624 J-0.215047
G02 X2105.316086 Y422.516912 Z-0.125000 I-23.760918 J-40.507228
G02 X2109.445092 Y416.368895 Z-0.125000 I-13.201502 J-13.326653
G03 X2112.034193 Y412.499112 Z-0.125000 I10.991965 J4.553221
G03 X2116.444090 Y409.386802 Z-0.125000 I11.291009 J11.318071
G02 X2126.468090 Y400.223966 Z-0.125000 I-10.033861 J-21.041356
G02 X2130.781459 Y385.177046 Z-0.125000 I-26.645916 J-15.780049
G03 X2131.081809 Y379.279532 Z-0.125000 I108.496675 J2.569131
G03 X2131.568686 Y377.608040 Z-0.125000 I4.255988 J0.333042
G03 X2132.740328 Y376.712860 Z-0.125000 I1.562843 J0.831170
G03 X2135.444363 Y376.409417 Z-0.125000 I2.712134 J11.968517
G02 X2149.870920 Y373.859246 Z-0.125000 I-0.000000 J-42.081280
G02 X2157.950597 Y368.204907 Z-0.125000 I-6.558607 J-17.971649
G02 X2163.787767 Y352.494741 Z-0.125000 I-19.025092 J-16.008337
G02 X2158.407685 Y330.089836 Z-0.125000 I-46.994645 J-0.563602
G02 X2151.073355 Y320.360785 Z-0.125000 I-33.314143 J17.485107
G02 X2148.554601 Y320.683708 Z-0.125000 I-1.128519 J1.182137
G01 X2148.554601 Y320.683708 Z-0.125000
G00 Z5.000000

(Change tool to Default tool)

G00 Z5.000000
G00 X1814.092959 Y324.031456

G01 Z-0.125000 F100.0(Penetrate)
G02 X1797.898725 Y328.169716 Z-0.125000 I18.282645 J105.300942 F400.000000
G02 X1780.233376 Y335.570845 Z-0.125000 I45.275858 J132.849243
G02 X1774.340329 Y339.395776 Z-0.125000 I14.261204 J28.424307
G02 X1760.883091 Y351.424509 Z-0.125000 I133.029290 J162.369592
G02 X1749.149948 Y364.447148 Z-0.125000 I94.126300 J96.602950
G02 X1743.298184 Y374.299425 Z-0.125000 I34.071082 J26.900497
G02 X1740.243733 Y385.334072 Z-0.125000 I39.541506 J16.885377
G02 X1739.032064 Y402.594362 Z-0.125000 I129.145440 J17.738658
G02 X1740.542947 Y419.701894 Z-0.125000 I93.718374 J0.343574
G02 X1744.226053 Y431.162702 Z-0.125000 I45.301558 J-8.236136
G02 X1759.512791 Y452.298707 Z-0.125000 I64.389058 J-30.473643
G02 X1777.484510 Y463.217512 Z-0.125000 I34.039896 J-35.778086
G02 X1798.467986 Y465.827580 Z-0.125000 I16.685815 J-48.491857
G02 X1824.934413 Y458.934130 Z-0.125000 I-6.738528 J-80.125405
G02 X1847.341844 Y446.082323 Z-0.125000 I-56.198465 J-123.943211
G02 X1868.300987 Y428.664273 Z-0.125000 I-101.533757 J-143.494676
G02 X1886.075381 Y408.049583 Z-0.125000 I-107.581473 J-110.728942
G02 X1895.009711 Y390.850700 Z-0.125000 I-54.765452 J-39.369100
G02 X1895.789690 Y385.398033 Z-0.125000 I-13.571570 J-4.723471
G02 X1894.679031 Y384.342373 Z-0.125000 I-1.110659 J0.056432
G02 X1893.040857 Y385.180238 Z-0.125000 I0.000000 J2.020393
G02 X1889.809880 Y391.087682 Z-0.125000 I21.936796 J15.835250
G03 X1874.672134 Y415.621798 Z-0.125000 I-76.108938 J-30.022710
G03 X1844.337642 Y441.906140 Z-0.125000 I-118.192650 J-105.758403
G03 X1820.846510 Y454.865569 Z-0.125000 I-89.647896 J-134.731276
G03 X1802.901013 Y460.467444 Z-0.125000 I-32.485573 J-72.521946
G03 X1792.313418 Y461.108594 Z-0.125000 I-7.875838 J-42.317769
G03 X1781.194681 Y459.097283 Z-0.125000 I3.077329 J-48.750209
G03 X1757.249379 Y443.368428 Z-0.125000 I14.742112 J-48.534462
G03 X1742.978631 Y414.029301 Z-0.125000 I50.172303 J-42.544401
G03 X1742.345410 Y400.719880 Z-0.125000 I42.391593 J-8.686634
G03 X1746.590624 Y380.411836 Z-0.125000 I104.312161 J11.207785
G03 X1751.286891 Y370.045055 Z-0.125000 I45.248463 J14.250935
G03 X1759.303127 Y359.470778 Z-0.125000 I55.127296 J33.465711
G03 X1783.799644 Y340.908845 Z-0.125000 I66.109673 J61.800910
G03 X1818.004361 Y329.074400 Z-0.125000 I57.709094 J111.447131
G02 X1831.380902 Y325.818340 Z-0.125000 I-25.601284 J-134.279930
G02 X1832.288531 Y324.825008 Z-0.125000 I-0.372308 J-1.251513
G02 X1830.825816 Y322.956191 Z-0.125000 I-1.530742 J-0.308734
G02 X1814.092959 Y324.031456 Z-0.125000 I-3.396089 J77.884164
G01 X1814.092959 Y324.031456 Z-0.125000
G00 Z5.000000

(Change tool to Default tool)

G00 Z5.000000
G00 X1855.049838 Y341.003905

G01 Z-0.125000 F100.0(Penetrate)
G02 X1853.486997 Y345.474938 Z-0.125000 I3.856969 J3.856856 F400.000000
G02 X1856.994857 Y358.168209 Z-0.125000 I41.901021 J-4.748248
G02 X1860.504815 Y364.070704 Z-0.125000 I28.456381 J-12.926916
G02 X1865.553105 Y369.506995 Z-0.125000 I29.120556 J-21.980020
G02 X1873.228773 Y374.639801 Z-0.125000 I23.299843 J-26.537349
G02 X1883.392577 Y377.769136 Z-0.125000 I14.800563 J-30.000695
G02 X1894.756529 Y378.435094 Z-0.125000 I9.808530 J-70.082758
G02 X1920.694333 Y377.224249 Z-0.125000 I-11.569808 J-526.255057
G03 X1937.161463 Y377.533431 Z-0.125000 I6.522070 J91.309470
G03 X1950.056225 Y380.433116 Z-0.125000 I-6.404171 J58.600081
G02 X1965.530166 Y385.497820 Z-0.125000 I154.781052 J-446.724209
G02 X1970.543914 Y386.370507 Z-0.125000 I5.930610 J-19.233647
G02 X1974.763431 Y385.224120 Z-0.125000 I0.325597 J-7.140175
G02 X1978.927191 Y381.749626 Z-0.125000 I-12.414951 J-19.109943
G02 X1982.649650 Y375.573722 Z-0.125000 I-12.367079 J-11.663909
G02 X1984.171642 Y366.374159 Z-0.125000 I-26.904014 J-9.176731
G02 X1982.983537 Y356.982138 Z-0.125000 I-37.963672 J0.031304
G02 X1980.478482 Y351.961917 Z-0.125000 I-12.914765 J3.309263
G02 X1976.323442 Y348.750490 Z-0.125000 I-8.697967 J6.960019
G02 X1972.550719 Y348.421185 Z-0.125000 I-2.362421 J5.289373
G02 X1969.213847 Y349.906605 Z-0.125000 I2.583924 J10.295279
G02 X1968.423586 Y350.963824 Z-0.125000 I1.112774 J1.655755
G02 X1968.730287 Y351.837266 Z-0.125000 I0.736968 J0.231789
G02 X1971.236495 Y352.599767 Z-0.125000 I2.506208 J-3.737479
G03 X1976.443556 Y355.554183 Z-0.125000 I0.000000 J6.065845
G03 X1979.649454 Y366.679213 Z-0.125000 I-19.473208 J11.636029
G03 X1976.834439 Y378.096590 Z-0.125000 I-22.504813 J0.507034
G03 X1971.620938 Y381.168107 Z-0.125000 I-5.213501 J-2.888861
G03 X1969.136820 Y380.811840 Z-0.125000 I-0.000000 J-8.838543
G03 X1954.805291 Y376.243555 Z-0.125000 I89.265546 J-304.806469
G02 X1928.286320 Y370.884214 Z-0.125000 I-33.313186 J96.549607
G02 X1907.538290 Y373.092488 Z-0.125000 I-4.040758 J60.608825
G03 X1889.461302 Y375.054553 Z-0.125000 I-14.736194 J-51.513266
G03 X1875.109122 Y371.066358 Z-0.125000 I2.241957 J-35.886499
G03 X1862.908150 Y360.084364 Z-0.125000 I15.121808 J-29.068920
G03 X1858.796282 Y346.423616 Z-0.125000 I20.636431 J-13.660748
G02 X1857.165149 Y341.195394 Z-0.125000 I-9.194502 J0.000000
G02 X1855.049838 Y341.003905 Z-0.125000 I-1.137503 J0.786305
G01 X1855.049838 Y341.003905 Z-0.125000
G00 Z5.000000

(Change tool to Default tool)

G00 Z5.000000
G00 X2183.172318 Y392.999371

G01 Z-0.125000 F100.0(Penetrate)
G02 X2182.896466 Y395.500256 Z-0.125000 I4.629240 J1.776269 F400.000000
G02 X2184.282326 Y400.514102 Z-0.125000 I20.970391 J-3.097901
G03 X2186.924575 Y413.933909 Z-0.125000 I-32.072038 J13.284740
G03 X2184.187894 Y424.757838 Z-0.125000 I-23.129296 J-0.089992
G03 X2176.720879 Y430.430896 Z-0.125000 I-9.923509 J-5.310899
G03 X2158.468736 Y431.480911 Z-0.125000 I-12.327229 J-55.119917
G03 X2139.797225 Y427.282106 Z-0.125000 I8.664911 J-82.145902
G03 X2123.191008 Y418.323764 Z-0.125000 I19.916872 J-56.790985
G02 X2116.391274 Y414.553107 Z-0.125000 I-16.238273 J21.266543
G02 X2114.929432 Y415.209328 Z-0.125000 I-0.400867 J1.063362
G02 X2116.240385 Y419.827231 Z-0.125000 I3.737210 J1.434093
G02 X2131.137789 Y428.637984 Z-0.125000 I44.902902 J-58.922964
G02 X2148.286279 Y434.707993 Z-0.125000 I48.011791 J-108.380707
G02 X2163.461748 Y436.708763 Z-0.125000 I15.104323 J-56.011525
G02 X2178.584946 Y433.922693 Z-0.125000 I-0.052414 J-42.723004
G02 X2186.329069 Y427.996214 Z-0.125000 I-6.055200 J-15.935182
G02 X2189.851805 Y418.687507 Z-0.125000 I-15.339826 J-11.126036
G02 X2188.887798 Y401.653038 Z-0.125000 I-55.869358 J-5.382778
G02 X2186.965647 Y394.354467 Z-0.125000 I-76.299490 J16.191828
G02 X2185.853803 Y392.021954 Z-0.125000 I-8.898318 J2.810332
G02 X2184.597370 Y391.604232 Z-0.125000 I-0.893960 J0.590447
G02 X2183.172233 Y392.999371 Z-0.125000 I0.809984 J2.252859
G01 X2183.172318 Y392.999371 Z-0.125000
G00 Z5.000000

(Change tool to Default tool)

G00 Z5.000000
G00 X1995.559902 Y398.177048

G01 Z-0.125000 F100.0(Penetrate)
G02 X1985.980613 Y406.598571 Z-0.125000 I14.325065 J25.953302 F400.000000
G02 X1986.301771 Y410.800622 Z-0.125000 I2.609518 J1.913856
G02 X1987.442304 Y410.919426 Z-0.125000 I0.643489 J-0.643544
G02 X1990.995042 Y407.740628 Z-0.125000 I-8.590514 J-13.175795
G03 X1994.874878 Y404.023367 Z-0.125000 I17.614332 J14.501307
G03 X1998.649388 Y401.970453 Z-0.125000 I8.779791 J11.646239
G03 X2007.034695 Y400.995639 Z-0.125000 I6.231948 J17.054512
G03 X2015.625253 Y403.998022 Z-0.125000 I-2.502272 J20.950661
G02 X2018.138361 Y403.105088 Z-0.125000 I0.898582 J-1.453959
G02 X2017.262424 Y399.286633 Z-0.125000 I-3.483727 J-1.210544
G02 X2008.205435 Y395.261161 Z-0.125000 I-9.761815 J9.761815
G02 X1995.559902 Y398.177048 Z-0.125000 I-1.208398 J23.637788
G01 X1995.559902 Y398.177048 Z-0.125000
G00 Z5.000000

(Change tool to Default tool)

G00 Z5.000000
G00 X2022.634016 Y410.798534

G01 Z-0.125000 F100.0(Penetrate)
G02 X2018.723727 Y414.743764 Z-0.125000 I2.616996 J6.504261 F400.000000
G02 X2014.847871 Y430.658455 Z-0.125000 I56.758496 J22.252243
G03 X2013.489365 Y437.779413 Z-0.125000 I-42.782333 J-4.471768
G03 X2012.849230 Y437.800060 Z-0.125000 I-0.323319 J-0.090483
G02 X2005.686162 Y427.571016 Z-0.125000 I-21.811147 J7.651086
G02 X1992.170723 Y420.859671 Z-0.125000 I-21.388148 J26.107373
G02 X1984.543176 Y420.294086 Z-0.125000 I-5.550097 J23.133453
G02 X1977.273284 Y422.165570 Z-0.125000 I2.001265 J22.829942
G02 X1970.870572 Y426.126341 Z-0.125000 I11.109022 J25.113568
G02 X1967.627352 Y430.151217 Z-0.125000 I8.253900 J9.970061
G02 X1965.315816 Y435.334119 Z-0.125000 I43.678126 J22.587039
G02 X1965.610571 Y435.805183 Z-0.125000 I0.326393 J0.123519
G02 X1966.483496 Y435.540553 Z-0.125000 I0.110058 J-1.209012
G02 X1972.240585 Y430.571164 Z-0.125000 I-73.266831 J-90.699899
G03 X1982.662986 Y424.889708 Z-0.125000 I16.543002 J17.947005
G03 X1992.166102 Y425.329249 Z-0.125000 I4.040302 J15.597506
G03 X2000.835250 Y430.779769 Z-0.125000 I-8.122940 J22.539159
G03 X2011.987098 Y444.895494 Z-0.125000 I-50.358050 J51.247384
G02 X2016.417530 Y450.141652 Z-0.125000 I18.658548 J-11.263477
G02 X2018.103114 Y450.028732 Z-0.125000 I0.785514 J-0.911473
G02 X2019.194686 Y447.617406 Z-0.125000 I-3.343259 J-2.966177
G02 X2019.946639 Y435.924073 Z-0.125000 I-96.550686 J-12.079646
G03 X2021.389582 Y421.233002 Z-0.125000 I78.690216 J0.312478
G03 X2023.898121 Y415.903764 Z-0.125000 I11.772859 J2.286614
G03 X2028.332127 Y413.878712 Z-0.125000 I4.290140 J3.526764
G03 X2036.210542 Y416.139702 Z-0.125000 I-0.423199 J16.331286
G02 X2043.184543 Y418.738155 Z-0.125000 I10.775984 J-18.263715
G02 X2044.490434 Y417.648744 Z-0.125000 I0.198537 J-1.089410
G02 X2042.933794 Y414.754762 Z-0.125000 I-3.468453 J-0.000000
G02 X2036.024723 Y411.470321 Z-0.125000 I-15.104281 J22.863909
G02 X2028.227799 Y409.950024 Z-0.125000 I-10.709524 J34.170737
G02 X2022.634016 Y410.798534 Z-0.125000 I-1.000860 J12.264556
G01 X2022.634016 Y410.798534 Z-0.125000
G00 Z5.000000

(Change tool to Default tool)

G00 Z5.000000
G00 X1961.556865 Y451.349380

G01 Z-0.125000 F100.0(Penetrate)
G03 X1957.726214 Y455.497264 Z-0.125000 I-7.118916 J-2.731675 F400.000000
G03 X1937.064915 Y463.056042 Z-0.125000 I-49.928605 J-104.458360
G03 X1915.474814 Y466.058959 Z-0.125000 I-23.529763 J-90.057424
G03 X1891.729217 Y464.000725 Z-0.125000 I-2.318832 J-111.252046
G02 X1885.002990 Y463.389467 Z-0.125000 I-6.315853 J32.186058
G02 X1884.384281 Y463.874914 Z-0.125000 I0.008100 J0.647323
G02 X1884.697411 Y464.581801 Z-0.125000 I0.602940 J0.155712
G02 X1890.935664 Y467.073391 Z-0.125000 I15.044994 J-28.613278
G02 X1913.346877 Y469.807447 Z-0.125000 I19.981027 J-70.565610
G02 X1942.556226 Y465.362165 Z-0.125000 I-4.162041 J-125.536205
G02 X1963.364305 Y456.968761 Z-0.125000 I-26.089809 J-94.668565
G02 X1965.927528 Y452.657988 Z-0.125000 I-2.343272 J-4.310773
G02 X1964.043596 Y450.127409 Z-0.125000 I-2.641558 J-0.000000
G02 X1961.556865 Y451.349380 Z-0.125000 I-0.584403 J1.951986
G01 X1961.556865 Y451.349380 Z-0.125000
G00 Z5.000000

(Change tool to Default tool)

G00 Z5.000000
G00 X2016.318898 Y455.358968

G01 Z-0.125000 F100.0(Penetrate)
G02 X2012.009579 Y458.451902 Z-0.125000 I7.383030 J14.835127 F400.000000
G02 X2011.160723 Y460.495073 Z-0.125000 I2.034498 J2.043171
G03 X2010.764092 Y462.910164 Z-0.125000 I-7.551071 J0.000000
G03 X2009.784551 Y464.571773 Z-0.125000 I-4.443498 J-1.499971
G02 X2005.322339 Y472.571753 Z-0.125000 I14.775018 J13.485629
G02 X2003.225085 Y487.574352 Z-0.125000 I52.611537 J15.002599
G02 X2006.400986 Y496.755110 Z-0.125000 I14.857623 J-0.000000
G02 X2016.214815 Y504.102556 Z-0.125000 I18.603714 J-14.620806
G02 X2028.197714 Y505.735280 Z-0.125000 I9.254033 J-23.128412
G02 X2040.941179 Y502.047103 Z-0.125000 I-4.246609 J-38.532802
G02 X2051.534498 Y494.250862 Z-0.125000 I-16.030834 J-32.877338
G02 X2056.617861 Y484.402146 Z-0.125000 I-14.642542 J-13.793905
G02 X2046.159811 Y457.791721 Z-0.125000 I-25.902420 J-5.180449
G02 X2016.318898 Y455.358968 Z-0.125000 I-16.935338 J23.498781
G01 X2016.318898 Y455.358968 Z-0.125000
G00 Z5.000000

(Change tool to Default tool)

G00 Z5.000000
G00 X2041.218123 Y460.344762

G01 Z-0.125000 F100.0(Penetrate)
G03 X2051.572166 Y475.239703 Z-0.125000 I-15.587145 J21.881436 F400.000000
G03 X2049.306020 Y490.375464 Z-0.125000 I-18.464802 J4.972951
G03 X2041.232196 Y497.833674 Z-0.125000 I-17.794118 J-11.163646
G03 X2029.874981 Y501.299644 Z-0.125000 I-14.945200 J-28.631580
G03 X2018.164605 Y500.322351 Z-0.125000 I-3.375724 J-30.198697
G03 X2009.702029 Y494.802600 Z-0.125000 I4.687108 J-16.433065
G03 X2007.393830 Y488.099909 Z-0.125000 I7.720606 J-6.407519
G03 X2009.464599 Y474.752023 Z-0.125000 I54.369510 J1.600225
G03 X2014.750548 Y462.289880 Z-0.125000 I53.145694 J15.190189
G03 X2020.349258 Y457.551242 Z-0.125000 I9.402921 J5.432806
G03 X2031.075187 Y456.340284 Z-0.125000 I7.779512 J20.798835
G03 X2041.218123 Y460.344762 Z-0.125000 I-3.007371 J22.465119
G01 X2041.218123 Y460.344762 Z-0.125000
G00 Z5.000000

(Change tool to Default tool)

G00 Z5.000000
G00 X1818.156507 Y464.975379

G01 Z-0.125000 F100.0(Penetrate)
G02 X1816.926300 Y466.409860 Z-0.125000 I1.918497 J2.890051 F400.000000
G02 X1813.610754 Y474.808735 Z-0.125000 I71.892677 J33.234266
G02 X1809.975333 Y497.079722 Z-0.125000 I68.461733 J22.607611
G02 X1813.373575 Y525.596882 Z-0.125000 I116.777894 J0.545242
G02 X1819.536422 Y544.181049 Z-0.125000 I121.477021 J-29.970046
G02 X1828.534037 Y562.228193 Z-0.125000 I145.371402 J-61.210116
G02 X1840.027269 Y578.834319 Z-0.125000 I110.702257 J-64.337567
G02 X1848.876735 Y586.685347 Z-0.125000 I28.633002 J-23.361391
G03 X1855.298204 Y591.138824 Z-0.125000 I-50.452192 J79.603318
G03 X1855.622044 Y591.790034 Z-0.125000 I-0.492837 J0.651209
G03 X1855.417175 Y592.562512 Z-0.125000 I-1.558790 J-0.000000
G03 X1846.423434 Y607.912413 Z-0.125000 I-670.928867 J-382.797749
G02 X1826.836984 Y647.380016 Z-0.125000 I233.714205 J140.578384
G02 X1816.746384 Y682.258476 Z-0.125000 I172.018274 J68.665050
G03 X1813.814394 Y696.123685 Z-0.125000 I-279.274881 J-51.813931
G03 X1811.732170 Y703.355394 Z-0.125000 I-77.911911 J-18.517529
G02 X1810.187422 Y710.557031 Z-0.125000 I30.115400 J10.226235
G02 X1809.347357 Y725.578125 Z-0.125000 I190.216878 J18.172041
G02 X1809.723238 Y740.700435 Z-0.125000 I182.978244 J3.017712
G02 X1811.018882 Y746.604674 Z-0.125000 I20.203768 J-1.339295
G01 X1812.690964 Y750.969280 Z-0.125000
G01 X1803.490209 Y750.969280 Z-0.125000
G02 X1784.861714 Y754.259918 Z-0.125000 I0.000000 J54.373828
G02 X1775.427385 Y761.202932 Z-0.125000 I7.142847 J19.587164
G02 X1772.011530 Y766.517990 Z-0.125000 I31.283280 J23.860155
G02 X1771.504158 Y768.543724 Z-0.125000 I3.790285 J2.025733
G02 X1772.105933 Y772.146648 Z-0.125000 I11.086532 J0.000000
G02 X1776.315549 Y783.088198 Z-0.125000 I152.803598 J-52.508593
G02 X1781.148746 Y793.515339 Z-0.125000 I173.444340 J-74.061330
G02 X1784.866223 Y799.836360 Z-0.125000 I48.876516 J-24.491277
G02 X1793.445131 Y809.455389 Z-0.125000 I41.202995 J-28.112508
G02 X1809.393504 Y821.405173 Z-0.125000 I93.323799 J-107.934066
G02 X1826.737601 Y831.137785 Z-0.125000 I87.331621 J-135.309768
G02 X1842.981706 Y837.345309 Z-0.125000 I44.739531 J-92.718353
G02 X1867.029285 Y840.263734 Z-0.125000 I21.084347 J-73.199029
G02 X1894.202146 Y835.846484 Z-0.125000 I-4.391227 J-112.798786
G02 X1919.594263 Y825.068629 Z-0.125000 I-32.753797 J-112.466634
G02 X1940.058023 Y809.073615 Z-0.125000 I-44.918613 J-78.556148
G02 X1961.139008 Y783.750575 Z-0.125000 I-172.355377 J-164.919111
G02 X1974.421457 Y761.456715 Z-0.125000 I-119.990170 J-86.592594
G01 X1978.624564 Y752.744802 Z-0.125000
G01 X1991.111656 Y763.709328 Z-0.125000
G02 X2003.928080 Y774.016047 Z-0.125000 I125.394235 J-142.805968
G02 X2012.032190 Y778.643304 Z-0.125000 I24.047400 J-32.705930
G02 X2020.920152 Y781.153930 Z-0.125000 I14.173903 J-33.189948
G02 X2034.967663 Y782.438249 Z-0.125000 I18.515534 J-125.051571
G02 X2061.666408 Y780.382319 Z-0.125000 I4.227021 J-119.492750
G02 X2093.554372 Y771.227558 Z-0.125000 I-34.493143 J-180.260535
G02 X2105.644432 Y764.386144 Z-0.125000 I-17.403601 J-44.858829
G02 X2116.044577 Y753.779768 Z-0.125000 I-33.724260 J-43.470669
G02 X2127.464608 Y733.250364 Z-0.125000 I-71.294155 J-53.100339
G02 X2133.478516 Y709.506156 Z-0.125000 I-89.920883 J-35.408766
G02 X2132.868534 Y672.964407 Z-0.125000 I-132.166031 J-16.069753
G02 X2123.506560 Y645.425168 Z-0.125000 I-83.331069 J12.967502
G02 X2112.678160 Y628.240321 Z-0.125000 I-145.498254 J79.676399
G02 X2105.298083 Y620.983673 Z-0.125000 I-24.788902 J17.829409
G02 X2096.024291 Y617.130751 Z-0.125000 I-13.548513 J19.523362
G02 X2080.994411 Y615.923288 Z-0.125000 I-13.489893 J73.769391
G02 X2055.567037 Y622.914170 Z-0.125000 I1.103755 J53.752509
G02 X2038.266446 Y640.165739 Z-0.125000 I22.773685 J40.139060
G01 X2033.780298 Y648.020760 Z-0.125000
G01 X2028.912360 Y637.993751 Z-0.125000
G02 X2019.879994 Y623.865561 Z-0.125000 I-64.690527 J31.406273
G02 X2016.653614 Y623.009504 Z-0.125000 I-2.205507 J1.804346
G02 X2015.902048 Y624.480989 Z-0.125000 I0.442781 J1.153827
G02 X2018.240324 Y628.975366 Z-0.125000 I11.228710 J-2.986475
G03 X2024.079238 Y637.052436 Z-0.125000 I-51.871739 J43.647087
G03 X2027.214959 Y644.249324 Z-0.125000 I-23.701458 J14.608416
G03 X2028.592418 Y652.260342 Z-0.125000 I-39.569189 J10.927683
G03 X2029.245212 Y668.824060 Z-0.125000 I-260.678308 J18.568337
G03 X2029.183361 Y690.429676 Z-0.125000 I-1025.982690 J7.865787
G03 X2028.952689 Y690.657567 Z-0.125000 I-0.230963 J-0.003093
G03 X2028.516347 Y690.559776 Z-0.125000 I-0.002259 J-1.012293
G03 X2022.327494 Y687.512985 Z-0.125000 I103.470257 J-217.984957
G03 X2016.997662 Y683.436927 Z-0.125000 I8.461808 J-16.587277
G03 X2007.569671 Y671.244908 Z-0.125000 I72.768189 J-66.012366
G03 X1996.838789 Y650.771120 Z-0.125000 I99.874255 J-65.395947
G03 X1992.731837 Y634.712046 Z-0.125000 I56.876320 J-23.100257
G02 X1990.823567 Y626.544949 Z-0.125000 I-36.436711 J4.207079
G02 X1989.461305 Y625.586052 Z-0.125000 I-1.362262 J0.488202
G02 X1987.637959 Y627.467281 Z-0.125000 I0.000000 J1.824236
G02 X1989.353662 Y641.434690 Z-0.125000 I77.409846 J-2.419648
G02 X1993.322102 Y655.703602 Z-0.125000 I124.721989 J-27.001115
