%
(Header)
(Generated by gcodetools from Inkscape.)
(Using default header. To add your own header create file "header" in the output dir.)
M3
(Header end.)
G21 (All units in mm)

(Start cutting path id: path16556-1)
(Change tool to Default tool)

G00 Z5.000000
G00 X1625.922251 Y5.302636

G01 Z-0.125000 F100.0(Penetrate)
G02 X1625.267175 Y8.131626 Z-0.125000 I5.823529 J2.838825 F400.000000
G02 X1625.320355 Y401.848432 Z-0.125000 I119070.902481 J180.775103
G01 X1626.024669 Y795.714742 Z-0.125000
G01 X2411.114798 Y795.714742 Z-0.125000
G01 X3196.204785 Y795.714742 Z-0.125000
G01 X3196.204785 Y399.707844 Z-0.125000
G01 X3196.204785 Y3.700884 Z-0.125000
G01 X2411.716693 Y3.161981 Z-0.125000
G02 X1628.064730 Y3.959023 Z-0.125000 I-157.926499 J229970.317314
G02 X1625.922251 Y5.302636 Z-0.125000 I0.006504 J2.390339
G01 X1625.922251 Y5.302636 Z-0.125000
G00 Z5.000000

(Change tool to Default tool)

G00 Z5.000000
G00 X3189.341987 Y137.487020

G01 Z-0.125000 F100.0(Penetrate)
G01 X3189.341987 Y265.921740 Z-0.125000 F400.000000
G01 X3131.695558 Y265.921740 Z-0.125000
G01 X3074.049129 Y265.921740 Z-0.125000
G01 X3074.049129 Y294.819543 Z-0.125000
G01 X3074.049129 Y323.717337 Z-0.125000
G01 X3131.695558 Y323.717337 Z-0.125000
G01 X3189.341987 Y323.717337 Z-0.125000
G01 X3189.341987 Y330.139067 Z-0.125000
G01 X3189.341987 Y336.560811 Z-0.125000
G01 X3131.695558 Y336.560811 Z-0.125000
G02 X3075.785477 Y338.297139 Z-0.125000 I-0.000000 J901.025555
G02 X3074.049129 Y340.144790 Z-0.125000 I0.114871 J1.847651
G03 X3072.761667 Y341.189628 Z-0.125000 I-1.067699 J0.000000
G03 X3067.186613 Y338.701387 Z-0.125000 I2.979421 J-14.165319
G01 X3060.323816 Y333.673960 Z-0.125000
G01 X3060.323816 Y245.790577 Z-0.125000
G01 X3060.323816 Y157.907299 Z-0.125000
G01 X3036.361738 Y139.134820 Z-0.125000
G01 X3012.399378 Y120.362444 Z-0.125000
G01 X2984.479980 Y120.362444 Z-0.125000
G01 X2956.560299 Y120.362444 Z-0.125000
G01 X2946.952326 Y112.870429 Z-0.125000
G02 X2927.187947 Y106.014945 Z-0.125000 I-19.941181 J25.572357
G02 X2907.698037 Y112.656333 Z-0.125000 I-0.171284 J31.415726
G02 X2899.906990 Y121.203395 Z-0.125000 I21.099430 J27.057600
G02 X2897.959042 Y127.854458 Z-0.125000 I10.380702 J6.651063
G02 X2899.906990 Y134.505520 Z-0.125000 I12.328648 J-0.000000
G02 X2907.698037 Y143.052580 Z-0.125000 I28.890466 J-18.510534
G02 X2927.187948 Y149.693970 Z-0.125000 I19.318628 J-24.774334
G02 X2946.952326 Y142.838487 Z-0.125000 I-0.176801 J-32.427838
G03 X2953.313608 Y138.396704 Z-0.125000 I45.261662 J58.045273
G03 X2958.508762 Y136.292237 Z-0.125000 I8.656758 J13.905657
G03 X2964.524390 Y135.569700 Z-0.125000 I6.864598 J31.749168
G03 X2981.603571 Y135.346472 Z-0.125000 I17.079181 J653.251123
G01 X3006.647406 Y135.346472 Z-0.125000
G01 X3023.877638 Y148.663282 Z-0.125000
G01 X3041.108433 Y161.979989 Z-0.125000
G01 X3041.108433 Y249.872623 Z-0.125000
G01 X3041.108433 Y337.765121 Z-0.125000
G01 X3057.578640 Y350.474564 Z-0.125000
G01 X3074.049129 Y363.184010 Z-0.125000
G01 X3074.049129 Y378.770218 Z-0.125000
G01 X3074.049129 Y394.356409 Z-0.125000
G01 X3098.754862 Y394.356409 Z-0.125000
G03 X3115.902343 Y394.525115 Z-0.125000 I0.000000 J871.526987
G03 X3120.303693 Y395.040167 Z-0.125000 I-0.450987 J22.917162
G03 X3122.799099 Y396.960134 Z-0.125000 I-0.778293 J3.593196
G03 X3123.460596 Y399.707844 Z-0.125000 I-5.375936 J2.747711
G03 X3122.799106 Y402.455520 Z-0.125000 I-6.037348 J-0.000000
G03 X3120.303693 Y404.375499 Z-0.125000 I-3.273727 J-1.673248
G03 X3115.902341 Y404.890566 Z-0.125000 I-4.852394 J-22.401923
G03 X3098.754862 Y405.059294 Z-0.125000 I-17.147479 J-871.246144
G01 X3074.049129 Y405.059294 Z-0.125000
G01 X3074.049129 Y423.254203 Z-0.125000
G03 X3072.433870 Y439.833925 Z-0.125000 I-85.898389 J-0.000000
G03 X3070.469987 Y441.449121 Z-0.125000 I-1.963884 J-0.386325
G02 X3067.201262 Y442.329982 Z-0.125000 I-0.000000 J6.505271
G02 X3057.578640 Y448.941136 Z-0.125000 I38.876446 J66.893682
G03 X3047.514134 Y454.297681 Z-0.125000 I-19.078766 J-23.713967
G03 X3033.417031 Y456.433160 Z-0.125000 I-14.097103 J-45.462413
G03 X3019.060069 Y454.785290 Z-0.125000 I0.000000 J-63.365996
G03 X3010.411969 Y451.081713 Z-0.125000 I6.084614 J-26.156717
G02 X2992.048807 Y446.113705 Z-0.125000 I-16.766762 J25.552973
G02 X2973.579711 Y453.008235 Z-0.125000 I1.714422 J32.777412
G02 X2965.788667 Y461.555267 Z-0.125000 I21.099130 J27.057381
G02 X2963.840716 Y468.206339 Z-0.125000 I10.380713 J6.651072
G02 X2965.788667 Y474.857411 Z-0.125000 I12.328665 J-0.000000
G02 X2973.579711 Y483.404443 Z-0.125000 I28.890173 J-18.510349
G02 X2983.490901 Y489.000723 Z-0.125000 I23.686548 J-30.374973
G02 X2992.584555 Y490.682404 Z-0.125000 I9.093654 J-23.746036
G02 X3000.706530 Y489.487953 Z-0.125000 I0.000000 J-28.210947
G02 X3009.416112 Y485.875238 Z-0.125000 I-13.440217 J-44.706810
G02 X3017.095995 Y480.502267 Z-0.125000 I-19.193776 J-35.609841
G02 X3020.558704 Y475.604349 Z-0.125000 I-8.783403 J-9.882637
G03 X3023.419753 Y473.137153 Z-0.125000 I3.843159 J1.564180
G03 X3037.746320 Y471.417209 Z-0.125000 I14.326567 J58.807836
G02 X3052.485619 Y469.211686 Z-0.125000 I-0.000000 J-50.353408
G02 X3063.639362 Y463.490753 Z-0.125000 I-10.427778 J-34.063725
G03 X3072.693175 Y458.301109 Z-0.125000 I24.328341 J31.950608
G03 X3074.049129 Y459.209600 Z-0.125000 I0.373632 J0.908491
G02 X3075.814204 Y461.089815 Z-0.125000 I1.883971 J0.000000
G02 X3131.695558 Y462.854892 Z-0.125000 I55.881354 J-883.703909
G01 X3189.341987 Y462.854892 Z-0.125000
G01 X3189.341987 Y469.276633 Z-0.125000
G01 X3189.341987 Y475.698363 Z-0.125000
G01 X3131.695558 Y475.698363 Z-0.125000
G01 X3074.049129 Y475.698363 Z-0.125000
G01 X3074.049129 Y504.596157 Z-0.125000
G01 X3074.049129 Y533.493963 Z-0.125000
G01 X3131.695558 Y533.493963 Z-0.125000
G01 X3189.341987 Y533.493963 Z-0.125000
G01 X3189.341987 Y661.928624 Z-0.125000
G01 X3189.341987 Y790.363301 Z-0.125000
G01 X2411.114798 Y790.363301 Z-0.125000
G01 X1632.887326 Y790.363301 Z-0.125000
G01 X1632.887326 Y661.928624 Z-0.125000
G01 X1632.887326 Y533.493963 Z-0.125000
G01 X1646.612724 Y533.493963 Z-0.125000
G01 X1660.338037 Y533.493963 Z-0.125000
G01 X1660.338037 Y644.201540 Z-0.125000
G01 X1660.338037 Y754.909134 Z-0.125000
G01 X1674.655876 Y766.214477 Z-0.125000
G01 X1688.973631 Y777.519819 Z-0.125000
G01 X1939.342928 Y777.519819 Z-0.125000
G01 X2189.712056 Y777.519819 Z-0.125000
G01 X2202.277238 Y766.051014 Z-0.125000
G02 X2210.204883 Y758.329603 Z-0.125000 I-115.149078 J-126.155041
G02 X2213.045921 Y754.342167 Z-0.125000 I-12.034056 J-11.580069
G02 X2214.401267 Y749.779776 Z-0.125000 I-11.635500 J-5.939061
G02 X2214.842223 Y741.434378 Z-0.125000 I-78.750759 J-8.345399
G01 X2214.842223 Y728.286547 Z-0.125000
G01 X2236.528377 Y728.286547 Z-0.125000
G03 X2251.007852 Y728.538620 Z-0.125000 I-0.000000 J415.988220
G03 X2256.587166 Y729.295873 Z-0.125000 I-0.980702 J28.158027
G03 X2261.487429 Y731.348325 Z-0.125000 I-3.842560 J16.050131
G03 X2267.822080 Y735.778560 Z-0.125000 I-39.396987 J63.076466
G02 X2287.586641 Y742.634051 Z-0.125000 I19.941374 J-25.572885
G02 X2307.076623 Y735.992625 Z-0.125000 I0.171291 J-31.415771
G02 X2314.867666 Y727.445594 Z-0.125000 I-21.099114 J-27.057369
G02 X2316.815618 Y720.794521 Z-0.125000 I-10.380716 J-6.651073
G02 X2314.867666 Y714.143447 Z-0.125000 I-12.328667 J0.000000
G02 X2307.076623 Y705.596417 Z-0.125000 I-28.890157 J18.510338
G02 X2287.586635 Y698.954984 Z-0.125000 I-19.318670 J24.774251
G02 X2267.822080 Y705.810482 Z-0.125000 I0.176840 J32.428411
G03 X2261.487429 Y710.240717 Z-0.125000 I-45.731638 J-58.646231
G03 X2256.587166 Y712.293169 Z-0.125000 I-8.742823 J-13.997679
G03 X2251.007852 Y713.050422 Z-0.125000 I-6.560017 J-27.400775
G03 X2236.528377 Y713.302495 Z-0.125000 I-14.479475 J-415.736147
G01 X2214.842223 Y713.302495 Z-0.125000
G01 X2214.842223 Y696.391936 Z-0.125000
G03 X2215.164900 Y685.172333 Z-0.125000 I195.216734 J-0.000000
G03 X2216.136565 Y680.750228 Z-0.125000 I14.293183 J0.822826
G03 X2218.544945 Y677.133371 Z-0.125000 I9.591019 J3.776163
G03 X2224.450027 Y671.989338 Z-0.125000 I50.240118 J51.711662
G02 X2232.459231 Y663.283105 Z-0.125000 I-22.174465 J-28.436262
G02 X2234.473231 Y656.630304 Z-0.125000 I-10.347322 J-6.763690
G02 X2232.557371 Y649.974557 Z-0.125000 I-12.140694 J-0.108909
G02 X2224.724545 Y641.379092 Z-0.125000 I-29.029722 J18.587380
G02 X2205.234482 Y634.678265 Z-0.125000 I-19.490063 J24.994041
G02 X2185.744519 Y641.379092 Z-0.125000 I0.000000 J31.694576
G02 X2177.911675 Y649.974553 Z-0.125000 I21.197251 J27.183241
G02 X2175.995784 Y656.630304 Z-0.125000 I10.224830 J6.546892
G02 X2178.009770 Y663.283086 Z-0.125000 I12.361153 J-0.110835
G02 X2186.019065 Y671.989338 Z-0.125000 I30.183346 J-19.729903
G01 X2195.626785 Y679.481378 Z-0.125000
G01 X2195.626785 Y714.791555 Z-0.125000
G03 X2193.286131 Y749.193881 Z-0.125000 I-253.988549 J0.000000
G03 X2189.949772 Y756.318750 Z-0.125000 I-13.100418 J-1.790934
G01 X2184.272561 Y762.535795 Z-0.125000
G01 X1939.612281 Y762.535795 Z-0.125000
G01 X1694.951775 Y762.535795 Z-0.125000
G01 X1687.252668 Y756.783852 Z-0.125000
G01 X1679.553476 Y751.031937 Z-0.125000
G01 X1679.553476 Y642.262956 Z-0.125000
G01 X1679.553476 Y533.493963 Z-0.125000
G01 X1715.239489 Y533.493963 Z-0.125000
G01 X1750.925304 Y533.493963 Z-0.125000
G01 X1750.925304 Y504.596157 Z-0.125000
G01 X1750.925304 Y475.698363 Z-0.125000
G01 X1691.906258 Y475.698363 Z-0.125000
G01 X1632.887326 Y475.698363 Z-0.125000
G01 X1632.887326 Y469.276633 Z-0.125000
G01 X1632.887326 Y462.854892 Z-0.125000
G01 X1691.906258 Y462.854892 Z-0.125000
G01 X1750.925304 Y462.854892 Z-0.125000
G01 X1750.925304 Y452.152006 Z-0.125000
G01 X1750.925304 Y441.449121 Z-0.125000
G01 X1802.395440 Y441.543970 Z-0.125000
G01 X1853.865577 Y441.638819 Z-0.125000
G01 X1871.022205 Y454.118695 Z-0.125000
G03 X1881.780326 Y462.341433 Z-0.125000 I-167.890451 J230.806434
G03 X1885.453995 Y465.998976 Z-0.125000 I-15.210679 J18.951448
G03 X1887.558142 Y470.224667 Z-0.125000 I-8.452902 J6.845769
G03 X1888.178946 Y475.303345 Z-0.125000 I-20.463457 J5.078677
G02 X1889.327326 Y483.286785 Z-0.125000 I28.324290 J-0.000000
G02 X1891.157942 Y485.443849 Z-0.125000 I3.343565 J-0.982236
G03 X1893.812158 Y487.324625 Z-0.125000 I-4.239139 J8.795664
G03 X1921.353745 Y515.545609 Z-0.125000 I-1012.940390 J1016.104459
G01 X1948.570438 Y544.211567 Z-0.125000
G01 X1948.570438 Y569.288716 Z-0.125000
G01 X1948.570438 Y594.365865 Z-0.125000
G01 X1962.888277 Y605.671208 Z-0.125000
G01 X1977.206116 Y616.976550 Z-0.125000
G01 X2121.239131 Y616.976550 Z-0.125000
G01 X2265.272259 Y616.976550 Z-0.125000
G01 X2271.625561 Y621.630818 Z-0.125000
G03 X2276.654395 Y626.797271 Z-0.125000 I-12.843896 J17.532440
G03 X2277.483933 Y630.505320 Z-0.125000 I-4.158272 J2.877073
G03 X2275.708706 Y634.246365 Z-0.125000 I-7.442446 J-1.239923
G03 X2268.371143 Y641.165083 Z-0.125000 I-40.468360 J-35.567989
G02 X2260.308319 Y649.932775 Z-0.125000 I22.302402 J28.600585
G02 X2258.335088 Y656.591438 Z-0.125000 I10.150391 J6.629676
G02 X2260.334397 Y663.249376 Z-0.125000 I12.182517 J-0.029127
G02 X2268.444916 Y672.047193 Z-0.125000 I30.683553 J-20.149142
G02 X2278.781140 Y677.382523 Z-0.125000 I19.360954 J-24.828367
G02 X2290.147749 Y678.540478 Z-0.125000 I8.706967 J-29.101625
G03 X2297.760916 Y678.362855 Z-0.125000 I5.184991 J58.991578
G03 X2303.248818 Y679.705498 Z-0.125000 I-0.586129 J14.282642
G03 X2308.539549 Y682.887446 Z-0.125000 I-12.807757 J27.285399
G03 X2322.630398 Y693.787816 Z-0.125000 I-372.329727 J495.866367
G03 X2336.320495 Y705.041721 Z-0.125000 I-361.946249 J454.252440
G03 X2340.180545 Y709.125101 Z-0.125000 I-16.520590 J19.483198
G03 X2341.941917 Y713.658815 Z-0.125000 I-7.106981 J5.370107
G03 X2341.816514 Y719.179293 Z-0.125000 I-23.598299 J2.225605
G02 X2341.503981 Y724.740610 Z-0.125000 I33.140646 J4.651867
G02 X2342.355911 Y728.054832 Z-0.125000 I7.685342 J-0.208932
G02 X2344.499418 Y730.894933 Z-0.125000 I9.320173 J-4.805273
G02 X2350.509805 Y736.040631 Z-0.125000 I59.213108 J-63.080306
G02 X2361.142582 Y741.568144 Z-0.125000 I20.259105 J-25.980195
G02 X2372.496638 Y742.758113 Z-0.125000 I8.736235 J-28.594367
G03 X2380.062684 Y742.612446 Z-0.125000 I4.845896 J55.133517
G03 X2385.881764 Y744.096523 Z-0.125000 I-0.740826 J15.055154
G03 X2391.563956 Y747.542087 Z-0.125000 I-15.269878 J31.590188
G03 X2407.361468 Y759.610844 Z-0.125000 I-476.990306 J640.734443
G01 X2430.208768 Y777.519876 Z-0.125000
G01 X2762.896841 Y777.519876 Z-0.125000
G01 X3095.584942 Y777.519876 Z-0.125000
G01 X3108.150040 Y766.051070 Z-0.125000
G02 X3119.144032 Y753.889158 Z-0.125000 I-57.671678 J-63.183482
G02 X3120.715138 Y749.140512 Z-0.125000 I-6.390806 J-4.748646
G03 X3122.264875 Y744.455471 Z-0.125000 I7.856588 J-0.000000
G03 X3130.322829 Y736.206747 Z-0.125000 I34.441703 J25.585002
G02 X3138.374478 Y727.451894 Z-0.125000 I-22.275721 J-28.566389
G02 X3140.356253 Y720.794577 Z-0.125000 I-10.190977 J-6.657317
G02 X3138.374478 Y714.137260 Z-0.125000 I-12.172752 J0.000000
G02 X3130.322829 Y705.382408 Z-0.125000 I-30.327370 J19.811536
G03 X3124.422197 Y700.242546 Z-0.125000 I44.329607 J-56.847941
G03 X3122.017276 Y696.642888 Z-0.125000 I7.204578 J-7.416546
G03 X3121.041143 Y692.247400 Z-0.125000 I13.168608 J-5.230565
G03 X3120.715138 Y681.193875 Z-0.125000 I187.227330 J-11.053526
G03 X3121.041144 Y670.140353 Z-0.125000 I187.553006 J0.000000
G03 X3122.017276 Y665.744871 Z-0.125000 I14.144708 J0.835076
G03 X3124.422194 Y662.145217 Z-0.125000 I9.609506 J3.816896
G03 X3130.322829 Y657.005342 Z-0.125000 I50.231005 J51.708823
G02 X3138.385642 Y648.237655 Z-0.125000 I-22.302655 J-28.600790
G02 X3140.358899 Y641.578987 Z-0.125000 I-10.150475 J-6.629749
G02 X3138.359627 Y634.921045 Z-0.125000 I-12.182496 J0.029060
G02 X3130.249169 Y626.123231 Z-0.125000 I-30.683259 J20.148727
G02 X3119.913458 Y620.785404 Z-0.125000 I-19.384725 J24.859411
G02 X3108.572809 Y619.627604 Z-0.125000 I-8.690053 J28.999360
G01 X3096.578647 Y620.681817 Z-0.125000
G01 X3054.757547 Y588.019111 Z-0.125000
G03 X3025.893978 Y565.202487 Z-0.125000 I1929.881973 J-2471.011268
G03 X3018.915924 Y558.930905 Z-0.125000 I51.138402 J-63.916808
G03 X3016.398926 Y553.240331 Z-0.125000 I6.190043 J-6.139852
G03 X3017.414466 Y550.370652 Z-0.125000 I3.981725 J-0.205454
G02 X3021.022453 Y537.634921 Z-0.125000 I-11.186516 J-10.048030
G02 X3012.559680 Y523.647357 Z-0.125000 I-22.567159 J4.099750
G02 X2993.069695 Y516.946532 Z-0.125000 I-19.489985 J24.993825
G02 X2973.579711 Y523.647357 Z-0.125000 I-0.000000 J31.694649
G02 X2965.788667 Y532.194389 Z-0.125000 I21.099130 J27.057381
G02 X2963.840716 Y538.845461 Z-0.125000 I10.380713 J6.651072
G02 X2965.788667 Y545.496533 Z-0.125000 I12.328665 J0.000000
G02 X2973.579711 Y554.043565 Z-0.125000 I28.890173 J-18.510349
G02 X2983.364021 Y560.009256 Z-0.125000 I30.772094 J-39.462758
G02 X2989.333355 Y561.321523 Z-0.125000 I5.969334 J-12.920735
G03 X2995.140431 Y563.109050 Z-0.125000 I0.000000 J10.326383
G03 X3040.022442 Y595.793881 Z-0.125000 I-484.927694 J713.048718
G01 X3084.290691 Y630.266253 Z-0.125000
G01 X3082.938847 Y639.617913 Z-0.125000
G02 X3082.560983 Y645.396925 Z-0.125000 I36.665258 J5.299236
G02 X3083.371811 Y648.719001 Z-0.125000 I7.615013 J-0.098628
G02 X3085.494969 Y651.559631 Z-0.125000 I9.047243 J-4.548368
G02 X3091.543520 Y656.733477 Z-0.125000 I60.072385 J-64.105911
G03 X3097.721752 Y662.075334 Z-0.125000 I-49.623652 J63.636941
G03 X3100.175322 Y665.685679 Z-0.125000 I-7.228146 J7.551096
G03 X3101.173908 Y670.096716 Z-0.125000 I-12.834719 J5.224118
G03 X3101.499756 Y681.193875 Z-0.125000 I-188.800961 J11.097158
G03 X3101.173751 Y692.247400 Z-0.125000 I-187.553335 J0.000000
G03 X3100.197618 Y696.642888 Z-0.125000 I-14.144741 J-0.835077
G03 X3097.792697 Y700.242546 Z-0.125000 I-9.609499 J-3.816889
G03 X3091.892065 Y705.382408 Z-0.125000 I-50.230240 J-51.708079
G02 X3084.273015 Y713.845443 Z-0.125000 I20.050677 J25.712233
G02 X3082.284373 Y720.794563 Z-0.125000 I11.147200 J6.949120
G02 X3084.273013 Y727.743684 Z-0.125000 I13.135856 J0.000000
G02 X3091.892065 Y736.206747 Z-0.125000 I27.669924 J-17.249297
G03 X3099.151270 Y742.825131 Z-0.125000 I-39.282188 J50.375893
G03 X3100.946494 Y746.326277 Z-0.125000 I-5.172356 J4.862971
G03 X3100.360192 Y750.017387 Z-0.125000 I-5.340545 J1.043818
G03 X3095.822856 Y756.318806 Z-0.125000 I-29.311301 J-16.321335
G01 X3090.145674 Y762.535851 Z-0.125000
G01 X2961.314333 Y762.535851 Z-0.125000
G01 X2832.482992 Y762.535851 Z-0.125000
G01 X2832.482992 Y753.117305 Z-0.125000
G03 X2834.687368 Y744.775172 Z-0.125000 I16.886966 J-0.000000
G03 X2842.090965 Y736.206747 Z-0.125000 I25.288968 J14.368306
G02 X2850.153717 Y727.439040 Z-0.125000 I-22.302156 J-28.600073
G02 X2852.126894 Y720.780368 Z-0.125000 I-10.150416 J-6.629586
G02 X2850.127542 Y714.122419 Z-0.125000 I-12.182670 J0.029229
G02 X2842.017023 Y705.324609 Z-0.125000 I-30.683926 J20.149507
G02 X2831.681233 Y699.987561 Z-0.125000 I-19.376963 J24.848924
G02 X2820.332479 Y698.829716 Z-0.125000 I-8.695329 J29.031296
G01 X2808.329793 Y699.884691 Z-0.125000
G01 X2775.842064 Y674.484944 Z-0.125000
G01 X2743.354533 Y649.085198 Z-0.125000
G01 X2722.700664 Y649.085198 Z-0.125000
G01 X2702.046766 Y649.085198 Z-0.125000
G01 X2640.328520 Y600.922226 Z-0.125000
G01 X2578.610188 Y552.759217 Z-0.125000
G01 X2475.720996 Y552.759217 Z-0.125000
G01 X2372.831889 Y552.759217 Z-0.125000
G01 X2355.601263 Y539.442448 Z-0.125000
G01 X2338.370834 Y526.125677 Z-0.125000
G01 X2338.370834 Y477.850612 Z-0.125000
G01 X2338.370834 Y429.575555 Z-0.125000
G01 X2316.776403 Y412.835293 Z-0.125000
G03 X2302.102713 Y401.136043 Z-0.125000 I421.411146 J-543.603351
G03 X2298.113439 Y397.035940 Z-0.125000 I16.172886 J-19.726492
G03 X2296.347942 Y392.464056 Z-0.125000 I6.755003 J-5.235367
G03 X2296.537034 Y386.721248 Z-0.125000 I25.944271 J-2.020256
G02 X2296.918339 Y380.924767 Z-0.125000 I-36.951437 J-5.341527
G02 X2296.109661 Y377.601147 Z-0.125000 I-7.615726 J0.092809
G02 X2293.987255 Y374.759698 Z-0.125000 I-9.032402 J4.533325
G02 X2287.935691 Y369.583568 Z-0.125000 I-60.132946 J64.177583
G03 X2279.587164 Y361.034516 Z-0.125000 I27.302843 J-35.013311
G03 X2277.979258 Y356.170771 Z-0.125000 I6.552203 J-4.863745
G02 X2275.922065 Y351.525542 Z-0.125000 I-6.273161 J-0.000000
G02 X2233.403104 Y315.713853 Z-0.125000 I-504.791415 J556.188160
G01 X2188.826838 Y280.905839 Z-0.125000
G01 X2127.064818 Y280.905839 Z-0.125000
G01 X2065.302799 Y280.905839 Z-0.125000
G01 X2025.148870 Y249.646430 Z-0.125000
G01 X1984.995054 Y218.387090 Z-0.125000
G01 X1986.347039 Y209.033280 Z-0.125000
G02 X1986.725298 Y203.252591 Z-0.125000 I-36.691157 J-5.303603
G02 X1985.914689 Y199.930367 Z-0.125000 I-7.614918 J0.098005
G02 X1983.791591 Y197.089662 Z-0.125000 I-9.045706 J4.546880
G02 X1977.742705 Y191.915619 Z-0.125000 I-60.077866 J64.113172
G01 X1967.786271 Y184.151663 Z-0.125000
G01 X1967.786271 Y151.186781 Z-0.125000
G01 X1967.786271 Y118.221896 Z-0.125000
G01 X1977.394076 Y118.221896 Z-0.125000
G01 X1987.001795 Y118.221896 Z-0.125000
G01 X1987.001795 Y95.745854 Z-0.125000
G01 X1987.001795 Y73.269811 Z-0.125000
G01 X1958.178552 Y73.269811 Z-0.125000
G01 X1929.355281 Y73.269811 Z-0.125000
G01 X1929.355281 Y95.745854 Z-0.125000
G01 X1929.355281 Y118.221896 Z-0.125000
G01 X1938.963113 Y118.221896 Z-0.125000
G01 X1948.570833 Y118.221896 Z-0.125000
G01 X1948.570833 Y151.186781 Z-0.125000
G01 X1948.570833 Y184.151663 Z-0.125000
G01 X1938.963113 Y191.643780 Z-0.125000
G02 X1930.900292 Y200.411420 Z-0.125000 I22.302127 J28.600442
G02 X1928.927058 Y207.070066 Z-0.125000 I10.150320 J6.629660
G02 X1930.926362 Y213.728000 Z-0.125000 I12.182530 J-0.029127
G02 X1939.036886 Y222.525859 Z-0.125000 I30.683841 J-20.149285
G02 X1949.372384 Y227.863747 Z-0.125000 I19.385139 J-24.859509
G02 X1960.712202 Y229.021610 Z-0.125000 I8.689727 J-28.996414
G01 X1972.705602 Y227.967397 Z-0.125000
G01 X2016.193535 Y261.928648 Z-0.125000
G01 X2059.681553 Y295.889878 Z-0.125000
G01 X2121.442274 Y295.889878 Z-0.125000
G01 X2183.202995 Y295.889878 Z-0.125000
G01 X2220.983210 Y325.294141 Z-0.125000
G03 X2257.439072 Y355.345853 Z-0.125000 I-517.546674 J664.976355
G03 X2258.763424 Y358.259035 Z-0.125000 I-2.541892 J2.913181
G03 X2257.637710 Y361.269966 Z-0.125000 I-4.589506 J0.000000
G03 X2249.155704 Y369.311698 Z-0.125000 I-45.792535 J-39.805555
G02 X2241.092901 Y378.079400 Z-0.125000 I22.302267 J28.600367
G02 X2239.119692 Y384.738061 Z-0.125000 I10.150402 J6.629641
G02 X2241.119009 Y391.396010 Z-0.125000 I12.182625 J-0.029161
G02 X2249.229477 Y400.193831 Z-0.125000 I30.683859 J-20.149284
G02 X2259.565921 Y405.528440 Z-0.125000 I19.354223 J-24.819775
G02 X2270.939986 Y406.686418 Z-0.125000 I8.711786 J-29.131178
G03 X2278.581045 Y406.476454 Z-0.125000 I5.562428 J63.286576
G03 X2283.770719 Y407.649619 Z-0.125000 I-0.461852 J14.108316
G03 X2288.724605 Y410.496021 Z-0.125000 I-10.456272 J23.932203
G03 X2301.061480 Y419.846884 Z-0.125000 I-261.635635 J357.997409
G01 X2319.154605 Y434.064582 Z-0.125000
G01 X2319.154605 Y482.131511 Z-0.125000
G01 X2319.154605 Y530.198440 Z-0.125000
G01 X2343.116740 Y548.970858 Z-0.125000
G01 X2367.078902 Y567.743256 Z-0.125000
G01 X2470.099045 Y567.743256 Z-0.125000
G01 X2573.119273 Y567.743256 Z-0.125000
G01 X2634.837717 Y615.906250 Z-0.125000
G01 X2696.555935 Y664.069251 Z-0.125000
G01 X2717.122090 Y664.069251 Z-0.125000
G01 X2737.688216 Y664.069251 Z-0.125000
G01 X2766.874651 Y686.757942 Z-0.125000
G01 X2796.060888 Y709.446633 Z-0.125000
G01 X2794.707688 Y718.808791 Z-0.125000
G02 X2794.328207 Y724.596107 Z-0.125000 I36.800405 J5.319148
G02 X2795.138028 Y727.918918 Z-0.125000 I7.615353 J-0.095892
G02 X2797.260844 Y730.759936 Z-0.125000 I9.040225 J-4.541283
G02 X2803.310838 Y735.934854 Z-0.125000 I60.101898 J-64.141110
G03 X2811.029318 Y744.791555 Z-0.125000 I-18.961125 J24.315951
G03 X2813.267186 Y753.117305 Z-0.125000 I-14.368596 J8.325750
G01 X2813.267186 Y762.535851 Z-0.125000
G01 X2624.608234 Y762.535851 Z-0.125000
G01 X2435.949196 Y762.535851 Z-0.125000
G01 X2416.348750 Y747.353594 Z-0.125000
G03 X2403.145516 Y736.789682 Z-0.125000 I328.673956 J-424.323855
G03 X2399.477710 Y732.927537 Z-0.125000 I14.094425 J-17.057905
G03 X2397.878469 Y728.577892 Z-0.125000 I6.579320 J-4.887850
G03 X2398.103676 Y722.794757 Z-0.125000 I27.646597 J-1.819337
G02 X2398.484401 Y716.993554 Z-0.125000 I-36.912151 J-5.335588
G02 X2397.669816 Y713.662501 Z-0.125000 I-7.606422 J0.094969
G02 X2395.535510 Y710.814367 Z-0.125000 I-9.078887 J4.579684
G02 X2389.428419 Y705.596473 Z-0.125000 I-61.320531 J65.587502
G02 X2378.732082 Y700.028042 Z-0.125000 I-20.450401 J26.225493
G02 X2367.376985 Y698.831324 Z-0.125000 I-8.744609 J28.503548
G03 X2359.763797 Y699.008948 Z-0.125000 I-5.185013 J-58.991967
G03 X2354.275895 Y697.666307 Z-0.125000 I0.586125 J-14.282657
G03 X2348.985164 Y694.484364 Z-0.125000 I12.807705 J-27.285338
G03 X2334.894336 Y683.584015 Z-0.125000 I372.327775 J-495.864043
G03 X2321.204242 Y672.330105 Z-0.125000 I361.939179 J-454.243566
G03 X2317.344189 Y668.246715 Z-0.125000 I16.520593 J-19.483177
G03 X2315.582817 Y663.712991 Z-0.125000 I7.107012 J-5.370118
G03 X2315.708220 Y658.192509 Z-0.125000 I23.598340 J-2.225603
G02 X2316.021786 Y652.633727 Z-0.125000 I-33.209760 J-4.661565
G02 X2315.176168 Y649.326872 Z-0.125000 I-7.693936 J0.205920
G02 X2313.044748 Y646.493457 Z-0.125000 I-9.270128 J4.755018
G02 X2307.089013 Y641.388970 Z-0.125000 I-58.079515 J61.738413
G03 X2298.788964 Y632.894236 Z-0.125000 I27.191853 J-34.870938
G03 X2297.193991 Y628.074064 Z-0.125000 I6.486038 J-4.820172
G02 X2295.491786 Y623.298514 Z-0.125000 I-7.550024 J0.000000
G02 X2284.258166 Y612.233777 Z-0.125000 I-56.563318 J46.191745
G01 X2271.322228 Y601.992497 Z-0.125000
G01 X2127.253089 Y601.992497 Z-0.125000
G01 X1983.183977 Y601.992497 Z-0.125000
G01 X1975.484757 Y596.240583 Z-0.125000
G03 X1971.101280 Y592.279818 Z-0.125000 I19.007056 J-25.441619
G03 X1968.806745 Y588.056441 Z-0.125000 I7.292091 J-6.696741
G03 X1968.042348 Y582.709211 Z-0.125000 I23.713659 J-6.118162
G03 X1967.785566 Y566.398825 Z-0.125000 I517.875502 J-16.310386
G02 X1966.433992 Y543.157971 Z-0.125000 I-200.493674 J0.000000
G02 X1964.806569 Y540.873287 Z-0.125000 I-2.891075 J0.337403
G03 X1962.152350 Y538.992507 Z-0.125000 I4.239141 J-8.795667
G03 X1934.610880 Y510.771527 Z-0.125000 I1012.812627 J-1015.975592
G03 X1916.942751 Y491.740827 Z-0.125000 I842.063193 J-799.489571
G03 X1911.437609 Y484.849198 Z-0.125000 I51.795775 J-47.019890
G03 X1908.160692 Y477.795930 Z-0.125000 I18.191084 J-12.739353
G03 X1907.394074 Y471.907342 Z-0.125000 I22.232559 J-5.888588
G02 X1906.746625 Y465.746936 Z-0.125000 I-29.631497 J0.000000
G02 X1904.236134 Y460.752472 Z-0.125000 I-10.782768 J2.291820
G02 X1899.513654 Y456.364230 Z-0.125000 I-24.238461 J21.349420
G02 X1882.889763 Y444.087171 Z-0.125000 I-493.261287 J650.512621
G01 X1858.385423 Y426.465125 Z-0.125000
G01 X1804.655166 Y426.465125 Z-0.125000
G01 X1750.925021 Y426.465125 Z-0.125000
G01 X1750.925021 Y415.762239 Z-0.125000
G01 X1750.925021 Y405.059345 Z-0.125000
G01 X1691.906061 Y405.059345 Z-0.125000
G01 X1632.887015 Y405.059345 Z-0.125000
G01 X1632.887015 Y399.707895 Z-0.125000
G01 X1632.887015 Y394.356459 Z-0.125000
G01 X1691.906061 Y394.356459 Z-0.125000
G01 X1750.925021 Y394.356459 Z-0.125000
G01 X1750.925021 Y383.653565 Z-0.125000
G01 X1750.925021 Y372.950680 Z-0.125000
G01 X1823.337910 Y372.950680 Z-0.125000
G01 X1895.750799 Y372.950680 Z-0.125000
G01 X1942.748447 Y411.642012 Z-0.125000
G01 X1989.746265 Y450.333335 Z-0.125000
G01 X1989.746265 Y474.186583 Z-0.125000
G01 X1989.746265 Y498.039861 Z-0.125000
G01 X2004.064104 Y509.345190 Z-0.125000
G01 X2018.381858 Y520.650552 Z-0.125000
G01 X2148.180205 Y520.650552 Z-0.125000
G01 X2277.978552 Y520.650552 Z-0.125000
G01 X2277.978552 Y534.055918 Z-0.125000
G01 X2277.978552 Y547.461302 Z-0.125000
G01 X2319.154690 Y579.516432 Z-0.125000
G01 X2360.330743 Y611.571571 Z-0.125000
G01 X2360.330743 Y622.622321 Z-0.125000
G03 X2357.924158 Y632.497922 Z-0.125000 I-21.465928 J-0.000000
G03 X2350.722911 Y641.165083 Z-0.125000 I-23.424523 J-12.137420
G02 X2342.660093 Y649.932776 Z-0.125000 I22.302341 J28.600508
G02 X2340.686870 Y656.591438 Z-0.125000 I10.150382 J6.629659
G02 X2342.686186 Y663.249376 Z-0.125000 I12.182534 J-0.029144
G02 X2350.796712 Y672.047193 Z-0.125000 I30.683620 J-20.149221
G02 X2361.132432 Y677.384232 Z-0.125000 I19.376692 J-24.848337
G02 X2372.481285 Y678.542086 Z-0.125000 I8.695415 J-29.031655
G01 X2384.483942 Y677.487140 Z-0.125000
G01 X2416.971671 Y702.886858 Z-0.125000
G01 X2449.459315 Y728.286576 Z-0.125000
G01 X2477.364659 Y728.286576 Z-0.125000
G01 X2505.270115 Y728.286576 Z-0.125000
G01 X2514.877834 Y735.778616 Z-0.125000
G02 X2525.087309 Y741.520417 Z-0.125000 I24.102262 J-30.908529
G02 X2534.642308 Y743.270628 Z-0.125000 I9.554999 J-25.206884
G02 X2544.197391 Y741.520395 Z-0.125000 I-0.000000 J-26.957235
G02 X2554.406810 Y735.778616 Z-0.125000 I-13.892829 J-36.650291
G01 X2564.014530 Y728.286576 Z-0.125000
G01 X2596.680849 Y728.286576 Z-0.125000
G01 X2629.347168 Y728.286576 Z-0.125000
G01 X2629.347168 Y735.778616 Z-0.125000
G01 X2629.347168 Y743.270628 Z-0.125000
G01 X2658.170552 Y743.270628 Z-0.125000
G01 X2686.993710 Y743.270628 Z-0.125000
G01 X2686.993710 Y720.794563 Z-0.125000
G01 X2686.993710 Y698.318498 Z-0.125000
G01 X2658.170552 Y698.318498 Z-0.125000
G01 X2629.347168 Y698.318498 Z-0.125000
G01 X2629.347168 Y705.810539 Z-0.125000
G01 X2629.347168 Y713.302551 Z-0.125000
G01 X2596.680849 Y713.302551 Z-0.125000
G01 X2564.014530 Y713.302551 Z-0.125000
G01 X2554.406810 Y705.810539 Z-0.125000
G02 X2544.197391 Y700.068744 Z-0.125000 I-24.102458 J30.908781
G02 X2534.642308 Y698.318498 Z-0.125000 I-9.555083 J25.206817
G02 X2525.087309 Y700.068722 Z-0.125000 I0.000000 J26.956923
G02 X2514.877834 Y705.810539 Z-0.125000 I13.892997 J36.650614
G03 X2508.516606 Y710.252317 Z-0.125000 I-45.251498 J-58.030314
G03 X2503.318862 Y712.357276 Z-0.125000 I-8.656494 J-13.905517
G03 X2497.299359 Y713.079556 Z-0.125000 I-6.867511 J-31.789557
G03 X2480.197577 Y713.302551 Z-0.125000 I-17.101782 J-655.666506
G01 X2455.124955 Y713.302551 Z-0.125000
G01 X2425.938605 Y690.613860 Z-0.125000
G01 X2396.752170 Y667.925169 Z-0.125000
G01 X2398.105369 Y658.563011 Z-0.125000
G02 X2398.484869 Y652.775708 Z-0.125000 I-36.801652 J-5.319346
G02 X2397.675072 Y649.452895 Z-0.125000 I-7.615374 J0.095846
G02 X2395.552281 Y646.611874 Z-0.125000 I-9.040138 J4.541150
G02 X2389.502305 Y641.436948 Z-0.125000 I-60.099240 J64.137715
G03 X2383.458784 Y636.209648 Z-0.125000 I48.370277 J-62.030332
G03 X2381.039959 Y632.858602 Z-0.125000 I7.912194 J-8.259607
G03 X2379.937877 Y628.854125 Z-0.125000 I10.773984 J-5.119027
G03 X2379.545871 Y620.481750 Z-0.125000 I89.211698 J-8.372375
G01 X2379.545871 Y607.290429 Z-0.125000
G01 X2338.369846 Y575.235279 Z-0.125000
G01 X2297.193680 Y543.180149 Z-0.125000
G01 X2297.193680 Y515.004770 Z-0.125000
G01 X2297.193680 Y486.829419 Z-0.125000
G01 X2306.801513 Y479.337395 Z-0.125000
G02 X2314.855026 Y470.580364 Z-0.125000 I-22.280075 J-28.571922
G02 X2316.835292 Y463.922819 Z-0.125000 I-10.183896 J-6.652453
G02 X2314.850447 Y457.265431 Z-0.125000 I-12.174316 J0.005096
G02 X2306.788531 Y448.503226 Z-0.125000 I-30.388159 J19.869590
G02 X2296.525619 Y443.167179 Z-0.125000 I-19.561990 J25.086473
G02 X2285.514196 Y442.000434 Z-0.125000 I-8.521469 J27.878523
G01 X2273.860224 Y442.999503 Z-0.125000
G01 X2243.346329 Y419.534303 Z-0.125000
G01 X2212.832350 Y396.069069 Z-0.125000
G01 X2214.185436 Y386.708254 Z-0.125000
G02 X2214.568145 Y380.932087 Z-0.125000 I-37.048717 J-5.355487
G02 X2213.780898 Y377.635903 Z-0.125000 I-7.654326 J0.086025
G02 X2211.702318 Y374.818909 Z-0.125000 I-8.866469 J4.366958
G02 X2205.856606 Y369.797634 Z-0.125000 I-55.871029 J59.131026
G02 X2186.017942 Y362.900170 Z-0.125000 I-20.064207 J25.730218
G02 X2166.528065 Y369.525755 Z-0.125000 I-0.216650 J31.341284
G02 X2158.693274 Y378.123416 Z-0.125000 I21.201701 J27.189111
G02 X2156.778821 Y384.779394 Z-0.125000 I10.217829 J6.542259
G02 X2158.795806 Y391.432282 Z-0.125000 I12.362760 J-0.115879
G02 X2166.815141 Y400.145867 Z-0.125000 I30.243746 J-19.787098
G02 X2177.078013 Y405.481925 Z-0.125000 I19.561811 J-25.085998
G02 X2188.089391 Y406.648663 Z-0.125000 I8.521419 J-27.878351
G01 X2199.743334 Y405.649590 Z-0.125000
G01 X2230.257229 Y429.114793 Z-0.125000
G01 X2260.771124 Y452.580025 Z-0.125000
G01 X2259.418038 Y461.940839 Z-0.125000
G02 X2259.038786 Y467.727058 Z-0.125000 I36.783031 J5.316447
G02 X2259.848741 Y471.049772 Z-0.125000 I7.615353 J-0.096266
G02 X2261.971597 Y473.890740 Z-0.125000 I9.041163 J-4.542212
G02 X2268.021385 Y479.065516 Z-0.125000 I60.097574 J-64.135806
G03 X2275.740869 Y487.922389 Z-0.125000 I-18.960673 J24.318282
G03 X2277.978919 Y496.247956 Z-0.125000 I-14.366571 J8.325567
G01 X2277.978919 Y505.666502 Z-0.125000
G01 X2151.169644 Y505.666502 Z-0.125000
G01 X2024.360369 Y505.666502 Z-0.125000
G01 X2016.661178 Y499.914576 Z-0.125000
G03 X2012.276133 Y495.954112 Z-0.125000 I19.054197 J-25.504698
G03 X2009.985493 Y491.746732 Z-0.125000 I7.278108 J-6.689690
G03 X2009.219920 Y486.423563 Z-0.125000 I23.500431 J-6.096447
G03 X2008.962071 Y470.236474 Z-0.125000 I507.962315 J-16.187090
G01 X2008.962071 Y446.310317 Z-0.125000
G01 X1955.224645 Y402.138469 Z-0.125000
G01 X1901.487219 Y357.966630 Z-0.125000
G01 X1826.206304 Y357.966630 Z-0.125000
G01 X1750.925388 Y357.966630 Z-0.125000
G01 X1750.925388 Y347.263744 Z-0.125000
G01 X1750.925388 Y336.560862 Z-0.125000
G01 X1691.906343 Y336.560862 Z-0.125000
G01 X1632.887382 Y336.560862 Z-0.125000
G01 X1632.887382 Y330.139121 Z-0.125000
G01 X1632.887382 Y323.717389 Z-0.125000
G01 X1691.906343 Y323.717389 Z-0.125000
G01 X1750.925388 Y323.717389 Z-0.125000
G01 X1750.925388 Y313.014504 Z-0.125000
G01 X1750.925388 Y302.311608 Z-0.125000
G01 X1853.179269 Y302.338346 Z-0.125000
G01 X1955.433264 Y302.365084 Z-0.125000
G01 X2033.667748 Y367.512161 Z-0.125000
G03 X2110.758556 Y433.341507 Z-0.125000 I-2617.583647 J3143.429155
G03 X2112.725502 Y436.733283 Z-0.125000 I-4.031071 J4.603905
G03 X2111.924742 Y440.206144 Z-0.125000 I-4.227267 J0.854040
G03 X2103.803950 Y448.406206 Z-0.125000 I-35.926418 J-27.457944
G02 X2095.685737 Y457.191860 Z-0.125000 I22.724577 J29.141768
G02 X2093.639194 Y463.845881 Z-0.125000 I10.333178 J6.819855
G02 X2095.539331 Y470.504223 Z-0.125000 I12.050302 J0.161421
G02 X2103.392526 Y479.123301 Z-0.125000 I29.097626 J-18.624817
G02 X2122.882432 Y485.824110 Z-0.125000 I19.489906 J-24.993670
G02 X2142.372439 Y479.123301 Z-0.125000 I0.000000 J-31.694770
G02 X2150.180262 Y470.556896 Z-0.125000 I-21.138570 J-27.108096
G02 X2152.115448 Y463.904067 Z-0.125000 I-10.317896 J-6.609156
G02 X2150.141221 Y457.252447 Z-0.125000 I-12.340718 J0.043985
G02 X2142.263755 Y448.642350 Z-0.125000 I-29.397841 J18.987751
G03 X2134.229205 Y440.471199 Z-0.125000 I26.864596 J-34.451182
G03 X2131.969756 Y434.972253 Z-0.125000 I9.392823 J-7.073058
G02 X2129.194241 Y429.729609 Z-0.125000 I-8.510932 J1.149768
G02 X2046.176091 Y357.996206 Z-0.125000 I-1962.034029 J2186.785820
G01 X1961.234595 Y287.327531 Z-0.125000
G01 X1856.080006 Y287.327531 Z-0.125000
G01 X1750.925388 Y287.327531 Z-0.125000
G01 X1750.925388 Y276.624636 Z-0.125000
G01 X1750.925388 Y265.921742 Z-0.125000
G01 X1691.906343 Y265.921742 Z-0.125000
G01 X1632.887382 Y265.921742 Z-0.125000
G01 X1632.887382 Y137.487124 Z-0.125000
G01 X1632.887382 Y9.052356 Z-0.125000
G01 X2411.114854 Y9.052356 Z-0.125000
G01 X3189.342241 Y9.052356 Z-0.125000
G01 X3189.342241 Y137.487124 Z-0.125000
G01 X3189.341987 Y137.487020 Z-0.125000
G00 Z5.000000

(Change tool to Default tool)

G00 Z5.000000
G00 X2077.953438 Y56.929539

G01 Z-0.125000 F100.0(Penetrate)
G03 X2062.155868 Y68.998292 Z-0.125000 I-492.782472 J-628.661204 F400.000000
G03 X2056.473660 Y72.443852 Z-0.125000 I-20.952137 J-28.144836
G03 X2050.654568 Y73.927932 Z-0.125000 I-6.559940 J-13.571189
G03 X2043.088523 Y73.782279 Z-0.125000 I-2.720237 J-55.279794
G02 X2031.725058 Y74.940196 Z-0.125000 I-2.658590 J30.247217
G02 X2021.388992 Y80.275792 Z-0.125000 I9.027376 J30.167008
G02 X2013.320701 Y89.025029 Z-0.125000 I22.470832 J28.816733
G02 X2011.289042 Y95.678454 Z-0.125000 I10.339379 J6.794087
G02 X2013.196372 Y102.335596 Z-0.125000 I12.091498 J0.137484
G02 X2021.040250 Y110.943876 Z-0.125000 I29.066678 J-18.607786
G02 X2040.530250 Y117.569473 Z-0.125000 I19.273407 J-24.716170
G02 X2060.368905 Y110.672039 Z-0.125000 I-0.225478 J-32.627585
G02 X2066.216692 Y105.649159 Z-0.125000 I-50.060584 J-64.197544
G02 X2068.294763 Y102.831547 Z-0.125000 I-6.778356 J-7.174363
G02 X2069.080545 Y99.534219 Z-0.125000 I-6.869631 J-3.379384
G02 X2068.695533 Y93.745598 Z-0.125000 I-37.642085 J-0.403472
G03 X2068.470330 Y87.962501 Z-0.125000 I27.420849 J-3.963748
G03 X2070.069578 Y83.612847 Z-0.125000 I8.178611 J0.538223
G03 X2073.737389 Y79.750687 Z-0.125000 I17.762388 J13.195865
G03 X2086.940607 Y69.186753 Z-0.125000 I341.873622 J413.754075
G01 X2106.541082 Y54.004487 Z-0.125000
G01 X2347.356395 Y54.004487 Z-0.125000
G01 X2588.171736 Y54.004487 Z-0.125000
G01 X2588.171736 Y111.586061 Z-0.125000
G01 X2588.171736 Y169.167636 Z-0.125000
G01 X2578.564017 Y176.659651 Z-0.125000
G02 X2570.554776 Y185.365924 Z-0.125000 I22.174470 J28.436304
G02 X2568.540792 Y192.018714 Z-0.125000 I10.347265 J6.763643
G02 X2570.456671 Y198.674454 Z-0.125000 I12.140686 J0.108875
G02 X2578.289499 Y207.269891 Z-0.125000 I29.029840 J-18.587580
G02 X2588.216606 Y212.820638 Z-0.125000 I23.027146 J-29.530045
G02 X2597.779568 Y214.547911 Z-0.125000 I9.562962 J-25.608801
G02 X2607.342518 Y212.820637 Z-0.125000 I-0.000000 J-27.335980
G02 X2617.269525 Y207.269891 Z-0.125000 I-13.099677 J-35.079739
G02 X2625.102374 Y198.674455 Z-0.125000 I-21.197215 J-27.183278
G02 X2627.018274 Y192.018714 Z-0.125000 I-10.224797 J-6.546899
G02 X2625.004300 Y185.365936 Z-0.125000 I-12.361144 J0.110818
G02 X2616.995007 Y176.659651 Z-0.125000 I-30.183523 J19.729953
G01 X2607.387288 Y169.167636 Z-0.125000
G01 X2607.387288 Y111.586061 Z-0.125000
G01 X2607.387288 Y54.004487 Z-0.125000
G01 X2630.106628 Y54.004487 Z-0.125000
G01 X2652.825997 Y54.004487 Z-0.125000
G01 X2651.780053 Y62.557014 Z-0.125000
G02 X2653.185681 Y70.092018 Z-0.125000 I12.623143 J1.543808
G02 X2660.354472 Y78.611315 Z-0.125000 I23.670193 J-12.642085
G02 X2680.131679 Y85.474003 Z-0.125000 I19.962255 J-25.599367
G02 X2699.621603 Y78.835273 Z-0.125000 I0.179011 J-31.402999
G02 X2707.465488 Y70.226939 Z-0.125000 I-21.223284 J-27.216417
G02 X2709.372825 Y63.569804 Z-0.125000 I-10.184218 J-6.519684
G02 X2707.341191 Y56.916380 Z-0.125000 I-12.371052 J0.140628
G02 X2699.272973 Y48.167126 Z-0.125000 I-30.539365 J20.067478
G02 X2688.928561 Y42.859489 Z-0.125000 I-19.104698 J24.500156
G02 X2677.269010 Y41.700371 Z-0.125000 I-8.896907 J30.272663
G03 X2665.336239 Y41.878964 Z-0.125000 I-7.192310 J-81.821418
G03 X2663.455841 Y40.901933 Z-0.125000 I0.149482 J-2.585722
G02 X2661.512973 Y39.954772 Z-0.125000 I-1.959546 J1.553289
G02 X2381.382687 Y39.020519 Z-0.125000 I-280.130287 J41997.212427
G01 X2100.800654 Y39.020519 Z-0.125000
G01 X2077.953438 Y56.929539 Z-0.125000
G01 X2077.953438 Y56.929539 Z-0.125000
G00 Z5.000000

(Change tool to Default tool)

G00 Z5.000000
G00 X2688.026079 Y60.921209

G01 Z-0.125000 F100.0(Penetrate)
G03 X2688.850847 Y64.377577 Z-0.125000 I-3.210355 J2.592652 F400.000000
G03 X2686.474365 Y68.170865 Z-0.125000 I-6.403427 J-1.370652
G03 X2674.119538 Y68.560201 Z-0.125000 I-6.443963 J-8.263781
G03 X2673.395623 Y59.236909 Z-0.125000 I3.382954 J-4.952423
G03 X2680.618013 Y56.844906 Z-0.125000 I6.188715 J6.586534
G03 X2688.026079 Y60.921209 Z-0.125000 I-1.276761 J11.089994
G01 X2688.026079 Y60.921209 Z-0.125000
G00 Z5.000000

(Change tool to Default tool)

G00 Z5.000000
G00 X2048.424668 Y93.029913

G01 Z-0.125000 F100.0(Penetrate)
G03 X2049.249469 Y96.486269 Z-0.125000 I-3.210419 J2.592703 F400.000000
G03 X2046.873038 Y100.279468 Z-0.125000 I-6.402937 J-1.370412
G03 X2034.518216 Y100.668874 Z-0.125000 I-6.444007 J-8.263703
G03 X2033.794324 Y91.345617 Z-0.125000 I3.382909 J-4.952393
G03 X2041.016750 Y88.953612 Z-0.125000 I6.188790 J6.586740
G03 X2048.424668 Y93.029913 Z-0.125000 I-1.276618 J11.089420
G01 X2048.424668 Y93.029913 Z-0.125000
G00 Z5.000000

(Change tool to Default tool)

G00 Z5.000000
G00 X2605.674001 Y189.355928

G01 Z-0.125000 F100.0(Penetrate)
G03 X2606.498745 Y192.812275 Z-0.125000 I-3.210465 J2.592645 F400.000000
G03 X2604.122287 Y196.605484 Z-0.125000 I-6.403094 J-1.370527
G03 X2591.767462 Y196.994876 Z-0.125000 I-6.443999 J-8.263696
G03 X2591.043545 Y187.671632 Z-0.125000 I3.382927 J-4.952400
G03 X2598.265912 Y185.279647 Z-0.125000 I6.188739 J6.586685
G03 X2605.674001 Y189.355928 Z-0.125000 I-1.276678 J11.089928
G01 X2605.674001 Y189.355928 Z-0.125000
G00 Z5.000000

(Change tool to Default tool)

G00 Z5.000000
G00 X2907.423435 Y48.653059

G01 Z-0.125000 F100.0(Penetrate)
G03 X2901.157065 Y53.039275 Z-0.125000 I-45.595198 J-58.470272 F400.000000
G03 X2896.536536 Y55.049845 Z-0.125000 I-9.022201 J-14.419546
G03 X2891.367845 Y55.857566 Z-0.125000 I-6.353636 J-23.716208
G03 X2879.457752 Y56.145134 Z-0.125000 I-11.910092 J-246.494509
G02 X2867.191236 Y56.442998 Z-0.125000 I-0.000000 J252.725928
G02 X2861.785561 Y57.440151 Z-0.125000 I0.999567 J20.569716
G02 X2856.924033 Y59.867365 Z-0.125000 I5.777288 J17.653718
G02 X2848.163823 Y66.386332 Z-0.125000 I104.617597 J149.730971
G01 X2835.228168 Y76.627632 Z-0.125000
G01 X2835.228168 Y183.600057 Z-0.125000
G01 X2835.228168 Y290.572547 Z-0.125000
G01 X2899.737395 Y340.841964 Z-0.125000
G03 X2943.072779 Y374.924360 Z-0.125000 I-3786.203908 J4858.707131
G03 X2955.202493 Y385.221598 Z-0.125000 I-150.119470 J189.127217
G03 X2963.138876 Y395.156539 Z-0.125000 I-26.824424 J29.565703
G03 X2964.246339 Y399.369686 Z-0.125000 I-7.460351 J4.213146
G02 X2971.685323 Y414.745006 Z-0.125000 I19.608792 J0.000000
G02 X2993.069695 Y422.183918 Z-0.125000 I21.384373 J-27.016988
G02 X3014.518693 Y414.809629 Z-0.125000 I0.000000 J-34.880628
G02 X3021.893051 Y399.707844 Z-0.125000 I-11.776127 J-15.101785
G02 X3018.092685 Y389.446904 Z-0.125000 I-15.752388 J-0.000000
G02 X3007.087250 Y380.901038 Z-0.125000 I-26.460401 J22.716541
G02 X2993.369640 Y376.999136 Z-0.125000 I-17.459577 J35.317348
G02 X2980.716828 Y379.351855 Z-0.125000 I-2.219544 J23.262860
G03 X2976.832600 Y379.066806 Z-0.125000 I-1.702220 J-3.411438
G03 X2915.521237 Y333.849637 Z-0.125000 I834.833603 J-1196.152390
G01 X2854.443550 Y286.292908 Z-0.125000
G01 X2854.443550 Y183.365327 Z-0.125000
G01 X2854.443550 Y80.437733 Z-0.125000
G01 X2860.796937 Y75.783449 Z-0.125000
G03 X2867.664522 Y72.701392 Z-0.125000 I10.648519 J14.535166
G03 X2882.482892 Y71.129164 Z-0.125000 I14.818370 J69.046046
G03 X2897.078252 Y73.273999 Z-0.125000 I0.000000 J50.732296
G03 X2907.423435 Y78.621176 Z-0.125000 I-9.095106 J30.277300
G02 X2927.187956 Y85.476710 Z-0.125000 I19.941320 J-25.572528
G02 X2946.678006 Y78.835273 Z-0.125000 I0.171280 J-31.415959
G02 X2954.044686 Y70.597038 Z-0.125000 I-19.096481 J-24.488974
G02 X2956.011095 Y63.637149 Z-0.125000 I-11.333680 J-6.959890
G02 X2954.044652 Y56.677197 Z-0.125000 I-13.300114 J0.000000
G02 X2946.678006 Y48.439064 Z-0.125000 I-26.462924 J16.250751
G02 X2927.187914 Y41.797588 Z-0.125000 I-19.318764 J24.774316
G02 X2907.423435 Y48.653059 Z-0.125000 I0.176850 J32.428319
G01 X2907.423435 Y48.653059 Z-0.125000
G00 Z5.000000

(Change tool to Default tool)

G00 Z5.000000
G00 X2935.082342 Y60.921209

G01 Z-0.125000 F100.0(Penetrate)
G03 X2935.907134 Y64.377598 Z-0.125000 I-3.210304 J2.592674 F400.000000
G03 X2933.530684 Y68.170865 Z-0.125000 I-6.403454 J-1.370664
G03 X2921.175827 Y68.560251 Z-0.125000 I-6.444013 J-8.263817
G03 X2920.451941 Y59.236909 Z-0.125000 I3.382914 J-4.952430
G03 X2927.674388 Y56.844915 Z-0.125000 I6.188753 J6.586662
G03 X2935.082342 Y60.921209 Z-0.125000 I-1.276735 J11.089725
G01 X2935.082342 Y60.921209 Z-0.125000
G00 Z5.000000

(Change tool to Default tool)

G00 Z5.000000
G00 X3000.964015 Y396.991966

G01 Z-0.125000 F100.0(Penetrate)
G03 X3001.788809 Y400.448341 Z-0.125000 I-3.210268 J2.592663 F400.000000
G03 X2999.412357 Y404.241552 Z-0.125000 I-6.403284 J-1.370634
G03 X2987.057540 Y404.630913 Z-0.125000 I-6.443973 J-8.263685
G03 X2986.333615 Y395.307639 Z-0.125000 I3.382969 J-4.952420
G03 X2993.556035 Y392.915654 Z-0.125000 I6.188763 J6.586738
G03 X3000.964015 Y396.991966 Z-0.125000 I-1.276670 J11.089629
G01 X3000.964015 Y396.991966 Z-0.125000
G00 Z5.000000

(Change tool to Default tool)

G00 Z5.000000
G00 X2198.371847 Y91.030166

G01 Z-0.125000 F100.0(Penetrate)
G01 X2198.371847 Y108.790723 Z-0.125000 F400.000000
G01 X2187.391484 Y117.151625 Z-0.125000
G01 X2176.411346 Y125.512421 Z-0.125000
G01 X2176.411346 Y147.554073 Z-0.125000
G01 X2176.411346 Y169.595725 Z-0.125000
G01 X2166.803513 Y169.595725 Z-0.125000
G01 X2157.195681 Y169.595725 Z-0.125000
G01 X2157.195681 Y192.071767 Z-0.125000
G01 X2157.195681 Y214.547911 Z-0.125000
G01 X2186.019065 Y214.547911 Z-0.125000
G01 X2214.842223 Y214.547911 Z-0.125000
G01 X2214.842223 Y192.071767 Z-0.125000
G01 X2214.842223 Y169.595725 Z-0.125000
G01 X2205.234504 Y169.595725 Z-0.125000
G01 X2195.626785 Y169.595725 Z-0.125000
G01 X2195.626785 Y149.660766 Z-0.125000
G03 X2195.915567 Y136.479358 Z-0.125000 I300.975330 J-0.000000
G03 X2196.717725 Y131.735456 Z-0.125000 I19.478466 J0.853891
G03 X2198.916560 Y127.915750 Z-0.125000 I9.215208 J2.762046
G03 X2203.325863 Y123.973802 Z-0.125000 I24.581313 J23.058654
G03 X2211.709219 Y120.280871 Z-0.125000 I12.196615 J16.325615
G03 X2233.521666 Y118.221896 Z-0.125000 I21.812446 J114.509253
G01 X2256.018248 Y118.221896 Z-0.125000
G01 X2256.018248 Y95.745752 Z-0.125000
G01 X2256.018248 Y73.269709 Z-0.125000
G01 X2227.195090 Y73.269709 Z-0.125000
G01 X2198.371847 Y73.269709 Z-0.125000
G01 X2198.371847 Y91.030166 Z-0.125000
G01 X2198.371847 Y91.030166 Z-0.125000
G00 Z5.000000

(Change tool to Default tool)

G00 Z5.000000
G00 X2235.089438 Y93.029913

G01 Z-0.125000 F100.0(Penetrate)
G03 X2235.914235 Y96.486275 Z-0.125000 I-3.210412 J2.592697 F400.000000
G03 X2233.537809 Y100.279468 Z-0.125000 I-6.402986 J-1.370445
G03 X2221.182969 Y100.668876 Z-0.125000 I-6.444018 J-8.263717
G03 X2220.459066 Y91.345617 Z-0.125000 I3.382911 J-4.952399
G03 X2227.681524 Y88.953614 Z-0.125000 I6.188815 J6.586810
G03 X2235.089438 Y93.029913 Z-0.125000 I-1.276616 J11.089413
G01 X2235.089438 Y93.029913 Z-0.125000
G00 Z5.000000

(Change tool to Default tool)

G00 Z5.000000
G00 X2193.913498 Y189.355928

G01 Z-0.125000 F100.0(Penetrate)
G03 X2194.738236 Y192.812270 Z-0.125000 I-3.210507 J2.592647 F400.000000
G03 X2192.361784 Y196.605484 Z-0.125000 I-6.403070 J-1.370499
G03 X2180.006940 Y196.994896 Z-0.125000 I-6.444023 J-8.263727
G03 X2179.283042 Y187.671632 Z-0.125000 I3.382904 J-4.952398
G03 X2186.505404 Y185.279602 Z-0.125000 I6.188756 J6.586573
G03 X2193.913498 Y189.355928 Z-0.125000 I-1.276645 J11.089802
G01 X2193.913498 Y189.355928 Z-0.125000
G00 Z5.000000

(Change tool to Default tool)

G00 Z5.000000
G00 X2290.057212 Y80.547730

G01 Z-0.125000 F100.0(Penetrate)
G02 X2282.213325 Y89.156009 Z-0.125000 I21.222880 J27.216168 F400.000000
G02 X2280.305975 Y95.813153 Z-0.125000 I10.184222 J6.519710
G02 X2282.337604 Y102.466589 Z-0.125000 I12.371061 J-0.140611
G02 X2290.405813 Y111.215817 Z-0.125000 I30.538975 J-20.067179
G02 X2300.743895 Y116.544903 Z-0.125000 I19.302690 J-24.753822
G02 X2312.175560 Y117.703126 Z-0.125000 I8.749174 J-29.359967
G03 X2323.619758 Y118.759615 Z-0.125000 I2.814620 J32.022903
G03 X2332.689447 Y123.419758 Z-0.125000 I-6.793354 J24.377304
G03 X2337.668093 Y128.042149 Z-0.125000 I-30.096875 J37.408862
G03 X2339.959036 Y131.942614 Z-0.125000 I-7.550711 J7.057947
G03 X2340.819281 Y136.722166 Z-0.125000 I-17.517187 J5.620011
G03 X2341.115502 Y149.683234 Z-0.125000 I-283.406041 J12.961067
G03 X2340.828679 Y162.901895 Z-0.125000 I-304.744301 J0.000000
G03 X2339.901431 Y167.652270 Z-0.125000 I-16.245383 J-0.705327
G03 X2337.445129 Y171.481131 Z-0.125000 I-9.469749 J-3.372743
G03 X2331.507670 Y176.659651 Z-0.125000 I-50.056007 J-51.398911
G02 X2323.498431 Y185.365925 Z-0.125000 I22.174450 J28.436278
G02 X2321.484456 Y192.018714 Z-0.125000 I10.347231 J6.763617
G02 X2323.400351 Y198.674446 Z-0.125000 I12.140658 J0.108850
G02 X2331.233237 Y207.269891 Z-0.125000 I29.029899 J-18.587750
G02 X2341.160256 Y212.820633 Z-0.125000 I23.026804 J-29.529262
G02 X2350.723221 Y214.547911 Z-0.125000 I9.562966 J-25.608730
G02 X2360.286128 Y212.820630 Z-0.125000 I0.000000 J-27.335647
G02 X2370.213178 Y207.269891 Z-0.125000 I-13.100262 J-35.080997
G02 X2378.046081 Y198.674443 Z-0.125000 I-21.197007 J-27.183246
G02 X2379.961980 Y192.018714 Z-0.125000 I-10.224736 J-6.546880
G02 X2377.948002 Y185.365927 Z-0.125000 I-12.361182 J0.110827
G02 X2369.938745 Y176.659651 Z-0.125000 I-30.183701 J19.730054
G01 X2360.330941 Y169.167636 Z-0.125000
G01 X2360.330941 Y147.351262 Z-0.125000
G01 X2360.330941 Y125.534991 Z-0.125000
G01 X2348.339742 Y116.358069 Z-0.125000
G03 X2340.757735 Y110.139115 Z-0.125000 I88.379160 J-115.481218
G03 X2338.314143 Y107.147421 Z-0.125000 I7.749129 J-8.823230
G03 X2337.345993 Y103.649942 Z-0.125000 I6.375382 J-3.647531
G03 X2337.708092 Y97.775285 Z-0.125000 I35.926207 J-0.734088
G02 X2338.097515 Y91.963546 Z-0.125000 I-37.642964 J-5.441231
G02 X2337.314487 Y88.664100 Z-0.125000 I-7.657284 J0.074597
G02 X2335.237373 Y85.845341 Z-0.125000 I-8.837785 J4.337787
G02 X2329.385866 Y80.819569 Z-0.125000 I-55.977736 J59.255548
G02 X2309.547146 Y73.922156 Z-0.125000 I-20.064206 J25.730462
G02 X2290.057212 Y80.547730 Z-0.125000 I-0.216597 J31.341654
G01 X2290.057212 Y80.547730 Z-0.125000
G00 Z5.000000

(Change tool to Default tool)

G00 Z5.000000
G00 X2317.441629 Y93.029913

G01 Z-0.125000 F100.0(Penetrate)
G03 X2318.266399 Y96.486253 Z-0.125000 I-3.210347 J2.592645 F400.000000
G03 X2315.889887 Y100.279468 Z-0.125000 I-6.403028 J-1.370533
G03 X2303.535119 Y100.668808 Z-0.125000 I-6.443935 J-8.263695
G03 X2302.811257 Y91.345617 Z-0.125000 I3.382918 J-4.952349
G03 X2310.033444 Y88.953598 Z-0.125000 I6.188607 J6.586241
G03 X2317.441629 Y93.029913 Z-0.125000 I-1.276696 J11.090107
G01 X2317.441629 Y93.029913 Z-0.125000
G00 Z5.000000

(Change tool to Default tool)

G00 Z5.000000
G00 X2358.617654 Y189.355928

G01 Z-0.125000 F100.0(Penetrate)
G03 X2359.442436 Y192.812268 Z-0.125000 I-3.210371 J2.592664 F400.000000
G03 X2357.065940 Y196.605484 Z-0.125000 I-6.402968 J-1.370477
G03 X2344.711187 Y196.994867 Z-0.125000 I-6.443957 J-8.263642
G03 X2343.987311 Y187.671632 Z-0.125000 I3.382919 J-4.952376
G03 X2351.209547 Y185.279593 Z-0.125000 I6.188657 J6.586294
G03 X2358.617654 Y189.355928 Z-0.125000 I-1.276653 J11.089829
G01 X2358.617654 Y189.355928 Z-0.125000
G00 Z5.000000

(Change tool to Default tool)

G00 Z5.000000
G00 X2404.252141 Y95.745752

G01 Z-0.125000 F100.0(Penetrate)
G01 X2404.252141 Y118.221896 Z-0.125000 F400.000000
G01 X2413.859860 Y118.221896 Z-0.125000
G01 X2423.467580 Y118.221896 Z-0.125000
G01 X2423.467580 Y143.694766 Z-0.125000
G01 X2423.467580 Y169.167636 Z-0.125000
G01 X2413.859860 Y176.659651 Z-0.125000
G02 X2405.850599 Y185.365927 Z-0.125000 I22.174491 J28.436390
G02 X2403.836601 Y192.018714 Z-0.125000 I10.347284 J6.763675
G02 X2405.752460 Y198.674462 Z-0.125000 I12.140701 J0.108909
G02 X2413.585230 Y207.269891 Z-0.125000 I29.029775 J-18.587403
G02 X2423.512452 Y212.820662 Z-0.125000 I23.027586 J-29.530954
G02 X2433.075299 Y214.547911 Z-0.125000 I9.562847 J-25.608539
G02 X2442.638261 Y212.820638 Z-0.125000 I0.000000 J-27.336074
G02 X2452.565368 Y207.269891 Z-0.125000 I-13.100038 J-35.080792
G02 X2460.398194 Y198.674454 Z-0.125000 I-21.196986 J-27.182985
G02 X2462.314061 Y192.018714 Z-0.125000 I-10.224763 J-6.546831
G02 X2460.300055 Y185.365935 Z-0.125000 I-12.361212 J0.110887
G02 X2452.290738 Y176.659651 Z-0.125000 I-30.183788 J19.730262
G01 X2442.683019 Y169.167636 Z-0.125000
G01 X2442.683019 Y143.694766 Z-0.125000
G01 X2442.683019 Y118.221896 Z-0.125000
G01 X2452.290738 Y118.221896 Z-0.125000
G01 X2461.898542 Y118.221896 Z-0.125000
G01 X2461.898542 Y95.745752 Z-0.125000
G01 X2461.898542 Y73.269709 Z-0.125000
G01 X2433.075299 Y73.269709 Z-0.125000
G01 X2404.252141 Y73.269709 Z-0.125000
G01 X2404.252141 Y95.745752 Z-0.125000
G01 X2404.252141 Y95.745752 Z-0.125000
G00 Z5.000000

(Change tool to Default tool)

G00 Z5.000000
G00 X2440.969845 Y93.029913

G01 Z-0.125000 F100.0(Penetrate)
G03 X2441.794519 Y96.486241 Z-0.125000 I-3.210537 J2.592576 F400.000000
G03 X2439.418018 Y100.279468 Z-0.125000 I-6.403237 J-1.370636
G03 X2427.063193 Y100.668862 Z-0.125000 I-6.444000 J-8.263694
G03 X2426.339276 Y91.345617 Z-0.125000 I3.382928 J-4.952400
G03 X2433.561701 Y88.953623 Z-0.125000 I6.188791 J6.586784
G03 X2440.969845 Y93.029913 Z-0.125000 I-1.276682 J11.090039
G01 X2440.969845 Y93.029913 Z-0.125000
G00 Z5.000000

(Change tool to Default tool)

G00 Z5.000000
G00 X2440.969845 Y189.355928

G01 Z-0.125000 F100.0(Penetrate)
G03 X2441.794519 Y192.812256 Z-0.125000 I-3.210537 J2.592576 F400.000000
G03 X2439.418018 Y196.605484 Z-0.125000 I-6.403237 J-1.370636
G03 X2427.063193 Y196.994876 Z-0.125000 I-6.443999 J-8.263696
G03 X2426.339276 Y187.671632 Z-0.125000 I3.382927 J-4.952400
G03 X2433.561700 Y185.279637 Z-0.125000 I6.188792 J6.586785
G03 X2440.969845 Y189.355928 Z-0.125000 I-1.276679 J11.090034
G01 X2440.969845 Y189.355928 Z-0.125000
G00 Z5.000000

(Change tool to Default tool)

G00 Z5.000000
G00 X2495.937421 Y80.547730

G01 Z-0.125000 F100.0(Penetrate)
G02 X2488.104538 Y89.143179 Z-0.125000 I21.196823 J27.183002 F400.000000
G02 X2486.188657 Y95.798908 Z-0.125000 I10.224758 J6.546854
G02 X2488.202639 Y102.451708 Z-0.125000 I12.361297 J-0.110854
G02 X2496.211826 Y111.157972 Z-0.125000 I30.183883 J-19.730081
G01 X2505.819743 Y118.649985 Z-0.125000
G01 X2505.819743 Y143.908761 Z-0.125000
G01 X2505.819743 Y169.167636 Z-0.125000
G01 X2496.211826 Y176.659651 Z-0.125000
G02 X2488.202640 Y185.365913 Z-0.125000 I22.174684 J28.436336
G02 X2486.188657 Y192.018714 Z-0.125000 I10.347314 J6.763654
G02 X2488.104538 Y198.674443 Z-0.125000 I12.140639 J0.108875
G02 X2495.937421 Y207.269891 Z-0.125000 I29.029693 J-18.587545
G02 X2505.864531 Y212.820642 Z-0.125000 I23.027181 J-29.530090
G02 X2515.427462 Y214.547911 Z-0.125000 I9.562931 J-25.608691
G02 X2524.990335 Y212.820642 Z-0.125000 I0.000000 J-27.335644
G02 X2534.917334 Y207.269891 Z-0.125000 I-13.099797 J-35.079888
G02 X2542.750238 Y198.674443 Z-0.125000 I-21.197014 J-27.183254
G02 X2544.666139 Y192.018714 Z-0.125000 I-10.224747 J-6.546888
G02 X2542.652167 Y185.365925 Z-0.125000 I-12.361192 J0.110818
G02 X2534.642929 Y176.659651 Z-0.125000 I-30.183682 J19.729996
G01 X2525.035181 Y169.167636 Z-0.125000
G01 X2525.035181 Y143.908761 Z-0.125000
G01 X2525.035181 Y118.649985 Z-0.125000
G01 X2534.642929 Y111.157972 Z-0.125000
G02 X2542.652167 Y102.451697 Z-0.125000 I-22.174457 J-28.436279
G02 X2544.666139 Y95.798908 Z-0.125000 I-10.347220 J-6.763608
G02 X2542.750238 Y89.143179 Z-0.125000 I-12.140649 J-0.108841
G02 X2534.917334 Y80.547730 Z-0.125000 I-29.029931 J18.587814
G02 X2524.990335 Y74.996978 Z-0.125000 I-23.026796 J29.529136
G02 X2515.427462 Y73.269709 Z-0.125000 I-9.562873 J25.608375
G02 X2505.864531 Y74.996978 Z-0.125000 I0.000000 J27.335960
G02 X2495.937421 Y80.547730 Z-0.125000 I13.100070 J35.080841
G01 X2495.937421 Y80.547730 Z-0.125000
G00 Z5.000000

(Change tool to Default tool)

G00 Z5.000000
G00 X2523.321923 Y93.029913

G01 Z-0.125000 F100.0(Penetrate)
G03 X2524.146661 Y96.486255 Z-0.125000 I-3.210507 J2.592647 F400.000000
G03 X2521.770209 Y100.279468 Z-0.125000 I-6.403070 J-1.370499
G03 X2509.415364 Y100.668881 Z-0.125000 I-6.444024 J-8.263725
G03 X2508.691467 Y91.345617 Z-0.125000 I3.382905 J-4.952399
G03 X2515.913830 Y88.953588 Z-0.125000 I6.188755 J6.586572
G03 X2523.321923 Y93.029913 Z-0.125000 I-1.276649 J11.089808
G01 X2523.321923 Y93.029913 Z-0.125000
G00 Z5.000000

(Change tool to Default tool)

G00 Z5.000000
G00 X2523.321923 Y189.355928

G01 Z-0.125000 F100.0(Penetrate)
G03 X2524.146661 Y192.812270 Z-0.125000 I-3.210507 J2.592647 F400.000000
G03 X2521.770209 Y196.605484 Z-0.125000 I-6.403070 J-1.370499
G03 X2509.415365 Y196.994896 Z-0.125000 I-6.444023 J-8.263727
G03 X2508.691467 Y187.671632 Z-0.125000 I3.382904 J-4.952398
G03 X2515.913830 Y185.279602 Z-0.125000 I6.188756 J6.586573
G03 X2523.321923 Y189.355928 Z-0.125000 I-1.276645 J11.089802
G01 X2523.321923 Y189.355928 Z-0.125000
G00 Z5.000000

(Change tool to Default tool)

G00 Z5.000000
G00 X2660.292948 Y112.928273

G01 Z-0.125000 F100.0(Penetrate)
G02 X2654.441394 Y117.954053 Z-0.125000 I50.124600 J64.279848 F400.000000
G02 X2652.364296 Y120.772793 Z-0.125000 I6.760551 J7.156444
G02 X2651.581284 Y124.072219 Z-0.125000 I6.874161 J3.373982
G02 X2651.970723 Y129.883891 Z-0.125000 I38.032835 J0.370316
G03 X2652.332789 Y135.758562 Z-0.125000 I-35.565861 J5.140482
G03 X2651.364640 Y139.256063 Z-0.125000 I-7.343678 J-0.150068
G03 X2648.921055 Y142.247767 Z-0.125000 I-10.192628 J-5.831410
G03 X2641.339073 Y148.466672 Z-0.125000 I-95.951300 J-109.250812
G01 X2629.347789 Y157.643695 Z-0.125000
G01 X2629.347789 Y190.231117 Z-0.125000
G01 X2629.347789 Y222.818639 Z-0.125000
G01 X2621.375152 Y227.245614 Z-0.125000
G03 X2616.796408 Y228.832900 Z-0.125000 I-6.826745 J-12.295030
G03 X2592.520847 Y231.093776 Z-0.125000 I-28.816645 J-177.954474
G03 X2561.300912 Y231.526488 Z-0.125000 I-34.699046 J-1377.049882
G03 X2445.690633 Y231.672487 Z-0.125000 I-115.610346 J-45773.527450
G01 X2277.978863 Y231.672487 Z-0.125000
G01 X2277.978863 Y223.324192 Z-0.125000
G03 X2280.032401 Y215.978754 Z-0.125000 I14.163966 J-0.000000
G03 X2287.586582 Y207.483988 Z-0.125000 I26.902280 J16.317265
G02 X2295.595875 Y198.777701 Z-0.125000 I-22.174243 J-28.436247
G02 X2297.609849 Y192.124923 Z-0.125000 I-10.347170 J-6.763596
G02 X2295.693949 Y185.469182 Z-0.125000 I-12.140696 J-0.108842
G02 X2287.861100 Y176.873745 Z-0.125000 I-29.030078 J18.587849
G02 X2277.934093 Y171.322999 Z-0.125000 I-23.026684 J29.528993
G02 X2268.371143 Y169.595725 Z-0.125000 I-9.562949 J25.608705
G02 X2258.808178 Y171.323003 Z-0.125000 I-0.000000 J27.336009
G02 X2248.881159 Y176.873745 Z-0.125000 I13.099785 J35.080004
G02 X2241.048273 Y185.469191 Z-0.125000 I21.197026 J27.183204
G02 X2239.132378 Y192.124923 Z-0.125000 I10.224763 J6.546882
G02 X2241.146353 Y198.777712 Z-0.125000 I12.361206 J-0.110827
G02 X2249.155592 Y207.483988 Z-0.125000 I30.183702 J-19.730012
G03 X2256.709795 Y215.978771 Z-0.125000 I-19.347500 J24.811536
G03 X2258.763311 Y223.324192 Z-0.125000 I-12.110520 J7.345422
G01 X2258.763311 Y231.672487 Z-0.125000
G01 X2171.434752 Y231.672487 Z-0.125000
G01 X2084.105995 Y231.672487 Z-0.125000
G01 X2076.729694 Y225.668771 Z-0.125000
G03 X2072.599225 Y221.650684 Z-0.125000 I20.595749 J-25.303840
G03 X2070.499649 Y217.872120 Z-0.125000 I8.101488 J-6.974227
G03 X2069.673311 Y213.338748 Z-0.125000 I17.879374 J-5.601030
G03 X2069.353478 Y202.122454 Z-0.125000 I196.513056 J-11.216294
G01 X2069.353478 Y184.579752 Z-0.125000
G01 X2040.530320 Y184.579752 Z-0.125000
G01 X2011.707077 Y184.579752 Z-0.125000
G01 X2011.707077 Y207.055797 Z-0.125000
G01 X2011.707077 Y229.531941 Z-0.125000
G01 X2034.483059 Y229.531941 Z-0.125000
G01 X2057.258986 Y229.531941 Z-0.125000
G01 X2067.981059 Y238.094228 Z-0.125000
G01 X2078.702936 Y246.656517 Z-0.125000
G01 X2348.925494 Y246.656517 Z-0.125000
G01 X2619.148137 Y246.656517 Z-0.125000
G01 X2633.855781 Y236.858453 Z-0.125000
G01 X2648.563313 Y227.060290 Z-0.125000
G01 X2648.563313 Y194.683914 Z-0.125000
G01 X2648.563313 Y162.307539 Z-0.125000
G01 X2656.989367 Y155.528462 Z-0.125000
G03 X2666.059075 Y150.868292 Z-0.125000 I15.862742 J19.716458
G03 X2677.503254 Y149.811834 Z-0.125000 I8.629525 J30.966826
G02 X2688.934916 Y148.653531 Z-0.125000 I2.682241 J-30.518636
G02 X2699.272973 Y143.324420 Z-0.125000 I-8.964796 J-30.083062
G02 X2707.341188 Y134.575192 Z-0.125000 I-22.470828 J-28.816485
G02 X2709.372825 Y127.921756 Z-0.125000 I-10.339441 J-6.794064
G02 X2707.465483 Y121.264612 Z-0.125000 I-12.091556 J-0.137451
G02 X2699.621603 Y112.656333 Z-0.125000 I-29.066703 J18.607815
G02 X2680.131669 Y106.030810 Z-0.125000 I-19.273194 J24.715897
G02 X2660.292948 Y112.928273 Z-0.125000 I0.225638 J32.628121
G01 X2660.292948 Y112.928273 Z-0.125000
G00 Z5.000000

(Change tool to Default tool)

G00 Z5.000000
G00 X2688.026079 Y125.138618

G01 Z-0.125000 F100.0(Penetrate)
G03 X2688.850866 Y128.594932 Z-0.125000 I-3.210212 J2.592626 F400.000000
G03 X2686.474365 Y132.388176 Z-0.125000 I-6.403225 J-1.370606
G03 X2674.119519 Y132.777534 Z-0.125000 I-6.443985 J-8.263678
G03 X2673.395623 Y123.454220 Z-0.125000 I3.382988 J-4.952428
G03 X2680.617961 Y121.062264 Z-0.125000 I6.188698 J6.586682
G03 X2688.026079 Y125.138618 Z-0.125000 I-1.276693 J11.089893
G01 X2688.026079 Y125.138618 Z-0.125000
G00 Z5.000000

(Change tool to Default tool)

G00 Z5.000000
G00 X2276.265576 Y189.355928

G01 Z-0.125000 F100.0(Penetrate)
G03 X2277.090320 Y192.812275 Z-0.125000 I-3.210465 J2.592645 F400.000000
G03 X2274.713862 Y196.605484 Z-0.125000 I-6.403094 J-1.370527
G03 X2262.359037 Y196.994876 Z-0.125000 I-6.443999 J-8.263696
G03 X2261.635120 Y187.671632 Z-0.125000 I3.382927 J-4.952400
G03 X2268.857487 Y185.279647 Z-0.125000 I6.188739 J6.586685
G03 X2276.265576 Y189.355928 Z-0.125000 I-1.276678 J11.089928
G01 X2276.265576 Y189.355928 Z-0.125000
G00 Z5.000000

(Change tool to Default tool)

G00 Z5.000000
G00 X2048.424668 Y204.339956

G01 Z-0.125000 F100.0(Penetrate)
G03 X2049.249469 Y207.796314 Z-0.125000 I-3.210425 J2.592705 F400.000000
G03 X2046.873038 Y211.589514 Z-0.125000 I-6.402937 J-1.370411
G03 X2034.518216 Y211.978918 Z-0.125000 I-6.444006 J-8.263706
G03 X2033.794324 Y202.655659 Z-0.125000 I3.382909 J-4.952394
G03 X2041.016749 Y200.263655 Z-0.125000 I6.188791 J6.586745
G03 X2048.424668 Y204.339956 Z-0.125000 I-1.276615 J11.089417
G01 X2048.424668 Y204.339956 Z-0.125000
G00 Z5.000000

(Change tool to Default tool)

G00 Z5.000000
G00 X2660.641662 Y176.873745

G01 Z-0.125000 F100.0(Penetrate)
G02 X2653.274839 Y185.111935 Z-0.125000 I19.097150 J24.490118 F400.000000
G02 X2651.308375 Y192.071767 Z-0.125000 I11.333106 J6.959832
G02 X2653.274861 Y199.031708 Z-0.125000 I13.299824 J0.000000
G02 X2660.641662 Y207.269891 Z-0.125000 I26.463800 J-16.251741
G02 X2670.568681 Y212.820633 Z-0.125000 I23.026804 J-29.529262
G02 X2680.131646 Y214.547911 Z-0.125000 I9.562966 J-25.608730
G02 X2689.694483 Y212.820654 Z-0.125000 I0.000000 J-27.335616
G02 X2699.621603 Y207.269891 Z-0.125000 I-13.100167 J-35.080988
G02 X2706.988410 Y199.031702 Z-0.125000 I-19.096787 J-24.489747
G02 X2708.954889 Y192.071767 Z-0.125000 I-11.333368 J-6.959935
G02 X2706.988433 Y185.111940 Z-0.125000 I-13.299593 J-0.000000
G02 X2699.621603 Y176.873745 Z-0.125000 I-26.463768 J16.251745
G02 X2689.694483 Y171.322982 Z-0.125000 I-23.027286 J29.530225
G02 X2680.131646 Y169.595725 Z-0.125000 I-9.562837 J25.608359
G02 X2670.568681 Y171.323003 Z-0.125000 I0.000000 J27.336009
G02 X2660.641662 Y176.873745 Z-0.125000 I13.099785 J35.080004
G01 X2660.641662 Y176.873745 Z-0.125000
G00 Z5.000000

(Change tool to Default tool)

G00 Z5.000000
G00 X2688.026079 Y189.355928

G01 Z-0.125000 F100.0(Penetrate)
G03 X2688.850841 Y192.812290 Z-0.125000 I-3.210341 J2.592640 F400.000000
G03 X2686.474365 Y196.605484 Z-0.125000 I-6.403165 J-1.370611
G03 X2674.119540 Y196.994876 Z-0.125000 I-6.443999 J-8.263696
G03 X2673.395623 Y187.671632 Z-0.125000 I3.382927 J-4.952400
G03 X2680.617986 Y185.279602 Z-0.125000 I6.188756 J6.586573
G03 X2688.026079 Y189.355928 Z-0.125000 I-1.276645 J11.089802
G01 X2688.026079 Y189.355928 Z-0.125000
G00 Z5.000000

(Change tool to Default tool)

G00 Z5.000000
G00 X2742.993655 Y176.873745

G01 Z-0.125000 F100.0(Penetrate)
G02 X2735.626910 Y185.111919 Z-0.125000 I19.097321 J24.490051 F400.000000
G02 X2733.660453 Y192.071767 Z-0.125000 I11.333206 J6.959848
G02 X2735.626932 Y199.031723 Z-0.125000 I13.299918 J-0.000000
G02 X2742.993655 Y207.269891 Z-0.125000 I26.463893 J-16.251689
G02 X2752.920877 Y212.820662 Z-0.125000 I23.027586 J-29.530954
G02 X2762.483724 Y214.547911 Z-0.125000 I9.562847 J-25.608539
G02 X2772.046686 Y212.820638 Z-0.125000 I0.000000 J-27.336074
G02 X2781.973794 Y207.269891 Z-0.125000 I-13.100038 J-35.080792
G02 X2789.340498 Y199.031722 Z-0.125000 I-19.097014 J-24.489658
G02 X2791.306967 Y192.071767 Z-0.125000 I-11.333503 J-6.959955
G02 X2789.340520 Y185.111920 Z-0.125000 I-13.299718 J-0.000000
G02 X2781.973794 Y176.873745 Z-0.125000 I-26.463892 J16.251675
G02 X2772.046686 Y171.322997 Z-0.125000 I-23.027146 J29.530045
G02 X2762.483724 Y169.595725 Z-0.125000 I-9.562962 J25.608801
G02 X2752.920877 Y171.322974 Z-0.125000 I-0.000000 J27.335788
G02 X2742.993655 Y176.873745 Z-0.125000 I13.100363 J35.081725
G01 X2742.993655 Y176.873745 Z-0.125000
G00 Z5.000000

(Change tool to Default tool)

G00 Z5.000000
G00 X2770.378270 Y189.355928

G01 Z-0.125000 F100.0(Penetrate)
G03 X2771.202944 Y192.812256 Z-0.125000 I-3.210537 J2.592576 F400.000000
G03 X2768.826443 Y196.605484 Z-0.125000 I-6.403237 J-1.370636
G03 X2756.471599 Y196.994896 Z-0.125000 I-6.444023 J-8.263727
G03 X2755.747701 Y187.671632 Z-0.125000 I3.382904 J-4.952398
G03 X2762.970125 Y185.279637 Z-0.125000 I6.188792 J6.586785
G03 X2770.378270 Y189.355928 Z-0.125000 I-1.276679 J11.090034
G01 X2770.378270 Y189.355928 Z-0.125000
G00 Z5.000000

(Change tool to Default tool)

G00 Z5.000000
G00 X1812.415007 Y245.372146

G01 Z-0.125000 F100.0(Penetrate)
G02 X1805.048120 Y253.610422 Z-0.125000 I19.096052 J24.489173 F400.000000
G02 X1803.081692 Y260.570270 Z-0.125000 I11.333407 J6.959848
G02 X1810.404141 Y275.723975 Z-0.125000 I19.341412 J-0.000000
G02 X1831.419823 Y283.046365 Z-0.125000 I21.015682 J-26.496914
G02 X1839.541795 Y281.851918 Z-0.125000 I0.000000 J-28.211019
G02 X1848.251422 Y278.239188 Z-0.125000 I-13.440181 J-44.706828
G02 X1855.931305 Y272.866185 Z-0.125000 I-19.193386 J-35.609108
G02 X1859.393887 Y267.968252 Z-0.125000 I-8.782861 J-9.881921
G03 X1862.416830 Y265.743861 Z-0.125000 I3.325966 J1.353699
G03 X1908.265633 Y263.829378 Z-0.125000 I45.299809 J534.898043
G01 X1955.433179 Y263.877158 Z-0.125000
G01 X2067.007110 Y357.671857 Z-0.125000
G01 X2178.580929 Y451.466607 Z-0.125000
G01 X2177.147466 Y461.383876 Z-0.125000
G02 X2176.682091 Y467.599208 Z-0.125000 I44.858441 J6.483881
G02 X2177.420343 Y470.937729 Z-0.125000 I7.711226 J0.045690
G02 X2179.482978 Y473.778203 Z-0.125000 I8.542230 J-4.033877
G02 X2185.395918 Y478.850994 Z-0.125000 I57.141777 J-60.623024
G02 X2205.234557 Y485.748447 Z-0.125000 I20.064192 J-25.730226
G02 X2224.724545 Y479.122872 Z-0.125000 I0.216663 J-31.341612
G02 X2232.559257 Y470.525213 Z-0.125000 I-21.201543 J-27.188702
G02 X2234.473668 Y463.869230 Z-0.125000 I-10.217873 J-6.542197
G02 X2232.456660 Y457.216336 Z-0.125000 I-12.362890 J0.115948
G02 X2224.437356 Y448.502760 Z-0.125000 I-30.243987 J19.787275
G02 X2214.180465 Y443.103058 Z-0.125000 I-20.159705 J25.852463
G02 X2203.433954 Y441.847404 Z-0.125000 I-8.628202 J27.229633
G01 X2192.050944 Y442.693893 Z-0.125000
G01 X2076.604444 Y345.745304 Z-0.125000
G01 X1961.157944 Y248.796758 Z-0.125000
G01 X1909.280476 Y248.796758 Z-0.125000
G03 X1873.603152 Y248.627014 Z-0.125000 I0.000000 J-3749.488654
G03 X1863.040978 Y248.106856 Z-0.125000 I1.267883 J-133.241470
G03 X1854.318005 Y246.061156 Z-0.125000 I2.821083 J-31.649710
G03 X1849.247293 Y243.445288 Z-0.125000 I9.940313 J-25.491309
G02 X1830.884087 Y238.477306 Z-0.125000 I-16.766774 J25.553161
G02 X1812.415007 Y245.371841 Z-0.125000 I1.714448 J32.777418
G01 X1812.415007 Y245.372146 Z-0.125000
G00 Z5.000000

(Change tool to Default tool)

G00 Z5.000000
G00 X1839.799424 Y257.854432

G01 Z-0.125000 F100.0(Penetrate)
G03 X1840.624149 Y261.310772 Z-0.125000 I-3.210311 J2.592584 F400.000000
G03 X1838.247597 Y265.103990 Z-0.125000 I-6.403240 J-1.370705
G03 X1825.892825 Y265.493319 Z-0.125000 I-6.443928 J-8.263646
G03 X1825.168940 Y256.170033 Z-0.125000 I3.382989 J-4.952409
G03 X1832.391227 Y253.778096 Z-0.125000 I6.188648 J6.586625
G03 X1839.799424 Y257.854432 Z-0.125000 I-1.276735 J11.090169
G01 X1839.799424 Y257.854432 Z-0.125000
G00 Z5.000000

(Change tool to Default tool)

G00 Z5.000000
G00 X2213.128937 Y461.209305

G01 Z-0.125000 F100.0(Penetrate)
G03 X2213.953705 Y464.665660 Z-0.125000 I-3.210319 J2.592640 F400.000000
G03 X2211.577223 Y468.458883 Z-0.125000 I-6.403229 J-1.370617
G03 X2199.222392 Y468.848246 Z-0.125000 I-6.443982 J-8.263726
G03 X2198.498480 Y459.524969 Z-0.125000 I3.382950 J-4.952414
G03 X2205.720844 Y457.132978 Z-0.125000 I6.188718 J6.586602
G03 X2213.128937 Y461.209305 Z-0.125000 I-1.276708 J11.089913
G01 X2213.128937 Y461.209305 Z-0.125000
G00 Z5.000000

(Change tool to Default tool)

G00 Z5.000000
G00 X2973.579711 Y245.372146

G01 Z-0.125000 F100.0(Penetrate)
G02 X2966.212772 Y253.610432 Z-0.125000 I19.095938 J24.489218 F400.000000
G02 X2964.246339 Y260.570270 Z-0.125000 I11.333340 J6.959838
G02 X2966.212803 Y267.530175 Z-0.125000 I13.299824 J0.000000
G02 X2973.579711 Y275.768395 Z-0.125000 I26.462893 J-16.251068
G02 X2983.506785 Y281.319133 Z-0.125000 I23.026258 J-29.528440
G02 X2993.069695 Y283.046365 Z-0.125000 I9.562910 J-25.609156
G02 X3002.632605 Y281.319133 Z-0.125000 I-0.000000 J-27.336388
G02 X3012.559680 Y275.768395 Z-0.125000 I-13.099183 J-35.079178
G02 X3019.926512 Y267.530232 Z-0.125000 I-19.098112 J-24.491062
G02 X3021.893051 Y260.570270 Z-0.125000 I-11.333055 J-6.959962
G02 X3014.518691 Y245.468502 Z-0.125000 I-19.150447 J-0.000000
G02 X2993.069695 Y238.094228 Z-0.125000 I-21.448995 J27.506401
G02 X2983.506786 Y239.821438 Z-0.125000 I-0.000000 J27.336712
G02 X2973.579711 Y245.372146 Z-0.125000 I13.098826 J35.078697
G01 X2973.579711 Y245.372146 Z-0.125000
G00 Z5.000000

(Change tool to Default tool)

G00 Z5.000000
G00 X3000.964015 Y257.854432

G01 Z-0.125000 F100.0(Penetrate)
G03 X3001.788802 Y261.310814 Z-0.125000 I-3.210290 J2.592662 F400.000000
G03 X2999.412357 Y265.103990 Z-0.125000 I-6.403199 J-1.370624
G03 X2987.057536 Y265.493340 Z-0.125000 I-6.443968 J-8.263668
G03 X2986.333615 Y256.170033 Z-0.125000 I3.382995 J-4.952436
G03 X2993.556010 Y253.778086 Z-0.125000 I6.188735 J6.586805
G03 X3000.964015 Y257.854432 Z-0.125000 I-1.276670 J11.089626
G01 X3000.964015 Y257.854432 Z-0.125000
G00 Z5.000000

(Change tool to Default tool)

G00 Z5.000000
G00 X1812.415007 Y316.011259

G01 Z-0.125000 F100.0(Penetrate)
G02 X1805.048140 Y324.249484 Z-0.125000 I19.096119 J24.489268 F400.000000
G02 X1803.081692 Y331.209361 Z-0.125000 I11.333373 J6.959877
G02 X1805.048140 Y338.169240 Z-0.125000 I13.299826 J-0.000000
G02 X1812.415007 Y346.407465 Z-0.125000 I26.462975 J-16.251034
G02 X1830.884080 Y353.301955 Z-0.125000 I20.183512 J-25.883053
G02 X1849.247293 Y348.333988 Z-0.125000 I1.596424 J-30.521269
G03 X1858.007963 Y345.007153 Z-0.125000 I11.897754 J18.132467
G03 X1885.853999 Y342.982541 Z-0.125000 I27.846036 J190.481524
G01 X1914.304906 Y342.982541 Z-0.125000
G01 X1972.613767 Y388.488072 Z-0.125000
G03 X2029.589215 Y434.644390 Z-0.125000 I-1240.490564 J1589.507375
G03 X2030.922600 Y437.507309 Z-0.125000 I-2.406801 J2.862918
G03 X2029.808696 Y440.477069 Z-0.125000 I-4.515763 J0.000000
G03 X2021.314796 Y448.513027 Z-0.125000 I-46.232162 J-40.359823
G02 X2013.305500 Y457.219285 Z-0.125000 I22.174132 J28.436220
G02 X2011.291515 Y463.872063 Z-0.125000 I10.347157 J6.763613
G02 X2013.207404 Y470.527811 Z-0.125000 I12.140722 J0.108859
G02 X2021.040250 Y479.123290 Z-0.125000 I29.030250 J-18.587867
G02 X2030.967358 Y484.674002 Z-0.125000 I23.026704 J-29.529479
G02 X2040.530320 Y486.401248 Z-0.125000 I9.562961 J-25.609225
G02 X2050.093187 Y484.674014 Z-0.125000 I0.000000 J-27.336127
G02 X2060.020304 Y479.123290 Z-0.125000 I-13.099692 J-35.080338
G02 X2067.853134 Y470.527811 Z-0.125000 I-21.197251 J-27.183151
G02 X2069.769008 Y463.872063 Z-0.125000 I-10.224841 J-6.546864
G02 X2067.755015 Y457.219276 Z-0.125000 I-12.361221 J0.110862
G02 X2059.745758 Y448.513027 Z-0.125000 I-30.183569 J19.730021
G03 X2051.737067 Y440.240188 Z-0.125000 I25.493951 J-32.692852
G03 X2050.138039 Y435.331751 Z-0.125000 I6.734051 J-4.908437
G02 X2048.013775 Y430.680213 Z-0.125000 I-6.154908 J-0.000000
G02 X1984.921563 Y378.820499 Z-0.125000 I-1028.109236 J1186.482748
G01 X1919.705087 Y327.998491 Z-0.125000
G01 X1890.401671 Y327.998491 Z-0.125000
G03 X1862.365618 Y326.114126 Z-0.125000 I0.000000 J-209.505939
G03 X1859.393887 Y323.811352 Z-0.125000 I0.501862 J-3.716549
G02 X1855.931313 Y318.913453 Z-0.125000 I-12.245372 J4.983992
G02 X1848.251422 Y313.540464 Z-0.125000 I-26.873298 J30.236268
G02 X1839.541797 Y309.927744 Z-0.125000 I-22.149832 J41.094268
G02 X1831.419823 Y308.733299 Z-0.125000 I-8.121974 J27.016623
G02 X1822.326267 Y310.414963 Z-0.125000 I0.000000 J25.427424
G02 X1812.415007 Y316.011259 Z-0.125000 I13.775644 J35.971971
G01 X1812.415007 Y316.011259 Z-0.125000
G00 Z5.000000

(Change tool to Default tool)

G00 Z5.000000
G00 X1839.799424 Y328.493483

G01 Z-0.125000 F100.0(Penetrate)
G03 X1840.624155 Y331.949815 Z-0.125000 I-3.210287 J2.592583 F400.000000
G03 X1838.247597 Y335.743058 Z-0.125000 I-6.403295 J-1.370711
G03 X1825.892835 Y336.132399 Z-0.125000 I-6.443933 J-8.263662
G03 X1825.168940 Y326.809144 Z-0.125000 I3.382962 J-4.952398
G03 X1832.391252 Y324.417174 Z-0.125000 I6.188667 J6.586548
G03 X1839.799424 Y328.493483 Z-0.125000 I-1.276751 J11.090189
G01 X1839.799424 Y328.493483 Z-0.125000
G00 Z5.000000

(Change tool to Default tool)

G00 Z5.000000
G00 X2048.424668 Y461.209305

G01 Z-0.125000 F100.0(Penetrate)
G03 X2049.249476 Y464.665654 Z-0.125000 I-3.210398 J2.592704 F400.000000
G03 X2046.873038 Y468.458883 Z-0.125000 I-6.403001 J-1.370418
G03 X2034.518211 Y468.848258 Z-0.125000 I-6.443990 J-8.263735
G03 X2033.794324 Y459.524969 Z-0.125000 I3.382931 J-4.952407
G03 X2041.016750 Y457.133002 Z-0.125000 I6.188752 J6.586769
G03 X2048.424668 Y461.209305 Z-0.125000 I-1.276677 J11.089525
G01 X2048.424668 Y461.209305 Z-0.125000
G00 Z5.000000

(Change tool to Default tool)

G00 Z5.000000
G00 X2973.579711 Y316.011259

G01 Z-0.125000 F100.0(Penetrate)
G02 X2966.212792 Y324.249494 Z-0.125000 I19.096005 J24.489313 F400.000000
G02 X2964.246339 Y331.209361 Z-0.125000 I11.333306 J6.959867
G02 X2968.310783 Y341.950887 Z-0.125000 I16.226093 J-0.000000
G02 X2979.718573 Y350.387151 Z-0.125000 I25.439333 J-22.468766
G02 X2993.872552 Y353.793209 Z-0.125000 I15.930267 J-35.087046
G02 X3006.956722 Y350.600726 Z-0.125000 I1.102432 J-23.890281
G03 X3010.244304 Y349.373110 Z-0.125000 I5.276004 J9.113337
G03 X3013.694284 Y349.707187 Z-0.125000 I1.158001 J6.022278
G03 X3017.225626 Y351.620996 Z-0.125000 I-6.621016 J16.431944
G03 X3026.696755 Y358.554773 Z-0.125000 I-155.034592 J221.703474
G01 X3041.108433 Y369.593520 Z-0.125000
G01 X3041.108433 Y392.277365 Z-0.125000
G03 X3040.841839 Y407.528566 Z-0.125000 I-436.374428 J0.000000
G03 X3040.066434 Y412.669836 Z-0.125000 I-22.694343 J-0.793648
G03 X3037.804893 Y416.756022 Z-0.125000 I-9.441079 J-2.556329
G03 X3033.409129 Y420.713148 Z-0.125000 I-23.809044 J-22.028149
G01 X3025.710106 Y426.465074 Z-0.125000
G01 X2957.060679 Y426.465074 Z-0.125000
G01 X2888.411535 Y426.465074 Z-0.125000
G01 X2881.035375 Y420.461358 Z-0.125000
G03 X2877.003404 Y416.385570 Z-0.125000 I16.844054 J-20.695179
G03 X2874.600143 Y411.185310 Z-0.125000 I9.448683 J-7.522090
G03 X2873.887286 Y404.562426 Z-0.125000 I37.950655 J-7.434646
G03 X2873.658932 Y382.807500 Z-0.125000 I1036.167813 J-21.754926
G01 X2873.658932 Y351.157361 Z-0.125000
G01 X2860.972761 Y339.577927 Z-0.125000
G01 X2848.286590 Y327.998491 Z-0.125000
G01 X2669.103023 Y327.998491 Z-0.125000
G01 X2489.919568 Y327.998491 Z-0.125000
G01 X2468.603267 Y345.658264 Z-0.125000
G03 X2453.965172 Y357.447804 Z-0.125000 I-433.440563 J-523.185008
G03 X2448.506265 Y360.928119 Z-0.125000 I-20.683451 J-26.420856
G03 X2442.834183 Y362.525171 Z-0.125000 I-6.847504 J-13.448573
G03 X2435.352184 Y362.588437 Z-0.125000 I-4.195353 J-53.701288
G02 X2424.069884 Y363.963828 Z-0.125000 I-1.912041 J31.277472
G02 X2413.834630 Y369.331259 Z-0.125000 I9.688619 J30.918022
G02 X2405.845401 Y378.022934 Z-0.125000 I22.074274 J28.307884
G02 X2403.837440 Y384.675526 Z-0.125000 I10.349961 J6.753271
G02 X2405.756262 Y391.330801 Z-0.125000 I12.157517 J0.099046
G02 X2413.585428 Y399.921910 Z-0.125000 I29.017584 J-18.581070
G02 X2433.075427 Y406.547492 Z-0.125000 I19.273348 J-24.716066
G02 X2452.914082 Y399.650031 Z-0.125000 I-0.225542 J-32.627665
G02 X2458.768706 Y394.621887 Z-0.125000 I-50.179657 J-64.350271
G02 X2460.845084 Y391.802164 Z-0.125000 I-6.746406 J-7.142256
G02 X2461.625907 Y388.500950 Z-0.125000 I-6.878183 J-3.369818
G02 X2461.232921 Y382.670281 Z-0.125000 I-38.353805 J-0.343541
G03 X2460.993546 Y376.863194 Z-0.125000 I28.149531 J-4.068833
G03 X2462.472261 Y372.462668 Z-0.125000 I8.910838 J0.545611
G03 X2465.870035 Y368.487924 Z-0.125000 I18.167194 J12.090412
G03 X2477.577059 Y358.111455 Z-0.125000 I291.188949 J316.735239
G01 X2495.284246 Y342.982541 Z-0.125000
G01 X2668.857602 Y342.982541 Z-0.125000
G01 X2842.431043 Y342.982541 Z-0.125000
G01 X2848.437297 Y349.317597 Z-0.125000
G03 X2851.424354 Y353.417353 Z-0.125000 I-14.296615 J13.554480
G03 X2853.518990 Y359.562203 Z-0.125000 I-16.635175 J9.099975
G03 X2854.180514 Y366.809538 Z-0.125000 I-54.946605 J8.669286
G03 X2854.443550 Y387.385980 Z-0.125000 I-804.681325 J20.576442
G01 X2854.443550 Y419.119295 Z-0.125000
G01 X2868.941588 Y430.284204 Z-0.125000
G01 X2883.439626 Y441.449121 Z-0.125000
G01 X2957.563882 Y441.449121 Z-0.125000
G01 X3031.688138 Y441.449121 Z-0.125000
G01 X3046.006118 Y430.143761 Z-0.125000
G01 X3060.323816 Y418.838430 Z-0.125000
G01 X3060.323816 Y392.091115 Z-0.125000
G01 X3060.323816 Y365.343789 Z-0.125000
G01 X3041.108433 Y350.474564 Z-0.125000
G03 X3023.900648 Y334.620314 Z-0.125000 I83.428837 J-107.817027
G03 X3021.893051 Y329.447284 Z-0.125000 I5.660946 J-5.173030
G02 X3019.769524 Y322.913417 Z-0.125000 I-11.113769 J0.000000
G02 X3012.383891 Y315.567078 Z-0.125000 I-26.512514 J19.268585
G02 X3002.985879 Y310.536646 Z-0.125000 I-23.690247 J32.964817
G02 X2993.069695 Y308.733299 Z-0.125000 I-9.916183 J26.361717
G02 X2983.506785 Y310.460527 Z-0.125000 I-0.000000 J27.336453
G02 X2973.579711 Y316.011259 Z-0.125000 I13.099111 J35.079080
G01 X2973.579711 Y316.011259 Z-0.125000
G00 Z5.000000

(Change tool to Default tool)

G00 Z5.000000
G00 X3000.964015 Y328.493483

G01 Z-0.125000 F100.0(Penetrate)
G03 X3001.788808 Y331.949857 Z-0.125000 I-3.210267 J2.592661 F400.000000
G03 X2999.412357 Y335.743058 Z-0.125000 I-6.403255 J-1.370630
G03 X2987.057546 Y336.132421 Z-0.125000 I-6.443972 J-8.263684
G03 X2986.333615 Y326.809144 Z-0.125000 I3.382968 J-4.952424
G03 X2993.556035 Y324.417164 Z-0.125000 I6.188754 J6.586728
G03 X3000.964015 Y328.493483 Z-0.125000 I-1.276686 J11.089646
G01 X3000.964015 Y328.493483 Z-0.125000
G00 Z5.000000

(Change tool to Default tool)

G00 Z5.000000
G00 X2440.969845 Y382.007928

G01 Z-0.125000 F100.0(Penetrate)
G03 X2441.794525 Y385.464247 Z-0.125000 I-3.210514 J2.592575 F400.000000
G03 X2439.418018 Y389.257503 Z-0.125000 I-6.403300 J-1.370643
G03 X2427.063187 Y389.646866 Z-0.125000 I-6.443982 J-8.263726
G03 X2426.339276 Y380.323589 Z-0.125000 I3.382950 J-4.952414
G03 X2433.561701 Y377.931634 Z-0.125000 I6.188751 J6.586811
G03 X2440.969845 Y382.007928 Z-0.125000 I-1.276746 J11.090149
G01 X2440.969845 Y382.007928 Z-0.125000
G00 Z5.000000

(Change tool to Default tool)

G00 Z5.000000
G00 X2331.233237 Y369.525704

G01 Z-0.125000 F100.0(Penetrate)
G02 X2323.866425 Y377.763901 Z-0.125000 I19.097020 J24.489951 F400.000000
G02 X2321.899950 Y384.723806 Z-0.125000 I11.333283 J6.959904
G02 X2323.866426 Y391.683713 Z-0.125000 I13.299766 J0.000000
G02 X2331.233237 Y399.921910 Z-0.125000 I26.463827 J-16.251749
G02 X2341.160257 Y405.472619 Z-0.125000 I23.026362 J-29.528680
G02 X2350.723221 Y407.199871 Z-0.125000 I9.562964 J-25.609145
G02 X2360.286127 Y405.472616 Z-0.125000 I0.000000 J-27.336035
G02 X2370.213178 Y399.921910 Z-0.125000 I-13.099819 J-35.080383
G02 X2377.579996 Y391.683707 Z-0.125000 I-19.096803 J-24.489768
G02 X2379.546464 Y384.723806 Z-0.125000 I-11.333320 J-6.959902
G02 X2377.579996 Y377.763907 Z-0.125000 I-13.299782 J0.000000
G02 X2370.213178 Y369.525704 Z-0.125000 I-26.463626 J16.251571
G02 X2360.286127 Y363.974998 Z-0.125000 I-23.026870 J29.529676
G02 X2350.723221 Y362.247744 Z-0.125000 I-9.562906 J25.608781
G02 X2341.160257 Y363.974995 Z-0.125000 I-0.000000 J27.336397
G02 X2331.233237 Y369.525704 Z-0.125000 I13.099342 J35.079389
G01 X2331.233237 Y369.525704 Z-0.125000
G00 Z5.000000

(Change tool to Default tool)

G00 Z5.000000
G00 X2358.617654 Y382.007928

G01 Z-0.125000 F100.0(Penetrate)
G03 X2359.442441 Y385.464258 Z-0.125000 I-3.210348 J2.592663 F400.000000
G03 X2357.065940 Y389.257503 Z-0.125000 I-6.403031 J-1.370484
G03 X2344.711181 Y389.646856 Z-0.125000 I-6.443940 J-8.263672
G03 X2343.987311 Y380.323589 Z-0.125000 I3.382942 J-4.952391
G03 X2351.209548 Y377.931590 Z-0.125000 I6.188617 J6.586320
G03 X2358.617654 Y382.007928 Z-0.125000 I-1.276720 J11.089944
G01 X2358.617654 Y382.007928 Z-0.125000
G00 Z5.000000

(Change tool to Default tool)

G00 Z5.000000
G00 X2495.937421 Y369.525704

G01 Z-0.125000 F100.0(Penetrate)
G02 X2488.109935 Y378.114954 Z-0.125000 I21.184605 J27.167051 F400.000000
G02 X2486.189924 Y384.770047 Z-0.125000 I10.244615 J6.560107
G02 X2488.195385 Y391.422546 Z-0.125000 I12.356596 J-0.096485
G02 X2496.176237 Y400.108050 Z-0.125000 I30.012934 J-19.568560
G01 X2505.748171 Y407.572159 Z-0.125000
G01 X2506.066574 Y439.929055 Z-0.125000
G01 X2506.384864 Y472.285943 Z-0.125000
G01 X2515.435562 Y479.343596 Z-0.125000
G02 X2534.643086 Y485.886193 Z-0.125000 I19.031329 J-24.405817
G02 X2554.133083 Y479.123290 Z-0.125000 I-0.182128 J-31.990416
G02 X2561.499816 Y470.885107 Z-0.125000 I-19.097212 J-24.489899
G02 X2563.466285 Y463.925186 Z-0.125000 I-11.333386 J-6.959921
G02 X2556.121195 Y448.794245 Z-0.125000 I-19.257472 J-0.000000
G02 X2534.917447 Y441.449121 Z-0.125000 I-21.203748 J26.932704
G01 X2525.035294 Y441.449121 Z-0.125000
G01 X2525.035294 Y424.538551 Z-0.125000
G03 X2525.357974 Y413.318953 Z-0.125000 I195.214554 J0.000000
G03 X2526.329636 Y408.896850 Z-0.125000 I14.293289 J0.822841
G03 X2528.738003 Y405.279987 Z-0.125000 I9.591083 J3.776167
G03 X2534.643014 Y400.135964 Z-0.125000 I50.240259 J51.711326
G02 X2542.652255 Y391.429712 Z-0.125000 I-22.174377 J-28.436269
G02 X2544.666238 Y384.776922 Z-0.125000 I-10.347214 J-6.763626
G02 X2542.750347 Y378.121185 Z-0.125000 I-12.140668 J-0.108858
G02 X2534.917447 Y369.525704 Z-0.125000 I-29.030047 J18.587808
G02 X2524.990414 Y363.974980 Z-0.125000 I-23.026502 J29.528861
G02 X2515.427575 Y362.247744 Z-0.125000 I-9.562840 J25.608703
G02 X2505.864614 Y363.974990 Z-0.125000 I-0.000000 J27.336463
G02 X2495.937506 Y369.525704 Z-0.125000 I13.099595 J35.080178
G01 X2495.937421 Y369.525704 Z-0.125000
G00 Z5.000000

(Change tool to Default tool)

G00 Z5.000000
G00 X2523.321923 Y382.007928

G01 Z-0.125000 F100.0(Penetrate)
G03 X2524.146667 Y385.464261 Z-0.125000 I-3.210484 J2.592646 F400.000000
G03 X2521.770209 Y389.257503 Z-0.125000 I-6.403133 J-1.370506
G03 X2509.415359 Y389.646885 Z-0.125000 I-6.444007 J-8.263757
G03 X2508.691467 Y380.323589 Z-0.125000 I3.382927 J-4.952413
G03 X2515.913831 Y377.931599 Z-0.125000 I6.188716 J6.586599
G03 X2523.321923 Y382.007928 Z-0.125000 I-1.276713 J11.089918
G01 X2523.321923 Y382.007928 Z-0.125000
G00 Z5.000000

(Change tool to Default tool)

G00 Z5.000000
G00 X2542.537362 Y461.209305

G01 Z-0.125000 F100.0(Penetrate)
G03 X2543.362130 Y464.665660 Z-0.125000 I-3.210319 J2.592640 F400.000000
G03 X2540.985648 Y468.458883 Z-0.125000 I-6.403229 J-1.370617
G03 X2528.630798 Y468.848265 Z-0.125000 I-6.444007 J-8.263757
G03 X2527.906905 Y459.524969 Z-0.125000 I3.382927 J-4.952413
G03 X2535.129269 Y457.132978 Z-0.125000 I6.188718 J6.586602
G03 X2542.537362 Y461.209305 Z-0.125000 I-1.276708 J11.089913
G01 X2542.537362 Y461.209305 Z-0.125000
G00 Z5.000000

(Change tool to Default tool)

G00 Z5.000000
G00 X2578.289499 Y369.525704

G01 Z-0.125000 F100.0(Penetrate)
G02 X2570.922735 Y377.763909 Z-0.125000 I19.096340 J24.489175 F400.000000
G02 X2568.956297 Y384.723806 Z-0.125000 I11.333506 J6.959896
G02 X2570.922736 Y391.683705 Z-0.125000 I13.299951 J-0.000000
G02 X2578.289499 Y399.921910 Z-0.125000 I26.463099 J-16.250964
G02 X2588.216607 Y405.472625 Z-0.125000 I23.026703 J-29.529463
G02 X2597.779568 Y407.199871 Z-0.125000 I9.562961 J-25.609216
G02 X2607.342516 Y405.472623 Z-0.125000 I-0.000000 J-27.336368
G02 X2617.269525 Y399.921910 Z-0.125000 I-13.099234 J-35.079124
G02 X2624.636288 Y391.683705 Z-0.125000 I-19.096336 J-24.489169
G02 X2626.602726 Y384.723806 Z-0.125000 I-11.333513 J-6.959899
G02 X2624.636288 Y377.763909 Z-0.125000 I-13.299944 J-0.000000
G02 X2617.269525 Y369.525704 Z-0.125000 I-26.463104 J16.250970
G02 X2607.342516 Y363.974991 Z-0.125000 I-23.026242 J29.528411
G02 X2597.779568 Y362.247744 Z-0.125000 I-9.562948 J25.609120
G02 X2588.216607 Y363.974990 Z-0.125000 I-0.000000 J27.336463
G02 X2578.289499 Y369.525704 Z-0.125000 I13.099595 J35.080178
G01 X2578.289499 Y369.525704 Z-0.125000
G00 Z5.000000

(Change tool to Default tool)

G00 Z5.000000
G00 X2605.674001 Y382.007928

G01 Z-0.125000 F100.0(Penetrate)
G03 X2606.498751 Y385.464266 Z-0.125000 I-3.210442 J2.592644 F400.000000
G03 X2604.122287 Y389.257503 Z-0.125000 I-6.403156 J-1.370534
G03 X2591.767456 Y389.646866 Z-0.125000 I-6.443982 J-8.263726
G03 X2591.043545 Y380.323589 Z-0.125000 I3.382950 J-4.952414
G03 X2598.265913 Y377.931644 Z-0.125000 I6.188698 J6.586711
G03 X2605.674001 Y382.007928 Z-0.125000 I-1.276745 J11.090044
G01 X2605.674001 Y382.007928 Z-0.125000
G00 Z5.000000

(Change tool to Default tool)

G00 Z5.000000
G00 X2660.641662 Y369.525704

G01 Z-0.125000 F100.0(Penetrate)
G02 X2653.274850 Y377.763901 Z-0.125000 I19.097020 J24.489951 F400.000000
G02 X2651.308375 Y384.723806 Z-0.125000 I11.333283 J6.959904
G02 X2653.274851 Y391.683713 Z-0.125000 I13.299766 J0.000000
G02 X2660.641662 Y399.921910 Z-0.125000 I26.463827 J-16.251749
G02 X2670.568682 Y405.472619 Z-0.125000 I23.026362 J-29.528680
G02 X2680.131646 Y407.199871 Z-0.125000 I9.562964 J-25.609145
G02 X2689.694482 Y405.472640 Z-0.125000 I0.000000 J-27.336004
G02 X2699.621603 Y399.921910 Z-0.125000 I-13.099723 J-35.080374
G02 X2706.988421 Y391.683707 Z-0.125000 I-19.096803 J-24.489768
G02 X2708.954889 Y384.723806 Z-0.125000 I-11.333320 J-6.959902
G02 X2706.988421 Y377.763907 Z-0.125000 I-13.299782 J-0.000000
G02 X2699.621603 Y369.525704 Z-0.125000 I-26.463626 J16.251571
G02 X2689.694482 Y363.974974 Z-0.125000 I-23.026844 J29.529643
G02 X2680.131646 Y362.247744 Z-0.125000 I-9.562836 J25.608774
G02 X2670.568682 Y363.974995 Z-0.125000 I0.000000 J27.336397
G02 X2660.641662 Y369.525704 Z-0.125000 I13.099342 J35.079389
G01 X2660.641662 Y369.525704 Z-0.125000
G00 Z5.000000

(Change tool to Default tool)

G00 Z5.000000
G00 X2688.026079 Y382.007928

G01 Z-0.125000 F100.0(Penetrate)
G03 X2688.850847 Y385.464281 Z-0.125000 I-3.210317 J2.592639 F400.000000
G03 X2686.474365 Y389.257503 Z-0.125000 I-6.403228 J-1.370618
G03 X2674.119534 Y389.646866 Z-0.125000 I-6.443982 J-8.263726
G03 X2673.395623 Y380.323589 Z-0.125000 I3.382950 J-4.952414
G03 X2680.617987 Y377.931599 Z-0.125000 I6.188716 J6.586599
G03 X2688.026079 Y382.007928 Z-0.125000 I-1.276713 J11.089918
G01 X2688.026079 Y382.007928 Z-0.125000
G00 Z5.000000

(Change tool to Default tool)

G00 Z5.000000
G00 X2742.993655 Y369.525704

G01 Z-0.125000 F100.0(Penetrate)
G02 X2735.626921 Y377.763886 Z-0.125000 I19.097191 J24.489884 F400.000000
G02 X2733.660453 Y384.723806 Z-0.125000 I11.333384 J6.959919
G02 X2735.626922 Y391.683728 Z-0.125000 I13.299860 J0.000000
G02 X2742.993655 Y399.921910 Z-0.125000 I26.463920 J-16.251697
G02 X2752.920879 Y405.472648 Z-0.125000 I23.027144 J-29.530372
G02 X2762.483724 Y407.199871 Z-0.125000 I9.562846 J-25.608954
G02 X2772.046685 Y405.472625 Z-0.125000 I0.000000 J-27.336463
G02 X2781.973794 Y399.921910 Z-0.125000 I-13.099595 J-35.080178
G02 X2789.340508 Y391.683727 Z-0.125000 I-19.097031 J-24.489679
G02 X2791.306967 Y384.723806 Z-0.125000 I-11.333455 J-6.959922
G02 X2789.340509 Y377.763887 Z-0.125000 I-13.299907 J-0.000000
G02 X2781.973794 Y369.525704 Z-0.125000 I-26.463750 J16.251501
G02 X2772.046685 Y363.974990 Z-0.125000 I-23.026703 J29.529463
G02 X2762.483724 Y362.247744 Z-0.125000 I-9.562961 J25.609216
G02 X2752.920879 Y363.974966 Z-0.125000 I-0.000000 J27.336176
G02 X2742.993655 Y369.525704 Z-0.125000 I13.099920 J35.081111
G01 X2742.993655 Y369.525704 Z-0.125000
G00 Z5.000000

(Change tool to Default tool)

G00 Z5.000000
G00 X2770.378270 Y382.007928

G01 Z-0.125000 F100.0(Penetrate)
G03 X2771.202950 Y385.464247 Z-0.125000 I-3.210514 J2.592575 F400.000000
G03 X2768.826443 Y389.257503 Z-0.125000 I-6.403300 J-1.370643
G03 X2756.471593 Y389.646885 Z-0.125000 I-6.444007 J-8.263757
G03 X2755.747701 Y380.323589 Z-0.125000 I3.382927 J-4.952413
G03 X2762.970126 Y377.931634 Z-0.125000 I6.188751 J6.586811
G03 X2770.378270 Y382.007928 Z-0.125000 I-1.276746 J11.090149
G01 X2770.378270 Y382.007928 Z-0.125000
G00 Z5.000000

(Change tool to Default tool)

G00 Z5.000000
G00 X1815.160069 Y384.509751

G01 Z-0.125000 F100.0(Penetrate)
G02 X1807.793200 Y392.747974 Z-0.125000 I19.096050 J24.489220 F400.000000
G02 X1805.826755 Y399.707844 Z-0.125000 I11.333366 J6.959871
G02 X1807.793203 Y406.667727 Z-0.125000 I13.299839 J-0.000000
G02 X1815.160069 Y414.905949 Z-0.125000 I26.462900 J-16.250977
G02 X1834.649966 Y421.547390 Z-0.125000 I19.318592 J-24.773983
G02 X1854.414528 Y414.691894 Z-0.125000 I-0.176829 J-32.428409
G03 X1864.376339 Y408.229575 Z-0.125000 I42.097614 J53.985087
G03 X1868.506787 Y407.199871 Z-0.125000 I4.130447 J7.769367
G03 X1872.565988 Y408.439863 Z-0.125000 I0.000000 J7.264034
G03 X1902.177704 Y429.888565 Z-0.125000 I-301.219833 J447.024104
G01 X1931.364139 Y452.577250 Z-0.125000
G01 X1930.010940 Y461.939417 Z-0.125000
G02 X1929.627984 Y467.716672 Z-0.125000 I37.067447 J5.358399
G02 X1930.415082 Y471.012950 Z-0.125000 I7.654295 J-0.085608
G02 X1932.493612 Y473.829988 Z-0.125000 I8.865420 J-4.365951
G02 X1938.339571 Y478.851411 Z-0.125000 I55.872859 J-59.133734
G02 X1958.178094 Y485.748870 Z-0.125000 I20.064062 J-25.729821
G02 X1977.668226 Y479.123290 Z-0.125000 I0.216655 J-31.342032
G02 X1985.512093 Y470.515002 Z-0.125000 I-21.222968 J-27.216163
G02 X1987.419424 Y463.857862 Z-0.125000 I-10.184183 J-6.519664
G02 X1985.387771 Y457.204444 Z-0.125000 I-12.371019 J0.140653
G02 X1977.319484 Y448.455203 Z-0.125000 I-30.539138 J20.067486
G02 X1966.983825 Y443.118193 Z-0.125000 I-19.376821 J24.848646
G02 X1955.635024 Y441.960327 Z-0.125000 I-8.695391 J29.031235
G01 X1943.632339 Y443.015291 Z-0.125000
G01 X1911.144610 Y417.615556 Z-0.125000
G02 X1877.988454 Y394.156471 Z-0.125000 I-261.789501 J334.842725
G02 X1871.339508 Y392.215832 Z-0.125000 I-6.648946 J10.419869
G03 X1864.518175 Y390.773573 Z-0.125000 I0.000000 J-16.852275
G03 X1854.414528 Y384.723806 Z-0.125000 I19.459787 J-43.961444
G02 X1834.649967 Y377.868311 Z-0.125000 I-19.941393 J25.572923
G02 X1815.160069 Y384.509751 Z-0.125000 I-0.171308 J31.415421
G01 X1815.160069 Y384.509751 Z-0.125000
G00 Z5.000000

(Change tool to Default tool)

G00 Z5.000000
G00 X1842.544487 Y396.991966

G01 Z-0.125000 F100.0(Penetrate)
G03 X1843.369257 Y400.448293 Z-0.125000 I-3.210367 J2.592647 F400.000000
G03 X1840.992744 Y404.241552 Z-0.125000 I-6.403096 J-1.370516
G03 X1828.637965 Y404.630859 Z-0.125000 I-6.443919 J-8.263729
G03 X1827.914115 Y395.307639 Z-0.125000 I3.382941 J-4.952360
G03 X1835.136302 Y392.915654 Z-0.125000 I6.188577 J6.586278
G03 X1842.544487 Y396.991966 Z-0.125000 I-1.276743 J11.090198
G01 X1842.544487 Y396.991966 Z-0.125000
G00 Z5.000000

(Change tool to Default tool)

G00 Z5.000000
G00 X1966.072703 Y461.209305

G01 Z-0.125000 F100.0(Penetrate)
G03 X1966.897416 Y464.665623 Z-0.125000 I-3.210413 J2.592589 F400.000000
G03 X1964.520876 Y468.458883 Z-0.125000 I-6.403225 J-1.370626
G03 X1952.166116 Y468.848237 Z-0.125000 I-6.443940 J-8.263672
G03 X1951.442246 Y459.524969 Z-0.125000 I3.382942 J-4.952391
G03 X1958.664528 Y457.132995 Z-0.125000 I6.188644 J6.586480
G03 X1966.072703 Y461.209305 Z-0.125000 I-1.276750 J11.090193
G01 X1966.072703 Y461.209305 Z-0.125000
G00 Z5.000000

(Change tool to Default tool)

G00 Z5.000000
G00 X2350.448675 Y448.727082

G01 Z-0.125000 F100.0(Penetrate)
G02 X2342.615830 Y457.322553 Z-0.125000 I21.197360 J27.183321 F400.000000
G02 X2340.699940 Y463.978300 Z-0.125000 I10.224826 J6.546889
G02 X2342.713925 Y470.631079 Z-0.125000 I12.361149 J-0.110835
G02 X2350.723221 Y479.337344 Z-0.125000 I30.183473 J-19.729982
G03 X2358.726461 Y487.612859 Z-0.125000 I-25.396630 J32.568769
G03 X2360.330941 Y492.546527 Z-0.125000 I-6.783112 J4.933668
G02 X2362.284009 Y497.307266 Z-0.125000 I6.778849 J-0.000000
G02 X2384.404581 Y516.949111 Z-0.125000 I159.492417 J-157.342779
G01 X2408.478334 Y535.634540 Z-0.125000
G01 X2531.924988 Y535.634540 Z-0.125000
G01 X2655.371726 Y535.634540 Z-0.125000
G01 X2705.126686 Y574.390345 Z-0.125000
G01 X2754.881561 Y613.146174 Z-0.125000
G01 X2753.530168 Y622.495547 Z-0.125000
G02 X2753.153464 Y628.275241 Z-0.125000 I36.558360 J5.284890
G02 X2753.970628 Y631.604400 Z-0.125000 I7.605224 J-0.101884
G02 X2756.105851 Y634.451536 Z-0.125000 I9.096977 J-4.598091
G02 X2762.209291 Y639.666624 Z-0.125000 I61.242505 J-65.495610
G02 X2772.904624 Y645.238184 Z-0.125000 I20.480695 J-26.264032
G02 X2784.228128 Y646.434624 Z-0.125000 I8.723781 J-28.381857
G01 X2796.216448 Y645.380919 Z-0.125000
G01 X2849.322910 Y686.833719 Z-0.125000
G02 X2903.133432 Y726.240763 Z-0.125000 I668.985953 J-857.060970
G02 X2909.730319 Y728.286547 Z-0.125000 I6.596887 J-9.613353
G03 X2916.536112 Y729.726803 Z-0.125000 I-0.000000 J16.800196
G03 X2926.638817 Y735.778560 Z-0.125000 I-19.503594 J44.017510
G02 X2946.403326 Y742.634078 Z-0.125000 I19.941320 J-25.572598
G02 X2965.893388 Y735.992625 Z-0.125000 I0.171291 J-31.415901
G02 X2973.684432 Y727.445594 Z-0.125000 I-21.099114 J-27.057369
G02 X2975.632383 Y720.794521 Z-0.125000 I-10.380716 J-6.651073
G02 X2973.684432 Y714.143447 Z-0.125000 I-12.328667 J-0.000000
G02 X2965.893388 Y705.596417 Z-0.125000 I-28.890157 J18.510338
G02 X2946.403321 Y698.954957 Z-0.125000 I-19.318750 J24.774354
G02 X2926.638817 Y705.810482 Z-0.125000 I0.176838 J32.428152
G03 X2916.676297 Y712.269645 Z-0.125000 I-41.975983 J-53.830548
G03 X2912.528835 Y713.302495 Z-0.125000 I-4.147462 J-7.810754
G03 X2908.473099 Y712.002749 Z-0.125000 I-0.000000 J-6.977647
G03 X2858.271894 Y674.546695 Z-0.125000 I877.229632 J-1228.093649
G01 X2808.516963 Y635.790866 Z-0.125000
G01 X2809.868356 Y626.441493 Z-0.125000
G02 X2810.244947 Y620.661801 Z-0.125000 I-36.561475 J-5.284373
G02 X2809.427768 Y617.332640 Z-0.125000 I-7.605524 J0.101986
G02 X2807.292574 Y614.485501 Z-0.125000 I-9.097077 J4.598087
G02 X2801.189232 Y609.270416 Z-0.125000 I-61.240279 J65.492015
G02 X2790.493751 Y603.698851 Z-0.125000 I-20.481218 J26.265270
G02 X2779.170283 Y602.502416 Z-0.125000 I-8.723752 J28.381784
G01 X2767.181991 Y603.556121 Z-0.125000
G01 X2714.075473 Y562.103298 Z-0.125000
G01 X2660.968955 Y520.650501 Z-0.125000
G01 X2537.335131 Y520.650501 Z-0.125000
G01 X2413.701195 Y520.650501 Z-0.125000
G01 X2396.623844 Y507.214282 Z-0.125000
G03 X2380.751503 Y493.192885 Z-0.125000 I115.066889 J-146.251210
G03 X2379.546464 Y490.303721 Z-0.125000 I2.860966 J-2.889164
G03 X2380.650396 Y487.368434 Z-0.125000 I4.454339 J0.000000
G03 X2389.154183 Y479.337344 Z-0.125000 I46.606007 J40.831467
G02 X2397.163441 Y470.631088 Z-0.125000 I-22.174357 J-28.436296
G02 X2399.177433 Y463.978300 Z-0.125000 I-10.347236 J-6.763649
G02 X2397.261559 Y457.322554 Z-0.125000 I-12.140708 J-0.108884
G02 X2389.428729 Y448.727082 Z-0.125000 I-29.030038 J18.587654
G02 X2379.501612 Y443.176356 Z-0.125000 I-23.026830 J29.529640
G02 X2369.938745 Y441.449121 Z-0.125000 I-9.562868 J25.608874
G02 X2360.375731 Y443.176386 Z-0.125000 I-0.000000 J27.336476
G02 X2350.448675 Y448.727082 Z-0.125000 I13.099688 J35.080225
G01 X2350.448675 Y448.727082 Z-0.125000
G00 Z5.000000

(Change tool to Default tool)

G00 Z5.000000
G00 X2377.833093 Y461.209305

G01 Z-0.125000 F100.0(Penetrate)
G03 X2378.657901 Y464.665654 Z-0.125000 I-3.210398 J2.592704 F400.000000
G03 X2376.281463 Y468.458883 Z-0.125000 I-6.403001 J-1.370418
G03 X2363.926636 Y468.848258 Z-0.125000 I-6.443990 J-8.263735
G03 X2363.202749 Y459.524969 Z-0.125000 I3.382931 J-4.952407
G03 X2370.425122 Y457.132977 Z-0.125000 I6.188723 J6.586607
G03 X2377.833093 Y461.209305 Z-0.125000 I-1.276676 J11.089592
G01 X2377.833093 Y461.209305 Z-0.125000
G00 Z5.000000

(Change tool to Default tool)

G00 Z5.000000
G00 X2789.593709 Y621.752625

G01 Z-0.125000 F100.0(Penetrate)
G03 X2790.418468 Y625.208965 Z-0.125000 I-3.210321 J2.592626 F400.000000
G03 X2788.041882 Y629.002237 Z-0.125000 I-6.403128 J-1.370598
G03 X2775.687193 Y629.391553 Z-0.125000 I-6.443878 J-8.263606
G03 X2774.963337 Y620.068294 Z-0.125000 I3.382972 J-4.952383
G03 X2782.185546 Y617.676324 Z-0.125000 I6.188578 J6.586323
G03 X2789.593709 Y621.752625 Z-0.125000 I-1.276767 J11.090212
G01 X2789.593709 Y621.752625 Z-0.125000
G00 Z5.000000

(Change tool to Default tool)

G00 Z5.000000
G00 X2954.298006 Y718.078626

G01 Z-0.125000 F100.0(Penetrate)
G03 X2955.122671 Y721.534908 Z-0.125000 I-3.210549 J2.592556 F400.000000
G03 X2952.746066 Y725.328209 Z-0.125000 I-6.403114 J-1.370568
G03 X2940.391437 Y725.717548 Z-0.125000 I-6.443864 J-8.263560
G03 X2939.667606 Y716.394295 Z-0.125000 I3.382945 J-4.952366
G03 X2946.889692 Y714.002296 Z-0.125000 I6.188496 J6.586017
G03 X2954.298006 Y718.078626 Z-0.125000 I-1.276793 J11.090533
G01 X2954.298006 Y718.078626 Z-0.125000
G00 Z5.000000

(Change tool to Default tool)

G00 Z5.000000
G00 X2432.800866 Y448.727082

G01 Z-0.125000 F100.0(Penetrate)
G02 X2425.429374 Y456.963041 Z-0.125000 I19.146310 J24.553526 F400.000000
G02 X2423.467580 Y463.894534 Z-0.125000 I11.264422 J6.931493
G02 X2424.602872 Y469.192608 Z-0.125000 I12.929920 J0.000000
G02 X2429.309912 Y475.639931 Z-0.125000 I17.594213 J-7.903212
G02 X2436.494671 Y481.162400 Z-0.125000 I39.662929 J-44.166723
G02 X2457.055891 Y494.057759 Z-0.125000 I353.881207 J-541.412011
G01 X2472.801210 Y503.525875 Z-0.125000
G01 X2612.606564 Y503.525875 Z-0.125000
G01 X2752.411919 Y503.525875 Z-0.125000
G01 X2761.565514 Y509.858876 Z-0.125000
G03 X2770.577265 Y516.386321 Z-0.125000 I-146.532348 J211.786180
G03 X2845.156181 Y573.203734 Z-0.125000 I-11033.493255 J14559.992223
G01 X2919.593704 Y630.215595 Z-0.125000
G01 X2918.238190 Y639.592569 Z-0.125000
G02 X2917.853088 Y645.381479 Z-0.125000 I37.260562 J5.385993
G02 X2918.638840 Y648.678837 Z-0.125000 I7.655277 J-0.081934
G02 X2920.716930 Y651.496458 Z-0.125000 I8.856133 J-4.356553
G02 X2926.564875 Y656.519383 Z-0.125000 I55.910004 J-59.177571
G02 X2946.403387 Y663.416784 Z-0.125000 I20.064056 J-25.730080
G02 X2965.893388 Y656.791248 Z-0.125000 I0.216656 J-31.341811
G02 X2973.728209 Y648.193567 Z-0.125000 I-21.201505 J-27.188989
G02 X2975.642649 Y641.537595 Z-0.125000 I-10.217801 J-6.542229
G02 X2973.625654 Y634.884695 Z-0.125000 I-12.362839 J0.115905
G02 X2965.606368 Y626.171124 Z-0.125000 I-30.243954 J19.787215
G02 X2955.343509 Y620.836703 Z-0.125000 I-19.547025 J25.066859
G02 X2944.331893 Y619.674086 Z-0.125000 I-8.508970 J27.862881
G01 X2932.678090 Y620.678882 Z-0.125000
G01 X2864.909197 Y568.138832 Z-0.125000
G01 X2797.140529 Y515.598797 Z-0.125000
G01 X2803.831481 Y509.398103 Z-0.125000
G02 X2809.484115 Y501.674377 Z-0.125000 I-17.079616 J-18.430084
G02 X2810.645882 Y495.063455 Z-0.125000 I-11.541516 J-5.435784
G02 X2808.382003 Y488.619318 Z-0.125000 I-13.986495 J1.293844
G02 X2801.189232 Y480.835747 Z-0.125000 I-27.329599 J18.039992
G02 X2781.699214 Y474.194317 Z-0.125000 I-19.318703 J24.774360
G02 X2761.934661 Y481.049812 Z-0.125000 I0.176837 J32.428409
G01 X2752.326942 Y488.541825 Z-0.125000
G01 X2614.311553 Y488.541825 Z-0.125000
G03 X2507.549634 Y488.196189 Z-0.125000 I0.000001 J-16488.808817
G03 X2483.262609 Y487.071016 Z-0.125000 I1.977189 J-305.359939
G03 X2472.071013 Y484.963565 Z-0.125000 I4.905069 J-56.818476
G03 X2470.555061 Y483.513343 Z-0.125000 I0.644737 J-2.191400
G03 X2470.992284 Y481.235158 Z-0.125000 I2.207791 J-0.757335
G03 X2475.358115 Y476.546011 Z-0.125000 I60.716691 J52.153312
G02 X2480.263165 Y469.187356 Z-0.125000 I-15.530928 J-15.666537
G02 X2481.119876 Y462.589089 Z-0.125000 I-12.124433 J-4.928972
G02 X2478.734366 Y456.214964 Z-0.125000 I-14.790864 J1.902015
G02 X2471.780807 Y448.727082 Z-0.125000 I-26.664042 J17.788717
G02 X2461.853797 Y443.176385 Z-0.125000 I-23.026278 J29.528587
G02 X2452.290738 Y441.449121 Z-0.125000 I-9.563059 J25.609467
G02 X2442.727883 Y443.176358 Z-0.125000 I-0.000000 J27.336014
G02 X2432.800866 Y448.727082 Z-0.125000 I13.099351 J35.079312
G01 X2432.800866 Y448.727082 Z-0.125000
G00 Z5.000000

(Change tool to Default tool)

G00 Z5.000000
G00 X2460.185284 Y461.209305

G01 Z-0.125000 F100.0(Penetrate)
G03 X2461.010067 Y464.665643 Z-0.125000 I-3.210342 J2.592659 F400.000000
G03 X2458.633570 Y468.458883 Z-0.125000 I-6.403081 J-1.370517
G03 X2446.278773 Y468.848179 Z-0.125000 I-6.443920 J-8.263760
G03 X2445.554912 Y459.524969 Z-0.125000 I3.382942 J-4.952360
G03 X2452.777117 Y457.132997 Z-0.125000 I6.188580 J6.586325
G03 X2460.185284 Y461.209305 Z-0.125000 I-1.276756 J11.090190
G01 X2460.185284 Y461.209305 Z-0.125000
G00 Z5.000000

(Change tool to Default tool)

G00 Z5.000000
G00 X2789.593709 Y493.317970

G01 Z-0.125000 F100.0(Penetrate)
G03 X2790.418465 Y496.774285 Z-0.125000 I-3.210277 J2.592606 F400.000000
G03 X2788.041882 Y500.567556 Z-0.125000 I-6.403151 J-1.370610
G03 X2775.687196 Y500.956879 Z-0.125000 I-6.443881 J-8.263606
G03 X2774.963337 Y491.633631 Z-0.125000 I3.382963 J-4.952378
G03 X2782.185542 Y489.241660 Z-0.125000 I6.188578 J6.586322
G03 X2789.593709 Y493.317970 Z-0.125000 I-1.276760 J11.090195
G01 X2789.593709 Y493.317970 Z-0.125000
G00 Z5.000000

(Change tool to Default tool)

G00 Z5.000000
G00 X2954.298006 Y638.877249

G01 Z-0.125000 F100.0(Penetrate)
