%
(Header)
(Generated by gcodetools from Inkscape.)
(Using default header. To add your own header create file "header" in the output dir.)
M3
(Header end.)
G21 (All units in mm)

(Start cutting path id: path1458)
(Change tool to Default tool)

G00 Z5.000000
G00 X180.366821 Y51.198797

G01 Z-0.125000 F100.0(Penetrate)
G03 X181.118100 Y62.025067 Z-0.125000 I-663.725921 J51.497892 F400.000000
G03 X182.054487 Y78.771485 Z-0.125000 I-1586.940820 J97.134194
G02 X193.428339 Y202.020126 Z-0.125000 I1491.937669 J-75.532540
G02 X219.369068 Y356.698230 Z-0.125000 I2377.295758 J-319.176826
G03 X227.918145 Y400.714141 Z-0.125000 I-3129.548068 J630.680793
G03 X227.714411 Y401.337686 Z-0.125000 I-0.671728 J0.125579
G03 X227.069524 Y401.637276 Z-0.125000 I-0.774840 J-0.824018
G03 X196.576581 Y404.939265 Z-0.125000 I-242.037153 J-2092.697545
G02 X126.757874 Y412.609494 Z-0.125000 I398.857423 J3952.222666
G02 X77.855016 Y419.045268 Z-0.125000 I231.132846 J1945.299898
G02 X57.751964 Y422.921847 Z-0.125000 I31.109496 J215.389949
G02 X48.262515 Y426.395206 Z-0.125000 I10.514413 J43.425664
G02 X40.927917 Y432.252909 Z-0.125000 I10.093642 J20.159320
G02 X37.221180 Y439.390358 Z-0.125000 I15.040792 J12.342477
G02 X36.109951 Y448.672855 Z-0.125000 I29.810787 J8.276479
G02 X38.560827 Y480.567088 Z-0.125000 I362.025603 J-11.778156
G02 X55.798959 Y582.880000 Z-0.125000 I1118.653194 J-135.867005
G02 X77.760805 Y661.839467 Z-0.125000 I687.231735 J-148.613183
G02 X88.996274 Y690.760866 Z-0.125000 I358.629748 J-122.678429
G02 X96.291400 Y702.106419 Z-0.125000 I38.809392 J-16.936080
G02 X106.798455 Y709.498641 Z-0.125000 I21.306319 J-19.120784
G02 X125.787879 Y715.356110 Z-0.125000 I42.841944 J-105.180205
G02 X172.259629 Y722.919961 Z-0.125000 I98.429785 J-458.203963
G02 X302.092418 Y735.023528 Z-0.125000 I398.520878 J-3572.463790
G03 X331.780005 Y737.405822 Z-0.125000 I-211.966889 J2827.651747
G03 X332.131333 Y737.593020 Z-0.125000 I-0.043128 J0.504223
G03 X332.351275 Y737.961958 Z-0.125000 I-1.204818 J0.968278
G03 X341.158776 Y759.053367 Z-0.125000 I-4029.281249 J1694.960545
G02 X407.768048 Y900.379009 Z-0.125000 I1520.489802 J-630.273832
G02 X466.563684 Y995.346707 Z-0.125000 I743.080642 J-394.365713
G02 X475.589493 Y1007.298090 Z-0.125000 I233.962454 J-167.306990
G02 X479.477627 Y1011.322004 Z-0.125000 I22.975636 J-18.309934
G02 X483.732426 Y1013.246874 Z-0.125000 I5.445156 J-6.371251
G02 X486.862772 Y1012.695206 Z-0.125000 I0.724241 J-5.047560
G02 X492.898439 Y1007.499249 Z-0.125000 I-8.635127 J-16.134156
G02 X530.436472 Y954.251999 Z-0.125000 I-981.646505 J-731.892545
G02 X579.357211 Y872.396054 Z-0.125000 I-814.127994 J-542.105528
G02 X628.317997 Y770.707000 Z-0.125000 I-1208.911945 J-644.692701
G03 X638.408502 Y747.554381 Z-0.125000 I3326.161443 J1435.851285
G03 X641.291358 Y742.321096 Z-0.125000 I30.757484 J13.532669
G03 X645.012890 Y739.706921 Z-0.125000 I5.272157 J3.549359
G03 X649.659360 Y739.006897 Z-0.125000 I5.922780 J23.542279
G02 X716.927330 Y734.260940 Z-0.125000 I-99.410322 J-1888.108838
G02 X827.090553 Y723.304165 Z-0.125000 I-449.212281 J-5075.824354
G02 X869.993679 Y717.853712 Z-0.125000 I-145.049197 J-1313.332482
G02 X889.055448 Y714.217333 Z-0.125000 I-30.163182 J-209.893034
G02 X906.184063 Y708.063426 Z-0.125000 I-19.133010 J-80.168912
G02 X913.462378 Y702.690767 Z-0.125000 I-11.095273 J-22.646991
G02 X921.789487 Y689.779367 Z-0.125000 I-30.963654 J-29.110725
G02 X938.636668 Y643.067099 Z-0.125000 I-511.169224 J-210.751745
G02 X951.654782 Y596.218550 Z-0.125000 I-769.425275 J-239.038254
G02 X962.025401 Y546.374227 Z-0.125000 I-692.115609 J-170.002708
G02 X972.174432 Y477.858991 Z-0.125000 I-1527.451460 J-261.267773
G02 X973.857765 Y451.986923 Z-0.125000 I-215.451821 J-27.008892
G02 X972.362761 Y438.930368 Z-0.125000 I-55.236142 J-0.289211
G02 X968.713521 Y431.570304 Z-0.125000 I-17.753310 J4.217675
G02 X962.208035 Y426.486567 Z-0.125000 I-14.613090 J11.995583
G02 X949.265965 Y422.029034 Z-0.125000 I-26.375436 J55.561976
G02 X905.960718 Y414.753445 Z-0.125000 I-89.286766 J398.929359
G02 X772.339780 Y402.001360 Z-0.125000 I-429.638025 J3795.461669
G03 X750.282986 Y399.397863 Z-0.125000 I21.564687 J-277.429945
G03 X749.396637 Y398.359734 Z-0.125000 I0.164776 J-1.038129
G03 X749.579016 Y396.521044 Z-0.125000 I9.359757 J-0.000000
G03 X754.382403 Y373.474394 Z-0.125000 I1489.943221 J298.510369
G02 X774.285256 Y271.836490 Z-0.125000 I-2549.601931 J-552.033671
G02 X789.314741 Y174.185739 Z-0.125000 I-2338.397972 J-409.886199
G02 X802.268375 Y68.409407 Z-0.125000 I-5257.532582 J-697.531897
G02 X801.431444 Y66.268871 Z-0.125000 I-2.451742 J-0.275275
G02 X801.139194 Y66.296010 Z-0.125000 I-0.133112 J0.153704
G02 X763.963707 Y113.379183 Z-0.125000 I6651.567082 J5290.099522
G03 X694.436542 Y199.383464 Z-0.125000 I-2895.198323 J-2269.416672
G03 X657.130329 Y241.050721 Z-0.125000 I-607.774787 J-506.628474
G03 X617.015069 Y277.178068 Z-0.125000 I-270.248905 J-259.744932
G03 X591.344007 Y292.979564 Z-0.125000 I-84.832356 J-109.065071
G03 X575.420419 Y298.888869 Z-0.125000 I-41.793121 J-88.209390
G03 X561.565026 Y300.907020 Z-0.125000 I-15.050407 J-54.756483
G03 X547.500506 Y299.647816 Z-0.125000 I-1.349300 J-64.104687
G03 X527.852812 Y294.315943 Z-0.125000 I30.905446 J-152.751398
G03 X479.146087 Y271.986585 Z-0.125000 I87.484176 J-255.114390
G03 X389.966639 Y214.047208 Z-0.125000 I573.890705 J-980.925782
G03 X305.810528 Y149.594756 Z-0.125000 I1010.283684 J-1406.303845
G03 X199.705574 Y58.576142 Z-0.125000 I1779.990134 J-2182.378832
G01 X179.527263 Y40.378228 Z-0.125000
G01 X180.366821 Y51.198797 Z-0.125000
G00 Z5.000000

(Change tool to Default tool)

G00 Z5.000000
G00 X201.234998 Y62.253441

G01 Z-0.125000 F100.0(Penetrate)
G02 X218.550449 Y77.642974 Z-0.125000 I964.218901 J-1067.449898 F400.000000
G02 X247.561305 Y102.764015 Z-0.125000 I2597.562284 J-2970.464272
G02 X371.861016 Y203.110683 Z-0.125000 I1755.015069 J-2046.783755
G02 X451.226841 Y257.602391 Z-0.125000 I608.340232 J-800.989463
G02 X535.483437 Y299.041673 Z-0.125000 I255.708637 J-413.543493
G02 X569.845730 Y302.043921 Z-0.125000 I22.537806 J-59.808642
G02 X602.606283 Y288.496880 Z-0.125000 I-16.030640 J-85.152231
G02 X658.394476 Y241.707575 Z-0.125000 I-205.821035 J-302.059723
G02 X695.364973 Y200.752378 Z-0.125000 I-508.668118 J-496.342036
G02 X777.687863 Y98.771755 Z-0.125000 I-3078.831938 J-2569.575364
G03 X797.935817 Y73.559639 Z-0.125000 I921.203306 J719.085485
G03 X798.539796 Y73.530985 Z-0.125000 I0.315015 J0.260240
G03 X798.994266 Y74.790744 Z-0.125000 I-1.113598 J1.113598
G03 X794.743473 Y115.960758 Z-0.125000 I-2072.384084 J-193.168654
G03 X790.139445 Y154.544726 Z-0.125000 I-3252.651346 J-368.555539
G03 X784.988924 Y193.122935 Z-0.125000 I-2406.121635 J-301.604960
G03 X743.091978 Y415.495685 Z-0.125000 I-2464.165879 J-349.136876
G03 X685.732489 Y616.462743 Z-0.125000 I-2196.332895 J-518.202325
G03 X608.455609 Y810.684171 Z-0.125000 I-1824.308052 J-613.372047
G03 X529.840870 Y951.991336 Z-0.125000 I-983.509224 J-454.643079
G03 X496.577538 Y999.944959 Z-0.125000 I-1012.664157 J-666.927404
G03 X487.381299 Y1010.161700 Z-0.125000 I-54.332038 J-39.657862
G03 X484.383303 Y1011.346223 Z-0.125000 I-3.075931 J-3.398914
G03 X480.250524 Y1009.827132 Z-0.125000 I-0.103708 J-6.099142
G03 X476.261808 Y1005.554551 Z-0.125000 I19.676906 J-22.367742
G03 X465.634750 Y991.031213 Z-0.125000 I338.945711 J-259.164015
G03 X378.318987 Y839.433001 Z-0.125000 I814.993376 J-570.355002
G03 X290.473516 Y617.408221 Z-0.125000 I1876.002794 J-870.642748
G03 X227.270321 Y387.493292 Z-0.125000 I2232.623788 J-737.388896
G03 X190.074339 Y156.705261 Z-0.125000 I1977.394422 J-437.087028
G03 X186.278147 Y115.387515 Z-0.125000 I1979.478715 J-202.703818
G03 X183.917696 Y82.172686 Z-0.125000 I1619.361312 J-131.773139
G03 X182.516034 Y47.616253 Z-0.125000 I856.241934 J-52.037137
G03 X183.390346 Y46.723938 Z-0.125000 I0.874313 J-0.017820
G03 X183.960670 Y46.937353 Z-0.125000 I0.000000 J0.868765
G03 X201.234998 Y62.253441 Z-0.125000 I-819.578148 J941.764868
G01 X201.234998 Y62.253441 Z-0.125000
G00 Z5.000000

(Change tool to Default tool)

G00 Z5.000000
G00 X193.717913 Y78.407305

G01 Z-0.125000 F100.0(Penetrate)
G03 X194.322061 Y82.428791 Z-0.125000 I-75.947233 J13.465681 F400.000000
G03 X198.076014 Y113.732440 Z-0.125000 I-4601.917200 J567.741661
G02 X241.698888 Y393.366830 Z-0.125000 I3623.357154 J-422.022763
G02 X293.830453 Y598.224289 Z-0.125000 I1865.291052 J-365.612279
G02 X370.422773 Y793.760417 Z-0.125000 I1463.072103 J-460.322638
G02 X465.156976 Y962.612473 Z-0.125000 I1261.238551 J-596.614802
G02 X483.709365 Y990.329528 Z-0.125000 I1527.425486 J-1002.313521
G02 X484.276092 Y990.619549 Z-0.125000 I0.549557 J-0.375154
G02 X485.070069 Y990.205289 Z-0.125000 I-0.026620 J-1.019023
G02 X500.692889 Y968.566306 Z-0.125000 I-1096.992423 J-808.460993
G02 X514.998336 Y948.044716 Z-0.125000 I-1511.101113 J-1068.624238
G02 X525.446727 Y932.401403 Z-0.125000 I-589.632889 J-405.135134
G02 X567.493550 Y861.296357 Z-0.125000 I-831.097812 J-539.440677
G02 X611.004087 Y772.892077 Z-0.125000 I-1242.263191 J-666.322729
G02 X663.182920 Y641.777433 Z-0.125000 I-1474.335125 J-662.671408
G02 X711.410986 Y485.276245 Z-0.125000 I-2139.266308 J-744.927008
G02 X748.686859 Y325.866770 Z-0.125000 I-2390.998686 J-643.167533
G02 X776.328116 Y158.293946 Z-0.125000 I-2511.550206 J-500.348137
G02 X780.533743 Y118.570024 Z-0.125000 I-797.478633 J-104.514765
G02 X779.566503 Y118.224035 Z-0.125000 I-0.530174 J-0.042848
G03 X779.135664 Y118.823722 Z-0.125000 I-18.437804 J-12.791860
G03 X760.156811 Y144.323269 Z-0.125000 I-33303.188781 J-24767.148772
G03 X710.805236 Y206.312198 Z-0.125000 I-987.952718 J-735.904311
G03 X669.256585 Y251.484811 Z-0.125000 I-598.299092 J-508.606670
G03 X623.549101 Y292.474538 Z-0.125000 I-381.781527 J-379.744109
G03 X594.257416 Y311.112793 Z-0.125000 I-101.151927 J-126.632923
G03 X572.492594 Y318.838439 Z-0.125000 I-43.386808 J-87.709130
G03 X554.717631 Y320.071091 Z-0.125000 I-12.869345 J-56.802507
G03 X512.600143 Y308.686112 Z-0.125000 I10.281773 J-121.633306
G03 X422.805115 Y257.769463 Z-0.125000 I307.364992 J-646.697596
G03 X338.752203 Y196.646061 Z-0.125000 I707.009142 J-1060.586551
G03 X219.594378 Y96.670893 Z-0.125000 I1690.615858 J-2135.999622
G02 X194.445942 Y74.651004 Z-0.125000 I-1486.451858 J1672.273582
G02 X193.774259 Y74.401358 Z-0.125000 I-0.671683 J0.778776
G02 X193.421999 Y74.748696 Z-0.125000 I0.000000 J0.352294
G02 X193.717885 Y78.407305 Z-0.125000 I19.393109 J0.272875
G01 X193.717913 Y78.407305 Z-0.125000
G00 Z5.000000

(Change tool to Default tool)

G00 Z5.000000
G00 X222.068944 Y101.538352

G01 Z-0.125000 F100.0(Penetrate)
G02 X321.033394 Y185.090153 Z-0.125000 I1707.596201 J-1922.207323 F400.000000
G02 X398.544127 Y243.284196 Z-0.125000 I948.903499 J-1183.161932
G02 X480.582862 Y295.131584 Z-0.125000 I575.791931 J-820.253255
G02 X527.977272 Y316.276388 Z-0.125000 I134.036505 J-236.744437
G02 X557.109430 Y322.128562 Z-0.125000 I37.689223 J-112.181065
G02 X578.328144 Y319.926593 Z-0.125000 I4.410406 J-60.835627
G02 X605.425155 Y307.424580 Z-0.125000 I-26.960691 J-94.051116
G02 X650.328932 Y272.397605 Z-0.125000 I-204.326851 J-308.238620
G02 X690.828777 Y231.743795 Z-0.125000 I-404.971417 J-443.937841
G02 X743.873577 Y168.911739 Z-0.125000 I-881.129057 J-797.683955
G02 X760.456091 Y147.485465 Z-0.125000 I-1348.822822 J-1061.029367
G02 X769.100574 Y135.778822 Z-0.125000 I-393.903677 J-299.913491
G03 X777.621980 Y124.527731 Z-0.125000 I213.665538 J152.974502
G03 X778.129936 Y124.499670 Z-0.125000 I0.266541 J0.213376
G03 X778.748023 Y126.309464 Z-0.125000 I-1.534477 J1.534503
G03 X770.654455 Y185.059362 Z-0.125000 I-3031.790648 J-387.736435
G03 X762.188957 Y239.962757 Z-0.125000 I-4306.136044 J-635.854334
G03 X754.337953 Y285.623780 Z-0.125000 I-2096.337753 J-336.941021
G03 X709.768971 Y484.443525 Z-0.125000 I-2548.197534 J-466.818467
G03 X656.554458 Y654.434118 Z-0.125000 I-1978.284596 J-525.965331
G03 X587.406810 Y818.449896 Z-0.125000 I-1607.881414 J-581.285121
G03 X517.405623 Y940.997720 Z-0.125000 I-935.656290 J-453.194366
G03 X486.648123 Y985.128651 Z-0.125000 I-1028.848616 J-684.282642
G03 X484.344051 Y986.299540 Z-0.125000 I-2.304071 J-1.681527
G03 X483.294182 Y985.755249 Z-0.125000 I-0.000000 J-1.284679
G03 X467.418945 Y962.573089 Z-0.125000 I833.993888 J-588.149188
G03 X452.959399 Y940.415190 Z-0.125000 I1294.721202 J-860.691095
G03 X439.762169 Y919.235838 Z-0.125000 I845.660631 J-541.647525
G03 X374.508925 Y798.443366 Z-0.125000 I1185.907930 J-718.660208
G03 X318.725861 Y665.463069 Z-0.125000 I1339.638889 J-640.146838
G03 X275.332820 Y527.660997 Z-0.125000 I1559.696192 J-566.872064
G03 X237.524060 Y362.796290 Z-0.125000 I2264.297766 J-606.043760
G03 X219.872311 Y258.718532 Z-0.125000 I2429.037060 J-465.504212
G03 X196.539085 Y85.346896 Z-0.125000 I6718.825362 J-992.509227
G01 X195.656644 Y78.083625 Z-0.125000
G01 X199.030027 Y81.076140 Z-0.125000
G03 X202.402474 Y84.069518 Z-0.125000 I-4782.190331 J5391.106984
G01 X222.068944 Y101.538352 Z-0.125000
G00 Z5.000000

(Change tool to Default tool)

G00 Z5.000000
G00 X789.096612 Y405.099793

G01 Z-0.125000 F100.0(Penetrate)
G03 X908.754702 Y417.195408 Z-0.125000 I-367.342507 J4231.920644 F400.000000
G03 X946.254541 Y423.236945 Z-0.125000 I-48.578204 J420.926633
G03 X960.338905 Y427.569619 Z-0.125000 I-15.970601 J76.974741
G03 X966.927932 Y432.131034 Z-0.125000 I-7.239042 J17.496576
G03 X970.709110 Y438.974468 Z-0.125000 I-11.664403 J10.911207
G03 X972.272720 Y451.051159 Z-0.125000 I-45.855922 J12.076691
G03 X971.110399 Y471.071344 Z-0.125000 I-172.998162 J0.000000
G03 X964.788512 Y517.629382 Z-0.125000 I-1229.840502 J-143.285787
G03 X956.968603 Y563.210234 Z-0.125000 I-1430.643911 J-221.981839
G03 X949.571273 Y597.358942 Z-0.125000 I-625.661617 J-117.655947
G03 X942.945023 Y621.932810 Z-0.125000 I-546.602724 J-134.209019
G03 X933.581345 Y652.233547 Z-0.125000 I-1108.725265 J-326.026424
G03 X922.992760 Y683.031339 Z-0.125000 I-874.601741 J-283.477574
G03 X918.762484 Y692.412092 Z-0.125000 I-64.716986 J-23.540098
G03 X912.029933 Y701.457540 Z-0.125000 I-35.134746 J-19.122633
G03 X902.543190 Y708.118472 Z-0.125000 I-23.321684 J-23.129448
G03 X890.960110 Y712.090837 Z-0.125000 I-24.747876 J-53.288885
G03 X866.391945 Y716.733552 Z-0.125000 I-71.456544 J-310.805501
G03 X779.528087 Y727.366603 Z-0.125000 I-249.834526 J-1680.834149
G03 X660.292901 Y736.590933 Z-0.125000 I-304.350082 J-3158.839480
G01 X643.296095 Y737.584130 Z-0.125000
G01 X654.687882 Y708.400320 Z-0.125000
G02 X675.878415 Y652.110518 Z-0.125000 I-2313.301429 J-902.985560
G02 X688.748238 Y614.489520 Z-0.125000 I-1020.090401 J-369.976093
G01 X693.313465 Y600.301052 Z-0.125000
G01 X775.764180 Y600.286376 Z-0.125000
G02 X858.087631 Y599.491523 Z-0.125000 I-1.113144 J-4378.830997
G02 X863.166540 Y598.614069 Z-0.125000 I-0.324264 J-17.014596
G02 X882.762446 Y574.665945 Z-0.125000 I-9.218908 J-27.534889
G02 X869.578544 Y547.102163 Z-0.125000 I-28.094509 J-3.497105
G01 X862.524851 Y542.732065 Z-0.125000
G01 X787.260079 Y542.003705 Z-0.125000
G01 X711.995335 Y541.275346 Z-0.125000
G01 X720.320044 Y511.829493 Z-0.125000
G02 X728.376661 Y482.312351 Z-0.125000 I-1623.817686 J-459.074350
G02 X738.629690 Y442.271762 Z-0.125000 I-2978.037544 J-783.906879
G03 X749.808437 Y403.687292 Z-0.125000 I512.618565 J127.604983
G03 X751.923768 Y402.159884 Z-0.125000 I2.115331 J0.701072
G03 X755.227249 Y402.290299 Z-0.125000 I0.000000 J41.904682
G03 X789.096612 Y405.099370 Z-0.125000 I-349.409361 J4418.466606
G01 X789.096612 Y405.099793 Z-0.125000
G00 Z5.000000

(Change tool to Default tool)

G00 Z5.000000
G00 X236.474662 Y436.028724

G01 Z-0.125000 F100.0(Penetrate)
G02 X254.352116 Y507.049469 Z-0.125000 I3288.677566 J-790.070672 F400.000000
G02 X263.679806 Y539.365718 Z-0.125000 I689.919730 J-181.632609
G03 X262.803155 Y540.624560 Z-0.125000 I-0.924737 J0.290687
G03 X205.022494 Y542.279126 Z-0.125000 I-68.280957 J-1374.770191
G02 X145.967742 Y544.210561 Z-0.125000 I8.991765 J1178.710822
G02 X139.325675 Y546.078063 Z-0.125000 I0.927819 J16.045468
G02 X133.723167 Y550.138865 Z-0.125000 I11.950006 J22.382061
G02 X128.764556 Y556.196068 Z-0.125000 I22.464439 J23.448311
G02 X126.068445 Y581.768981 Z-0.125000 I24.451103 J15.506420
G02 X144.544574 Y598.751567 Z-0.125000 I25.855415 J-9.587479
G02 X150.056622 Y599.562509 Z-0.125000 I5.986918 J-21.555226
G02 X216.242120 Y600.273959 Z-0.125000 I67.036259 J-3157.377429
G01 X282.522254 Y600.291456 Z-0.125000
G01 X295.410327 Y638.520235 Z-0.125000
G02 X308.663391 Y676.617081 Z-0.125000 I1986.076364 J-669.559074
G02 X319.573545 Y705.883293 Z-0.125000 I1183.044245 J-424.360491
G03 X330.744947 Y735.005063 Z-0.125000 I-4912.940785 J1901.356740
G03 X330.721153 Y735.202400 Z-0.125000 I-0.199890 J0.076002
G03 X330.545536 Y735.287842 Z-0.125000 I-0.163307 J-0.112457
G03 X313.113083 Y734.107547 Z-0.125000 I98.991095 J-1591.380976
G03 X231.095185 Y727.173737 Z-0.125000 I266.762074 J-3643.995071
G03 X175.430381 Y720.996247 Z-0.125000 I179.164634 J-1868.320443
G03 X119.145283 Y712.230547 Z-0.125000 I122.679849 J-972.822734
G03 X107.166653 Y708.136216 Z-0.125000 I7.951401 J-42.832994
G03 X99.315921 Y702.521194 Z-0.125000 I15.207881 J-29.558964
G03 X91.924985 Y693.458008 Z-0.125000 I33.849448 J-35.149088
G03 X87.371291 Y684.224055 Z-0.125000 I41.178753 J-26.046966
G03 X75.447310 Y649.418098 Z-0.125000 I776.138473 J-285.338463
G03 X65.191402 Y615.220890 Z-0.125000 I1035.095842 J-329.066755
G03 X57.664156 Y585.688827 Z-0.125000 I578.285605 J-163.120992
G03 X50.816469 Y551.400186 Z-0.125000 I629.209546 J-143.485738
G03 X43.465565 Y504.564239 Z-0.125000 I1629.192202 J-279.696620
G03 X37.455633 Y455.735077 Z-0.125000 I1290.361638 J-183.603157
G03 X37.691362 Y445.320185 Z-0.125000 I41.155330 J-4.278610
G03 X40.922243 Y435.609455 Z-0.125000 I29.508832 J4.425114
G03 X46.931272 Y429.162219 Z-0.125000 I15.285406 J8.222563
G03 X55.670028 Y425.350500 Z-0.125000 I16.765064 J26.512519
G03 X75.910968 Y421.152254 Z-0.125000 I48.786204 J184.319433
G03 X99.593334 Y417.891822 Z-0.125000 I132.856125 J877.369769
G03 X155.510422 Y411.170203 Z-0.125000 I933.806131 J7532.376687
G03 X212.823918 Y404.735366 Z-0.125000 I810.221034 J6957.981852
G03 X225.014345 Y403.789915 Z-0.125000 I21.698291 J200.709827
G03 X227.370851 Y405.371381 Z-0.125000 I0.112156 J2.379299
G03 X236.474662 Y436.028414 Z-0.125000 I-284.994671 J101.311312
G01 X236.474662 Y436.028724 Z-0.125000
G00 Z5.000000

(Change tool to Default tool)

G00 Z5.000000
G00 X273.883189 Y571.138239

G01 Z-0.125000 F100.0(Penetrate)
G03 X281.548080 Y596.654460 Z-0.125000 I-2464.732391 J754.297413 F400.000000
G03 X281.739353 Y597.790290 Z-0.125000 I-4.621575 J1.362288
G03 X281.191021 Y598.371216 Z-0.125000 I-0.554271 J0.026073
G03 X213.692882 Y598.518621 Z-0.125000 I-42.399597 J-3961.075102
G03 X161.525330 Y597.969592 Z-0.125000 I39.419192 J-6224.228620
G03 X147.940229 Y596.997412 Z-0.125000 I1.767394 J-120.101401
G03 X137.843486 Y593.143506 Z-0.125000 I2.948220 J-22.877009
G03 X132.041240 Y587.995965 Z-0.125000 I17.650753 J-25.739597
G03 X126.394936 Y566.484493 Z-0.125000 I18.677916 J-16.399310
G03 X140.529892 Y547.606014 Z-0.125000 I27.352063 J5.748516
G03 X145.905099 Y546.151969 Z-0.125000 I5.815212 J10.834888
G03 X205.836719 Y545.267577 Z-0.125000 I50.985469 J1423.974827
G01 X266.081579 Y545.645868 Z-0.125000
G01 X273.883189 Y571.138239 Z-0.125000
G00 Z5.000000

(Change tool to Default tool)

G00 Z5.000000
G00 X868.075146 Y548.241296

G01 Z-0.125000 F100.0(Penetrate)
G03 X881.224790 Y575.220124 Z-0.125000 I-13.060789 J23.059929 F400.000000
G03 X860.721959 Y597.421002 Z-0.125000 I-26.573426 J-3.973173
G03 X854.937110 Y598.129167 Z-0.125000 I-6.218621 J-26.816917
G03 X774.426672 Y598.780975 Z-0.125000 I-82.788860 J-5253.374794
G03 X695.558533 Y597.555332 Z-0.125000 I-1.087622 J-2468.144630
G03 X694.641800 Y596.266431 Z-0.125000 I0.031300 J-0.992726
G02 X709.872779 Y546.860863 Z-0.125000 I-6615.124926 J-2066.392025
G02 X710.065584 Y545.564588 Z-0.125000 I-4.261193 J-1.296275
G03 X710.387738 Y545.239785 Z-0.125000 I0.324814 J0.000000
G03 X786.178490 Y544.941554 Z-0.125000 I72.966592 J8912.649923
G01 X862.291397 Y544.964979 Z-0.125000
G01 X868.075146 Y548.240817 Z-0.125000
G01 X868.075146 Y548.241296 Z-0.125000
G00 Z5.000000

(End cutting path id: path1458)


(Footer)
M5
G00 X0.0000 Y0.0000
M2
(Using default footer. To add your own footer create file "footer" in the output dir.)
(end)
%
