%
(Header)
(Generated by gcodetools from Inkscape.)
(Using default header. To add your own header create file "header" in the output dir.)
M3
(Header end.)
G21 (All units in mm)

(Start cutting path id: path5524)
(Change tool to Default tool)

G00 Z5.000000
G00 X1505.407943 Y9.536337

G01 Z-0.125000 F100.0(Penetrate)
G02 X1425.028805 Y29.363288 Z-0.125000 I65.708984 J439.229818 F400.000000
G02 X1356.178567 Y61.516500 Z-0.125000 I123.074516 J353.333344
G02 X1331.631965 Y78.321885 Z-0.125000 I123.712250 J207.028501
G02 X1310.351605 Y97.233791 Z-0.125000 I135.786813 J174.220901
G01 X1297.443946 Y110.287548 Z-0.125000
G01 X1285.603143 Y115.012843 Z-0.125000
G02 X1229.754457 Y145.760501 Z-0.125000 I95.860815 J240.211714
G02 X1192.438313 Y182.489778 Z-0.125000 I102.329161 J141.285028
G02 X1164.649716 Y230.883035 Z-0.125000 I184.385532 J138.053777
G02 X1147.110319 Y289.754700 Z-0.125000 I257.100205 J108.645376
G02 X1139.766436 Y346.672097 Z-0.125000 I554.208085 J100.440308
G02 X1139.062188 Y393.595100 Z-0.125000 I375.491972 J29.102389
G01 X1139.690387 Y406.856110 Z-0.125000
G01 X1126.609499 Y419.333504 Z-0.125000
G02 X1100.980773 Y445.730679 Z-0.125000 I330.922469 J346.928896
G02 X1087.913785 Y462.377606 Z-0.125000 I117.969175 J106.051707
G02 X1079.487992 Y477.255684 Z-0.125000 I84.720395 J57.803975
G02 X1072.866006 Y495.030218 Z-0.125000 I114.631656 J52.827355
G02 X1071.012991 Y503.894977 Z-0.125000 I57.787566 J16.705477
G02 X1070.458368 Y513.344081 Z-0.125000 I65.147814 J8.564733
G01 X1070.586808 Y522.885238 Z-0.125000
G01 X1071.443296 Y515.460697 Z-0.125000
G03 X1076.733260 Y491.530332 Z-0.125000 I118.737075 J13.697740
G03 X1086.547039 Y469.923523 Z-0.125000 I106.368293 J35.280204
G03 X1097.334305 Y454.823417 Z-0.125000 I91.071123 J53.656529
G03 X1124.303857 Y425.836647 Z-0.125000 I365.452259 J312.980330
G01 X1141.341020 Y408.973073 Z-0.125000
G01 X1141.852886 Y378.814566 Z-0.125000
G03 X1143.000753 Y348.698025 Z-0.125000 I713.308325 J12.107012
G03 X1144.990915 Y325.887457 Z-0.125000 I411.049138 J24.370850
G03 X1155.722600 Y266.207900 Z-0.125000 I477.734933 J55.102480
G03 X1169.211875 Y227.341747 Z-0.125000 I214.975328 J52.837547
G03 X1200.114119 Y177.560300 Z-0.125000 I208.199556 J94.759454
G03 X1237.134580 Y144.026148 Z-0.125000 I128.851686 J105.045804
G03 X1262.842645 Y128.666221 Z-0.125000 I177.323546 J267.594316
G03 X1285.766973 Y117.967433 Z-0.125000 I108.194534 J201.919369
G02 X1299.978875 Y110.913985 Z-0.125000 I-37.286181 J-92.971863
G02 X1305.673038 Y106.036060 Z-0.125000 I-11.500803 J-19.187720
G03 X1330.852107 Y82.083139 Z-0.125000 I115.126070 J95.808913
G03 X1371.613579 Y56.105740 Z-0.125000 I189.227528 J251.950989
G03 X1415.662108 Y36.007832 Z-0.125000 I182.420719 J341.491501
G03 X1466.800337 Y19.963771 Z-0.125000 I155.904894 J407.405263
G03 X1551.660578 Y8.787125 Z-0.125000 I92.301627 J373.068057
G03 X1620.308710 Y16.990895 Z-0.125000 I4.855029 J250.695136
G03 X1641.107414 Y23.790094 Z-0.125000 I-47.440529 J180.331413
G03 X1670.727682 Y36.817495 Z-0.125000 I-149.224521 J379.477620
G03 X1714.855692 Y65.306776 Z-0.125000 I-96.830593 J198.404497
G03 X1751.881501 Y104.141217 Z-0.125000 I-147.095396 J177.312667
G03 X1779.623165 Y148.049063 Z-0.125000 I-255.368921 J192.063813
G03 X1796.445039 Y189.297486 Z-0.125000 I-208.269553 J108.990545
G02 X1799.208736 Y198.157366 Z-0.125000 I442.721879 J-133.238993
G02 X1808.473886 Y226.540411 Z-0.125000 I4551.968414 J-1470.206964
G01 X1817.827888 Y254.895450 Z-0.125000
G01 X1823.967830 Y260.684254 Z-0.125000
G03 X1858.866902 Y305.060324 Z-0.125000 I-130.955765 J138.899754
G03 X1878.113688 Y355.690550 Z-0.125000 I-152.673130 J87.011190
G03 X1880.769224 Y382.807679 Z-0.125000 I-120.406241 J25.479778
G03 X1877.058092 Y435.025901 Z-0.125000 I-454.274777 J-6.044176
G03 X1861.530641 Y511.559598 Z-0.125000 I-541.521032 J-70.023888
G03 X1839.604522 Y569.446286 Z-0.125000 I-330.474629 J-92.080142
G01 X1830.927345 Y587.299105 Z-0.125000
G01 X1833.218510 Y598.649490 Z-0.125000
G03 X1836.719800 Y655.089434 Z-0.125000 I-202.601651 J40.897103
G03 X1824.495614 Y714.318015 Z-0.125000 I-235.734276 J-17.777429
G03 X1815.010252 Y737.758985 Z-0.125000 I-226.871364 J-78.163638
G03 X1805.578089 Y754.792661 Z-0.125000 I-128.883970 J-60.239413
G03 X1780.960899 Y778.010242 Z-0.125000 I-59.652131 J-38.588722
G03 X1743.488183 Y789.988341 Z-0.125000 I-47.353523 J-83.537924
G02 X1743.487754 Y790.201298 Z-0.125000 I0.011017 J0.106501
G02 X1748.294964 Y790.505202 Z-0.125000 I5.856391 J-54.464828
G02 X1761.685607 Y789.060132 Z-0.125000 I1.020868 J-53.304461
G02 X1776.728035 Y783.723177 Z-0.125000 I-17.372117 J-72.831350
G02 X1792.106819 Y774.107738 Z-0.125000 I-35.428721 J-73.770167
G02 X1803.786288 Y762.294269 Z-0.125000 I-42.621604 J-53.818375
G02 X1820.483586 Y733.684213 Z-0.125000 I-100.964636 J-78.102054
G02 X1834.533976 Y689.194931 Z-0.125000 I-233.398130 J-98.173975
G02 X1840.088374 Y638.864723 Z-0.125000 I-238.959856 J-51.842994
G02 X1835.121224 Y594.275441 Z-0.125000 I-191.957783 J-1.187624
G01 X1833.539453 Y587.460508 Z-0.125000
G01 X1837.402991 Y580.416298 Z-0.125000
G02 X1861.919081 Y520.920458 Z-0.125000 I-255.116236 J-139.923220
G02 X1880.120598 Y431.894369 Z-0.125000 I-557.598630 J-160.375582
G02 X1881.668084 Y413.510006 Z-0.125000 I-232.943775 J-28.865130
G02 X1882.222600 Y388.620977 Z-0.125000 I-555.431473 J-24.825437
G02 X1881.557799 Y363.385362 Z-0.125000 I-481.389891 J0.055060
G02 X1880.111567 Y352.348102 Z-0.125000 I-71.578863 J3.765724
G02 X1862.296106 Y304.904708 Z-0.125000 I-164.621299 J34.750281
G02 X1829.547730 Y262.036420 Z-0.125000 I-166.345938 J93.133789
G01 X1819.974019 Y252.632005 Z-0.125000
G01 X1811.489741 Y227.388571 Z-0.125000
G03 X1803.182377 Y202.090805 Z-0.125000 I1816.396715 J-610.487274
G03 X1800.437862 Y192.927233 Z-0.125000 I235.496325 J-75.524563
G02 X1784.599745 Y151.596860 Z-0.125000 I-226.447747 J63.076688
G02 X1758.231303 Y107.788270 Z-0.125000 I-281.074019 J139.338892
G02 X1716.759068 Y63.494389 Z-0.125000 I-191.317748 J137.568157
G02 X1664.292959 Y30.387615 Z-0.125000 I-156.636380 J190.103866
G02 X1634.660078 Y18.501857 Z-0.125000 I-122.384905 J262.240574
G02 X1606.876512 Y10.960458 Z-0.125000 I-75.411928 J222.878102
G02 X1593.408211 Y9.188071 Z-0.125000 I-18.854857 J91.218597
G02 X1555.399715 Y7.978639 Z-0.125000 I-42.211235 J728.715094
G02 X1517.337298 Y8.461888 Z-0.125000 I-5.939063 J1031.426565
G02 X1505.407801 Y9.536337 Z-0.125000 I3.180661 J102.077788
G01 X1505.407943 Y9.536337 Z-0.125000
G00 Z5.000000

(Change tool to Default tool)

G00 Z5.000000
G00 X1540.055801 Y24.027785

G01 Z-0.125000 F100.0(Penetrate)
G02 X1475.294615 Y32.156481 Z-0.125000 I62.074242 J756.584431 F400.000000
G02 X1440.566963 Y40.887458 Z-0.125000 I38.175904 J225.275970
G02 X1415.221935 Y51.449445 Z-0.125000 I62.543436 J185.772637
G02 X1396.514699 Y62.984770 Z-0.125000 I56.308506 J112.254208
G03 X1388.371824 Y68.528616 Z-0.125000 I-69.363217 J-93.129502
G03 X1378.200847 Y74.347313 Z-0.125000 I-86.622564 J-139.615986
G02 X1352.863905 Y90.193480 Z-0.125000 I92.883198 J176.693013
G02 X1331.152399 Y108.927254 Z-0.125000 I108.858703 J148.109951
G02 X1289.015219 Y153.595293 Z-0.125000 I888.328929 J880.205736
G02 X1265.001457 Y182.593850 Z-0.125000 I349.795817 J314.108799
G03 X1260.138084 Y188.489365 Z-0.125000 I-79.637494 J-60.741441
G03 X1259.487625 Y188.780966 Z-0.125000 I-0.650459 J-0.579674
G03 X1258.741944 Y187.733577 Z-0.125000 I0.000000 J-0.789135
G03 X1264.582328 Y174.070567 Z-0.125000 I99.594033 J34.492649
G02 X1269.349759 Y164.463523 Z-0.125000 I-344.067716 J-176.727708
G02 X1273.185534 Y156.112992 Z-0.125000 I-256.180826 J-122.731640
G03 X1277.084457 Y147.797742 Z-0.125000 I174.917841 J76.945209
G03 X1280.900192 Y140.638649 Z-0.125000 I133.433416 J66.522432
G02 X1284.276979 Y133.590455 Z-0.125000 I-48.495922 J-27.567387
G02 X1284.169172 Y132.374691 Z-0.125000 I-1.265195 J-0.500471
G02 X1283.178746 Y132.022012 Z-0.125000 I-0.715457 J0.442168
G02 X1273.148987 Y136.187006 Z-0.125000 I29.340671 J84.814413
G02 X1220.519658 Y174.520179 Z-0.125000 I81.854855 J167.677360
G02 X1179.244480 Y233.823172 Z-0.125000 I165.611394 J159.281711
G02 X1159.670886 Y292.033322 Z-0.125000 I220.387406 J106.502858
G02 X1153.843013 Y360.040340 Z-0.125000 I296.418008 J59.654812
G02 X1164.060498 Y434.529381 Z-0.125000 I346.423249 J-9.572783
G02 X1186.182293 Y489.381537 Z-0.125000 I208.047301 J-52.018251
G02 X1202.943147 Y516.350058 Z-0.125000 I400.316704 J-230.102951
G02 X1204.961585 Y517.400582 Z-0.125000 I1.969689 J-1.320149
G02 X1206.429899 Y517.241858 Z-0.125000 I-0.174817 J-8.487996
G02 X1212.386118 Y515.935869 Z-0.125000 I-27.997287 J-141.922393
G03 X1228.397926 Y514.799981 Z-0.125000 I11.393635 J47.186517
G03 X1253.678899 Y519.882210 Z-0.125000 I-11.918022 J124.704626
G03 X1302.950224 Y538.932171 Z-0.125000 I-116.385495 J374.265851
G03 X1376.715935 Y577.261197 Z-0.125000 I-410.227922 J879.646705
G03 X1435.526126 Y616.393774 Z-0.125000 I-270.803699 J470.733527
G03 X1471.310926 Y649.503452 Z-0.125000 I-156.999356 J205.577111
G03 X1479.279302 Y659.863177 Z-0.125000 I-65.719328 J58.793619
G03 X1482.815884 Y667.475641 Z-0.125000 I-24.014257 J15.784234
G03 X1483.923983 Y675.746636 Z-0.125000 I-25.884834 J7.677621
G03 X1482.640906 Y687.702060 Z-0.125000 I-70.853346 J-1.557537
G02 X1481.224729 Y696.589291 Z-0.125000 I130.599356 J25.367416
G02 X1481.449618 Y697.244614 Z-0.125000 I0.782572 J0.097693
G02 X1485.091587 Y699.313050 Z-0.125000 I5.574193 J-5.574193
G02 X1509.279777 Y704.280697 Z-0.125000 I67.161618 J-265.647887
G02 X1520.307343 Y705.386033 Z-0.125000 I15.100514 J-95.090903
G02 X1550.450158 Y706.023871 Z-0.125000 I30.142815 J-711.922981
G02 X1580.559751 Y705.190132 Z-0.125000 I0.000000 J-544.104861
G02 X1592.027559 Y703.719526 Z-0.125000 I-4.436107 J-80.041227
G02 X1603.307817 Y701.033971 Z-0.125000 I-33.829736 J-167.129806
G02 X1614.796148 Y697.473722 Z-0.125000 I-48.535489 J-176.931568
G03 X1625.556514 Y693.871463 Z-0.125000 I180.950864 J522.648811
G03 X1629.131548 Y693.117587 Z-0.125000 I5.365635 J16.591239
G03 X1632.436897 Y693.456649 Z-0.125000 I0.837686 J8.114457
G03 X1637.074826 Y695.173809 Z-0.125000 I-15.827132 J49.869924
G02 X1643.460609 Y697.571625 Z-0.125000 I31.270733 J-73.577059
G02 X1644.001237 Y697.442509 Z-0.125000 I0.165245 J-0.504499
G02 X1643.945846 Y697.068162 Z-0.125000 I-0.166602 J-0.166620
G02 X1636.890366 Y693.635557 Z-0.125000 I-47.808639 J89.299996
G01 X1629.305728 Y690.302371 Z-0.125000
G01 X1623.288355 Y692.589246 Z-0.125000
G03 X1604.913937 Y698.633371 Z-0.125000 I-75.711802 J-199.215755
G03 X1587.077889 Y702.704316 Z-0.125000 I-51.292556 J-183.620235
G03 X1575.632743 Y704.057659 Z-0.125000 I-17.236936 J-96.699643
G03 X1551.440081 Y704.809355 Z-0.125000 I-25.545688 J-432.479656
G03 X1515.828214 Y703.291183 Z-0.125000 I-1.218170 J-389.859237
G03 X1496.498497 Y699.943421 Z-0.125000 I10.418100 J-117.631326
G02 X1490.543464 Y698.468361 Z-0.125000 I-65.306059 J250.891878
G02 X1488.084014 Y697.964507 Z-0.125000 I-9.940942 J42.269953
G03 X1483.240717 Y696.011600 Z-0.125000 I2.156716 J-12.330999
G03 X1482.646156 Y694.296662 Z-0.125000 I0.845626 J-1.253710
G02 X1485.494407 Y676.633908 Z-0.125000 I-56.988495 J-18.250848
G02 X1482.961313 Y662.231448 Z-0.125000 I-39.976781 J-0.392904
G02 X1480.161497 Y657.313432 Z-0.125000 I-16.683982 J6.242184
G02 X1467.552798 Y643.062040 Z-0.125000 I-156.973572 J126.176565
G02 X1428.177436 Y608.794507 Z-0.125000 I-225.464355 J219.315445
G02 X1368.796412 Y570.590742 Z-0.125000 I-340.508991 J464.010703
G02 X1352.616976 Y561.886625 Z-0.125000 I-267.814524 J478.431063
G02 X1326.217097 Y548.478964 Z-0.125000 I-986.710097 J1910.151739
G02 X1298.003967 Y534.713071 Z-0.125000 I-770.851582 J1544.062302
G02 X1296.042825 Y534.269530 Z-0.125000 I-1.961142 J4.113875
G03 X1294.497480 Y533.992847 Z-0.125000 I-0.000000 J-4.453922
G03 X1281.132545 Y528.753553 Z-0.125000 I129.205128 J-349.255799
G02 X1255.335729 Y518.658417 Z-0.125000 I-266.893966 J644.005292
G02 X1245.102165 Y515.472993 Z-0.125000 I-36.090401 J97.913836
G02 X1227.416207 Y512.809979 Z-0.125000 I-21.989235 J85.977120
G02 X1212.911052 Y513.910196 Z-0.125000 I-2.846689 J58.636909
G03 X1204.922296 Y514.879029 Z-0.125000 I-10.095351 J-49.822688
G03 X1203.796657 Y514.288216 Z-0.125000 I-0.052572 J-1.267549
G02 X1202.971557 Y512.988223 Z-0.125000 I-226.836792 J143.060535
G02 X1196.009440 Y502.096526 Z-0.125000 I-15886.259923 J10147.036451
G03 X1179.106345 Y472.002046 Z-0.125000 I253.675989 J-162.275788
G03 X1168.444344 Y445.670028 Z-0.125000 I183.294365 J-89.541617
G03 X1158.710803 Y401.961270 Z-0.125000 I222.259283 J-72.433274
G03 X1155.710703 Y342.826963 Z-0.125000 I405.612340 J-50.221459
G03 X1158.095303 Y311.135759 Z-0.125000 I298.233045 J6.505184
G03 X1163.401823 Y283.255595 Z-0.125000 I235.933577 J30.460902
G03 X1170.968904 Y258.837657 Z-0.125000 I235.049149 J59.459887
G03 X1181.628694 Y233.823172 Z-0.125000 I257.367922 J94.897421
G03 X1222.235993 Y175.773393 Z-0.125000 I202.492659 J98.420963
G03 X1274.509665 Y137.728072 Z-0.125000 I134.830684 J130.320971
G03 X1280.686696 Y134.758327 Z-0.125000 I194.832281 J397.339765
G03 X1281.850056 Y134.361797 Z-0.125000 I2.346018 J4.978041
G03 X1282.116630 Y134.685549 Z-0.125000 I0.050602 J0.229958
G03 X1281.233665 Y136.248479 Z-0.125000 I-7.890128 J-3.426584
G02 X1278.344761 Y141.088077 Z-0.125000 I28.507704 J20.299161
G02 X1268.620540 Y161.458988 Z-0.125000 I831.664534 J409.508261
G02 X1259.345523 Y182.185685 Z-0.125000 I829.088111 J383.448374
G02 X1257.930153 Y186.635106 Z-0.125000 I21.386025 J9.252762
G02 X1258.269906 Y188.965301 Z-0.125000 I3.337912 J0.703184
G02 X1259.541783 Y189.604922 Z-0.125000 I1.095828 J-0.594673
G02 X1261.487784 Y188.669008 Z-0.125000 I-0.505103 J-3.541307
G02 X1266.438024 Y183.117062 Z-0.125000 I-29.084290 J-30.915053
G03 X1276.061368 Y171.197392 Z-0.125000 I158.449916 J118.079979
G03 X1303.084167 Y140.868221 Z-0.125000 I1555.684489 J1358.886621
G03 X1330.678288 Y111.095569 Z-0.125000 I1533.287667 J1393.419782
G03 X1341.820624 Y100.167754 Z-0.125000 I149.743645 J141.538776
G03 X1355.142077 Y89.789251 Z-0.125000 I74.860584 J82.349498
G03 X1377.705858 Y76.352454 Z-0.125000 I148.826502 J224.253796
G02 X1388.381572 Y70.229090 Z-0.125000 I-88.926429 J-167.405756
G02 X1396.326880 Y64.852813 Z-0.125000 I-60.522356 J-98.001810
G03 X1437.468661 Y43.706432 Z-0.125000 I85.359522 J115.477679
G03 X1510.357641 Y27.947307 Z-0.125000 I114.916938 J355.070572
G03 X1568.013704 Y24.506385 Z-0.125000 I61.110283 J539.200726
G03 X1599.005165 Y27.383015 Z-0.125000 I1.003057 J157.575587
G03 X1679.646036 Y61.457061 Z-0.125000 I-40.279705 J207.788230
G03 X1746.962621 Y130.374591 Z-0.125000 I-146.435822 J210.369319
G03 X1775.205135 Y181.600705 Z-0.125000 I-302.454186 J200.150718
G03 X1799.475033 Y246.981812 Z-0.125000 I-470.054917 J211.682616
G03 X1804.063804 Y265.251225 Z-0.125000 I-216.805154 J64.166447
G03 X1807.273539 Y284.599476 Z-0.125000 I-240.009055 J49.756125
G03 X1810.362240 Y312.374936 Z-0.125000 I-1017.354433 J127.191834
G03 X1812.336239 Y336.564483 Z-0.125000 I-769.651778 J74.983100
G02 X1813.196091 Y346.213496 Z-0.125000 I208.826472 J-13.746341
G02 X1813.728300 Y348.938714 Z-0.125000 I17.085392 J-1.922034
G02 X1814.301864 Y350.671784 Z-0.125000 I19.141208 J-5.373384
G02 X1814.531120 Y350.740483 Z-0.125000 I0.141104 J-0.054005
G02 X1814.765768 Y350.416580 Z-0.125000 I-0.369943 J-0.514948
G02 X1815.605021 Y347.590448 Z-0.125000 I-80.808279 J-25.534636
G02 X1818.848687 Y332.003934 Z-0.125000 I-116.111375 J-32.294387
G02 X1821.956065 Y302.220858 Z-0.125000 I-422.250683 J-59.108612
G01 X1823.178229 Y284.493889 Z-0.125000
G01 X1831.137827 Y294.490269 Z-0.125000
G03 X1850.343490 Y324.075625 Z-0.125000 I-142.955036 J113.827318
G03 X1860.800624 Y351.589412 Z-0.125000 I-112.919345 J58.661237
G03 X1864.125925 Y370.953852 Z-0.125000 I-123.459816 J31.168505
G03 X1865.688826 Y404.092607 Z-0.125000 I-361.471812 J33.654083
G03 X1864.920666 Y428.780078 Z-0.125000 I-379.747005 J0.539713
G03 X1862.976558 Y446.659968 Z-0.125000 I-200.953420 J-12.804342
G03 X1846.156831 Y511.337516 Z-0.125000 I-326.114426 J-50.281916
G03 X1818.000918 Y567.665357 Z-0.125000 I-274.631053 J-102.075589
G03 X1808.634430 Y580.625554 Z-0.125000 I-123.249873 J-79.209407
G03 X1796.944854 Y593.681928 Z-0.125000 I-136.785082 J-110.704710
G03 X1749.450978 Y635.220459 Z-0.125000 I-311.102422 J-307.784136
G03 X1717.286305 Y653.794471 Z-0.125000 I-91.347152 J-121.049303
G02 X1708.777680 Y657.845034 Z-0.125000 I42.389440 J100.005297
G02 X1707.033048 Y659.250987 Z-0.125000 I2.770914 J5.223819
G02 X1707.267874 Y660.207951 Z-0.125000 I0.465031 J0.393181
G02 X1711.209553 Y660.981683 Z-0.125000 I3.941679 J-9.653318
G02 X1726.161556 Y658.812328 Z-0.125000 I0.000000 J-52.612045
G02 X1751.147610 Y649.143449 Z-0.125000 I-47.017206 J-158.619170
G02 X1780.090345 Y632.120504 Z-0.125000 I-89.883320 J-185.937301
G02 X1806.488171 Y610.213038 Z-0.125000 I-124.022929 J-176.301849
G03 X1816.434459 Y601.161083 Z-0.125000 I138.043678 J141.691921
G03 X1817.027929 Y601.256716 Z-0.125000 I0.255912 J0.301155
G03 X1818.492387 Y605.383635 Z-0.125000 I-9.147499 J5.569330
G03 X1821.714765 Y635.738232 Z-0.125000 I-515.644606 J70.088058
G03 X1816.515943 Y702.101057 Z-0.125000 I-215.502564 J16.502713
G03 X1794.958490 Y748.592803 Z-0.125000 I-124.643119 J-29.551162
G03 X1778.971510 Y764.283893 Z-0.125000 I-56.864342 J-41.946876
G03 X1762.269480 Y771.776174 Z-0.125000 I-27.297625 J-38.490242
G03 X1757.800377 Y772.431166 Z-0.125000 I-6.271263 J-27.215533
G03 X1746.118523 Y772.820537 Z-0.125000 I-12.068224 J-186.635902
G03 X1701.698107 Y764.209249 Z-0.125000 I-0.242761 J-117.622386
G03 X1657.041654 Y736.721408 Z-0.125000 I59.335402 J-146.413780
G03 X1647.457292 Y727.591598 Z-0.125000 I102.277731 J-116.965571
G03 X1637.988856 Y717.185290 Z-0.125000 I175.696068 J-169.372116
G03 X1629.212397 Y705.916976 Z-0.125000 I113.647758 J-97.567878
G03 X1629.373659 Y704.493521 Z-0.125000 I0.881022 J-0.621052
G03 X1630.237445 Y703.978890 Z-0.125000 I1.743015 J1.943346
G03 X1637.564736 Y701.563546 Z-0.125000 I51.764340 J144.712665
G02 X1644.005838 Y699.296048 Z-0.125000 I-21.858883 J-72.374912
G02 X1643.999346 Y698.966142 Z-0.125000 I-0.066087 J-0.163716
G02 X1642.184435 Y698.881833 Z-0.125000 I-1.044749 J2.913359
G02 X1635.309279 Y700.969426 Z-0.125000 I20.645571 J80.357843
G02 X1628.645764 Y703.661703 Z-0.125000 I25.995753 J73.933150
G02 X1627.883413 Y704.632684 Z-0.125000 I0.562070 J1.226065
G02 X1628.682170 Y707.982937 Z-0.125000 I4.107569 J0.791031
G02 X1642.086345 Y723.713503 Z-0.125000 I172.606731 J-133.503752
G02 X1656.342590 Y737.919454 Z-0.125000 I215.502677 J-202.009289
G02 X1667.986909 Y747.414921 Z-0.125000 I78.246889 J-84.066931
G02 X1684.861252 Y757.975854 Z-0.125000 I97.200248 J-136.545879
G02 X1701.836360 Y765.898021 Z-0.125000 I71.131789 J-130.268943
G02 X1718.808037 Y770.954664 Z-0.125000 I38.539863 J-98.342399
G02 X1737.919022 Y773.669715 Z-0.125000 I30.566734 J-146.538561
G02 X1757.253843 Y773.686444 Z-0.125000 I9.777638 J-127.389996
G02 X1769.009991 Y771.053826 Z-0.125000 I-3.109303 J-41.450089
G02 X1788.566967 Y757.940044 Z-0.125000 I-18.876117 J-49.290363
G02 X1806.871146 Y730.831063 Z-0.125000 I-74.165829 J-69.811349
G02 X1820.475560 Y686.639111 Z-0.125000 I-157.131304 J-72.562615
G02 X1822.798103 Y634.982130 Z-0.125000 I-213.526151 J-35.481027
G02 X1819.041445 Y602.053128 Z-0.125000 I-426.119398 J31.934438
G02 X1817.331600 Y599.386542 Z-0.125000 I-3.858348 J0.592537
G02 X1816.322875 Y599.436814 Z-0.125000 I-0.470078 J0.713072
G02 X1806.844251 Y607.909540 Z-0.125000 I85.341258 J105.011474
G03 X1790.526128 Y622.517613 Z-0.125000 I-165.971164 J-168.981859
G03 X1774.176266 Y634.538759 Z-0.125000 I-128.480807 J-157.616459
G03 X1740.214945 Y652.600825 Z-0.125000 I-111.481020 J-168.653909
G03 X1714.284985 Y659.404089 Z-0.125000 I-37.651379 J-90.688097
G03 X1711.354942 Y659.612841 Z-0.125000 I-3.614109 J-30.060268
G03 X1711.239807 Y659.307957 Z-0.125000 I-0.003903 J-0.172707
G03 X1712.223598 Y658.661169 Z-0.125000 I3.220417 J3.826793
G03 X1719.305267 Y655.179279 Z-0.125000 I265.267086 J530.573085
G02 X1754.306606 Y633.658523 Z-0.125000 I-88.722697 J-183.521968
G02 X1799.583943 Y593.868618 Z-0.125000 I-266.268039 J-348.644826
G02 X1812.507469 Y580.439890 Z-0.125000 I-446.204455 J-442.350868
G02 X1812.783871 Y579.739134 Z-0.125000 I-0.750106 J-0.700757
G03 X1812.996716 Y578.988312 Z-0.125000 I1.430705 J0.000000
G03 X1820.795511 Y566.743932 Z-0.125000 I421.446482 J259.825466
G02 X1838.226618 Y536.007623 Z-0.125000 I-224.136383 J-147.422625
G02 X1851.783568 Y502.591496 Z-0.125000 I-251.600238 J-121.532515
G02 X1858.996272 Y476.836897 Z-0.125000 I-265.716666 J-88.302562
G02 X1864.984710 Y444.987959 Z-0.125000 I-400.702164 J-91.829999
G02 X1868.261948 Y393.706837 Z-0.125000 I-308.040570 J-45.431322
G02 X1863.267388 Y353.595188 Z-0.125000 I-192.637337 J3.619741
G02 X1852.018399 Y323.161337 Z-0.125000 I-126.650046 J29.516651
G02 X1830.546543 Y290.609542 Z-0.125000 I-166.691636 J86.595804
G02 X1823.150904 Y282.250746 Z-0.125000 I-115.872549 J95.069807
G02 X1822.180517 Y281.835191 Z-0.125000 I-0.970387 J0.925227
G02 X1821.551052 Y282.395564 Z-0.125000 I0.000000 J0.633725
G02 X1820.363626 Y297.426724 Z-0.125000 I201.489679 J23.479677
G03 X1818.673021 Y318.872080 Z-0.125000 I-290.444931 J-12.107383
G03 X1815.446102 Y339.746600 Z-0.125000 I-278.383919 J-32.347717
G01 X1814.105744 Y346.676169 Z-0.125000
G01 X1813.398438 Y335.291875 Z-0.125000
G02 X1807.672317 Y278.339196 Z-0.125000 I-748.826365 J46.524115
G02 X1801.321557 Y248.564099 Z-0.125000 I-210.219410 J29.273077
G02 X1781.972254 Y193.164863 Z-0.125000 I-521.176293 J150.952666
G02 X1760.920373 Y150.312457 Z-0.125000 I-332.201376 J136.601632
G02 X1739.073882 Y117.304254 Z-0.125000 I-278.875859 J160.840435
G02 X1716.355593 Y91.222726 Z-0.125000 I-196.261085 J148.017886
G02 X1649.383454 Y43.153308 Z-0.125000 I-181.239309 J181.820717
G02 X1580.148318 Y23.520727 Z-0.125000 I-87.079006 J175.191214
G02 X1564.120234 Y22.889793 Z-0.125000 I-14.076373 J153.690456
G02 X1540.055801 Y24.027785 Z-0.125000 I4.402493 J348.104157
G01 X1540.055801 Y24.027785 Z-0.125000
G00 Z5.000000

(Change tool to Default tool)

G00 Z5.000000
G00 X1443.752716 Y154.705883

G01 Z-0.125000 F100.0(Penetrate)
G02 X1437.013996 Y159.599062 Z-0.125000 I11.256535 J22.588879 F400.000000
G02 X1431.660989 Y167.002317 Z-0.125000 I21.656028 J21.295535
G03 X1430.186564 Y169.343636 Z-0.125000 I-14.170321 J-7.288724
G03 X1423.776688 Y177.396671 Z-0.125000 I-175.674390 J-133.251876
G02 X1396.023164 Y218.449446 Z-0.125000 I188.373534 J157.256696
G02 X1381.994648 Y255.106851 Z-0.125000 I135.592027 J72.903066
G02 X1381.173712 Y260.610743 Z-0.125000 I30.219609 J7.320588
G02 X1380.691063 Y277.380468 Z-0.125000 I282.119361 J16.511481
G02 X1381.684109 Y294.084257 Z-0.125000 I143.169255 J-0.130050
G02 X1384.344345 Y308.236517 Z-0.125000 I105.304312 J-12.468161
G03 X1390.110556 Y333.897042 Z-0.125000 I-389.145182 J100.923467
G03 X1392.617831 Y351.648363 Z-0.125000 I-183.485927 J34.969087
G01 X1393.261410 Y358.600425 Z-0.125000
G01 X1389.276517 Y358.600425 Z-0.125000
G03 X1386.065824 Y358.168811 Z-0.125000 I0.000000 J-12.157671
G03 X1385.868402 Y357.667249 Z-0.125000 I0.088884 J-0.324621
G02 X1385.735541 Y357.321888 Z-0.125000 I-0.197691 J-0.122184
G02 X1384.812580 Y357.360538 Z-0.125000 I-0.404044 J1.390907
G03 X1383.157857 Y357.533128 Z-0.125000 I-1.148537 J-2.993006
G03 X1375.493264 Y355.870343 Z-0.125000 I11.248588 J-70.346580
G02 X1367.706449 Y354.485636 Z-0.125000 I-11.339557 J41.180622
G02 X1349.492610 Y353.700189 Z-0.125000 I-18.876804 J226.162577
G02 X1324.264157 Y356.235328 Z-0.125000 I-0.360054 J123.215072
G02 X1304.450423 Y362.981973 Z-0.125000 I16.946518 J82.237085
G02 X1283.155194 Y377.590361 Z-0.125000 I38.307623 J78.668191
G02 X1269.382043 Y395.834390 Z-0.125000 I44.775791 J48.124012
G02 X1262.030906 Y417.878405 Z-0.125000 I69.248362 J35.340346
G02 X1259.725199 Y450.619720 Z-0.125000 I159.478046 J27.682595
G02 X1261.113032 Y467.296663 Z-0.125000 I161.618867 J-5.053490
G02 X1263.238019 Y476.521780 Z-0.125000 I51.275977 J-6.954016
G02 X1274.127746 Y500.557412 Z-0.125000 I116.913713 J-38.484921
G02 X1286.900772 Y516.649733 Z-0.125000 I64.274825 J-37.901779
G02 X1293.020511 Y521.880957 Z-0.125000 I51.011919 J-53.481018
G02 X1302.857617 Y528.850567 Z-0.125000 I100.667636 J-131.658176
G02 X1330.485776 Y541.760838 Z-0.125000 I58.681246 J-89.561221
G02 X1359.896817 Y546.135786 Z-0.125000 I29.522363 J-97.420286
G03 X1386.522690 Y547.087269 Z-0.125000 I-0.420473 J384.785170
G03 X1417.303414 Y550.180843 Z-0.125000 I-36.465370 J517.505675
G03 X1430.469547 Y552.682506 Z-0.125000 I-15.039884 J115.051398
G03 X1462.234941 Y561.441106 Z-0.125000 I-170.511068 J680.385882
G03 X1510.599779 Y577.269558 Z-0.125000 I-308.951167 J1025.825010
G03 X1520.233866 Y581.959940 Z-0.125000 I-15.841660 J44.778352
G02 X1549.341274 Y595.107623 Z-0.125000 I60.586339 J-95.336948
G02 X1581.000121 Y599.592479 Z-0.125000 I31.549884 J-108.729151
G02 X1613.816056 Y595.024066 Z-0.125000 I-0.116471 J-120.982933
G02 X1637.668379 Y583.736433 Z-0.125000 I-21.694400 J-76.688693
G02 X1656.094541 Y565.200012 Z-0.125000 I-41.702134 J-59.880570
G02 X1668.401521 Y538.724255 Z-0.125000 I-72.267542 J-49.691082
G02 X1669.832893 Y530.704106 Z-0.125000 I-43.092697 J-11.828643
G02 X1670.603137 Y512.985851 Z-0.125000 I-210.998085 J-18.048327
G02 X1669.782950 Y495.279175 Z-0.125000 I-185.349290 J-0.286810
G02 X1668.007116 Y485.487980 Z-0.125000 I-58.143156 J5.488814
G02 X1657.765947 Y460.093935 Z-0.125000 I-111.657197 J30.268148
G02 X1642.222108 Y438.507962 Z-0.125000 I-95.710657 J52.530799
G01 X1636.079824 Y431.864304 Z-0.125000
G01 X1640.981911 Y435.797350 Z-0.125000
G03 X1645.750715 Y439.880363 Z-0.125000 I-61.541140 J76.704121
G03 X1653.616266 Y447.333700 Z-0.125000 I-197.561908 J216.365202
G03 X1660.642875 Y455.440080 Z-0.125000 I-47.271207 J48.073197
G03 X1665.274838 Y463.172717 Z-0.125000 I-38.333051 J28.215684
G03 X1670.585875 Y479.267952 Z-0.125000 I-60.804859 J28.988004
G03 X1672.672052 Y501.106589 Z-0.125000 I-110.770396 J21.600509
G02 X1672.992839 Y513.462894 Z-0.125000 I220.275389 J0.463645
G02 X1673.341144 Y513.480820 Z-0.125000 I0.175101 J-0.009467
G02 X1674.453094 Y497.588541 Z-0.125000 I-90.537249 J-14.319744
G02 X1672.794818 Y481.642386 Z-0.125000 I-92.812756 J1.592500
G02 X1662.448734 Y456.399675 Z-0.125000 I-67.789669 J13.042959
G02 X1641.920130 Y435.318201 Z-0.125000 I-66.830432 J44.541926
G02 X1636.981870 Y432.312486 Z-0.125000 I-24.637396 J34.918640
G02 X1635.816680 Y432.147892 Z-0.125000 I-0.816179 J1.571291
G03 X1634.989677 Y432.023327 Z-0.125000 I-0.241768 J-1.202438
G03 X1634.826757 Y431.610394 Z-0.125000 I0.164870 J-0.303655
G02 X1634.846871 Y430.966558 Z-0.125000 I-1.066738 J-0.355558
G02 X1634.594940 Y430.736310 Z-0.125000 I-0.305154 J0.080940
G03 X1634.137982 Y430.557861 Z-0.125000 I0.204934 J-1.199073
G03 X1627.555189 Y426.170959 Z-0.125000 I172.174979 J-265.490633
G02 X1609.747925 Y416.487740 Z-0.125000 I-56.075329 J81.906282
G02 X1593.561747 Y411.967756 Z-0.125000 I-26.305149 J62.957858
G03 X1589.692656 Y411.010353 Z-0.125000 I3.157887 J-21.058444
G03 X1589.532884 Y410.559323 Z-0.125000 I0.101270 J-0.289687
G02 X1589.382127 Y410.240350 Z-0.125000 I-0.178895 J-0.110561
G02 X1587.542879 Y410.290642 Z-0.125000 I-0.765316 J5.668453
G03 X1585.627617 Y410.345042 Z-0.125000 I-1.125656 J-5.888397
G03 X1585.257962 Y409.887407 Z-0.125000 I0.056279 J-0.423572
G03 X1585.559989 Y409.004669 Z-0.125000 I1.880571 J0.150397
G03 X1587.908413 Y405.719968 Z-0.125000 I41.040831 J26.860614
G02 X1590.539464 Y401.995903 Z-0.125000 I-38.445710 J-29.953335
G02 X1593.395152 Y397.127340 Z-0.125000 I-62.935759 J-40.187176
G03 X1600.381769 Y387.329708 Z-0.125000 I41.924432 J22.506129
G03 X1624.065934 Y363.955637 Z-0.125000 I267.160380 J247.018457
G02 X1645.659905 Y342.350645 Z-0.125000 I-194.437740 J-215.932529
G02 X1653.857058 Y330.837152 Z-0.125000 I-46.247722 J-41.601327
G02 X1659.371736 Y314.749703 Z-0.125000 I-42.837670 J-23.673411
G02 X1662.293894 Y277.061351 Z-0.125000 I-238.896051 J-37.480212
G02 X1659.033338 Y233.976605 Z-0.125000 I-289.594187 J0.250082
G02 X1652.712167 Y213.751167 Z-0.125000 I-68.865245 J10.422330
G02 X1645.288635 Y203.138751 Z-0.125000 I-37.722190 J18.484555
G02 X1636.855215 Y197.223649 Z-0.125000 I-19.272454 J18.508082
G02 X1626.781133 Y194.868064 Z-0.125000 I-11.228330 J25.300370
G02 X1613.278018 Y196.250250 Z-0.125000 I-1.976004 J47.345330
G01 X1607.178688 Y197.779915 Z-0.125000
G01 X1601.062819 Y191.795528 Z-0.125000
G03 X1595.428884 Y186.007725 Z-0.125000 I116.073213 J-118.623396
G03 X1595.514697 Y185.811150 Z-0.125000 I0.085813 J-0.079557
G02 X1596.137277 Y184.516775 Z-0.125000 I0.000000 J-0.796914
G02 X1584.354953 Y171.844494 Z-0.125000 I-90.357645 J72.198376
G02 X1572.347926 Y163.252376 Z-0.125000 I-39.976700 J43.179659
G02 X1556.840149 Y156.979643 Z-0.125000 I-35.904611 J66.459320
G02 X1537.572768 Y154.192255 Z-0.125000 I-20.315455 J72.442314
G02 X1521.289236 Y156.484369 Z-0.125000 I-0.747769 J53.674159
G02 X1507.751068 Y161.851403 Z-0.125000 I25.174509 J83.260179
G02 X1505.664652 Y164.249753 Z-0.125000 I1.844512 J3.711313
G03 X1502.753650 Y165.998253 Z-0.125000 I-2.477701 J-0.827567
G03 X1485.114217 Y160.793134 Z-0.125000 I12.709996 J-75.563803
G02 X1456.513499 Y152.671547 Z-0.125000 I-45.226789 J104.848723
G02 X1443.752716 Y154.705883 Z-0.125000 I-3.140582 J21.339529
G01 X1443.752716 Y154.705883 Z-0.125000
G00 Z5.000000

(Change tool to Default tool)

G00 Z5.000000
G00 X1463.830513 Y155.587720

G01 Z-0.125000 F100.0(Penetrate)
G03 X1469.668763 Y157.327067 Z-0.125000 I-13.160988 J54.843806 F400.000000
G03 X1483.134316 Y162.494076 Z-0.125000 I-106.493888 J297.659331
G02 X1499.283823 Y167.049407 Z-0.125000 I27.919000 J-68.073928
G02 X1507.477986 Y166.438942 Z-0.125000 I2.822302 J-17.416359
G03 X1523.061078 Y163.790286 Z-0.125000 I17.120527 J53.561751
G03 X1543.829422 Y165.444679 Z-0.125000 I2.670985 J97.654317
G03 X1573.759329 Y175.682623 Z-0.125000 I-20.522383 J108.863689
G03 X1599.541726 Y193.944486 Z-0.125000 I-50.331779 J98.390165
G01 X1606.804433 Y200.843327 Z-0.125000
G01 X1612.037708 Y199.045540 Z-0.125000
G03 X1625.076645 Y196.939058 Z-0.125000 I12.628467 J36.760918
G03 X1635.584862 Y199.294212 Z-0.125000 I-0.272867 J25.837821
G03 X1645.467134 Y207.296476 Z-0.125000 I-10.711468 J23.331069
G03 X1654.210298 Y224.369884 Z-0.125000 I-46.395424 J34.534108
G03 X1658.420606 Y244.067379 Z-0.125000 I-100.064389 J31.687324
G03 X1660.333324 Y277.446537 Z-0.125000 I-290.296182 J33.379157
G03 X1656.996551 Y314.111088 Z-0.125000 I-203.103894 J-0.000000
G03 X1650.312375 Y332.045797 Z-0.125000 I-53.991411 J-9.909393
G03 X1644.955513 Y339.115813 Z-0.125000 I-32.905573 J-19.367717
G03 X1610.621545 Y373.404510 Z-0.125000 I-824.383605 J-791.138039
G02 X1597.633425 Y386.646472 Z-0.125000 I203.140319 J212.236771
G02 X1593.759501 Y391.718376 Z-0.125000 I25.588216 J23.559704
G01 X1586.539043 Y403.225679 Z-0.125000
G01 X1582.735195 Y409.288310 Z-0.125000
G01 X1570.304943 Y409.800049 Z-0.125000
G02 X1550.631322 Y412.854563 Z-0.125000 I3.635189 J88.298172
G02 X1529.855189 Y420.860533 Z-0.125000 I29.151615 J106.611634
G03 X1501.963293 Y430.842289 Z-0.125000 I-53.653884 J-105.964511
G03 X1482.323914 Y431.421455 Z-0.125000 I-11.332310 J-51.003016
G03 X1473.794212 Y429.242031 Z-0.125000 I7.745486 J-48.095069
G03 X1465.727283 Y424.809853 Z-0.125000 I9.546612 J-26.932948
G03 X1458.178309 Y418.002991 Z-0.125000 I45.055536 J-57.557098
G03 X1438.587090 Y397.184391 Z-0.125000 I827.928392 J-798.744480
G02 X1414.571849 Y373.811102 Z-0.125000 I-219.237556 J201.234905
G02 X1402.116161 Y365.485002 Z-0.125000 I-39.020297 J44.893835
G01 X1396.166380 Y362.515186 Z-0.125000
G01 X1395.546056 Y356.575557 Z-0.125000
G02 X1392.637030 Y335.294454 Z-0.125000 I-336.031825 J35.094583
G02 X1388.480848 Y314.827399 Z-0.125000 I-314.944864 J53.299362
G03 X1383.189391 Y286.868702 Z-0.125000 I301.079836 J-71.462385
G03 X1382.530954 Y272.925744 Z-0.125000 I73.723772 J-10.468526
G03 X1392.355717 Y231.357832 Z-0.125000 I115.717588 J5.405350
G03 X1422.272190 Y183.336303 Z-0.125000 I185.795377 J82.417435
G02 X1429.509083 Y174.270275 Z-0.125000 I-192.500246 J-161.083377
G02 X1432.424937 Y169.996525 Z-0.125000 I-39.732514 J-30.239902
G03 X1435.388966 Y165.775021 Z-0.125000 I33.782097 J20.567986
G03 X1439.684962 Y160.970937 Z-0.125000 I48.108443 J38.697554
G03 X1449.649841 Y155.473155 Z-0.125000 I14.372105 J14.270133
G03 X1463.830513 Y155.587720 Z-0.125000 I6.842835 J30.692452
G01 X1463.830513 Y155.587720 Z-0.125000
G00 Z5.000000

(Change tool to Default tool)

G00 Z5.000000
G00 X1482.745272 Y170.548069

G01 Z-0.125000 F100.0(Penetrate)
G02 X1482.360845 Y174.543033 Z-0.125000 I7.011813 J2.690711 F400.000000
G02 X1484.702286 Y181.646004 Z-0.125000 I25.683893 J-4.529097
G02 X1489.870203 Y188.723666 Z-0.125000 I23.401017 J-11.661222
G02 X1502.669484 Y199.128248 Z-0.125000 I64.593313 J-66.385123
G01 X1508.840470 Y203.290535 Z-0.125000
G01 X1505.753241 Y206.182621 Z-0.125000
G02 X1499.116322 Y214.307214 Z-0.125000 I27.030009 J28.853735
G02 X1488.690086 Y233.895506 Z-0.125000 I150.627887 J92.743448
G01 X1483.565720 Y245.177043 Z-0.125000
G01 X1475.636066 Y250.602105 Z-0.125000
G02 X1463.731937 Y260.344326 Z-0.125000 I50.649995 J74.033805
G02 X1448.293192 Y277.206011 Z-0.125000 I138.179368 J142.017341
G02 X1444.311702 Y285.678240 Z-0.125000 I15.000294 J12.220984
G02 X1442.815484 Y304.942279 Z-0.125000 I80.870111 J15.971222
G02 X1445.627710 Y325.115110 Z-0.125000 I103.415362 J-4.134350
G02 X1451.978704 Y342.867253 Z-0.125000 I86.203983 J-20.828136
G02 X1466.417924 Y363.631427 Z-0.125000 I72.567856 J-35.060498
G02 X1484.619228 Y376.854914 Z-0.125000 I45.997257 J-44.174128
G02 X1498.579421 Y381.476956 Z-0.125000 I24.485808 J-50.562391
G02 X1514.579403 Y382.569372 Z-0.125000 I12.518407 J-65.632379
G02 X1541.100163 Y375.606172 Z-0.125000 I-3.515506 J-67.375963
G02 X1564.556764 Y358.860927 Z-0.125000 I-40.622580 J-81.705307
G02 X1581.345646 Y335.646347 Z-0.125000 I-60.845424 J-61.681851
G02 X1587.053675 Y311.077878 Z-0.125000 I-49.199071 J-24.377805
G02 X1584.949691 Y299.448393 Z-0.125000 I-33.841993 J0.117559
G02 X1575.784852 Y280.632010 Z-0.125000 I-99.538044 J36.841563
G01 X1566.466297 Y265.501206 Z-0.125000
G01 X1567.272324 Y260.529794 Z-0.125000
G02 X1569.151105 Y241.329914 Z-0.125000 I-150.779567 J-24.446216
G02 X1568.360912 Y228.852850 Z-0.125000 I-64.111253 J-2.203281
G03 X1567.275480 Y221.938983 Z-0.125000 I674.609912 J-109.451478
G03 X1567.012059 Y219.964032 Z-0.125000 I54.710601 J-8.302402
G03 X1567.810374 Y218.852084 Z-0.125000 I1.011392 J-0.116425
G03 X1579.319262 Y217.329863 Z-0.125000 I15.325867 J71.604494
G02 X1604.827098 Y213.811045 Z-0.125000 I-7.910939 J-151.558505
G02 X1608.329562 Y210.781015 Z-0.125000 I-1.081057 J-4.788907
G02 X1608.042204 Y207.450958 Z-0.125000 I-3.568830 J-1.369465
G02 X1604.154310 Y203.792851 Z-0.125000 I-8.370408 J5.001093
G02 X1602.330315 Y203.228204 Z-0.125000 I-2.486085 J4.802495
G02 X1591.532598 Y202.235845 Z-0.125000 I-21.351663 J173.084046
G03 X1552.431158 Y198.247012 Z-0.125000 I28.941518 J-477.350531
G03 X1532.403430 Y193.736370 Z-0.125000 I18.563172 J-129.140402
G03 X1526.435316 Y191.275997 Z-0.125000 I10.535305 J-34.024029
G03 X1506.893730 Y180.398333 Z-0.125000 I198.095108 J-378.867313
G02 X1487.455063 Y169.478435 Z-0.125000 I-254.979617 J431.131368
G02 X1485.468463 Y168.982193 Z-0.125000 I-1.986601 J3.728351
G02 X1483.675265 Y169.460992 Z-0.125000 I-0.000000 J3.597341
G02 X1482.745272 Y170.548069 Z-0.125000 I1.065353 J1.852750
G01 X1482.745272 Y170.548069 Z-0.125000
G00 Z5.000000

(Change tool to Default tool)

G00 Z5.000000
G00 X1507.742485 Y184.064572

G01 Z-0.125000 F100.0(Penetrate)
G02 X1519.052820 Y190.716079 Z-0.125000 I324.042886 J-538.066135 F400.000000
G02 X1523.581502 Y193.158029 Z-0.125000 I48.079952 J-83.745674
G02 X1541.052803 Y198.971929 Z-0.125000 I28.416279 J-56.235140
G02 X1587.844631 Y204.493558 Z-0.125000 I71.663865 J-406.275289
G03 X1601.685906 Y206.036108 Z-0.125000 I-8.290362 J137.259358
G03 X1603.931128 Y207.116825 Z-0.125000 I-0.708462 J4.344466
G03 X1605.652462 Y208.990533 Z-0.125000 I-9.271414 J10.244970
G03 X1605.886702 Y209.684756 Z-0.125000 I-0.911622 J0.694223
G03 X1603.821133 Y212.042801 Z-0.125000 I-2.378751 J0.000000
G03 X1555.972936 Y216.313998 Z-0.125000 I-73.545183 J-553.745808
G01 X1541.201990 Y216.994216 Z-0.125000
G01 X1538.961061 Y225.903664 Z-0.125000
G01 X1536.720160 Y234.813109 Z-0.125000
G01 X1542.976801 Y240.752741 Z-0.125000
G03 X1553.894003 Y252.401519 Z-0.125000 I-94.172246 J99.198148
G03 X1561.953762 Y263.531625 Z-0.125000 I-77.861186 J64.865672
G03 X1581.906552 Y297.598197 Z-0.125000 I-576.110822 J360.304560
G03 X1584.085628 Y303.968357 Z-0.125000 I-17.334313 J9.487429
G03 X1581.337359 Y328.562157 Z-0.125000 I-45.858574 J7.325923
G03 X1563.244787 Y355.998788 Z-0.125000 I-76.034066 J-30.455522
G03 X1541.011771 Y372.290992 Z-0.125000 I-63.794143 J-63.739978
G03 X1516.909853 Y380.060750 Z-0.125000 I-35.080178 J-67.552142
G03 X1509.154900 Y380.501801 Z-0.125000 I-6.379233 J-43.767522
G03 X1500.851154 Y379.561030 Z-0.125000 I1.592435 J-51.172678
G03 X1465.902216 Y358.647207 Z-0.125000 I11.647881 J-59.123060
G03 X1445.500405 Y312.059828 Z-0.125000 I72.659088 J-59.580211
G03 X1444.469244 Y290.226600 Z-0.125000 I118.427213 J-16.534163
G03 X1446.756464 Y283.744793 Z-0.125000 I11.813114 J0.524019
G03 X1462.847018 Y265.038116 Z-0.125000 I130.498657 J95.974974
G03 X1478.679607 Y251.897787 Z-0.125000 I79.549834 J79.740037
G02 X1487.446079 Y245.598254 Z-0.125000 I-139.956056 J-204.013282
G02 X1493.945374 Y240.414698 Z-0.125000 I-88.196850 J-117.250090
G03 X1511.344229 Y230.994307 Z-0.125000 I31.314831 J37.058994
G03 X1526.444138 Y230.684531 Z-0.125000 I8.108746 J27.083226
G01 X1529.661443 Y231.505637 Z-0.125000
G01 X1529.674990 Y224.249932 Z-0.125000
G03 X1529.904676 Y217.022919 Z-0.125000 I121.375295 J0.240345
G03 X1530.252670 Y214.892101 Z-0.125000 I10.758007 J0.663119
G02 X1529.737862 Y213.252245 Z-0.125000 I-1.546818 J-0.415136
G02 X1522.154445 Y208.068128 Z-0.125000 I-29.478786 J34.983454
G03 X1503.921308 Y197.009278 Z-0.125000 I110.665651 J-203.018817
G03 X1493.643142 Y188.923121 Z-0.125000 I48.477385 J-72.193986
G03 X1486.780044 Y180.373491 Z-0.125000 I24.377981 J-26.598535
G03 X1485.114302 Y174.160395 Z-0.125000 I10.754326 J-6.213096
G01 X1485.114302 Y170.816768 Z-0.125000
G01 X1490.806442 Y174.054898 Z-0.125000
G03 X1496.471151 Y177.339860 Z-0.125000 I-195.424019 J343.523005
G03 X1507.742569 Y184.064572 Z-0.125000 I-807.568013 J1366.388670
G01 X1507.742485 Y184.064572 Z-0.125000
G00 Z5.000000

(Change tool to Default tool)

G00 Z5.000000
G00 X1521.342915 Y255.769693

G01 Z-0.125000 F100.0(Penetrate)
G02 X1520.220346 Y259.724849 Z-0.125000 I37.545693 J12.793256 F400.000000
G02 X1520.153137 Y260.632948 Z-0.125000 I2.953962 J0.675164
G02 X1520.352638 Y260.684044 Z-0.125000 I0.108435 J-0.008360
G02 X1521.542305 Y258.355890 Z-0.125000 I-10.345659 J-6.754574
G02 X1523.707396 Y251.560297 Z-0.125000 I-57.465430 J-22.051316
G02 X1523.386599 Y251.147096 Z-0.125000 I-0.320797 J-0.082072
G02 X1523.066984 Y251.355248 Z-0.125000 I-0.000000 J0.349459
G02 X1521.342915 Y255.769693 Z-0.125000 I49.335798 J21.812071
G01 X1521.342915 Y255.769693 Z-0.125000
G00 Z5.000000

(Change tool to Default tool)

G00 Z5.000000
G00 X1529.331469 Y257.746690

G01 Z-0.125000 F100.0(Penetrate)
G02 X1528.892170 Y258.495580 Z-0.125000 I1.217260 J1.217336 F400.000000
G02 X1528.701605 Y259.974053 Z-0.125000 I4.883489 J1.380965
G02 X1529.064209 Y260.259453 Z-0.125000 I0.298147 J-0.005752
G02 X1529.782291 Y259.734813 Z-0.125000 I-0.239414 J-1.081434
G02 X1530.054587 Y257.955572 Z-0.125000 I-2.124952 J-1.235661
G02 X1529.331469 Y257.746690 Z-0.125000 I-0.419185 J0.095051
G01 X1529.331469 Y257.746690 Z-0.125000
G00 Z5.000000

(Change tool to Default tool)

G00 Z5.000000
G00 X1466.004217 Y267.954253

G01 Z-0.125000 F100.0(Penetrate)
G02 X1461.776303 Y271.133596 Z-0.125000 I17.813876 J28.089853 F400.000000
G02 X1461.355678 Y272.067428 Z-0.125000 I0.826291 J0.933832
G02 X1461.746581 Y272.351632 Z-0.125000 I0.298766 J-0.000000
G02 X1463.361855 Y271.417038 Z-0.125000 I-1.373736 J-4.237399
G03 X1465.460058 Y269.724239 Z-0.125000 I15.959746 J17.635154
G03 X1469.053995 Y267.334761 Z-0.125000 I35.525410 J49.535136
G02 X1471.797282 Y265.319683 Z-0.125000 I-10.859690 J-17.659030
G02 X1471.696357 Y265.037134 Z-0.125000 I-0.105690 J-0.121548
G02 X1470.721591 Y265.257131 Z-0.125000 I-0.059475 J2.005974
G02 X1466.004217 Y267.954253 Z-0.125000 I27.068577 J52.818026
G01 X1466.004217 Y267.954253 Z-0.125000
G00 Z5.000000

(Change tool to Default tool)

G00 Z5.000000
G00 X1508.434014 Y320.331775

G01 Z-0.125000 F100.0(Penetrate)
G03 X1501.988324 Y328.532447 Z-0.125000 I-23.754045 J-12.037092 F400.000000
G03 X1492.157270 Y334.252462 Z-0.125000 I-20.580788 J-24.064051
G02 X1489.268153 Y335.359039 Z-0.125000 I27.059805 J74.974183
G02 X1488.732313 Y335.644884 Z-0.125000 I1.090024 J2.688492
G02 X1488.769452 Y335.769163 Z-0.125000 I0.038100 J0.056303
G02 X1490.063887 Y335.669054 Z-0.125000 I0.100684 J-7.116853
G02 X1502.275819 Y330.142496 Z-0.125000 I-4.431474 J-26.047663
G02 X1510.160395 Y319.369990 Z-0.125000 I-16.508019 J-20.354174
G02 X1511.341747 Y315.780844 Z-0.125000 I-31.241579 J-12.272024
G02 X1511.190817 Y315.663201 Z-0.125000 I-0.100364 J-0.026878
G02 X1510.802250 Y316.039858 Z-0.125000 I0.509268 J0.914125
G02 X1508.434014 Y320.331775 Z-0.125000 I59.767277 J35.778325
G01 X1508.434014 Y320.331775 Z-0.125000
G00 Z5.000000

(Change tool to Default tool)

G00 Z5.000000
G00 X1512.512351 Y317.225496

G01 Z-0.125000 F100.0(Penetrate)
G02 X1510.025247 Y323.808490 Z-0.125000 I17.846908 J10.504015 F400.000000
G02 X1511.128389 Y324.402550 Z-0.125000 I0.644591 J0.124297
G02 X1511.565192 Y323.708723 Z-0.125000 I-1.226707 J-1.256688
G02 X1512.638606 Y320.205259 Z-0.125000 I-59.935042 J-20.279469
G02 X1513.479811 Y316.696009 Z-0.125000 I-52.610303 J-14.466695
G02 X1513.306073 Y316.483042 Z-0.125000 I-0.173738 J-0.035616
G02 X1513.015039 Y316.597942 Z-0.125000 I0.000000 J0.426034
G02 X1512.512351 Y317.225496 Z-0.125000 I1.921790 J2.054517
G01 X1512.512351 Y317.225496 Z-0.125000
G00 Z5.000000

(Change tool to Default tool)

G00 Z5.000000
G00 X1454.426106 Y323.928895

G01 Z-0.125000 F100.0(Penetrate)
G02 X1455.590382 Y330.004729 Z-0.125000 I16.435671 J0.000000 F400.000000
G02 X1464.575862 Y349.440078 Z-0.125000 I182.951520 J-72.788573
G02 X1482.022492 Y367.122245 Z-0.125000 I38.217448 J-20.260171
G02 X1509.015617 Y373.767798 Z-0.125000 I26.013626 J-47.519446
G01 X1516.297261 Y373.636127 Z-0.125000
G01 X1508.509480 Y372.814460 Z-0.125000
G03 X1488.281345 Y367.674460 Z-0.125000 I7.645108 J-72.460085
G03 X1474.459030 Y358.716178 Z-0.125000 I17.360485 J-41.929434
G03 X1467.988946 Y350.618423 Z-0.125000 I25.676805 J-27.149365
G03 X1459.843447 Y334.054452 Z-0.125000 I101.948435 J-60.418966
G02 X1455.089221 Y322.600891 Z-0.125000 I-400.807248 J159.656450
G02 X1454.818085 Y322.422673 Z-0.125000 I-0.271136 J0.117141
G02 X1454.597010 Y322.593579 Z-0.125000 I0.000000 J0.228438
G02 X1454.426106 Y323.928895 Z-0.125000 I5.131135 J1.335315
G01 X1454.426106 Y323.928895 Z-0.125000
G00 Z5.000000

(Change tool to Default tool)

G00 Z5.000000
G00 X1456.420712 Y322.667307

G01 Z-0.125000 F100.0(Penetrate)
G02 X1458.057088 Y326.672806 Z-0.125000 I5.454344 J0.108729 F400.000000
G02 X1467.273822 Y333.301040 Z-0.125000 I26.284200 J-26.826699
G02 X1470.950653 Y334.819599 Z-0.125000 I11.300621 J-22.151204
G02 X1474.765890 Y335.714144 Z-0.125000 I7.397591 J-22.967482
G02 X1477.312023 Y336.052065 Z-0.125000 I11.170099 J-74.402303
G01 X1477.349398 Y335.973968 Z-0.125000
G02 X1477.116519 Y335.829972 Z-0.125000 I-0.432379 J0.438959
G02 X1473.745826 Y334.709377 Z-0.125000 I-65.572916 J191.610232
G03 X1466.083826 Y331.057037 Z-0.125000 I9.856894 J-30.541094
G03 X1459.638017 Y325.517675 Z-0.125000 I17.564314 J-26.958467
G02 X1456.668793 Y322.558614 Z-0.125000 I-26.666123 J23.788460
G02 X1456.420712 Y322.667307 Z-0.125000 I-0.098928 J0.111663
G01 X1456.420712 Y322.667307 Z-0.125000
G00 Z5.000000

(Change tool to Default tool)

G00 Z5.000000
G00 X1511.386171 Y333.295805

G01 Z-0.125000 F100.0(Penetrate)
G02 X1514.432398 Y340.527239 Z-0.125000 I15.400583 J-2.230137 F400.000000
G02 X1521.990700 Y347.142550 Z-0.125000 I20.243050 J-15.503120
G02 X1527.263933 Y349.835759 Z-0.125000 I30.374481 J-52.963407
G02 X1528.618378 Y350.131670 Z-0.125000 I1.376206 J-3.051441
G02 X1528.715631 Y349.822195 Z-0.125000 I0.001064 J-0.169684
G02 X1524.908454 Y347.578727 Z-0.125000 I-17.858273 J25.953442
G03 X1516.186746 Y341.019629 Z-0.125000 I13.408856 J-26.908140
G03 X1511.937295 Y333.472021 Z-0.125000 I13.942063 J-12.819720
G01 X1510.886807 Y329.847213 Z-0.125000
G01 X1511.386171 Y333.295805 Z-0.125000
G01 X1511.386171 Y333.295805 Z-0.125000
G00 Z5.000000

(Change tool to Default tool)

G00 Z5.000000
G00 X1476.864721 Y343.871346

G01 Z-0.125000 F100.0(Penetrate)
G02 X1476.444672 Y344.630686 Z-0.125000 I1.109569 J1.109638 F400.000000
G02 X1476.204744 Y346.753156 Z-0.125000 I9.268034 J2.122470
G02 X1478.283640 Y350.925159 Z-0.125000 I5.225711 J0.000000
G02 X1488.569746 Y356.574574 Z-0.125000 I24.626329 J-32.649241
G02 X1500.420735 Y359.893158 Z-0.125000 I25.344575 J-67.688150
G02 X1515.307339 Y361.394399 Z-0.125000 I16.020813 J-84.305659
G02 X1524.134475 Y360.438752 Z-0.125000 I0.485855 J-36.757374
G02 X1525.206706 Y359.087989 Z-0.125000 I-0.314708 J-1.350763
G02 X1524.358407 Y357.155802 Z-0.125000 I-2.624639 J-0.000000
G02 X1518.745962 Y353.148357 Z-0.125000 I-18.971929 J20.636423
G03 X1512.337057 Y349.558596 Z-0.125000 I126.637564 J-233.605634
G03 X1508.846566 Y347.422325 Z-0.125000 I41.294512 J-71.391546
G02 X1505.197627 Y345.913353 Z-0.125000 I-5.926222 J9.164219
G02 X1498.478371 Y345.210121 Z-0.125000 I-6.666435 J31.244311
G02 X1491.646846 Y345.558071 Z-0.125000 I0.107850 J69.355304
G02 X1490.266128 Y346.035273 Z-0.125000 I0.317128 J3.153624
G02 X1490.361906 Y346.410073 Z-0.125000 I0.108978 J0.171789
G02 X1496.700710 Y346.453642 Z-0.125000 I3.544224 J-54.510265
G03 X1504.189039 Y346.892005 Z-0.125000 I1.753329 J34.227664
G03 X1507.856644 Y348.347128 Z-0.125000 I-1.586815 J9.349151
G02 X1511.357029 Y350.533389 Z-0.125000 I39.467537 J-59.295451
G02 X1517.756011 Y354.138297 Z-0.125000 I113.894898 J-194.690240
G03 X1523.866897 Y358.107705 Z-0.125000 I-21.916258 J40.428518
G03 X1524.173667 Y359.211381 Z-0.125000 I-0.581165 J0.756009
G03 X1523.181165 Y359.980241 Z-0.125000 I-1.139769 J-0.446271
G03 X1515.307339 Y360.392194 Z-0.125000 I-6.946490 J-57.317182
G03 X1499.903969 Y358.665900 Z-0.125000 I1.304677 J-81.225060
G03 X1485.938024 Y354.219721 Z-0.125000 I14.939621 J-71.084396
G03 X1478.172120 Y348.947244 Z-0.125000 I10.037016 J-23.139151
G03 X1477.503248 Y345.815072 Z-0.125000 I2.072706 J-2.080128
G03 X1478.453341 Y345.155505 Z-0.125000 I0.959629 J0.368247
G03 X1482.741406 Y345.766465 Z-0.125000 I0.133748 J14.414794
G02 X1487.344576 Y346.872960 Z-0.125000 I12.095006 J-40.188730
G02 X1487.893965 Y346.701236 Z-0.125000 I0.110739 J-0.610398
G02 X1487.893845 Y346.344293 Z-0.125000 I-0.178423 J-0.178411
G02 X1486.988286 Y345.796708 Z-0.125000 I-1.567273 J1.569281
G03 X1485.610242 Y345.362283 Z-0.125000 I89.138942 J-285.161429
G03 X1482.244158 Y344.288498 Z-0.125000 I539.221500 J-1696.155970
G02 X1477.991729 Y343.454827 Z-0.125000 I-5.697345 J17.798957
G02 X1476.864721 Y343.871337 Z-0.125000 I-0.111082 J1.432437
G01 X1476.864721 Y343.871346 Z-0.125000
G00 Z5.000000

(Change tool to Default tool)

G00 Z5.000000
G00 X1551.935070 Y346.885849

G01 Z-0.125000 F100.0(Penetrate)
G03 X1548.894963 Y348.335808 Z-0.125000 I-15.155748 J-27.864776 F400.000000
G03 X1545.005499 Y349.749809 Z-0.125000 I-18.291449 J-44.257585
G02 X1542.670461 Y350.780726 Z-0.125000 I3.486702 J11.057311
G02 X1542.741004 Y351.064665 Z-0.125000 I0.076488 J0.131730
G02 X1544.894590 Y350.790800 Z-0.125000 I0.257143 J-6.582386
G02 X1550.004568 Y349.025971 Z-0.125000 I-19.209560 J-63.900643
G02 X1554.974339 Y346.802245 Z-0.125000 I-20.823161 J-53.202657
G02 X1555.399856 Y346.110074 Z-0.125000 I-0.350206 J-0.692172
G02 X1554.953335 Y345.752474 Z-0.125000 I-0.366453 J0.000000
G02 X1551.935070 Y346.885849 Z-0.125000 I2.543160 J11.358259
G01 X1551.935070 Y346.885849 Z-0.125000
G00 Z5.000000

(Change tool to Default tool)

G00 Z5.000000
G00 X1556.389779 Y346.066902

G01 Z-0.125000 F100.0(Penetrate)
G02 X1557.720519 Y348.248193 Z-0.125000 I2.453108 J-0.000000 F400.000000
G02 X1559.951226 Y347.899416 Z-0.125000 I0.876332 J-1.703126
G02 X1559.946467 Y347.626864 Z-0.125000 I-0.133961 J-0.133979
G02 X1558.324638 Y346.382822 Z-0.125000 I-7.264553 J7.791437
G02 X1556.726102 Y345.781040 Z-0.125000 I-2.297479 J3.678866
G02 X1556.389779 Y346.066902 Z-0.125000 I-0.046675 J0.285862
G01 X1556.389779 Y346.066902 Z-0.125000
G00 Z5.000000

(Change tool to Default tool)

G00 Z5.000000
G00 X1552.791163 Y354.886998

G01 Z-0.125000 F100.0(Penetrate)
G03 X1540.028538 Y364.129611 Z-0.125000 I-43.959460 J-47.268329 F400.000000
G03 X1524.216784 Y370.661499 Z-0.125000 I-36.771406 J-66.608900
G01 X1516.297261 Y372.930955 Z-0.125000
G01 X1522.236910 Y372.401179 Z-0.125000
G02 X1539.374699 Y367.207583 Z-0.125000 I-3.902086 J-43.748443
G02 X1558.316369 Y352.712152 Z-0.125000 I-37.326205 J-68.398989
G02 X1560.460800 Y349.626191 Z-0.125000 I-8.697171 J-8.331719
G02 X1560.148827 Y349.289676 Z-0.125000 I-0.221747 J-0.107293
G02 X1558.337288 Y350.290936 Z-0.125000 I2.925707 J7.432763
G02 X1552.791163 Y354.886998 Z-0.125000 I37.396072 J50.770619
G01 X1552.791163 Y354.886998 Z-0.125000
G00 Z5.000000

(Change tool to Default tool)

G00 Z5.000000
G00 X1531.455699 Y350.817190

G01 Z-0.125000 F100.0(Penetrate)
G02 X1532.691813 Y351.029057 Z-0.125000 I1.112878 J-2.781041 F400.000000
G02 X1533.353079 Y350.739085 Z-0.125000 I-0.040852 J-0.992138
G02 X1533.289869 Y350.431006 Z-0.125000 I-0.133192 J-0.133197
G02 X1532.053784 Y350.219150 Z-0.125000 I-1.112821 J2.780884
G02 X1531.392489 Y350.509159 Z-0.125000 I0.040883 J0.992190
G02 X1531.455699 Y350.817233 Z-0.125000 I0.133193 J0.133193
G01 X1531.455699 Y350.817190 Z-0.125000
G00 Z5.000000

(Change tool to Default tool)

G00 Z5.000000
G00 X1520.159839 Y208.759372

G01 Z-0.125000 F100.0(Penetrate)
G01 X1528.506223 Y212.898751 Z-0.125000 F400.000000
G01 X1528.341377 Y220.886120 Z-0.125000
G01 X1528.176531 Y228.873477 Z-0.125000
G01 X1518.772124 Y228.873477 Z-0.125000
G02 X1509.559080 Y229.696885 Z-0.125000 I-0.000000 J51.953748
G02 X1503.923030 Y231.549094 Z-0.125000 I3.789951 J21.033381
G02 X1498.734850 Y234.605684 Z-0.125000 I17.573336 J35.759984
G02 X1492.786231 Y239.300304 Z-0.125000 I36.046909 J51.791639
G03 X1487.332580 Y243.843691 Z-0.125000 I-70.305440 J-78.846253
G03 X1487.094091 Y243.727042 Z-0.125000 I-0.090717 J-0.116649
G03 X1487.487058 Y241.965332 Z-0.125000 I4.145442 J-0.000000
G03 X1493.333520 Y230.089886 Z-0.125000 I323.041738 J151.661472
G03 X1499.375249 Y218.814856 Z-0.125000 I357.827985 J184.485993
G03 X1502.425305 Y213.990703 Z-0.125000 I44.559524 J24.796358
G03 X1509.547808 Y205.466141 Z-0.125000 I59.354268 J42.354300
G03 X1511.553303 Y204.619982 Z-0.125000 I2.005495 J1.953549
G03 X1511.800266 Y204.676285 Z-0.125000 I-0.000000 J0.569782
G03 X1520.159839 Y208.759372 Z-0.125000 I-333.134551 J692.647380
G01 X1520.159839 Y208.759372 Z-0.125000
G00 Z5.000000

(Change tool to Default tool)

G00 Z5.000000
G00 X1564.908798 Y223.146960

G01 Z-0.125000 F100.0(Penetrate)
G03 X1565.884097 Y228.889749 Z-0.125000 I-24.439990 J7.104864 F400.000000
G03 X1566.068703 Y244.789899 Z-0.125000 I-189.392264 J10.150045
G03 X1565.276658 Y260.682718 Z-0.125000 I-408.418269 J-12.388047
G03 X1564.880716 Y261.912719 Z-0.125000 I-2.687775 J-0.186476
G03 X1564.122573 Y261.997307 Z-0.125000 I-0.412216 J-0.254772
G03 X1557.423502 Y254.311196 Z-0.125000 I61.795633 J-60.622373
G02 X1550.368291 Y245.850451 Z-0.125000 I-117.527526 J90.831407
G02 X1544.733690 Y240.192564 Z-0.125000 I-58.036783 J52.163269
G01 X1538.797936 Y234.813109 Z-0.125000
G01 X1540.425060 Y226.893601 Z-0.125000
G03 X1543.085070 Y220.035603 Z-0.125000 I21.626412 J4.443364
G03 X1545.508729 Y218.361955 Z-0.125000 I3.040959 J1.811992
G03 X1548.983100 Y217.933900 Z-0.125000 I5.794959 J32.721486
G03 X1556.114640 Y217.619499 Z-0.125000 I9.649882 J137.848307
G01 X1563.264035 Y217.489186 Z-0.125000
G01 X1564.908798 Y223.146960 Z-0.125000
G01 X1564.908798 Y223.146960 Z-0.125000
G00 Z5.000000

(Change tool to Default tool)

G00 Z5.000000
G00 X1556.192279 Y158.170926

G01 Z-0.125000 F100.0(Penetrate)
G03 X1574.521801 Y166.228673 Z-0.125000 I-15.174326 J59.394699 F400.000000
G03 X1591.130798 Y180.972718 Z-0.125000 I-41.221518 J63.162511
G01 X1595.308082 Y185.962017 Z-0.125000
G01 X1588.965617 Y181.549515 Z-0.125000
G02 X1555.151265 Y165.115628 Z-0.125000 I-69.338886 J99.666497
G02 X1523.226833 Y161.434696 Z-0.125000 I-25.954872 J84.825060
G02 X1514.340003 Y162.189439 Z-0.125000 I17.269189 J256.035523
G02 X1511.842553 Y162.601129 Z-0.125000 I2.106634 J20.560587
G01 X1509.367690 Y163.166643 Z-0.125000
G01 X1511.842553 Y161.655431 Z-0.125000
G03 X1529.649916 Y155.886329 Z-0.125000 I20.957174 J34.320708
G03 X1556.192279 Y158.170926 Z-0.125000 I6.380048 J81.203256
G01 X1556.192279 Y158.170926 Z-0.125000
G00 Z5.000000

(Change tool to Default tool)

G00 Z5.000000
G00 X1365.331627 Y355.150233

G01 Z-0.125000 F100.0(Penetrate)
G03 X1391.284998 Y362.903388 Z-0.125000 I-16.473827 J102.460974 F400.000000
G03 X1414.828579 Y377.323877 Z-0.125000 I-44.078791 J98.394575
G03 X1420.955709 Y382.834020 Z-0.125000 I-47.459118 J58.934927
G03 X1436.607216 Y399.168337 Z-0.125000 I-403.871767 J402.654837
G02 X1452.018601 Y415.767142 Z-0.125000 I2031.383374 J-1870.611546
G02 X1457.531595 Y421.520329 Z-0.125000 I249.444344 J-233.512147
G02 X1472.658755 Y431.145965 Z-0.125000 I28.271500 J-27.730693
G02 X1492.939478 Y433.979071 Z-0.125000 I17.145057 J-48.726400
G02 X1511.210150 Y430.827242 Z-0.125000 I-5.122186 J-84.224595
G02 X1532.951025 Y422.434080 Z-0.125000 I-36.959604 J-128.091120
G03 X1563.893801 Y412.764200 Z-0.125000 I46.815055 J95.462079
G03 X1592.522549 Y413.440290 Z-0.125000 I12.385064 J82.033967
G03 X1610.004751 Y418.450551 Z-0.125000 I-21.724140 J108.806861
G03 X1622.715670 Y424.844918 Z-0.125000 I-24.000066 J63.538835
G03 X1651.075488 Y453.211143 Z-0.125000 I-50.930994 J79.279309
G03 X1667.782919 Y495.031533 Z-0.125000 I-99.948105 J64.177250
G03 X1669.852668 Y518.268865 Z-0.125000 I-114.166078 J21.879617
G03 X1667.284740 Y537.680879 Z-0.125000 I-81.886091 J-0.956486
G03 X1660.896431 Y554.459136 Z-0.125000 I-77.490650 J-19.899208
G03 X1651.130791 Y568.996706 Z-0.125000 I-67.659117 J-34.901310
G03 X1640.098456 Y579.361501 Z-0.125000 I-52.527657 J-44.856848
G03 X1625.604215 Y588.178171 Z-0.125000 I-52.120171 J-69.361109
G03 X1574.565372 Y598.278039 Z-0.125000 I-45.035550 J-93.573199
G03 X1524.711745 Y582.335860 Z-0.125000 I6.075501 J-104.920058
G02 X1515.996026 Y577.675644 Z-0.125000 I-37.519034 J59.689212
G02 X1501.448195 Y571.922913 Z-0.125000 I-72.164306 J161.222130
G02 X1447.675254 Y554.729803 Z-0.125000 I-403.787031 J1170.192621
G02 X1425.835161 Y549.633922 Z-0.125000 I-55.235409 J187.380277
G02 X1415.024852 Y548.142351 Z-0.125000 I-26.900394 J155.043084
G02 X1392.877137 Y546.118182 Z-0.125000 I-100.724466 J979.912109
G02 X1370.065750 Y544.590252 Z-0.125000 I-70.300350 J878.510032
G02 X1365.176743 Y544.779897 Z-0.125000 I-1.424326 J26.394785
G03 X1352.860842 Y544.873994 Z-0.125000 I-6.536002 J-49.434534
G03 X1333.447317 Y541.077130 Z-0.125000 I14.909842 J-127.764185
G03 X1297.301789 Y523.411370 Z-0.125000 I29.259790 J-105.678990
G03 X1273.550137 Y496.565702 Z-0.125000 I51.918847 J-69.865045
G03 X1266.013607 Y479.684107 Z-0.125000 I82.926227 J-47.144230
G03 X1261.330310 Y460.037490 Z-0.125000 I107.966724 J-36.118262
G03 X1260.742827 Y431.079438 Z-0.125000 I115.022368 J-16.818488
G03 X1267.271906 Y403.453286 Z-0.125000 I111.051167 J11.660881
G03 X1278.903430 Y383.695564 Z-0.125000 I62.502738 J23.493199
G03 X1297.305939 Y368.127623 Z-0.125000 I56.228014 J47.805295
G03 X1330.091979 Y355.662813 Z-0.125000 I51.682986 J86.590364
G03 X1365.331627 Y355.150233 Z-0.125000 I19.078183 J100.005189
G01 X1365.331627 Y355.150233 Z-0.125000
G00 Z5.000000

(Change tool to Default tool)

G00 Z5.000000
G00 X1347.512736 Y388.748549

G01 Z-0.125000 F100.0(Penetrate)
G02 X1324.911085 Y395.708864 Z-0.125000 I15.235548 J89.649505 F400.000000
G02 X1310.067209 Y405.882999 Z-0.125000 I21.909783 J47.881510
G02 X1291.277065 Y449.588683 Z-0.125000 I43.441155 J44.568430
G02 X1308.863701 Y492.692111 Z-0.125000 I59.590058 J0.826129
G02 X1333.066206 Y506.577713 Z-0.125000 I38.066991 J-38.315296
G02 X1366.644214 Y508.038535 Z-0.125000 I20.115761 J-75.737446
G02 X1386.922696 Y501.038405 Z-0.125000 I-11.584718 J-66.431601
G02 X1405.549761 Y487.179973 Z-0.125000 I-37.319295 J-69.608218
G02 X1416.086394 Y473.430594 Z-0.125000 I-47.412228 J-47.245644
G02 X1419.988306 Y462.201181 Z-0.125000 I-27.292851 J-15.776127
G02 X1418.293711 Y439.006441 Z-0.125000 I-53.284819 J-7.766313
G02 X1405.507089 Y413.778285 Z-0.125000 I-76.303274 J22.819042
G02 X1378.324832 Y392.449808 Z-0.125000 I-54.025406 J40.867568
G02 X1347.512736 Y388.748549 Z-0.125000 I-21.655768 J50.176791
G01 X1347.512736 Y388.748549 Z-0.125000
G00 Z5.000000

(Change tool to Default tool)

G00 Z5.000000
G00 X1365.798196 Y391.234732

G01 Z-0.125000 F100.0(Penetrate)
G03 X1379.919137 Y395.736371 Z-0.125000 I-15.403053 J72.715387 F400.000000
G03 X1388.885385 Y401.227230 Z-0.125000 I-14.857498 J34.327523
G01 X1391.155440 Y403.102670 Z-0.125000
G01 X1388.703917 Y411.517145 Z-0.125000
G03 X1382.190695 Y430.322955 Z-0.125000 I-191.485650 J-55.788512
G03 X1380.719596 Y431.315918 Z-0.125000 I-1.471100 J-0.593254
G03 X1380.259309 Y431.232411 Z-0.125000 I0.000000 J-1.310296
G03 X1368.927505 Y426.891585 Z-0.125000 I309.777948 J-825.642252
G02 X1343.279339 Y419.039180 Z-0.125000 I-64.653756 J165.364093
G02 X1333.253995 Y418.858482 Z-0.125000 I-5.450573 J24.204968
G02 X1325.611649 Y422.320760 Z-0.125000 I3.254981 J17.350453
G02 X1319.723443 Y429.475228 Z-0.125000 I13.291211 J16.939079
G02 X1317.530916 Y440.342501 Z-0.125000 I18.335695 J9.354131
G02 X1321.637502 Y455.442147 Z-0.125000 I40.898003 J-3.014606
G02 X1331.278627 Y469.391676 Z-0.125000 I51.844296 J-25.525380
G02 X1343.330683 Y478.634605 Z-0.125000 I33.857926 J-31.669149
G02 X1361.211119 Y486.108820 Z-0.125000 I48.682140 J-91.336818
G02 X1373.746110 Y488.115813 Z-0.125000 I13.216689 J-42.398781
G02 X1386.676118 Y485.861738 Z-0.125000 I0.539125 J-35.119547
G02 X1395.018526 Y480.095715 Z-0.125000 I-7.397332 J-19.620621
G01 X1399.003391 Y475.568698 Z-0.125000
G01 X1402.961924 Y477.353745 Z-0.125000
G03 X1407.168619 Y479.722611 Z-0.125000 I-11.136191 J24.695554
G03 X1407.834851 Y481.208717 Z-0.125000 I-0.886298 J1.289725
G03 X1407.015395 Y482.967838 Z-0.125000 I-3.154414 J-0.399003
G03 X1401.557897 Y488.453599 Z-0.125000 I-77.323389 J-71.467442
G03 X1383.736892 Y500.376197 Z-0.125000 I-45.478764 J-48.698194
G03 X1360.703408 Y507.093152 Z-0.125000 I-34.631775 J-75.906570
G03 X1344.921716 Y507.658005 Z-0.125000 I-10.604916 J-75.547280
G03 X1333.083899 Y505.214605 Z-0.125000 I3.032898 J-44.591528
G03 X1315.773124 Y496.091188 Z-0.125000 I22.397715 J-63.481878
G03 X1304.243762 Y484.210062 Z-0.125000 I28.941703 J-39.619397
G03 X1297.256884 Y469.160176 Z-0.125000 I41.362373 J-28.349160
G03 X1294.647660 Y449.134814 Z-0.125000 I70.336457 J-19.347225
G03 X1307.397928 Y413.256805 Z-0.125000 I58.380777 J0.542676
G03 X1339.593242 Y392.823682 Z-0.125000 I45.764281 J36.527459
G03 X1355.475948 Y390.468552 Z-0.125000 I21.497440 J90.242984
G03 X1365.798196 Y391.234732 Z-0.125000 I2.333293 J38.480630
G01 X1365.798196 Y391.234732 Z-0.125000
G00 Z5.000000

(Change tool to Default tool)

G00 Z5.000000
G00 X1401.240453 Y412.991116

G01 Z-0.125000 F100.0(Penetrate)
G03 X1410.736710 Y427.140270 Z-0.125000 I-60.819604 J51.080600 F400.000000
G03 X1416.303641 Y441.670775 Z-0.125000 I-58.631574 J30.794601
G03 X1417.692778 Y462.316422 Z-0.125000 I-55.733458 J14.119568
G03 X1412.459634 Y475.317323 Z-0.125000 I-26.203045 J-2.993616
G01 X1409.923782 Y478.641983 Z-0.125000
G01 X1405.187275 Y476.116303 Z-0.125000
G01 X1400.450767 Y473.590611 Z-0.125000
G01 X1400.813000 Y466.417409 Z-0.125000
G02 X1400.255833 Y459.413534 Z-0.125000 I-27.098579 J-1.368373
G02 X1397.533521 Y450.972207 Z-0.125000 I-42.295134 J8.980467
G02 X1393.236693 Y443.158390 Z-0.125000 I-46.402403 J20.428418
G02 X1388.539127 Y437.562698 Z-0.125000 I-28.264773 J18.958544
G01 X1383.186416 Y432.425195 Z-0.125000
G01 X1387.058533 Y422.713621 Z-0.125000
G02 X1390.662140 Y412.924949 Z-0.125000 I-181.811321 J-72.489787
G02 X1391.614785 Y409.240208 Z-0.125000 I-24.683485 J-8.347128
G03 X1392.810001 Y406.444838 Z-0.125000 I6.728359 J1.223640
G03 X1394.168331 Y406.046123 Z-0.125000 I0.937584 J0.681016
G03 X1395.964150 Y407.221864 Z-0.125000 I-1.886096 J4.840143
G03 X1401.240453 Y412.991116 Z-0.125000 I-65.652604 J65.340338
G01 X1401.240453 Y412.991116 Z-0.125000
G00 Z5.000000

(Change tool to Default tool)

G00 Z5.000000
G00 X1351.967473 Y423.634173

G01 Z-0.125000 F100.0(Penetrate)
G03 X1357.769342 Y425.069897 Z-0.125000 I-56.099035 J239.141257 F400.000000
G03 X1358.927570 Y425.501377 Z-0.125000 I-1.531654 J5.881703
G03 X1358.944513 Y425.897604 Z-0.125000 I-0.100067 J0.202755
G03 X1357.619058 Y426.423443 Z-0.125000 I-2.229575 J-3.686554
G02 X1354.528302 Y427.448760 Z-0.125000 I3.144193 J14.649090
G02 X1352.591438 Y428.724339 Z-0.125000 I3.162509 J6.910292
G03 X1350.582678 Y429.705812 Z-0.125000 I-2.704075 J-2.987992
G03 X1343.447833 Y430.325981 Z-0.125000 I-7.134845 J-40.731958
G02 X1336.170205 Y430.827969 Z-0.125000 I0.000000 J53.005130
G02 X1333.579337 Y432.025797 Z-0.125000 I0.673266 J4.857158
G02 X1332.228789 Y434.451452 Z-0.125000 I2.815553 J3.156438
G02 X1331.673720 Y440.828534 Z-0.125000 I36.354968 J6.377082
G02 X1335.619803 Y463.591916 Z-0.125000 I67.629478 J-0.000000
G02 X1343.369404 Y473.548727 Z-0.125000 I18.994327 J-6.789448
G02 X1346.944213 Y475.364953 Z-0.125000 I9.240465 J-13.761458
G02 X1348.044080 Y475.243763 Z-0.125000 I0.427190 J-1.174557
G02 X1348.521941 Y474.318031 Z-0.125000 I-0.558429 J-0.874462
G02 X1347.824535 Y470.703692 Z-0.125000 I-13.064194 J0.646351
G03 X1347.139882 Y463.182050 Z-0.125000 I14.958197 J-5.153542
G03 X1349.865316 Y454.418243 Z-0.125000 I30.110470 J4.558287
G03 X1355.092291 Y446.920906 Z-0.125000 I26.438662 J12.861708
G03 X1361.179912 Y443.250232 Z-0.125000 I9.852418 J9.456382
G03 X1367.568156 Y443.358902 Z-0.125000 I3.016147 J10.516784
G03 X1375.291334 Y447.822164 Z-0.125000 I-6.572774 J20.287130
G02 X1378.873497 Y450.082857 Z-0.125000 I8.307988 J-9.195969
G02 X1379.802345 Y449.682932 Z-0.125000 I0.269362 J-0.653005
G02 X1379.766900 Y444.871928 Z-0.125000 I-6.151123 J-2.360314
G02 X1375.560884 Y439.098390 Z-0.125000 I-13.481159 J5.402203
G03 X1374.927873 Y437.916698 Z-0.125000 I1.136141 J-1.369002
G03 X1375.304034 Y436.672606 Z-0.125000 I1.663056 J-0.176076
G02 X1375.434305 Y434.728081 Z-0.125000 I-1.280083 J-1.062384
G02 X1371.905711 Y431.239388 Z-0.125000 I-9.142908 J5.718654
G03 X1369.722505 Y429.625294 Z-0.125000 I7.946025 J-13.031243
G03 X1369.818286 Y429.443798 Z-0.125000 I0.070108 J-0.079023
G03 X1371.086691 Y429.879369 Z-0.125000 I-1.912570 J7.634118
G03 X1376.278490 Y432.334892 Z-0.125000 I-45.177958 J102.237723
G03 X1390.436122 Y443.518509 Z-0.125000 I-20.352154 J40.317389
G03 X1394.039864 Y453.373749 Z-0.125000 I-11.673814 J9.855240
G03 X1388.776168 Y470.363965 Z-0.125000 I-30.052449 J-0.000000
G03 X1374.900936 Y481.297462 Z-0.125000 I-24.450974 J-16.758702
G03 X1362.037790 Y482.729941 Z-0.125000 I-9.191612 J-24.067922
G03 X1346.799476 Y477.812740 Z-0.125000 I6.777730 J-47.074281
G03 X1333.603693 Y468.247039 Z-0.125000 I25.935739 J-49.662648
G03 X1323.659568 Y454.537256 Z-0.125000 I34.947744 J-35.809949
G03 X1319.707818 Y440.356993 Z-0.125000 I35.768218 J-17.608641
G03 X1321.599402 Y430.668875 Z-0.125000 I17.860115 J-1.541573
G03 X1324.955247 Y426.174057 Z-0.125000 I14.803361 J7.552082
G03 X1330.333728 Y422.369101 Z-0.125000 I15.791948 J16.618805
G03 X1335.632984 Y421.258705 Z-0.125000 I4.695764 J9.209783
G03 X1351.967473 Y423.634173 Z-0.125000 I-5.608934 J95.917185
G01 X1351.967473 Y423.634173 Z-0.125000
G00 Z5.000000

(Change tool to Default tool)

G00 Z5.000000
G00 X1374.869552 Y462.075866

G01 Z-0.125000 F100.0(Penetrate)
G02 X1372.888363 Y464.432200 Z-0.125000 I4.671401 J5.938735 F400.000000
G02 X1372.261198 Y466.919643 Z-0.125000 I4.619233 J2.487443
G02 X1373.688769 Y469.485899 Z-0.125000 I3.020386 J0.000000
G02 X1378.695808 Y470.913463 Z-0.125000 I5.007039 J-8.067069
G02 X1383.726897 Y469.509940 Z-0.125000 I-0.000000 J-9.719019
G02 X1385.130419 Y467.020359 Z-0.125000 I-1.506260 J-2.489580
G02 X1383.220364 Y461.934182 Z-0.125000 I-7.726875 J-0.000000
G02 X1379.012998 Y460.024138 Z-0.125000 I-4.207366 J3.678884
G02 X1377.592953 Y460.356466 Z-0.125000 I-0.000000 J3.200109
G02 X1374.869552 Y462.075866 Z-0.125000 I6.925406 J13.985856
G01 X1374.869552 Y462.075866 Z-0.125000
G00 Z5.000000

(Change tool to Default tool)

G00 Z5.000000
G00 X1381.498670 Y464.789356

G01 Z-0.125000 F100.0(Penetrate)
G03 X1382.341350 Y466.565281 Z-0.125000 I-2.527065 J2.286986 F400.000000
G03 X1381.949097 Y467.759172 Z-0.125000 I-1.377274 J0.208880
G03 X1379.057067 Y469.015764 Z-0.125000 I-3.039822 J-3.039828
G03 X1375.270393 Y467.988926 Z-0.125000 I-0.228811 J-6.651697
G03 X1374.783486 Y466.943765 Z-0.125000 I0.570359 J-0.901709
G03 X1375.671289 Y465.034266 Z-0.125000 I3.526531 J0.478488
G03 X1378.695799 Y463.615492 Z-0.125000 I3.206078 J2.901468
G03 X1381.498670 Y464.789356 Z-0.125000 I0.150227 J3.574482
G01 X1381.498670 Y464.789356 Z-0.125000
G00 Z5.000000

(Change tool to Default tool)

G00 Z5.000000
G00 X1368.796412 Y431.870897

G01 Z-0.125000 F100.0(Penetrate)
G03 X1372.722069 Y434.521843 Z-0.125000 I-19.577056 J33.222834 F400.000000
G03 X1372.590298 Y434.787514 Z-0.125000 I-0.092117 J0.119825
G02 X1371.412188 Y435.849074 Z-0.125000 I-0.247398 J0.909947
G02 X1373.434960 Y439.972664 Z-0.125000 I7.807174 J-1.271789
G03 X1375.795328 Y442.828616 Z-0.125000 I-22.615527 J21.094494
G03 X1377.233982 Y445.175058 Z-0.125000 I-13.782394 J10.064535
G03 X1378.067040 Y446.905520 Z-0.125000 I-41.515580 J21.051696
G03 X1378.050112 Y447.077057 Z-0.125000 I-0.156063 J0.071203
G03 X1377.915430 Y447.096746 Z-0.125000 I-0.076885 J-0.055444
G03 X1376.612500 Y446.036889 Z-0.125000 I18.846536 J-24.499695
G02 X1366.071982 Y441.225878 Z-0.125000 I-13.577415 J15.794773
G02 X1356.784329 Y443.114602 Z-0.125000 I-2.032035 J13.787648
G02 X1351.301461 Y448.076409 Z-0.125000 I10.300581 J16.892516
G02 X1347.037192 Y456.009344 Z-0.125000 I23.413519 J17.698277
G02 X1344.898167 Y467.932401 Z-0.125000 I35.482605 J12.519066
G02 X1346.770294 Y472.855563 Z-0.125000 I7.112992 J0.112685
G03 X1346.649349 Y473.024560 Z-0.125000 I-0.078221 J0.071797
G03 X1344.750402 Y471.967706 Z-0.125000 I4.672382 J-10.629741
G03 X1338.480874 Y464.287025 Z-0.125000 I9.990920 J-14.554474
G03 X1333.592859 Y445.573745 Z-0.125000 I61.879087 J-26.158198
G03 X1333.092174 Y437.175858 Z-0.125000 I81.213885 J-9.055864
G03 X1334.005852 Y434.472398 Z-0.125000 I4.352736 J-0.035049
G03 X1336.394465 Y433.000100 Z-0.125000 I3.158761 J2.450925
G03 X1344.170096 Y431.941768 Z-0.125000 I12.913373 J65.782176
G02 X1352.483329 Y430.792971 Z-0.125000 I-5.309669 J-69.076856
G02 X1354.761868 Y429.817606 Z-0.125000 I-1.188244 J-5.924959
G03 X1359.669145 Y428.653734 Z-0.125000 I3.918512 J5.594466
G03 X1368.796412 Y431.870897 Z-0.125000 I-3.640720 J24.884784
G01 X1368.796412 Y431.870897 Z-0.125000
G00 Z5.000000

(Change tool to Default tool)

G00 Z5.000000
G00 X1397.555167 Y457.517494

G01 Z-0.125000 F100.0(Penetrate)
G03 X1398.853129 Y468.874004 Z-0.125000 I-18.951522 J7.918442 F400.000000
G03 X1393.838893 Y479.405572 Z-0.125000 I-21.086649 J-3.580207
G03 X1383.781705 Y485.832802 Z-0.125000 I-16.136838 J-14.168319
G03 X1369.074345 Y486.715872 Z-0.125000 I-9.264637 J-31.385079
G03 X1363.401510 Y485.348658 Z-0.125000 I6.997778 J-41.487578
G03 X1362.588282 Y484.762106 Z-0.125000 I0.481489 J-1.524591
G03 X1362.758494 Y484.295875 Z-0.125000 I0.242463 J-0.175668
G03 X1366.949183 Y483.782663 Z-0.125000 I4.190689 J16.853183
G02 X1376.118326 Y482.071313 Z-0.125000 I-0.000000 J-25.419079
G02 X1384.191691 Y477.114001 Z-0.125000 I-9.459241 J-24.457808
G02 X1391.115723 Y468.393639 Z-0.125000 I-22.338930 J-24.846322
G02 X1394.628862 Y458.174219 Z-0.125000 I-27.561855 J-15.188530
G03 X1395.449107 Y454.279446 Z-0.125000 I40.120462 J6.415670
G03 X1395.701786 Y454.084506 Z-0.125000 I0.252679 J0.066291
G03 X1396.001636 Y454.263382 Z-0.125000 I0.000000 J0.340757
G03 X1397.555167 Y457.517494 Z-0.125000 I-31.982452 J17.266495
G01 X1397.555167 Y457.517494 Z-0.125000
G00 Z5.000000

(Change tool to Default tool)

G00 Z5.000000
G00 X1559.359603 Y447.642005

G01 Z-0.125000 F100.0(Penetrate)
G02 X1535.963955 Y458.397783 Z-0.125000 I13.520019 J60.230990 F400.000000
G02 X1521.361146 Y475.994352 Z-0.125000 I29.112001 J39.016562
G02 X1515.649043 Y491.803157 Z-0.125000 I69.452031 J34.031057
G02 X1513.822426 Y507.090471 Z-0.125000 I63.057942 J15.287314
G02 X1517.997871 Y528.395208 Z-0.125000 I56.440230 J-0.000000
G02 X1530.658337 Y548.392370 Z-0.125000 I62.117226 J-25.320896
G02 X1558.468345 Y567.455008 Z-0.125000 I54.956479 J-50.357657
G02 X1588.726857 Y571.099781 Z-0.125000 I22.181334 J-56.723201
G02 X1605.087023 Y566.280106 Z-0.125000 I-7.397193 J-55.286179
G02 X1620.514760 Y556.135472 Z-0.125000 I-27.844675 J-59.148976
G02 X1630.981947 Y544.727531 Z-0.125000 I-48.881468 J-55.356439
G02 X1637.050245 Y533.805726 Z-0.125000 I-38.651643 J-28.622074
G02 X1642.021729 Y510.484688 Z-0.125000 I-66.750945 J-26.420115
G02 X1639.034578 Y487.882088 Z-0.125000 I-65.568560 J-2.833173
G02 X1624.532447 Y464.910775 Z-0.125000 I-50.927837 J16.088137
G02 X1597.472219 Y449.122229 Z-0.125000 I-48.446420 J51.949316
G02 X1578.783615 Y445.869613 Z-0.125000 I-21.454136 J67.953327
G02 X1559.359603 Y447.642005 Z-0.125000 I-2.923762 J75.279970
G01 X1559.359603 Y447.642005 Z-0.125000
G00 Z5.000000

(Change tool to Default tool)

G00 Z5.000000
G00 X1596.482296 Y451.148478

G01 Z-0.125000 F100.0(Penetrate)
G03 X1628.110620 Y473.030723 Z-0.125000 I-18.876038 J61.081905 F400.000000
G03 X1639.868093 Y507.046219 Z-0.125000 I-44.225656 J34.326356
G03 X1638.217022 Y522.070700 Z-0.125000 I-65.855136 J0.366004
G03 X1632.915266 Y537.499859 Z-0.125000 I-74.803449 J-17.078430
G03 X1628.527714 Y544.597438 Z-0.125000 I-32.601207 J-15.248352
G03 X1620.626407 Y553.015602 Z-0.125000 I-54.013829 J-42.780324
G03 X1605.314437 Y563.574158 Z-0.125000 I-48.196479 J-53.512359
G03 X1590.236013 Y568.613519 Z-0.125000 I-24.026381 J-46.812079
G03 X1575.299651 Y569.095848 Z-0.125000 I-9.196974 J-53.294607
G03 X1559.419124 Y565.324558 Z-0.125000 I6.846667 J-64.151926
G03 X1534.101690 Y549.137599 Z-0.125000 I25.526467 J-67.817538
G03 X1519.247274 Y525.764791 Z-0.125000 I43.183539 J-43.851692
G03 X1516.797747 Y517.799490 Z-0.125000 I96.169783 J-33.933872
G03 X1517.112531 Y515.411900 Z-0.125000 I3.073533 J-0.809327
G03 X1519.013395 Y513.967414 Z-0.125000 I2.652357 J1.517397
G03 X1526.940764 Y512.316801 Z-0.125000 I23.058774 J90.882319
G02 X1537.042636 Y510.499111 Z-0.125000 I-51.950899 J-317.698391
G02 X1538.818369 Y509.983525 Z-0.125000 I-2.013908 J-10.251832
G03 X1539.780325 Y510.435753 Z-0.125000 I0.265998 J0.683409
G03 X1540.550762 Y515.199085 Z-0.125000 I-14.339765 J4.763332
G02 X1543.086026 Y524.672433 Z-0.125000 I18.966837 J-0.000000
G02 X1552.791671 Y536.431013 Z-0.125000 I39.717929 J-22.898703
G02 X1565.599875 Y543.930129 Z-0.125000 I26.550576 J-30.659849
G02 X1581.138241 Y546.639606 Z-0.125000 I15.520053 J-43.095118
G02 X1596.287455 Y544.779864 Z-0.125000 I-0.026119 J-62.844383
G02 X1607.828053 Y539.997918 Z-0.125000 I-10.164349 J-40.847152
G02 X1617.636701 Y528.098726 Z-0.125000 I-11.934048 J-19.829670
G02 X1617.520185 Y513.425276 Z-0.125000 I-19.687486 J-7.180856
G03 X1615.498507 Y506.939140 Z-0.125000 I50.006309 J-19.144716
G03 X1613.989331 Y498.913339 Z-0.125000 I75.182524 J-18.292155
G02 X1612.467866 Y490.900092 Z-0.125000 I-74.113222 J9.920718
G02 X1610.738159 Y485.753590 Z-0.125000 I-32.163943 J7.946178
G02 X1596.173970 Y473.809664 Z-0.125000 I-18.818735 J8.095589
G02 X1570.042900 Y477.113665 Z-0.125000 I-8.319657 J39.186759
G01 X1563.319350 Y480.451084 Z-0.125000
G01 X1563.319548 Y477.414666 Z-0.125000
G03 X1563.555009 Y473.978571 Z-0.125000 I25.213754 J0.001678
G03 X1565.315677 Y462.217510 Z-0.125000 I498.005854 J68.540744
G03 X1567.415203 Y450.219151 Z-0.125000 I469.623825 J75.993969
G03 X1567.938933 Y448.868083 Z-0.125000 I3.896279 J0.733315
G03 X1569.252434 Y448.124427 Z-0.125000 I1.334070 J0.824504
G03 X1579.691019 Y448.472198 Z-0.125000 I1.476001 J112.531156
G03 X1589.821446 Y449.631443 Z-0.125000 I-11.869526 J148.569160
G03 X1596.482296 Y451.148478 Z-0.125000 I-6.659317 J44.620523
G01 X1596.482296 Y451.148478 Z-0.125000
G00 Z5.000000

(Change tool to Default tool)

G00 Z5.000000
G00 X1564.963266 Y451.857143

G01 Z-0.125000 F100.0(Penetrate)
G02 X1564.465873 Y454.591641 Z-0.125000 I53.686042 J11.177741 F400.000000
G02 X1562.842169 Y465.468800 Z-0.125000 I848.755302 J132.259008
G03 X1561.270495 Y476.355512 Z-0.125000 I-3403.951844 J-485.859028
G03 X1560.813302 Y479.365180 Z-0.125000 I-260.555733 J-38.041003
G03 X1559.725122 Y481.955288 Z-0.125000 I-5.808925 J-0.916856
G03 X1557.203595 Y484.224214 Z-0.125000 I-6.881821 J-5.112392
G02 X1549.465311 Y490.644611 Z-0.125000 I16.147333 J27.335367
G02 X1543.530210 Y499.839685 Z-0.125000 I28.297028 J24.777736
G03 X1540.230158 Y507.035162 Z-0.125000 I-1274.443967 J-580.142003
G03 X1540.099573 Y507.264413 Z-0.125000 I-1.411424 J-0.652155
G03 X1538.359672 Y508.425551 Z-0.125000 I-2.325560 J-1.600581
G03 X1522.484391 Y510.999966 Z-0.125000 I-34.621594 J-163.260969
G01 X1516.792251 Y511.643404 Z-0.125000
G01 X1516.792251 Y505.759477 Z-0.125000
G03 X1518.720258 Y490.267534 Z-0.125000 I63.204521 J0.000000
G03 X1524.411404 Y475.622857 Z-0.125000 I62.065359 J15.691379
G03 X1537.379223 Y460.706191 Z-0.125000 I39.534663 J21.274373
G03 X1558.369652 Y450.695034 Z-0.125000 I36.777573 J50.100740
G03 X1563.518819 Y449.423071 Z-0.125000 I45.972302 J175.046905
G03 X1564.653626 Y449.392955 Z-0.125000 I0.641313 J2.769889
G03 X1565.147551 Y449.975605 Z-0.125000 I-0.103744 J0.588626
G03 X1564.963266 Y451.857143 Z-0.125000 I-8.799094 J0.087982
G01 X1564.963266 Y451.857143 Z-0.125000
G00 Z5.000000

(Change tool to Default tool)

G00 Z5.000000
G00 X1597.751506 Y475.418356

G01 Z-0.125000 F100.0(Penetrate)
G03 X1606.863526 Y483.507985 Z-0.125000 I-7.218894 J17.307866 F400.000000
G03 X1612.787403 Y502.055782 Z-0.125000 I-41.700055 J23.538241
G02 X1614.054102 Y509.914815 Z-0.125000 I71.496620 J-7.492049
G02 X1615.825694 Y515.955667 Z-0.125000 I43.920263 J-9.600233
G03 X1617.235820 Y521.929495 Z-0.125000 I-23.350911 J8.665340
G03 X1616.911742 Y525.946779 Z-0.125000 I-10.675979 J1.160473
G03 X1605.640652 Y539.514057 Z-0.125000 I-20.666333 J-5.703271
G03 X1578.168444 Y544.835859 Z-0.125000 I-23.647369 J-48.503028
G03 X1565.622433 Y541.851371 Z-0.125000 I2.823322 J-39.730842
G03 X1554.111173 Y534.773796 Z-0.125000 I16.874923 J-40.346050
G03 X1544.885566 Y523.115396 Z-0.125000 I24.902308 J-29.185303
G03 X1542.753224 Y512.657906 Z-0.125000 I17.587534 J-9.032343
G03 X1547.351915 Y498.186977 Z-0.125000 I32.446637 J2.344991
G03 X1558.472692 Y486.625747 Z-0.125000 I31.082301 J18.768977
G02 X1562.024246 Y484.253593 Z-0.125000 I-172.840115 J-262.618348
G02 X1566.269419 Y481.341218 Z-0.125000 I-256.271104 J-378.099371
G03 X1583.893521 Y473.963571 Z-0.125000 I26.077730 J37.556318
G03 X1597.751506 Y475.418356 Z-0.125000 I4.496390 J23.899872
G01 X1597.751506 Y475.418356 Z-0.125000
G00 Z5.000000

(Change tool to Default tool)

G00 Z5.000000
G00 X1571.877880 Y489.208902

G01 Z-0.125000 F100.0(Penetrate)
G02 X1572.135627 Y490.254363 Z-0.125000 I0.879775 J0.337604 F400.000000
G02 X1574.494306 Y491.508093 Z-0.125000 I3.828067 J-4.356264
G03 X1576.520284 Y492.120966 Z-0.125000 I-7.136265 J27.245471
G03 X1576.549702 Y492.311603 Z-0.125000 I-0.035455 J0.103059
G03 X1576.144407 Y492.478680 Z-0.125000 I-0.534592 J-0.721693
G03 X1572.537631 Y492.957513 Z-0.125000 I-20.990982 J-144.289795
G02 X1557.840545 Y498.363575 Z-0.125000 I4.043667 J33.674244
G02 X1549.925196 Y507.948706 Z-0.125000 I11.809201 J17.812765
G02 X1549.537974 Y517.089596 Z-0.125000 I12.217439 J5.096197
G02 X1556.703553 Y529.072354 Z-0.125000 I29.353270 J-9.419133
G02 X1560.997269 Y532.957430 Z-0.125000 I30.690174 J-29.603016
G02 X1562.081943 Y533.028190 Z-0.125000 I0.593788 J-0.753314
G02 X1562.688388 Y532.011305 Z-0.125000 I-0.636821 J-1.069060
G02 X1562.602901 Y525.558210 Z-0.125000 I-58.447557 J-2.452834
G03 X1563.932421 Y515.462754 Z-0.125000 I25.646253 J-1.757792
G03 X1568.199142 Y509.236836 Z-0.125000 I13.360030 J4.580856
G03 X1576.567878 Y504.946155 Z-0.125000 I13.525465 J16.073951
G03 X1580.023322 Y506.242707 Z-0.125000 I0.794170 J3.136287
G02 X1580.798665 Y506.957957 Z-0.125000 I1.980742 J-1.369288
G02 X1586.282531 Y509.862130 Z-0.125000 I41.712547 J-72.134998
G03 X1591.485588 Y513.138331 Z-0.125000 I-11.942246 J24.735615
G03 X1596.136376 Y517.734993 Z-0.125000 I-19.392093 J24.271544
G03 X1598.059647 Y520.492377 Z-0.125000 I-16.961117 J13.879783
G03 X1597.857875 Y520.657876 Z-0.125000 I-0.113789 J0.067018
G02 X1595.201084 Y518.859357 Z-0.125000 I-7.995852 J8.949980
G02 X1593.373759 Y518.430513 Z-0.125000 I-1.827325 J3.678736
G02 X1588.980356 Y520.333004 Z-0.125000 I0.000000 J6.024067
G02 X1587.077889 Y525.141574 Z-0.125000 I5.125707 J4.808570
G02 X1588.791065 Y527.729664 Z-0.125000 I2.811499 J-0.000000
G02 X1596.460706 Y529.123405 Z-0.125000 I6.928158 J-16.325511
G02 X1601.569493 Y528.041098 Z-0.125000 I-0.656956 J-15.699612
G02 X1604.989687 Y525.759186 Z-0.125000 I-3.574106 J-9.061068
G01 X1608.027697 Y522.624744 Z-0.125000
G01 X1600.921369 Y510.380759 Z-0.125000
G03 X1596.189108 Y501.138847 Z-0.125000 I85.328786 J-49.524571
G03 X1596.643586 Y500.816804 Z-0.125000 I0.259190 J-0.115931
G02 X1599.545142 Y502.786736 Z-0.125000 I7.477382 J-7.891747
G02 X1600.736034 Y502.715705 Z-0.125000 I0.529499 J-1.141160
G02 X1601.124498 Y501.546399 Z-0.125000 I-0.504873 J-0.816908
G02 X1598.771566 Y497.085015 Z-0.125000 I-21.449241 J8.461161
G02 X1595.492079 Y492.903962 Z-0.125000 I-31.362936 J21.223418
G02 X1592.128651 Y489.996133 Z-0.125000 I-13.484649 J12.198301
G02 X1588.531493 Y488.510317 Z-0.125000 I-5.489841 J8.193635
G02 X1580.602809 Y487.742416 Z-0.125000 I-7.928684 J40.548428
G02 X1572.883438 Y488.386633 Z-0.125000 I-0.000000 J46.571060
G02 X1571.877880 Y489.208902 Z-0.125000 I0.217064 J1.291434
G01 X1571.877880 Y489.208902 Z-0.125000
G00 Z5.000000

(Change tool to Default tool)

G00 Z5.000000
G00 X1594.997384 Y495.172105

G01 Z-0.125000 F100.0(Penetrate)
G01 X1598.462170 Y498.810971 Z-0.125000 F400.000000
G01 X1592.522549 Y495.813853 Z-0.125000
G02 X1586.475493 Y493.099976 Z-0.125000 I-32.848673 J65.099404
G02 X1581.650643 Y491.517003 Z-0.125000 I-15.729834 J39.799525
G01 X1576.718358 Y490.217265 Z-0.125000
G01 X1581.650643 Y489.694101 Z-0.125000
G03 X1588.393833 Y490.657423 Z-0.125000 I1.465981 J13.820837
G03 X1594.997384 Y495.172105 Z-0.125000 I-7.277907 J17.732067
G01 X1594.997384 Y495.172105 Z-0.125000
G00 Z5.000000

(Change tool to Default tool)

G00 Z5.000000
G00 X1587.077889 Y494.717217

G01 Z-0.125000 F100.0(Penetrate)
G03 X1587.022075 Y495.091149 Z-0.125000 I-0.117476 J0.173597 F400.000000
G03 X1585.592977 Y495.174261 Z-0.125000 I-0.883996 J-2.872051
G02 X1583.536275 Y494.822843 Z-0.125000 I-14.359663 J77.846904
G02 X1583.410331 Y494.860002 Z-0.125000 I-0.023808 J0.151322
G01 X1583.421421 Y494.937974 Z-0.125000
G02 X1585.033387 Y495.674904 Z-0.125000 I20.741975 J-43.239702
G02 X1587.451634 Y496.357178 Z-0.125000 I3.714458 J-8.538753
G02 X1588.797046 Y496.203977 Z-0.125000 I0.376471 J-2.678151
G03 X1589.379132 Y496.323623 Z-0.125000 I0.197530 J0.514774
G03 X1589.441755 Y496.831431 Z-0.125000 I-0.285084 J0.292921
G02 X1589.561023 Y497.292313 Z-0.125000 I0.280414 J0.173307
G02 X1590.368403 Y497.350691 Z-0.125000 I0.465921 J-0.831466
G03 X1591.594749 Y497.158808 Z-0.125000 I1.060643 J2.763891
G03 X1591.782562 Y497.429987 Z-0.125000 I-0.011702 J0.208731
G02 X1592.068840 Y500.234747 Z-0.125000 I3.413365 J1.068592
G02 X1604.090217 Y519.597998 Z-0.125000 I204.370824 J-113.467211
G03 X1604.745975 Y522.166118 Z-0.125000 I-3.142610 J2.170233
G03 X1603.543581 Y524.816586 Z-0.125000 I-4.580002 J-0.479764
G03 X1601.395439 Y526.189238 Z-0.125000 I-3.709275 J-3.437658
G03 X1600.552956 Y525.787163 Z-0.125000 I-0.209341 J-0.645040
G03 X1600.250688 Y524.220613 Z-0.125000 I4.258177 J-1.634058
G03 X1600.515534 Y523.261313 Z-0.125000 I1.774617 J-0.026270
G02 X1600.515316 Y520.763618 Z-0.125000 I-2.020393 J-1.248672
G02 X1595.626065 Y514.543618 Z-0.125000 I-29.989557 J18.541782
G02 X1589.415979 Y509.236745 Z-0.125000 I-34.227028 J33.765413
G02 X1584.375612 Y506.900727 Z-0.125000 I-8.656686 J12.072570
G03 X1582.592704 Y505.974295 Z-0.125000 I1.057789 J-4.214508
G03 X1582.128163 Y504.959064 Z-0.125000 I0.877097 J-1.015231
G02 X1581.004690 Y503.727991 Z-0.125000 I-1.236225 J0.000000
G02 X1575.717013 Y504.013205 Z-0.125000 I-1.668753 J18.220095
G02 X1570.096876 Y505.698535 Z-0.125000 I6.300274 J31.223268
G02 X1566.118289 Y508.189560 Z-0.125000 I5.021511 J12.442950
G02 X1561.891947 Y514.522762 Z-0.125000 I10.439190 J11.543180
G02 X1560.517674 Y523.954728 Z-0.125000 I22.983121 J8.164830
G01 X1560.844487 Y530.236709 Z-0.125000
G01 X1557.140433 Y526.615592 Z-0.125000
G03 X1551.381573 Y514.514401 Z-0.125000 I13.566192 J-13.876936
G03 X1555.023738 Y503.580256 Z-0.125000 I14.291392 J-1.313211
G03 X1563.185646 Y497.718630 Z-0.125000 I17.614273 J15.913397
G03 X1575.693581 Y494.607641 Z-0.125000 I15.551211 J35.824677
G02 X1583.610185 Y493.961884 Z-0.125000 I-91.425906 J-1169.677138
G02 X1584.603026 Y493.850518 Z-0.125000 I-1.570988 J-18.486892
G03 X1585.539269 Y493.943645 Z-0.125000 I0.275937 J1.978657
G03 X1587.077861 Y494.717256 Z-0.125000 I-2.211635 J6.315417
G01 X1587.077889 Y494.717217 Z-0.125000
G00 Z5.000000

(Change tool to Default tool)

G00 Z5.000000
G00 X1596.907605 Y523.250050

G01 Z-0.125000 F100.0(Penetrate)
G03 X1596.580302 Y525.160147 Z-0.125000 I-1.391416 J0.744666 F400.000000
G03 X1593.512471 Y526.350021 Z-0.125000 I-3.067831 J-3.359929
G03 X1590.622890 Y526.077398 Z-0.125000 I-0.000000 J-15.449932
G03 X1589.819897 Y525.624565 Z-0.125000 I0.269713 J-1.416646
G03 X1589.679098 Y524.879734 Z-0.125000 I0.543692 J-0.488500
G03 X1590.693946 Y523.213056 Z-0.125000 I4.872884 J1.824811
G03 X1594.250482 Y521.647616 Z-0.125000 I3.528199 J3.192963
G03 X1596.907605 Y523.250078 Z-0.125000 I-0.018068 J3.034146
G01 X1596.907605 Y523.250050 Z-0.125000
G00 Z5.000000

(Change tool to Default tool)

G00 Z5.000000
G00 X1131.695483 Y432.149506

G01 Z-0.125000 F100.0(Penetrate)
G02 X1104.001701 Y464.413543 Z-0.125000 I73.268630 J90.907481 F400.000000
G02 X1088.479668 Y506.551252 Z-0.125000 I112.611751 J65.409898
G02 X1085.865236 Y535.583359 Z-0.125000 I159.807716 J29.024958
G02 X1088.482491 Y560.007934 Z-0.125000 I115.322721 J-0.005076
G02 X1103.728503 Y589.546338 Z-0.125000 I62.466534 J-13.537848
G02 X1136.363043 Y612.494974 Z-0.125000 I68.019520 J-62.049843
G02 X1143.851745 Y615.013032 Z-0.125000 I21.673146 J-52.061187
G02 X1148.567055 Y613.766050 Z-0.125000 I1.250285 J-4.810876
G02 X1152.558862 Y608.578962 Z-0.125000 I-15.946129 J-16.401124
G02 X1166.929488 Y582.776522 Z-0.125000 I-3073.941154 J-1728.929452
G03 X1185.279916 Y549.648314 Z-0.125000 I8851.130171 J4881.185136
G03 X1191.377722 Y538.834316 Z-0.125000 I949.075672 J528.039347
G02 X1197.305943 Y527.988581 Z-0.125000 I-283.485668 J-161.994779
G02 X1197.581757 Y526.955052 Z-0.125000 I-2.167512 J-1.132003
G02 X1197.317984 Y525.951059 Z-0.125000 I-1.772037 J-0.071090
G02 X1193.533533 Y520.410392 Z-0.125000 I-62.984920 J38.957909
G03 X1189.541113 Y514.894590 Z-0.125000 I150.891648 J-113.420407
G03 X1181.809118 Y503.581436 Z-0.125000 I627.360537 J-437.069433
G02 X1174.135224 Y492.225836 Z-0.125000 I-1531.391332 J1026.613862
G02 X1167.310516 Y482.297754 Z-0.125000 I-1177.866440 J802.372779
G03 X1150.307389 Y452.934908 Z-0.125000 I171.089410 J-118.677068
G03 X1142.599844 Y430.257980 Z-0.125000 I93.720974 J-44.502647
G01 X1141.655895 Y425.871256 Z-0.125000
G01 X1142.059614 Y430.903075 Z-0.125000
G02 X1146.860917 Y449.160967 Z-0.125000 I53.411773 J-4.285520
G02 X1166.436530 Y483.467170 Z-0.125000 I212.788433 J-98.681977
G03 X1175.138985 Y496.178533 Z-0.125000 I-2538.128394 J1746.988430
G03 X1180.807540 Y504.571372 Z-0.125000 I-1100.773060 J749.576858
G02 X1186.524230 Y512.929742 Z-0.125000 I435.861125 J-291.972173
G02 X1191.445737 Y519.807805 Z-0.125000 I300.075726 J-209.515451
G01 X1196.447280 Y526.629768 Z-0.125000
G01 X1193.961805 Y531.192099 Z-0.125000
G03 X1191.456335 Y535.743410 Z-0.125000 I-519.648344 J-283.098022
G03 X1182.063316 Y552.583395 Z-0.125000 I-7109.580738 J-3954.547718
G02 X1172.686423 Y569.432348 Z-0.125000 I3932.273619 J2199.449275
G02 X1160.020829 Y592.390902 Z-0.125000 I7284.648508 J4033.710228
G01 X1147.391300 Y615.369464 Z-0.125000
G01 X1141.246221 Y613.056455 Z-0.125000
G03 X1105.377626 Y589.314277 Z-0.125000 I34.001319 J-90.333039
G03 X1089.743826 Y559.017994 Z-0.125000 I43.890600 J-41.830778
G03 X1087.546841 Y523.287400 Z-0.125000 I135.555580 J-26.267815
G03 X1094.708002 Y486.752479 Z-0.125000 I148.995331 J10.235090
G03 X1109.626798 Y457.567719 Z-0.125000 I101.445753 J33.451983
G03 X1134.428805 Y431.881796 Z-0.125000 I102.682471 J74.331697
G02 X1140.677223 Y426.099613 Z-0.125000 I-30.780020 J-39.529120
G02 X1140.357786 Y425.376286 Z-0.125000 I-0.319437 J-0.291128
G02 X1140.127611 Y425.455594 Z-0.125000 I0.000000 J0.373668
G02 X1131.695821 Y432.149506 Z-0.125000 I450.131620 J575.652481
G01 X1131.695483 Y432.149506 Z-0.125000
G00 Z5.000000

(Change tool to Default tool)

G00 Z5.000000
G00 X1220.266271 Y528.393553

G01 Z-0.125000 F100.0(Penetrate)
G02 X1211.917036 Y534.343801 Z-0.125000 I4.338878 J14.921041 F400.000000
G02 X1197.564231 Y560.502904 Z-0.125000 I107.464814 J75.980145
G03 X1191.057390 Y574.139580 Z-0.125000 I-122.779873 J-50.214586
G03 X1185.604499 Y582.281561 Z-0.125000 I-48.906591 J-26.857023
G02 X1183.230501 Y585.775188 Z-0.125000 I20.278603 J16.333172
G02 X1176.848816 Y597.454780 Z-0.125000 I371.619922 J210.634997
G02 X1170.704033 Y609.629082 Z-0.125000 I353.591703 J186.107622
G02 X1170.313727 Y611.332980 Z-0.125000 I3.524078 J1.703899
G02 X1170.719188 Y611.831227 Z-0.125000 I0.508863 J-0.000000
G02 X1177.743002 Y612.874817 Z-0.125000 I12.635726 J-60.885492
G03 X1193.141773 Y615.494088 Z-0.125000 I-9.032409 J99.676335
G03 X1205.156149 Y619.775263 Z-0.125000 I-16.289109 J64.711287
G02 X1210.456723 Y622.117568 Z-0.125000 I56.050233 J-119.671535
G02 X1225.514221 Y628.242861 Z-0.125000 I399.303987 J-960.018511
G03 X1307.330158 Y666.581706 Z-0.125000 I-279.922652 J703.829010
G03 X1370.888977 Y707.263842 Z-0.125000 I-252.336230 J464.222741
G03 X1398.285784 Y728.826538 Z-0.125000 I-401.507779 J538.327782
G03 X1409.825597 Y739.580403 Z-0.125000 I-87.797764 J105.783012
G02 X1413.391412 Y742.785286 Z-0.125000 I22.987762 J-21.990494
G02 X1414.451840 Y743.146563 Z-0.125000 I1.060429 J-1.375655
G03 X1418.252023 Y744.682559 Z-0.125000 I0.000000 J5.468984
G03 X1423.801552 Y752.180553 Z-0.125000 I-19.682709 J20.370564
G02 X1426.070130 Y755.506357 Z-0.125000 I14.170292 J-7.229141
G02 X1427.202810 Y756.015784 Z-0.125000 I1.132680 J-1.004508
G02 X1428.327904 Y755.495591 Z-0.125000 I-0.000000 J-1.476796
G02 X1430.779948 Y751.808528 Z-0.125000 I-14.356597 J-12.206596
G03 X1432.990506 Y747.643076 Z-0.125000 I112.022567 J56.779816
G03 X1446.300844 Y723.842761 Z-0.125000 I3672.219873 J2038.068711
G02 X1459.531903 Y699.999057 Z-0.125000 I-1810.298712 J-1020.141895
G02 X1467.603909 Y684.851672 Z-0.125000 I-722.507369 J-394.746933
G01 X1475.518549 Y669.619095 Z-0.125000
G01 X1473.805855 Y666.438789 Z-0.125000
G02 X1465.726842 Y655.279476 Z-0.125000 I-45.860695 J24.697649
G02 X1446.355398 Y637.514877 Z-0.125000 I-137.515968 J130.510465
G02 X1343.530785 Y570.463828 Z-0.125000 I-403.482203 J506.383267
G02 X1242.658008 Y530.714246 Z-0.125000 I-234.546745 J447.343280
G02 X1227.042633 Y527.783013 Z-0.125000 I-25.579336 J93.208180
G02 X1220.266271 Y528.393553 Z-0.125000 I-1.827220 J17.630328
G01 X1220.266271 Y528.393553 Z-0.125000
G00 Z5.000000

(Change tool to Default tool)

G00 Z5.000000
G00 X1241.668057 Y532.694123

G01 Z-0.125000 F100.0(Penetrate)
G03 X1330.491171 Y566.353217 Z-0.125000 I-133.362642 J485.958570 F400.000000
G03 X1420.273238 Y620.431373 Z-0.125000 I-270.521815 J550.696308
G03 X1455.984917 Y649.176018 Z-0.125000 I-268.891178 J370.620155
G03 X1470.058706 Y664.789059 Z-0.125000 I-64.039452 J71.875624
G01 X1473.157534 Y669.091395 Z-0.125000
G01 X1468.120234 Y679.143163 Z-0.125000
G03 X1462.940556 Y689.119551 Z-0.125000 I-350.744265 J-175.771418
G03 X1453.139173 Y707.013821 Z-0.125000 I-1138.237208 J-611.825030
G02 X1443.198676 Y724.834512 Z-0.125000 I48743.431756 J27201.087235
G02 X1435.067835 Y739.424899 Z-0.125000 I32628.080069 J18192.335705
G03 X1427.089833 Y751.428991 Z-0.125000 I-80.402615 J-44.782968
G03 X1425.794718 Y751.251591 Z-0.125000 I-0.595726 J-0.467100
G02 X1421.932574 Y745.390666 Z-0.125000 I-17.172086 J7.112833
G02 X1416.419098 Y741.632949 Z-0.125000 I-12.027757 J11.723959
G03 X1413.569039 Y740.014445 Z-0.125000 I5.389519 J-12.809138
G03 X1410.373842 Y737.181881 Z-0.125000 I13.985010 J-18.993826
G02 X1399.722453 Y727.180193 Z-0.125000 I-85.886038 J80.792631
G02 X1371.878900 Y705.283969 Z-0.125000 I-442.155056 J533.599453
G02 X1307.819807 Y664.301284 Z-0.125000 I-317.371708 J425.520435
G02 X1226.245262 Y626.204455 Z-0.125000 I-355.048253 J653.860517
G03 X1211.454268 Y620.202470 Z-0.125000 I322.039383 J-814.844000
G03 X1206.156317 Y617.838739 Z-0.125000 I44.499566 J-106.858291
G02 X1194.864095 Y613.711154 Z-0.125000 I-27.472155 J57.647772
G02 X1179.965643 Y610.979017 Z-0.125000 I-25.679851 J98.046262
G03 X1173.474120 Y610.092889 Z-0.125000 I11.982934 J-112.004140
G03 X1173.283552 Y609.868021 Z-0.125000 I0.037386 J-0.224868
G03 X1173.642827 Y608.356493 Z-0.125000 I3.359256 J0.000000
G03 X1179.712345 Y596.807264 Z-0.125000 I339.791225 J171.202495
G03 X1185.904783 Y585.878314 Z-0.125000 I380.106581 J208.152876
G03 X1189.051025 Y581.075146 Z-0.125000 I49.653229 J29.092561
G02 X1193.448905 Y574.080663 Z-0.125000 I-48.766641 J-35.542568
G02 X1198.992190 Y562.561887 Z-0.125000 I-127.261747 J-68.336540
G03 X1213.800290 Y535.780189 Z-0.125000 I139.778910 J59.801678
G03 X1221.295564 Y530.370124 Z-0.125000 I11.402102 J7.899705
G03 X1227.058046 Y529.873549 Z-0.125000 I4.108946 J13.998546
G03 X1241.668057 Y532.694123 Z-0.125000 I-10.943985 J95.936431
G01 X1241.668057 Y532.694123 Z-0.125000
G00 Z5.000000

(Change tool to Default tool)

G00 Z5.000000
G00 X1070.765906 Y546.148794

G01 Z-0.125000 F100.0(Penetrate)
G02 X1071.784619 Y557.407757 Z-0.125000 I90.173669 J-2.483364 F400.000000
G02 X1073.741375 Y565.452596 Z-0.125000 I47.820483 J-7.371040
G02 X1098.856890 Y606.552429 Z-0.125000 I102.646192 J-34.501827
G02 X1137.150810 Y630.479952 Z-0.125000 I68.138867 J-66.443524
G01 X1144.080382 Y632.768436 Z-0.125000
G01 X1147.420369 Y639.697979 Z-0.125000
G02 X1151.560649 Y646.057239 Z-0.125000 I26.777426 J-12.906373
G02 X1167.219133 Y662.961557 Z-0.125000 I208.729406 J-177.641836
G02 X1199.113283 Y690.852550 Z-0.125000 I236.823267 J-238.632765
G02 X1239.609443 Y718.622158 Z-0.125000 I275.240869 J-357.968805
G02 X1329.992985 Y767.297098 Z-0.125000 I506.667938 J-832.568573
G02 X1382.833864 Y786.278953 Z-0.125000 I124.527878 J-263.616379
G02 X1397.631681 Y789.197207 Z-0.125000 I34.533867 J-136.136204
G02 X1410.955929 Y790.440566 Z-0.125000 I19.619357 J-138.232273
G02 X1424.346749 Y789.976273 Z-0.125000 I3.791097 J-83.996278
G02 X1427.255670 Y788.283888 Z-0.125000 I-0.479209 J-4.169841
G03 X1428.431758 Y787.295265 Z-0.125000 I2.604395 J1.904386
G03 X1429.051252 Y787.397399 Z-0.125000 I0.238517 J0.483112
G02 X1429.720198 Y787.459481 Z-0.125000 I0.371867 J-0.371896
G02 X1433.773564 Y784.164713 Z-0.125000 I-17.957893 J-26.233275
G02 X1439.967226 Y776.132001 Z-0.125000 I-23.624219 J-24.619754
G02 X1441.535183 Y770.212013 Z-0.125000 I-10.869653 J-6.046553
G03 X1443.160132 Y763.931429 Z-0.125000 I13.480052 J0.137137
G03 X1462.349862 Y731.762283 Z-0.125000 I395.223814 J213.953102
G03 X1473.441033 Y714.994629 Z-0.125000 I1736.567300 J1136.621702
G03 X1474.102809 Y714.179867 Z-0.125000 I4.702402 J3.143306
G03 X1474.955158 Y713.909663 Z-0.125000 I0.680242 J0.666344
G03 X1480.387814 Y715.334833 Z-0.125000 I-6.790786 J36.953079
G02 X1496.677801 Y719.284619 Z-0.125000 I29.207753 J-84.893629
G02 X1517.287212 Y720.699991 Z-0.125000 I19.620680 J-134.943476
G02 X1547.531978 Y719.012582 Z-0.125000 I-2.266206 J-312.513260
G02 X1600.937004 Y711.950622 Z-0.125000 I-102.820124 J-983.026678
G03 X1603.898946 Y712.610143 Z-0.125000 I0.650079 J4.061341
G03 X1608.550062 Y717.124433 Z-0.125000 I-10.547787 J15.520674
G02 X1623.683091 Y734.259065 Z-0.125000 I95.895346 J-69.443274
G02 X1661.272701 Y766.305578 Z-0.125000 I377.064025 J-404.215921
G02 X1683.186345 Y780.670208 Z-0.125000 I99.398687 J-127.738219
G02 X1701.284475 Y788.122965 Z-0.125000 I43.235457 J-79.291194
G02 X1710.144082 Y789.969795 Z-0.125000 I16.468870 J-56.830349
G02 X1719.592908 Y790.497215 Z-0.125000 I8.320594 J-64.162459
G02 X1725.174667 Y790.185911 Z-0.125000 I-1.273848 J-73.037091
G02 X1725.174304 Y789.971069 Z-0.125000 I-0.010125 J-0.107404
G03 X1702.624451 Y785.845101 Z-0.125000 I11.490843 J-126.485870
G03 X1683.016851 Y778.242816 Z-0.125000 I28.647195 J-102.972865
G03 X1673.642815 Y772.408664 Z-0.125000 I28.266046 J-55.864482
G03 X1642.514434 Y747.771000 Z-0.125000 I486.586528 J-646.759619
G03 X1623.814939 Y730.578550 Z-0.125000 I164.592479 J-197.785765
G03 X1610.846589 Y715.629925 Z-0.125000 I111.249728 J-109.611767
G02 X1605.231637 Y708.864556 Z-0.125000 I-84.154208 J64.131448
G02 X1604.411978 Y708.501725 Z-0.125000 I-0.816329 J0.736895
G02 X1603.420110 Y708.590519 Z-0.125000 I0.030394 J5.923761
G02 X1593.512471 Y710.413414 Z-0.125000 I102.043498 J582.453729
G03 X1570.310042 Y714.091988 Z-0.125000 I-66.916554 J-347.059586
G03 X1537.630552 Y717.378235 Z-0.125000 I-85.446183 J-685.573313
G03 X1505.045620 Y717.313807 Z-0.125000 I-15.882555 J-207.347037
G03 X1481.299899 Y712.839227 Z-0.125000 I9.184722 J-113.985763
G02 X1473.099681 Y710.557082 Z-0.125000 I-59.303658 J197.216664
G02 X1472.804897 Y710.663152 Z-0.125000 I-0.069229 J0.270259
G02 X1472.587097 Y710.979145 Z-0.125000 I6.032850 J4.391245
G02 X1460.662371 Y729.287420 Z-0.125000 I20287.322705 J13226.776623
G02 X1443.900130 Y757.661744 Z-0.125000 I319.328744 J207.783031
G02 X1439.002888 Y769.862679 Z-0.125000 I53.488177 J28.552520
G03 X1432.885018 Y782.145219 Z-0.125000 I-35.154891 J-9.845561
G03 X1427.677592 Y784.723993 Z-0.125000 I-5.207425 J-3.968397
G02 X1426.222612 Y785.150113 Z-0.125000 I-0.000000 J2.697063
G02 X1425.359899 Y786.208905 Z-0.125000 I1.180793 J1.842991
G03 X1424.325219 Y787.017508 Z-0.125000 I-1.190260 J-0.456760
G03 X1413.282735 Y787.693817 Z-0.125000 I-11.042485 J-89.810231
G03 X1387.237189 Y784.382117 Z-0.125000 I0.000000 J-104.076099
G03 X1345.659101 Y770.214497 Z-0.125000 I72.901832 J-282.040902
G03 X1256.378400 Y725.885506 Z-0.125000 I343.921553 J-804.746693
G03 X1194.567228 Y684.139005 Z-0.125000 I242.557807 J-425.771678
G03 X1184.000865 Y675.145622 Z-0.125000 I123.311524 J-155.583154
G03 X1168.221642 Y660.078036 Z-0.125000 I331.003040 J-362.432221
G03 X1153.572200 Y644.078031 Z-0.125000 I170.828179 J-171.114990
G03 X1149.412829 Y637.587521 Z-0.125000 I23.421491 J-19.587399
G01 X1146.060255 Y630.527337 Z-0.125000
G01 X1139.340544 Y628.361366 Z-0.125000
G03 X1123.159193 Y621.582947 Z-0.125000 I31.742727 J-98.478965
G03 X1108.442573 Y612.213598 Z-0.125000 I47.390913 J-90.680361
G03 X1084.594276 Y584.038685 Z-0.125000 I52.252568 J-68.409021
G03 X1071.369212 Y542.091155 Z-0.125000 I108.043957 J-57.122244
G02 X1070.731752 Y537.416000 Z-0.125000 I-212.253166 J26.559799
G02 X1070.626753 Y537.415945 Z-0.125000 I-0.052504 J0.007750
G02 X1070.576975 Y538.194886 Z-0.125000 I4.612720 J0.685830
G02 X1070.765906 Y546.148794 Z-0.125000 I1051.854553 J-21.005652
G01 X1070.765906 Y546.148794 Z-0.125000
G00 Z5.000000

(Change tool to Default tool)

G00 Z5.000000
G00 X1162.889195 Y627.778577

G01 Z-0.125000 F100.0(Penetrate)
G03 X1158.922102 Y629.239458 Z-0.125000 I-90.798903 J-240.451947 F400.000000
G03 X1158.681967 Y629.288720 Z-0.125000 I-0.292015 J-0.813553
G02 X1158.551101 Y629.413188 Z-0.125000 I0.008102 J0.139549
G02 X1158.434486 Y631.568624 Z-0.125000 I19.861615 J2.155437
G02 X1160.866704 Y638.076818 Z-0.125000 I9.923509 J0.000000
G02 X1181.839711 Y658.509332 Z-0.125000 I133.051284 J-115.590684
G02 X1272.794604 Y720.587341 Z-0.125000 I388.315570 J-471.277443
G02 X1373.746110 Y765.502543 Z-0.125000 I299.373928 J-536.966481
G01 X1387.605254 Y770.228523 Z-0.125000
G01 X1403.690142 Y770.631847 Z-0.125000
G02 X1419.226678 Y770.215530 Z-0.125000 I3.757873 J-149.872032
G02 X1420.436250 Y769.312091 Z-0.125000 I-0.111142 J-1.410240
G02 X1419.948380 Y764.951603 Z-0.125000 I-4.454119 J-1.709191
G02 X1408.282688 Y751.130799 Z-0.125000 I-67.389075 J45.047215
G02 X1341.953653 Y699.756587 Z-0.125000 I-291.928792 J308.402390
G02 X1244.064152 Y648.156687 Z-0.125000 I-392.458778 J625.876056
G02 X1181.106149 Y626.729012 Z-0.125000 I-161.692607 J371.874965
G02 X1162.889195 Y627.778577 Z-0.125000 I-7.432842 J29.608225
G01 X1162.889195 Y627.778577 Z-0.125000
G00 Z5.000000

(Change tool to Default tool)

G00 Z5.000000
G00 X1195.188625 Y632.696751

G01 Z-0.125000 F100.0(Penetrate)
G03 X1216.037760 Y639.347075 Z-0.125000 I-71.643787 J260.614029 F400.000000
G03 X1243.074229 Y650.136561 Z-0.125000 I-163.656509 J449.362096
G03 X1340.349179 Y701.370662 Z-0.125000 I-293.986409 J676.135365
G03 X1406.862094 Y752.686916 Z-0.125000 I-228.442658 J364.856130
G03 X1417.479773 Y764.471853 Z-0.125000 I-65.878109 J70.028589
G03 X1418.788326 Y768.350560 Z-0.125000 I-5.094199 J3.878707
G03 X1418.526523 Y768.623185 Z-0.125000 I-0.272848 J0.000000
G03 X1405.598614 Y768.884976 Z-0.125000 I-12.927910 J-319.075285
G03 X1389.912814 Y767.150047 Z-0.125000 I-0.000000 J-71.776503
G03 X1362.856792 Y759.312958 Z-0.125000 I49.972701 J-223.142371
G03 X1302.354752 Y733.762238 Z-0.125000 I197.578272 J-552.256711
G03 X1244.265800 Y701.204616 Z-0.125000 I265.318008 J-541.477120
G03 X1195.968840 Y667.819823 Z-0.125000 I406.686955 J-639.971445
G03 X1172.957134 Y647.717973 Z-0.125000 I123.228645 J-164.288998
G03 X1160.968802 Y633.687052 Z-0.125000 I92.271789 J-90.976086
G03 X1160.872406 Y631.343270 Z-0.125000 I1.684462 J-1.243152
G03 X1166.647940 Y628.270814 Z-0.125000 I5.519807 J3.411421
G03 X1195.188625 Y632.696751 Z-0.125000 I-4.984363 J126.377058
G01 X1195.188625 Y632.696751 Z-0.125000
G00 Z5.000000

(End cutting path id: path5524)


(Footer)
M5
G00 X0.0000 Y0.0000
M2
(Using default footer. To add your own footer create file "footer" in the output dir.)
(end)
%