%
(Header)
(Generated by gcodetools from Inkscape.)
(Using default header. To add your own header create file "header" in the output dir.)
M3
(Header end.)
G21 (All units in mm)

(Start cutting path id: path4179)
(Change tool to Default tool)

G00 Z5.000000
G00 X74.383034 Y575.923323

G01 Z-0.125000 F100.0(Penetrate)
G03 X69.510092 Y545.204185 Z-0.125000 I80.826703 J-28.567513 F400.000000
G03 X73.877519 Y527.093693 Z-0.125000 I44.350611 J1.113492
G03 X85.946641 Y512.497953 Z-0.125000 I35.504485 J17.070618
G03 X101.114960 Y505.817425 Z-0.125000 I22.365030 J30.220100
G03 X117.772094 Y506.298485 Z-0.125000 I7.260390 J37.227142
G03 X133.829071 Y514.883508 Z-0.125000 I-9.464223 J37.009964
G03 X144.133521 Y529.357345 Z-0.125000 I-27.137518 J30.225159
G03 X149.753566 Y557.080928 Z-0.125000 I-66.208603 J27.853050
G03 X140.559887 Y598.565969 Z-0.125000 I-97.404556 J0.175001
G03 X126.306406 Y616.255057 Z-0.125000 I-43.225163 J-20.242778
G03 X103.297040 Y626.552089 Z-0.125000 I-33.347907 J-43.661544
G03 X85.128538 Y627.560222 Z-0.125000 I-12.826905 J-66.945764
G03 X45.534128 Y614.357622 Z-0.125000 I6.785568 J-86.322657
G03 X23.745619 Y591.782288 Z-0.125000 I35.659684 J-56.219046
G03 X12.891360 Y560.029370 Z-0.125000 I72.730073 J-42.593327
G03 X13.599892 Y522.547612 Z-0.125000 I126.163340 J-16.362662
G03 X44.782436 Y456.219558 Z-0.125000 I134.180923 J22.588053
G03 X110.810752 Y427.389315 Z-0.125000 I63.088745 J54.463047
G03 X160.404294 Y442.262039 Z-0.125000 I-3.604812 J102.142291
G03 X188.888756 Y469.865619 Z-0.125000 I-46.830640 J76.823611
G03 X206.042546 Y509.745290 Z-0.125000 I-105.778513 J69.128520
G03 X211.532861 Y552.437712 Z-0.125000 I-198.484102 J47.224622
G03 X208.262722 Y583.019223 Z-0.125000 I-119.752162 J2.660272
G03 X200.372466 Y612.679642 Z-0.125000 I-603.436275 J-144.646252
G02 X192.543601 Y642.310488 Z-0.125000 I556.706144 J162.938869
G02 X190.346215 Y668.991658 Z-0.125000 I87.339183 J20.624078
G02 X198.691118 Y705.252303 Z-0.125000 I117.489754 J-7.948141
G02 X214.150114 Y729.731878 Z-0.125000 I75.603152 J-30.622824
G02 X237.284186 Y746.594275 Z-0.125000 I53.318343 J-48.848780
G02 X266.016386 Y753.251361 Z-0.125000 I30.543300 J-66.492782
G02 X290.162005 Y748.590108 Z-0.125000 I1.423575 J-57.494414
G02 X312.545673 Y732.508881 Z-0.125000 I-25.307141 J-58.844010
G02 X326.584285 Y709.033279 Z-0.125000 I-53.356600 J-47.843112
G02 X333.440252 Y669.199261 Z-0.125000 I-108.246068 J-39.137605
G02 X327.825834 Y636.788270 Z-0.125000 I-99.845417 J0.604021
G02 X317.626110 Y619.475475 Z-0.125000 I-48.835308 J17.110062
G02 X301.056789 Y607.659774 Z-0.125000 I-34.273002 J30.535960
G02 X283.298223 Y604.009486 Z-0.125000 I-18.207705 J43.557414
G02 X250.136015 Y615.719735 Z-0.125000 I-0.489268 J51.425534
G02 X232.788690 Y651.621021 Z-0.125000 I30.233973 J36.750621
G02 X238.654376 Y677.667426 Z-0.125000 I56.298389 J1.005207
G02 X251.620543 Y692.103662 Z-0.125000 I32.469324 J-16.121895
G02 X267.722531 Y695.175291 Z-0.125000 I11.901079 J-18.646966
G02 X288.488009 Y682.138134 Z-0.125000 I-6.445329 J-33.322189
G03 X269.350722 Y685.543677 Z-0.125000 I-17.488468 J-42.802303
G03 X259.795870 Y682.351584 Z-0.125000 I0.635049 J-17.797142
G03 X253.033653 Y673.969388 Z-0.125000 I11.042613 J-15.827229
G03 X250.418361 Y661.985671 Z-0.125000 I31.400352 J-13.129957
G03 X256.724449 Y637.382568 Z-0.125000 I45.204340 J-1.523271
G03 X276.127917 Y627.014743 Z-0.125000 I18.261104 J10.835017
G03 X294.593995 Y634.531881 Z-0.125000 I-1.642109 J30.473700
G03 X315.007613 Y679.375348 Z-0.125000 I-39.432935 J45.018710
G03 X307.074988 Y709.288781 Z-0.125000 I-59.707762 J0.174863
G03 X295.525422 Y721.245015 Z-0.125000 I-29.510358 J-16.950141
G03 X276.759344 Y727.788938 Z-0.125000 I-23.984674 J-38.601303
G03 X267.850816 Y727.942264 Z-0.125000 I-5.235035 J-45.287432
G03 X249.480057 Y722.519901 Z-0.125000 I3.766534 J-46.591770
G03 X230.755259 Y708.059885 Z-0.125000 I34.266822 J-63.727066
G03 X217.806641 Y688.685061 Z-0.125000 I53.614205 J-49.845876
G03 X211.983903 Y663.758073 Z-0.125000 I58.627668 J-26.838505
G03 X224.918136 Y611.019103 Z-0.125000 I101.691813 J-3.015626
G03 X281.390896 Y579.022072 Z-0.125000 I54.646586 J30.613847
G03 X324.432019 Y591.711764 Z-0.125000 I-2.568045 J88.049012
G02 X368.182033 Y601.971048 Z-0.125000 I37.675566 J-62.250753
G02 X420.114876 Y569.994357 Z-0.125000 I-5.639619 J-67.319219
G02 X433.228160 Y524.575924 Z-0.125000 I-75.662614 J-46.447693
G02 X428.708460 Y500.722087 Z-0.125000 I-61.448550 J-0.712154
G02 X414.290883 Y476.109756 Z-0.125000 I-92.193936 J37.477006
G02 X393.730169 Y457.689744 Z-0.125000 I-65.065905 J51.942505
G02 X372.823488 Y452.003828 Z-0.125000 I-19.694899 J31.137551
G02 X342.918588 Y464.731411 Z-0.125000 I1.480190 J44.974146
G02 X324.389639 Y509.045252 Z-0.125000 I42.720971 J43.893598
G02 X326.185947 Y526.150972 Z-0.125000 I88.101455 J-0.604546
G02 X332.237406 Y541.092425 Z-0.125000 I43.523079 J-8.931163
G02 X342.759544 Y551.092038 Z-0.125000 I25.377092 J-16.167370
G02 X362.193588 Y556.172633 Z-0.125000 I19.242279 J-33.895249
G02 X376.555896 Y551.914043 Z-0.125000 I-0.131788 J-26.792561
G02 X388.189857 Y539.026321 Z-0.125000 I-17.937490 J-27.887416
G02 X391.315536 Y523.318783 Z-0.125000 I-26.488039 J-13.435677
G02 X382.466457 Y499.385294 Z-0.125000 I-46.422324 J3.561359
G03 X381.952671 Y530.599846 Z-0.125000 I-36.917700 J15.003845
G03 X366.677253 Y540.718110 Z-0.125000 I-15.586150 J-6.940532
G03 X358.372983 Y539.677805 Z-0.125000 I-0.535442 J-29.390526
G03 X350.281722 Y534.926311 Z-0.125000 I4.760218 J-17.371119
G03 X345.539326 Y527.197378 Z-0.125000 I14.440440 J-14.179920
G03 X342.305190 Y507.991906 Z-0.125000 I58.817485 J-19.779706
G03 X344.029585 Y499.158413 Z-0.125000 I22.425093 J-0.207434
G03 X351.791706 Y485.706165 Z-0.125000 I55.926593 J23.304823
G03 X362.209801 Y475.729793 Z-0.125000 I37.094089 J28.308626
G03 X373.490097 Y472.568958 Z-0.125000 I10.174803 J14.602729
G03 X386.958203 Y475.658541 Z-0.125000 I-2.639460 J42.405799
G03 X400.471088 Y484.583453 Z-0.125000 I-15.852712 J38.694155
G03 X409.404590 Y497.481701 Z-0.125000 I-29.716310 J30.124776
G03 X415.020113 Y520.427958 Z-0.125000 I-60.503931 J26.967083
G03 X412.537699 Y541.485249 Z-0.125000 I-59.736623 J3.632703
G03 X402.197876 Y562.255000 Z-0.125000 I-66.971807 J-20.382015
G03 X386.144944 Y576.866555 Z-0.125000 I-43.344859 J-31.496645
G03 X365.124438 Y581.847447 Z-0.125000 I-18.510514 J-31.272488
G03 X341.607853 Y576.857090 Z-0.125000 I5.950411 J-85.945770
G03 X322.052659 Y564.423094 Z-0.125000 I18.384410 J-50.507948
G03 X310.040846 Y545.661335 Z-0.125000 I36.404002 J-36.532912
G03 X303.745563 Y509.427971 Z-0.125000 I96.547342 J-35.437958
G03 X307.489214 Y481.974049 Z-0.125000 I108.708122 J0.841368
G03 X314.666194 Y463.918843 Z-0.125000 I81.715657 J22.028103
G03 X325.601765 Y447.240630 Z-0.125000 I101.114311 J54.374405
G02 X338.263077 Y431.169163 Z-0.125000 I-136107.866727 J-107240.579161
G02 X350.188014 Y414.661634 Z-0.125000 I-192.289277 J-151.469608
G02 X362.141814 Y392.016718 Z-0.125000 I-108.849834 J-71.937206
G02 X369.498184 Y367.646776 Z-0.125000 I-125.221523 J-51.094950
G02 X373.908012 Y327.299299 Z-0.125000 I-221.217682 J-44.592987
G02 X366.350517 Y282.839423 Z-0.125000 I-121.141479 J-2.280080
G02 X352.412277 Y250.873695 Z-0.125000 I-294.072260 J109.204724
G03 X338.332364 Y219.057665 Z-0.125000 I309.841396 J-156.141158
G03 X331.613794 Y178.703676 Z-0.125000 I95.417378 J-36.622406
G03 X340.093732 Y135.447565 Z-0.125000 I140.808305 J5.144831
G03 X356.661073 Y106.911431 Z-0.125000 I88.810267 J32.483591
G03 X382.247046 Y86.926068 Z-0.125000 I60.540338 J51.135177
G03 X412.246518 Y79.862663 Z-0.125000 I30.390101 J61.833778
G03 X464.454749 Y100.843131 Z-0.125000 I0.422201 J74.397643
G03 X492.728366 Y166.935738 Z-0.125000 I-64.756036 J66.795707
G03 X482.828243 Y211.288794 Z-0.125000 I-100.883954 J0.762957
G03 X436.309095 Y242.818955 Z-0.125000 I-50.268496 J-24.083496
G03 X418.794251 Y239.430457 Z-0.125000 I-2.347828 J-34.824869
G03 X401.244349 Y226.693650 Z-0.125000 I26.568129 J-55.067231
G03 X389.007850 Y208.727467 Z-0.125000 I47.235354 J-45.321436
G03 X384.349895 Y187.255320 Z-0.125000 I46.252936 J-21.274952
G03 X389.763781 Y161.179776 Z-0.125000 I66.747809 J0.258592
G03 X399.847190 Y148.402647 Z-0.125000 I28.812655 J12.370909
G03 X414.633337 Y143.430243 Z-0.125000 I15.004080 J20.146202
G03 X433.618219 Y148.714966 Z-0.125000 I0.309153 J35.632480
G02 X425.090968 Y149.008752 Z-0.125000 I-3.749521 J15.068989
G02 X413.088807 Y155.433832 Z-0.125000 I11.778431 J36.424974
G02 X404.609037 Y165.160532 Z-0.125000 I21.963423 J27.707483
G02 X401.059229 Y178.791529 Z-0.125000 I22.039528 J13.017293
G02 X417.386525 Y209.219502 Z-0.125000 I38.225350 J-0.916773
G02 X431.679607 Y214.306450 Z-0.125000 I16.413335 J-23.493951
G02 X445.111948 Y211.899441 Z-0.125000 I2.029516 J-27.357435
G02 X456.590389 Y202.715121 Z-0.125000 I-12.538528 J-27.435448
G02 X463.698169 Y188.983351 Z-0.125000 I-35.926754 J-27.301687
G02 X468.577989 Y163.324699 Z-0.125000 I-106.224495 J-33.495368
G02 X460.751910 Y132.064063 Z-0.125000 I-51.763906 J-3.650886
G02 X415.999622 Y104.771673 Z-0.125000 I-49.772089 J31.275896
G02 X394.722382 Y109.937512 Z-0.125000 I-2.939381 J34.294818
G02 X374.750950 Y128.529491 Z-0.125000 I38.934411 J61.845804
G02 X360.945088 Y154.040810 Z-0.125000 I85.393408 J62.703312
G02 X354.304433 Y183.353209 Z-0.125000 I103.848190 J38.934975
G02 X357.873531 Y215.985482 Z-0.125000 I84.041981 J7.319374
G02 X373.979312 Y246.436921 Z-0.125000 I90.902859 J-28.593669
G02 X398.804575 Y266.328071 Z-0.125000 I55.460874 J-43.781033
G02 X431.178436 Y270.294529 Z-0.125000 I22.043014 J-45.813573
G02 X416.560069 Y289.717440 Z-0.125000 I33.043556 J40.082348
G02 X409.050464 Y327.663058 Z-0.125000 I83.700318 J36.280563
G02 X424.602584 Y378.010693 Z-0.125000 I94.879974 J-1.732124
G02 X470.245866 Y402.588681 Z-0.125000 I45.537326 J-29.895842
G02 X513.038524 Y380.522289 Z-0.125000 I-0.102391 J-52.724985
G02 X524.687013 Y339.786856 Z-0.125000 I-51.385726 J-36.727177
G02 X513.037305 Y304.532886 Z-0.125000 I-73.265619 J4.658880
G02 X483.607226 Y287.782415 Z-0.125000 I-30.859241 J19.989646
G02 X472.248269 Y290.623709 Z-0.125000 I-0.812162 J20.879259
G02 X461.788361 Y299.485891 Z-0.125000 I20.007658 J34.218685
G02 X454.098869 Y311.704287 Z-0.125000 I42.032938 J34.981734
G02 X449.807022 Y325.422682 Z-0.125000 I51.951068 J23.783628
G02 X450.245726 Y340.126050 Z-0.125000 I35.240845 J6.306750
G02 X456.110755 Y352.662868 Z-0.125000 I33.723550 J-8.136389
G02 X460.603182 Y357.056652 Z-0.125000 I16.027031 J-11.893314
G02 X465.272015 Y358.826614 Z-0.125000 I5.745451 J-8.112694
G02 X469.929719 Y358.056121 Z-0.125000 I0.950010 J-8.720482
G02 X476.358179 Y353.227261 Z-0.125000 I-8.233684 J-17.654556
G03 X465.885704 Y350.997152 Z-0.125000 I-3.379364 J-9.834837
G03 X459.075031 Y332.335998 Z-0.125000 I14.951857 J-16.030315
G03 X465.057402 Y315.771609 Z-0.125000 I38.967142 J4.710833
G03 X480.901251 Y307.761931 Z-0.125000 I14.759058 J9.519612
G03 X492.090888 Y311.825412 Z-0.125000 I-1.300768 J21.020165
G03 X506.486671 Y340.164834 Z-0.125000 I-20.981740 J28.484324
G03 X504.329814 Y356.512655 Z-0.125000 I-61.134621 J0.250372
G03 X497.602950 Y369.953321 Z-0.125000 I-36.931976 J-10.080250
G03 X486.651927 Y378.731790 Z-0.125000 I-23.934162 J-18.637687
G03 X467.672197 Y382.763397 Z-0.125000 I-17.985551 J-37.979618
G03 X458.216749 Y381.055287 Z-0.125000 I0.735981 J-31.099053
G03 X442.137813 Y371.528880 Z-0.125000 I15.327356 J-44.202381
G03 X432.086367 Y357.879185 Z-0.125000 I28.624044 J-31.604069
G03 X426.014616 Y329.918931 Z-0.125000 I59.250823 J-27.506088
G03 X428.994328 Y308.306299 Z-0.125000 I84.113191 J0.584879
G03 X439.379151 Y287.110921 Z-0.125000 I60.738930 J16.617715
G03 X455.968390 Y272.945371 Z-0.125000 I39.977220 J30.020637
G03 X485.756150 Y265.348555 Z-0.125000 I30.612310 J57.834888
G03 X534.594823 Y280.714639 Z-0.125000 I1.032968 J82.012923
G02 X573.236460 Y294.173631 Z-0.125000 I42.114489 J-58.712607
G02 X595.234585 Y291.126197 Z-0.125000 I2.889783 J-60.061152
G02 X623.478232 Y274.909816 Z-0.125000 I-26.330834 J-78.563525
G02 X641.755723 Y250.803481 Z-0.125000 I-49.404452 J-56.440785
G02 X651.307679 Y207.134328 Z-0.125000 I-88.334636 J-42.201091
G02 X648.191548 Y175.309141 Z-0.125000 I-193.750213 J2.905706
G02 X638.020805 Y147.767430 Z-0.125000 I-83.639220 J15.237909
G02 X619.765187 Y129.138718 Z-0.125000 I-45.913918 J26.735004
G02 X586.018954 Y119.744225 Z-0.125000 I-33.457120 J54.874639
G02 X554.024390 Y130.686923 Z-0.125000 I0.238245 J52.941231
G02 X531.286413 Y176.250917 Z-0.125000 I35.395029 J46.118828
G02 X544.343137 Y218.178986 Z-0.125000 I71.652521 J0.683869
G02 X572.117195 Y232.985147 Z-0.125000 I28.544281 J-20.091646
G02 X590.025329 Y226.913171 Z-0.125000 I0.610124 J-27.644852
G02 X603.757129 Y198.637983 Z-0.125000 I-22.944737 J-28.615082
G02 X600.366452 Y186.071136 Z-0.125000 I-24.154011 J-0.223822
G02 X589.325476 Y174.005234 Z-0.125000 I-34.574967 J20.553525
G02 X576.288230 Y169.306172 Z-0.125000 I-14.718616 J20.400824
G02 X561.596543 Y174.707396 Z-0.125000 I-1.285211 J19.185935
G03 X570.145403 Y162.497634 Z-0.125000 I26.767954 J9.644319
G03 X586.981247 Y157.495404 Z-0.125000 I14.234012 J17.073914
G03 X606.467644 Y165.913947 Z-0.125000 I-4.337796 J36.802544
G03 X622.890300 Y205.624933 Z-0.125000 I-29.892184 J35.613370
G03 X611.228085 Y240.972163 Z-0.125000 I-81.162387 J-7.180655
G03 X571.491960 Y261.734688 Z-0.125000 I-37.179876 J-22.750756
G03 X532.529636 Y242.169879 Z-0.125000 I3.232539 J-55.015587
G03 X509.397652 Y179.985521 Z-0.125000 I75.600816 J-63.517395
G03 X513.637089 Y147.719245 Z-0.125000 I113.270106 J-1.529188
G03 X527.610913 Y119.794094 Z-0.125000 I79.906675 J22.526676
G03 X550.120337 Y100.925885 Z-0.125000 I53.440310 J40.892533
G03 X587.272105 Y91.734460 Z-0.125000 I37.764050 J72.962916
G03 X608.985683 Y95.558447 Z-0.125000 I0.454078 J60.981242
G03 X641.390608 Y115.509428 Z-0.125000 I-34.098614 J91.675868
G03 X662.278932 Y144.024871 Z-0.125000 I-63.321556 J68.293080
G03 X674.813149 Y198.209124 Z-0.125000 I-118.412706 J55.933788
G03 X661.169354 Y258.543391 Z-0.125000 I-132.400458 J1.769206
G02 X645.339102 Y320.673592 Z-0.125000 I138.789139 J68.444112
G02 X647.903922 Y349.967574 Z-0.125000 I114.955858 J4.694368
G02 X661.208853 Y380.740283 Z-0.125000 I85.544779 J-18.723633
G02 X683.798175 Y401.762162 Z-0.125000 I58.161289 J-39.850182
G02 X727.437660 Y415.050624 Z-0.125000 I49.784927 J-85.193800
G02 X746.351339 Y412.212427 Z-0.125000 I2.840317 J-45.511458
G02 X773.403476 Y395.883932 Z-0.125000 I-30.629786 J-81.319194
G02 X791.125221 Y372.695053 Z-0.125000 I-50.669140 J-57.089339
G02 X798.981643 Y335.112988 Z-0.125000 I-68.421133 J-33.915454
G02 X795.351390 Y310.300543 Z-0.125000 I-128.990837 J6.200566
G02 X784.983854 Y287.711116 Z-0.125000 I-64.631878 J15.989310
G02 X767.999837 Y273.018023 Z-0.125000 I-38.569617 J27.420715
G02 X735.853696 Y265.611174 Z-0.125000 I-30.749334 J59.992381
G02 X708.007967 Y281.647664 Z-0.125000 I0.692072 J33.395590
G02 X697.550467 Y310.830948 Z-0.125000 I65.875522 J40.071054
G02 X699.131663 Y329.489978 Z-0.125000 I41.326176 J5.894466
G02 X706.505223 Y343.404055 Z-0.125000 I42.681614 J-13.707699
G02 X718.604561 Y353.844530 Z-0.125000 I32.479517 J-25.408988
G02 X729.270721 Y356.234652 Z-0.125000 I9.245003 J-16.262290
G02 X753.117879 Y341.596075 Z-0.125000 I-2.326321 J-30.533266
G02 X757.604083 Y313.338399 Z-0.125000 I-32.294877 J-19.612107
G03 X764.229425 Y328.412055 Z-0.125000 I-21.583417 J18.479435
G03 X761.679344 Y350.934609 Z-0.125000 I-48.750756 J5.885913
G03 X750.211829 Y366.906145 Z-0.125000 I-33.815391 J-12.176760
G03 X724.115961 Y375.734415 Z-0.125000 I-25.337944 J-31.914441
G03 X686.956556 Y356.571688 Z-0.125000 I0.880342 J-47.317310
G03 X670.436362 Y308.194583 Z-0.125000 I67.752180 J-50.145822
G03 X687.673986 Y256.287196 Z-0.125000 I81.614850 J-1.712862
G03 X740.121517 Y231.992487 Z-0.125000 I49.857733 J38.873766
G03 X776.533212 Y242.036458 Z-0.125000 I-3.419334 J83.418225
G03 X801.015036 Y263.633332 Z-0.125000 I-34.823648 J64.149966
G03 X815.896337 Y294.681513 Z-0.125000 I-80.135264 J57.498965
G03 X823.053731 Y340.521326 Z-0.125000 I-192.067988 J53.468034
G03 X793.402737 Y420.733205 Z-0.125000 I-111.745110 J4.278793
G03 X730.263805 Y445.683425 Z-0.125000 I-57.524985 J-53.207829
G03 X685.317138 Y432.957438 Z-0.125000 I8.250084 J-114.874437
G03 X659.365543 Y417.472026 Z-0.125000 I120.692665 J-231.754167
G02 X632.998136 Y403.268085 Z-0.125000 I-82.753725 J122.043952
G02 X581.166453 Y392.902792 Z-0.125000 I-52.153947 J126.021094
G02 X542.645918 Y399.141580 Z-0.125000 I-0.282210 J120.296798
G02 X497.177447 Y424.842207 Z-0.125000 I43.727829 J130.432207
G02 X467.586736 Y463.066678 Z-0.125000 I76.406865 J89.714615
G02 X452.828042 Y530.488350 Z-0.125000 I132.374320 J64.303101
G02 X459.865751 Y580.516139 Z-0.125000 I213.511566 J-4.527040
G02 X478.421551 Y621.353688 Z-0.125000 I129.546472 J-34.228961
G02 X508.858115 Y650.596953 Z-0.125000 I83.574936 J-56.524379
G02 X556.257463 Y666.113189 Z-0.125000 I55.634078 J-89.795822
G02 X565.789441 Y665.636229 Z-0.125000 I2.912701 J-37.276173
G02 X611.959642 Y647.764459 Z-0.125000 I-23.042550 J-128.102758
G02 X628.688817 Y634.712076 Z-0.125000 I-55.466541 J-88.338225
G02 X643.654530 Y615.535915 Z-0.125000 I-58.802525 J-61.319395
G02 X652.330783 Y593.434390 Z-0.125000 I-71.358105 J-40.766343
G02 X655.017066 Y560.523506 Z-0.125000 I-109.277578 J-25.484632
G02 X648.977953 Y526.122779 Z-0.125000 I-162.318010 J10.764783
G02 X635.502641 Y498.138962 Z-0.125000 I-89.523860 J25.872916
G02 X614.142557 Y478.834174 Z-0.125000 I-53.905967 J38.175604
G02 X580.644878 Y469.798896 Z-0.125000 I-34.313547 J60.602325
G02 X560.486302 Y474.959992 Z-0.125000 I-0.469048 J40.116914
G02 X528.902848 Y526.101426 Z-0.125000 I30.509446 J54.164967
G02 X530.830824 Y556.688289 Z-0.125000 I137.425303 J6.691893
G02 X534.832852 Y568.324312 Z-0.125000 I38.823625 J-6.846551
G02 X542.768235 Y576.016088 Z-0.125000 I15.850206 J-8.412957
G02 X547.347849 Y575.923323 Z-0.125000 I2.200068 J-4.476602
G03 X542.555438 Y545.215349 Z-0.125000 I80.792879 J-28.336814
G03 X546.971056 Y527.093693 Z-0.125000 I44.447090 J1.231417
G03 X559.079806 Y512.497832 Z-0.125000 I35.592852 J17.207238
G03 X574.274601 Y505.817425 Z-0.125000 I22.406720 J30.344066
G03 X590.951786 Y506.299704 Z-0.125000 I7.266737 J37.305867
G03 X607.013068 Y514.883508 Z-0.125000 I-9.460691 J37.020192
G03 X617.320719 Y529.358468 Z-0.125000 I-27.127077 J30.224783
G03 X622.941043 Y557.080928 Z-0.125000 I-66.199388 J27.851908
G03 X613.747361 Y598.565970 Z-0.125000 I-97.404613 J0.174983
G03 X599.493883 Y616.255057 Z-0.125000 I-43.225164 J-20.242776
G03 X576.484524 Y626.552088 Z-0.125000 I-33.347898 J-43.661520
G03 X558.316020 Y627.560222 Z-0.125000 I-12.826909 J-66.945764
G03 X518.721609 Y614.357622 Z-0.125000 I6.785568 J-86.322664
G03 X496.933099 Y591.782288 Z-0.125000 I35.659685 J-56.219051
G03 X486.078838 Y560.029370 Z-0.125000 I72.730071 J-42.593330
G03 X486.787369 Y522.547612 Z-0.125000 I126.163326 J-16.362665
G03 X517.969913 Y456.219562 Z-0.125000 I134.180900 J22.588048
G03 X583.998243 Y427.389315 Z-0.125000 I63.088759 J54.463066
G03 X633.591787 Y442.262040 Z-0.125000 I-3.604812 J102.142293
G03 X662.076245 Y469.865619 Z-0.125000 I-46.830627 J76.823587
G03 X679.230027 Y509.745290 Z-0.125000 I-105.778491 J69.128490
G03 X684.720335 Y552.437712 Z-0.125000 I-198.484081 J47.224581
G03 X681.450207 Y583.019223 Z-0.125000 I-119.752094 J2.660320
G03 X673.559956 Y612.679642 Z-0.125000 I-603.433346 J-144.645375
G02 X665.731086 Y642.310488 Z-0.125000 I556.709507 J162.939833
G02 X663.533687 Y668.991658 Z-0.125000 I87.339325 J20.624137
G02 X671.878601 Y705.252303 Z-0.125000 I117.489914 J-7.948211
G02 X687.337597 Y729.731878 Z-0.125000 I75.603176 J-30.622841
G02 X710.471664 Y746.594273 Z-0.125000 I53.318333 J-48.848765
G02 X739.203871 Y753.251361 Z-0.125000 I30.543307 J-66.492794
G02 X763.349499 Y748.590107 Z-0.125000 I1.423575 J-57.494442
G02 X785.733165 Y732.508881 Z-0.125000 I-25.307127 J-58.843988
G02 X799.771770 Y709.033280 Z-0.125000 I-53.356565 J-47.843073
G02 X806.627720 Y669.199261 Z-0.125000 I-108.246016 J-39.137548
G02 X801.013302 Y636.788270 Z-0.125000 I-99.845430 J0.604021
G02 X790.813581 Y619.475475 Z-0.125000 I-48.835308 J17.110060
G02 X774.244261 Y607.659774 Z-0.125000 I-34.273000 J30.535954
G02 X756.485696 Y604.009486 Z-0.125000 I-18.207703 J43.557407
G02 X723.323488 Y615.719734 Z-0.125000 I-0.489268 J51.425537
G02 X705.976155 Y651.621021 Z-0.125000 I30.233983 J36.750636
G02 X711.841851 Y677.667424 Z-0.125000 I56.298399 J1.005185
G02 X724.808026 Y692.103662 Z-0.125000 I32.469337 J-16.121914
G02 X740.910021 Y695.175291 Z-0.125000 I11.901084 J-18.646983
G02 X761.675505 Y682.138134 Z-0.125000 I-6.445329 J-33.322201
G03 X742.538212 Y685.543677 Z-0.125000 I-17.488474 J-42.802332
G03 X732.983356 Y682.351584 Z-0.125000 I0.635050 J-17.797153
G03 X726.221136 Y673.969387 Z-0.125000 I11.042612 J-15.827234
G03 X723.605844 Y661.985671 Z-0.125000 I31.400337 J-13.129956
G03 X729.911933 Y637.382572 Z-0.125000 I45.204314 J-1.523271
G03 X749.315414 Y627.014743 Z-0.125000 I18.261116 J10.835029
G03 X767.781468 Y634.531866 Z-0.125000 I-1.642112 J30.473690
G03 X788.195109 Y679.375348 Z-0.125000 I-39.432899 J45.018725
G03 X780.262484 Y709.288780 Z-0.125000 I-59.707754 J0.174863
G03 X768.712914 Y721.245015 Z-0.125000 I-29.510358 J-16.950143
G03 X749.946833 Y727.788937 Z-0.125000 I-23.984678 J-38.601321
G03 X741.038287 Y727.942264 Z-0.125000 I-5.235049 J-45.287571
G03 X722.667543 Y722.519903 Z-0.125000 I3.766533 J-46.591719
G03 X703.942748 Y708.059885 Z-0.125000 I34.266844 J-63.727078
G03 X690.994130 Y688.685061 Z-0.125000 I53.614251 J-49.845910
G03 X685.171382 Y663.758073 Z-0.125000 I58.627716 J-26.838539
G03 X698.105619 Y611.019100 Z-0.125000 I101.691805 J-3.015626
G03 X754.578378 Y579.022072 Z-0.125000 I54.646586 J30.613852
G03 X797.619524 Y591.711772 Z-0.125000 I-2.568045 J88.049044
G02 X841.369502 Y601.971048 Z-0.125000 I37.675529 J-62.250681
G02 X893.302374 Y569.994360 Z-0.125000 I-5.639624 J-67.319284
G02 X906.415628 Y524.575924 Z-0.125000 I-75.662252 J-46.447532
G02 X901.895928 Y500.722086 Z-0.125000 I-61.448556 J-0.712154
G02 X887.478355 Y476.109756 Z-0.125000 I-92.193969 J37.477017
G02 X866.917646 Y457.689741 Z-0.125000 I-65.065927 J51.942506
G02 X846.010985 Y452.003828 Z-0.125000 I-19.694880 J31.137504
G02 X816.106101 Y464.731397 Z-0.125000 I1.480192 J44.974144
G02 X797.577136 Y509.045252 Z-0.125000 I42.720950 J43.893612
G02 X799.373444 Y526.150973 Z-0.125000 I88.101482 J-0.604546
G02 X805.424899 Y541.092425 Z-0.125000 I43.523102 J-8.931165
G02 X815.947032 Y551.092039 Z-0.125000 I25.377096 J-16.167363
G02 X835.381056 Y556.172633 Z-0.125000 I19.242259 J-33.895187
G02 X849.743348 Y551.914048 Z-0.125000 I-0.131788 J-26.792526
G02 X861.377315 Y539.026321 Z-0.125000 I-17.937511 J-27.887444
G02 X864.502999 Y523.318782 Z-0.125000 I-26.488042 J-13.435688
G02 X855.653925 Y499.385294 Z-0.125000 I-46.422291 J3.561339
G03 X855.140151 Y530.599830 Z-0.125000 I-36.917714 J15.003851
G03 X839.864721 Y540.718110 Z-0.125000 I-15.586162 J-6.940522
G03 X831.560451 Y539.677805 Z-0.125000 I-0.535442 J-29.390525
G03 X823.469194 Y534.926311 Z-0.125000 I4.760214 J-17.371101
G03 X818.726804 Y527.197379 Z-0.125000 I14.440425 J-14.179895
G03 X815.492687 Y507.991906 Z-0.125000 I58.817458 J-19.779644
G03 X817.217079 Y499.158411 Z-0.125000 I22.425128 J-0.207434
G03 X824.979188 Y485.706165 Z-0.125000 I55.926576 J23.304775
G03 X835.397272 Y475.729794 Z-0.125000 I37.094054 J28.308565
G03 X846.677565 Y472.568958 Z-0.125000 I10.174801 J14.602715
G03 X860.145691 Y475.658543 Z-0.125000 I-2.639461 J42.405887
G03 X873.658585 Y484.583453 Z-0.125000 I-15.852712 J38.694189
G03 X882.592098 Y497.481703 Z-0.125000 I-29.716322 J30.124816
G03 X888.207638 Y520.427958 Z-0.125000 I-60.503966 J26.967141
G03 X885.725192 Y541.485247 Z-0.125000 I-59.736820 J3.632592
G03 X875.385351 Y562.255000 Z-0.125000 I-66.971925 J-20.382119
G03 X859.332412 Y576.866555 Z-0.125000 I-43.344894 J-31.496696
G03 X838.311906 Y581.847447 Z-0.125000 I-18.510513 J-31.272490
G03 X814.795321 Y576.857090 Z-0.125000 I5.950411 J-85.945770
G03 X795.240127 Y564.423094 Z-0.125000 I18.384410 J-50.507948
G03 X783.228314 Y545.661335 Z-0.125000 I36.404002 J-36.532912
G03 X776.933031 Y509.427971 Z-0.125000 I96.547342 J-35.437958
G03 X780.676690 Y481.974050 Z-0.125000 I108.708175 J0.841408
G03 X787.853675 Y463.918843 Z-0.125000 I81.715705 J22.028137
G03 X798.789247 Y447.240629 Z-0.125000 I101.114367 J54.374450
G02 X811.450559 Y431.169163 Z-0.125000 I-136087.831188 J-107224.796729
G02 X823.375497 Y414.661634 Z-0.125000 I-192.289315 J-151.469638
G02 X835.329299 Y392.016718 Z-0.125000 I-108.849879 J-71.937238
G02 X842.685672 Y367.646776 Z-0.125000 I-125.221579 J-51.094987
G02 X847.095508 Y327.299299 Z-0.125000 I-221.217772 J-44.593045
G02 X839.537997 Y282.839424 Z-0.125000 I-121.141535 J-2.280028
G02 X825.599749 Y250.873695 Z-0.125000 I-294.072678 J109.204976
G03 X811.519833 Y219.057665 Z-0.125000 I309.841065 J-156.141041
G03 X804.801262 Y178.703676 Z-0.125000 I95.417370 J-36.622406
G03 X813.281200 Y135.447564 Z-0.125000 I140.808317 J5.144831
G03 X829.848538 Y106.911431 Z-0.125000 I88.810285 J32.483596
G03 X855.434506 Y86.926066 Z-0.125000 I60.540345 J51.135171
G03 X885.433958 Y79.862663 Z-0.125000 I30.390081 J61.833711
G03 X937.642239 Y100.843138 Z-0.125000 I0.422201 J74.397749
G03 X965.915806 Y166.935738 Z-0.125000 I-64.755821 J66.795544
G03 X956.015713 Y211.288808 Z-0.125000 I-100.883444 J0.763146
G03 X909.496564 Y242.818955 Z-0.125000 I-50.268501 J-24.083529
G03 X891.981757 Y239.430463 Z-0.125000 I-2.347827 J-34.824763
G03 X874.431856 Y226.693650 Z-0.125000 I26.568160 J-55.067250
G03 X862.195362 Y208.727468 Z-0.125000 I47.235355 J-45.321421
G03 X857.537420 Y187.255320 Z-0.125000 I46.252853 J-21.274904
G03 X862.951272 Y161.179772 Z-0.125000 I66.747719 J0.258491
G03 X873.034662 Y148.402647 Z-0.125000 I28.812617 J12.370858
G03 X887.820796 Y143.430243 Z-0.125000 I15.004066 J20.146160
G03 X906.805659 Y148.714966 Z-0.125000 I0.309152 J35.632416
G02 X898.278451 Y149.008748 Z-0.125000 I-3.749507 J15.068854
G02 X886.276310 Y155.433832 Z-0.125000 I11.778440 J36.424902
G02 X877.796558 Y165.160528 Z-0.125000 I21.963448 J27.707457
G02 X874.246754 Y178.791529 Z-0.125000 I22.039566 J13.017297
G02 X890.573957 Y209.219478 Z-0.125000 I38.225171 J-0.916635
G02 X904.867103 Y214.306450 Z-0.125000 I16.413393 J-23.494005
G02 X918.299428 Y211.899444 Z-0.125000 I2.029515 J-27.357390
G02 X929.777871 Y202.715121 Z-0.125000 I-12.538537 J-27.435459
G02 X936.885650 Y188.983351 Z-0.125000 I-35.926736 J-27.301673
G02 X941.765457 Y163.324699 Z-0.125000 I-106.224211 J-33.495259
G02 X933.939395 Y132.064044 Z-0.125000 I-51.763834 J-3.650944
G02 X889.187147 Y104.771673 Z-0.125000 I-49.772053 J31.275869
G02 X867.909874 Y109.937520 Z-0.125000 I-2.939381 J34.294888
G02 X847.938446 Y128.529491 Z-0.125000 I38.934370 J61.845762
G02 X834.132581 Y154.040809 Z-0.125000 I85.393469 J62.703357
G02 X827.491901 Y183.353209 Z-0.125000 I103.848680 J38.935182
G02 X831.060999 Y215.985481 Z-0.125000 I84.041974 J7.319373
G02 X847.166783 Y246.436921 Z-0.125000 I90.902839 J-28.593665
G02 X871.992052 Y266.328069 Z-0.125000 I55.460869 J-43.781040
G02 X904.365933 Y270.294529 Z-0.125000 I22.043029 J-45.813623
G02 X889.747542 Y289.717463 Z-0.125000 I33.043216 J40.082127
G02 X882.237932 Y327.663058 Z-0.125000 I83.701153 J36.280737
G02 X897.790063 Y378.010706 Z-0.125000 I94.879962 J-1.732124
G02 X943.433334 Y402.588681 Z-0.125000 I45.537315 J-29.895851
G02 X986.225996 Y380.522276 Z-0.125000 I-0.102391 J-52.724976
G02 X997.874453 Y339.786856 Z-0.125000 I-51.385676 J-36.727111
G02 X986.224806 Y304.532862 Z-0.125000 I-73.264973 J4.658532
G02 X956.794750 Y287.782415 Z-0.125000 I-30.859221 J19.989660
G02 X945.435767 Y290.623709 Z-0.125000 I-0.812164 J20.879346
G02 X934.975836 Y299.485891 Z-0.125000 I20.007651 J34.218757
G02 X927.286328 Y311.704291 Z-0.125000 I42.032820 J34.981718
G02 X922.994490 Y325.422682 Z-0.125000 I51.950637 J23.783458
G02 X923.433218 Y340.126050 Z-0.125000 I35.241100 J6.306685
G02 X929.298245 Y352.662868 Z-0.125000 I33.723620 J-8.136415
G02 X933.790666 Y357.056652 Z-0.125000 I16.027033 J-11.893299
G02 X938.459491 Y358.826614 Z-0.125000 I5.745442 J-8.112669
G02 X943.117189 Y358.056122 Z-0.125000 I0.950010 J-8.720462
G02 X949.545647 Y353.227261 Z-0.125000 I-8.233695 J-17.654566
G03 X939.073185 Y350.997170 Z-0.125000 I-3.379371 J-9.834823
G03 X932.262527 Y332.335998 Z-0.125000 I14.951758 J-16.030264
G03 X938.244868 Y315.771582 Z-0.125000 I38.966395 J4.710466
G03 X954.088719 Y307.761931 Z-0.125000 I14.759054 J9.519665
G03 X965.278414 Y311.825444 Z-0.125000 I-1.300758 J21.020186
G03 X979.674167 Y340.164834 Z-0.125000 I-20.981849 J28.484342
G03 X977.517327 Y356.512652 Z-0.125000 I-61.133877 J0.250526
G03 X970.790447 Y369.953321 Z-0.125000 I-36.931953 J-10.080270
G03 X959.839400 Y378.731798 Z-0.125000 I-23.934227 J-18.637780
G03 X940.859693 Y382.763397 Z-0.125000 I-17.985526 J-37.979585
G03 X931.404247 Y381.055286 Z-0.125000 I0.735980 J-31.099026
G03 X915.325324 Y371.528880 Z-0.125000 I15.327350 J-44.202332
G03 X905.273887 Y357.879187 Z-0.125000 I28.624047 J-31.604047
G03 X899.202141 Y329.918931 Z-0.125000 I59.250881 J-27.506090
G03 X902.181836 Y308.306298 Z-0.125000 I84.113033 J0.584795
G03 X912.566647 Y287.110921 Z-0.125000 I60.738899 J16.617674
G03 X929.155878 Y272.945370 Z-0.125000 I39.977209 J30.020606
G03 X958.943619 Y265.348555 Z-0.125000 I30.612290 J57.834818
G03 X1007.782328 Y280.714655 Z-0.125000 I1.032968 J82.012965
G02 X1046.423900 Y294.173631 Z-0.125000 I42.114426 J-58.712497
G02 X1068.422110 Y291.126188 Z-0.125000 I2.889787 J-60.061487
G02 X1096.665760 Y274.909816 Z-0.125000 I-26.330773 J-78.563465
G02 X1114.943240 Y250.803479 Z-0.125000 I-49.404331 J-56.440659
G02 X1124.495147 Y207.134328 Z-0.125000 I-88.334539 J-42.200961
G02 X1121.379050 Y175.309142 Z-0.125000 I-193.747875 J2.905276
G02 X1111.208305 Y147.767430 Z-0.125000 I-83.639174 J15.237896
G02 X1092.952678 Y129.138706 Z-0.125000 I-45.913982 J26.735050
G02 X1059.206507 Y119.744225 Z-0.125000 I-33.457058 J54.874500
G02 X1027.211815 Y130.686947 Z-0.125000 I0.238245 J52.941521
G02 X1004.473881 Y176.250917 Z-0.125000 I35.394826 J46.118671
G02 X1017.530657 Y218.179003 Z-0.125000 I71.652550 J0.683804
G02 X1045.304720 Y232.985147 Z-0.125000 I28.544287 J-20.091698
G02 X1063.212868 Y226.913174 Z-0.125000 I0.610125 J-27.644900
G02 X1076.944597 Y198.637983 Z-0.125000 I-22.944557 J-28.614903
G02 X1073.553941 Y186.071132 Z-0.125000 I-24.153999 J-0.223863
G02 X1062.512994 Y174.005234 Z-0.125000 I-34.574892 J20.553410
G02 X1049.475768 Y169.306174 Z-0.125000 I-14.718590 J20.400754
G02 X1034.784068 Y174.707396 Z-0.125000 I-1.285213 J19.185967
G03 X1043.332977 Y162.497616 Z-0.125000 I26.768287 J9.644593
G03 X1060.168744 Y157.495404 Z-0.125000 I14.233940 J17.073790
G03 X1079.655156 Y165.913944 Z-0.125000 I-4.337804 J36.802617
G03 X1096.077853 Y205.624933 Z-0.125000 I-29.892169 J35.613413
G03 X1084.415563 Y240.972146 Z-0.125000 I-81.162817 J-7.180965
G03 X1044.679372 Y261.734688 Z-0.125000 I-37.179940 J-22.750836
G03 X1005.717193 Y242.169957 Z-0.125000 I3.232547 J-55.015431
G03 X982.585205 Y179.985521 Z-0.125000 I75.600686 J-63.517351
G03 X986.824606 Y147.719243 Z-0.125000 I113.269940 J-1.529333
G03 X1000.798406 Y119.794094 Z-0.125000 I79.906557 J22.526565
G03 X1023.307816 Y100.925888 Z-0.125000 I53.440254 J40.892456
G03 X1060.459602 Y91.734460 Z-0.125000 I37.764067 J72.962951
G03 X1082.173215 Y95.558455 Z-0.125000 I0.454078 J60.981332
G03 X1114.578116 Y115.509428 Z-0.125000 I-34.098579 J91.675755
G03 X1135.466425 Y144.024868 Z-0.125000 I-63.321562 J68.293046
G03 X1148.000646 Y198.209124 Z-0.125000 I-118.412896 J55.933841
G03 X1134.356831 Y258.543391 Z-0.125000 I-132.400554 J1.769144
G02 X1118.526542 Y320.673592 Z-0.125000 I138.789400 J68.444269
G02 X1121.091367 Y349.967572 Z-0.125000 I114.955720 J4.694362
G02 X1134.396310 Y380.740283 Z-0.125000 I85.544770 J-18.723658
G02 X1156.985647 Y401.762161 Z-0.125000 I58.161309 J-39.850229
G02 X1200.625156 Y415.050624 Z-0.125000 I49.784955 J-85.193900
G02 X1219.538816 Y412.212431 Z-0.125000 I2.840317 J-45.511402
G02 X1246.590969 Y395.883932 Z-0.125000 I-30.629831 J-81.319313
G02 X1264.312738 Y372.695051 Z-0.125000 I-50.669212 J-57.089460
G02 X1272.169196 Y335.112988 Z-0.125000 I-68.421141 J-33.915528
G02 X1268.538912 Y310.300541 Z-0.125000 I-128.991497 J6.200820
G02 X1258.171368 Y287.711116 Z-0.125000 I-64.632029 J15.989398
G02 X1241.187358 Y273.018018 Z-0.125000 I-38.569649 J27.420728
G02 X1209.041277 Y265.611174 Z-0.125000 I-30.749275 J59.992184
G02 X1181.195417 Y281.647692 Z-0.125000 I0.692074 J33.395798
G02 X1170.737907 Y310.830948 Z-0.125000 I65.874756 J40.070816
G02 X1172.319159 Y329.489975 Z-0.125000 I41.326457 J5.894321
G02 X1179.692738 Y343.404055 Z-0.125000 I42.681782 J-13.707827
G02 X1191.792072 Y353.844526 Z-0.125000 I32.479529 J-25.409012
G02 X1202.458246 Y356.234652 Z-0.125000 I9.245017 J-16.262312
G02 X1226.305316 Y341.596119 Z-0.125000 I-2.326327 J-30.533168
G02 X1230.791608 Y313.338399 Z-0.125000 I-32.295173 J-19.612281
G03 X1237.416934 Y328.412053 Z-0.125000 I-21.583350 J18.479377
G03 X1234.866819 Y350.934609 Z-0.125000 I-48.750801 J5.885839
G03 X1223.399277 Y366.906155 Z-0.125000 I-33.815483 J-12.176845
G03 X1197.303429 Y375.734415 Z-0.125000 I-25.337924 J-31.914430
G03 X1160.144044 Y356.571718 Z-0.125000 I0.880344 J-47.317318
G03 X1143.623774 Y308.194583 Z-0.125000 I67.752285 J-50.145990
G03 X1160.861447 Y256.287232 Z-0.125000 I81.615098 J-1.712684
G03 X1213.309042 Y231.992487 Z-0.125000 I49.857799 J38.873807
G03 X1249.720721 Y242.036455 Z-0.125000 I-3.419334 J83.418181
G03 X1274.202543 Y263.633332 Z-0.125000 I-34.823648 J64.149957
G03 X1289.083834 Y294.681512 Z-0.125000 I-80.135208 J57.498910
G03 X1296.241199 Y340.521326 Z-0.125000 I-192.067544 J53.467837
G03 X1266.590229 Y420.733204 Z-0.125000 I-111.744783 J4.278937
G03 X1203.451217 Y445.683425 Z-0.125000 I-57.525057 J-53.207990
G03 X1158.504605 Y432.957443 Z-0.125000 I8.250079 J-114.874229
G03 X1132.553015 Y417.472026 Z-0.125000 I120.693018 J-231.754645
G02 X1106.185609 Y403.268085 Z-0.125000 I-82.753680 J122.043863
G02 X1054.353921 Y392.902792 Z-0.125000 I-52.153952 J126.021120
G02 X1015.833371 Y399.141583 Z-0.125000 I-0.282210 J120.296831
G02 X970.364916 Y424.842207 Z-0.125000 I43.727812 J130.432137
G02 X940.774212 Y463.066676 Z-0.125000 I76.406878 J89.714606
G02 X926.015510 Y530.488350 Z-0.125000 I132.374431 J64.303143
G02 X933.053219 Y580.516140 Z-0.125000 I213.511585 J-4.527041
G02 X951.609016 Y621.353688 Z-0.125000 I129.546498 J-34.228965
G02 X982.045575 Y650.596955 Z-0.125000 I83.574945 J-56.524373
G02 X1029.444903 Y666.113189 Z-0.125000 I55.634056 J-89.795760
G02 X1038.976928 Y665.636224 Z-0.125000 I2.912704 J-37.276416
G02 X1085.147118 Y647.764459 Z-0.125000 I-23.042546 J-128.102728
G02 X1101.876291 Y634.712075 Z-0.125000 I-55.466521 J-88.338194
G02 X1116.842002 Y615.535915 Z-0.125000 I-58.802519 J-61.319381
G02 X1125.518252 Y593.434390 Z-0.125000 I-71.358110 J-40.766337
G02 X1128.204535 Y560.523506 Z-0.125000 I-109.277609 J-25.484631
G02 X1122.165429 Y526.122777 Z-0.125000 I-162.318352 J10.764806
G02 X1108.690131 Y498.138962 Z-0.125000 I-89.523805 J25.872856
G02 X1087.330057 Y478.834180 Z-0.125000 I-53.905908 J38.175539
G02 X1053.832347 Y469.798896 Z-0.125000 I-34.313579 J60.602397
G02 X1033.673834 Y474.959947 Z-0.125000 I-0.469051 J40.116963
G02 X1002.090260 Y526.101426 Z-0.125000 I30.509284 J54.165010
G02 X1004.121464 Y556.422935 Z-0.125000 I131.643930 J6.410109
G02 X1008.121543 Y567.666781 Z-0.125000 I36.978528 J-6.821926
G02 X1016.162141 Y575.556196 Z-0.125000 I17.061463 J-9.346361
G02 X1020.241439 Y575.923323 Z-0.125000 I2.483160 J-4.744466
G03 X1015.342690 Y545.200607 Z-0.125000 I80.837773 J-28.641526
G03 X1019.694695 Y527.093693 Z-0.125000 I44.319835 J1.075831
G03 X1031.751128 Y512.497990 Z-0.125000 I35.476233 J17.026982
G03 X1046.910963 Y505.817425 Z-0.125000 I22.351673 J30.180442
G03 X1063.561675 Y506.298094 Z-0.125000 I7.258358 J37.201947
G03 X1079.617277 Y514.883508 Z-0.125000 I-9.465359 J37.006705
G03 X1089.920707 Y529.356986 Z-0.125000 I-27.140873 J30.225298
G03 X1095.540671 Y557.080928 Z-0.125000 I-66.211559 J27.853437
G03 X1086.346981 Y598.565974 Z-0.125000 I-97.404758 J0.174939
G03 X1072.093514 Y616.255057 Z-0.125000 I-43.225169 J-20.242770
G03 X1049.084176 Y626.552087 Z-0.125000 I-33.347875 J-43.661455
G03 X1030.915676 Y627.560222 Z-0.125000 I-12.826909 J-66.945702
G03 X991.321256 Y614.357621 Z-0.125000 I6.785568 J-86.322689
G03 X969.532746 Y591.782288 Z-0.125000 I35.659675 J-56.219042
G03 X958.678487 Y560.029370 Z-0.125000 I72.730058 J-42.593321
G03 X959.387022 Y522.547612 Z-0.125000 I126.163336 J-16.362655
G03 X990.569570 Y456.219551 Z-0.125000 I134.180955 J22.588067
G03 X1056.597870 Y427.389315 Z-0.125000 I63.088729 J54.463032
G03 X1106.191395 Y442.262038 Z-0.125000 I-3.604811 J102.142230
G03 X1134.675848 Y469.865619 Z-0.125000 I-46.830638 J76.823582
G03 X1151.829627 Y509.745289 Z-0.125000 I-105.778519 J69.128493
G03 X1157.319934 Y552.437712 Z-0.125000 I-198.484103 J47.224583
G03 X1154.049810 Y583.019224 Z-0.125000 I-119.752210 J2.660323
G03 X1146.159566 Y612.679642 Z-0.125000 I-603.432304 J-144.644965
G02 X1138.330697 Y642.310488 Z-0.125000 I556.712250 J162.940535
G02 X1136.133286 Y668.991658 Z-0.125000 I87.339526 J20.624193
G02 X1144.478237 Y705.252301 Z-0.125000 I117.490016 J-7.948349
G02 X1159.937256 Y729.731878 Z-0.125000 I75.603284 J-30.622961
G02 X1183.071338 Y746.594277 Z-0.125000 I53.318393 J-48.848859
G02 X1211.803527 Y753.251361 Z-0.125000 I30.543289 J-66.492753
G02 X1235.949136 Y748.590110 Z-0.125000 I1.423575 J-57.494395
G02 X1258.332821 Y732.508881 Z-0.125000 I-25.307175 J-58.844098
G02 X1272.371456 Y709.033276 Z-0.125000 I-53.356661 J-47.843212
G02 X1279.227461 Y669.199261 Z-0.125000 I-108.246084 J-39.137718
G02 X1273.612988 Y636.788274 Z-0.125000 I-99.845549 J0.604206
G02 X1263.413237 Y619.475475 Z-0.125000 I-48.835409 J17.110177
G02 X1246.843897 Y607.659773 Z-0.125000 I-34.273052 J30.536053
G02 X1229.085331 Y604.009486 Z-0.125000 I-18.207705 J43.557433
G02 X1195.923135 Y615.719737 Z-0.125000 I-0.489267 J51.425496
G02 X1178.575811 Y651.621021 Z-0.125000 I30.234003 J36.750633
G02 X1184.441523 Y677.667427 Z-0.125000 I56.298465 J1.005142
G02 X1197.407696 Y692.103662 Z-0.125000 I32.469363 J-16.121941
G02 X1213.509675 Y695.175287 Z-0.125000 I11.901068 J-18.646945
G02 X1234.275105 Y682.138134 Z-0.125000 I-6.445317 J-33.322074
G03 X1215.137851 Y685.543677 Z-0.125000 I-17.488438 J-42.802152
G03 X1205.583004 Y682.351584 Z-0.125000 I0.635050 J-17.797125
G03 X1198.820789 Y673.969389 Z-0.125000 I11.042625 J-15.827237
G03 X1196.205493 Y661.985671 Z-0.125000 I31.400373 J-13.129974
G03 X1202.511570 Y637.382586 Z-0.125000 I45.204268 J-1.523289
G03 X1221.915070 Y627.014743 Z-0.125000 I18.261136 J10.835036
G03 X1240.381134 Y634.531864 Z-0.125000 I-1.642114 J30.473731
G03 X1260.794793 Y679.375348 Z-0.125000 I-39.432852 J45.018727
G03 X1252.862168 Y709.288783 Z-0.125000 I-59.707766 J0.174863
G03 X1241.312605 Y721.245015 Z-0.125000 I-29.510361 J-16.950143
G03 X1222.546530 Y727.788939 Z-0.125000 I-23.984673 J-38.601287
G03 X1213.638028 Y727.942264 Z-0.125000 I-5.235014 J-45.287230
G03 X1195.267165 Y722.519886 Z-0.125000 I3.766538 J-46.592091
G03 X1176.542354 Y708.059885 Z-0.125000 I34.266703 J-63.727009
G03 X1163.593726 Y688.685058 Z-0.125000 I53.614104 J-49.845839
G03 X1157.770982 Y663.758073 Z-0.125000 I58.627730 J-26.838536
G03 X1170.705280 Y611.019064 Z-0.125000 I101.692099 J-3.015484
G03 X1227.178006 Y579.022072 Z-0.125000 I54.646550 J30.613862
G03 X1270.219247 Y591.711795 Z-0.125000 I-2.568046 J88.049253
G02 X1313.969157 Y601.971048 Z-0.125000 I37.675461 J-62.250590
G02 X1365.902059 Y569.994389 Z-0.125000 I-5.639641 J-67.319396
G02 X1379.015312 Y524.575924 Z-0.125000 I-75.661788 J-46.447395
G02 X1374.495634 Y500.722089 Z-0.125000 I-61.448249 J-0.712260
G02 X1360.078049 Y476.109756 Z-0.125000 I-92.193880 J37.476993
G02 X1339.517319 Y457.689735 Z-0.125000 I-65.065989 J51.942604
G02 X1318.610669 Y452.003828 Z-0.125000 I-19.694868 J31.137503
G02 X1288.705704 Y464.731414 Z-0.125000 I1.480194 J44.974304
G02 X1270.176763 Y509.045252 Z-0.125000 I42.720765 J43.893501
G02 X1271.973065 Y526.150968 Z-0.125000 I88.100631 J-0.604430
G02 X1278.024545 Y541.092425 Z-0.125000 I43.522971 J-8.931164
G02 X1288.546712 Y551.092035 Z-0.125000 I25.377110 J-16.167442
G02 X1307.980825 Y556.172633 Z-0.125000 I19.242347 J-33.895485
G02 X1322.343093 Y551.914050 Z-0.125000 I-0.131788 J-26.792456
G02 X1333.977044 Y539.026321 Z-0.125000 I-17.937514 J-27.887410
G02 X1337.102718 Y523.318784 Z-0.125000 I-26.488063 J-13.435672
G02 X1328.253638 Y499.385294 Z-0.125000 I-46.422334 J3.561363
G03 X1327.739851 Y530.599839 Z-0.125000 I-36.917937 J15.003837
G03 X1312.464461 Y540.718110 Z-0.125000 I-15.586120 J-6.940474
G03 X1304.160166 Y539.677806 Z-0.125000 I-0.535444 J-29.390715
G03 X1296.068874 Y534.926311 Z-0.125000 I4.760227 J-17.371217
G03 X1291.326451 Y527.197372 Z-0.125000 I14.440432 J-14.179978
G03 X1288.092286 Y507.991906 Z-0.125000 I58.817244 J-19.779760
G03 X1289.816723 Y499.158413 Z-0.125000 I22.425441 J-0.207267
G03 X1297.578858 Y485.706165 Z-0.125000 I55.926929 J23.305068
G03 X1307.996949 Y475.729790 Z-0.125000 I37.094171 J28.308689
G03 X1319.277221 Y472.568958 Z-0.125000 I10.174781 J14.602675
G03 X1332.745326 Y475.658540 Z-0.125000 I-2.639460 J42.405803
G03 X1346.258223 Y484.583453 Z-0.125000 I-15.852744 J38.694241
G03 X1355.191749 Y497.481703 Z-0.125000 I-29.716394 J30.124902
G03 X1360.807322 Y520.427958 Z-0.125000 I-60.504067 J26.967263
G03 X1358.324852 Y541.485248 Z-0.125000 I-59.737153 J3.632490
G03 X1347.985018 Y562.255000 Z-0.125000 I-66.972055 J-20.382171
G03 X1331.932097 Y576.866556 Z-0.125000 I-43.344889 J-31.496655
G03 X1310.911618 Y581.847447 Z-0.125000 I-18.510489 J-31.272406
G03 X1287.395035 Y576.857090 Z-0.125000 I5.950411 J-85.945774
G03 X1267.839833 Y564.423094 Z-0.125000 I18.384426 J-50.507997
G03 X1255.828004 Y545.661333 Z-0.125000 I36.404043 J-36.532977
G03 X1249.532687 Y509.427971 Z-0.125000 I96.547410 J-35.438066
G03 X1253.276348 Y481.974050 Z-0.125000 I108.708131 J0.841407
G03 X1260.453335 Y463.918843 Z-0.125000 I81.715685 J22.028141
G03 X1271.388912 Y447.240630 Z-0.125000 I101.114351 J54.374464
G02 X1284.050229 Y431.169163 Z-0.125000 I-136085.289688 J-107222.838812
G02 X1295.975172 Y414.661634 Z-0.125000 I-192.289291 J-151.469681
G02 X1307.928978 Y392.016718 Z-0.125000 I-108.849846 J-71.937246
G02 X1315.285355 Y367.646775 Z-0.125000 I-125.221534 J-51.094989
G02 X1319.695192 Y327.299299 Z-0.125000 I-221.217677 J-44.593043
G02 X1312.137689 Y282.839425 Z-0.125000 I-121.141350 J-2.280078
G02 X1298.199433 Y250.873695 Z-0.125000 I-294.072324 J109.204883
G03 X1284.119510 Y219.057664 Z-0.125000 I309.840637 J-156.140926
G03 X1277.400947 Y178.703676 Z-0.125000 I95.417220 J-36.622361
G03 X1285.880903 Y135.447559 Z-0.125000 I140.808804 J5.144982
G03 X1302.448225 Y106.911431 Z-0.125000 I88.810379 J32.483620
G03 X1328.034164 Y86.926067 Z-0.125000 I60.540316 J51.135084
G03 X1358.033586 Y79.862663 Z-0.125000 I30.390050 J61.833572
G03 X1410.241904 Y100.843181 Z-0.125000 I0.422200 J74.397734
G03 X1438.515546 Y166.935738 Z-0.125000 I-64.756198 J66.795812
G03 X1428.615340 Y211.288827 Z-0.125000 I-100.885025 J0.762579
G03 X1382.096276 Y242.818955 Z-0.125000 I-50.268413 J-24.083421
G03 X1364.581487 Y239.430467 Z-0.125000 I-2.347826 J-34.824718
G03 X1347.031579 Y226.693650 Z-0.125000 I26.568190 J-55.067305
G03 X1334.795078 Y208.727467 Z-0.125000 I47.235378 J-45.321459
G03 X1330.137132 Y187.255320 Z-0.125000 I46.252812 J-21.274904
G03 X1335.550943 Y161.179770 Z-0.125000 I66.747713 J0.258389
G03 X1345.634311 Y148.402647 Z-0.125000 I28.812545 J12.370773
G03 X1360.420435 Y143.430243 Z-0.125000 I15.004055 J20.146131
G03 X1379.405372 Y148.714966 Z-0.125000 I0.309154 J35.632672
G02 X1370.878140 Y149.008750 Z-0.125000 I-3.749515 J15.068926
G02 X1358.875987 Y155.433832 Z-0.125000 I11.778431 J36.424935
G02 X1350.396230 Y165.160530 Z-0.125000 I21.963404 J27.707431
G02 X1346.846438 Y178.791529 Z-0.125000 I22.039509 J13.017259
G02 X1363.173697 Y209.219510 Z-0.125000 I38.225330 J-0.916728
G02 X1377.466731 Y214.306450 Z-0.125000 I16.413283 J-23.493831
G02 X1390.899102 Y211.899442 Z-0.125000 I2.029522 J-27.357555
G02 X1402.377566 Y202.715121 Z-0.125000 I-12.538510 J-27.435482
G02 X1409.485347 Y188.983347 Z-0.125000 I-35.926570 J-27.301593
G02 X1414.365113 Y163.324699 Z-0.125000 I-106.223440 J-33.494934
G02 X1406.539087 Y132.064042 Z-0.125000 I-51.763604 J-3.651054
G02 X1361.786831 Y104.771673 Z-0.125000 I-49.772062 J31.275890
G02 X1340.509561 Y109.937521 Z-0.125000 I-2.939380 J34.294875
G02 X1320.538141 Y128.529491 Z-0.125000 I38.934372 J61.845743
G02 X1306.732278 Y154.040808 Z-0.125000 I85.393542 J62.703391
G02 X1300.091585 Y183.353209 Z-0.125000 I103.848937 J38.935287
G02 X1303.660692 Y215.985482 Z-0.125000 I84.042149 J7.319333
G02 X1319.766471 Y246.436921 Z-0.125000 I90.902834 J-28.593650
G02 X1344.591731 Y266.328062 Z-0.125000 I55.460829 J-43.780997
G02 X1376.965645 Y270.294529 Z-0.125000 I22.043058 J-45.813696
G02 X1362.347231 Y289.717474 Z-0.125000 I33.043107 J40.082091
G02 X1354.837673 Y327.663058 Z-0.125000 I83.700700 J36.280524
G02 X1370.389769 Y378.010681 Z-0.125000 I94.879810 J-1.732048
G02 X1416.033075 Y402.588681 Z-0.125000 I45.537350 J-29.895860
G02 X1458.825750 Y380.522279 Z-0.125000 I-0.102391 J-52.725004
G02 X1470.474193 Y339.786856 Z-0.125000 I-51.385573 J-36.727062
G02 X1458.824475 Y304.532859 Z-0.125000 I-73.265375 J4.658788
G02 X1429.394406 Y287.782415 Z-0.125000 I-30.859234 J19.989692
G02 X1418.035433 Y290.623712 Z-0.125000 I-0.812163 J20.879298
G02 X1407.575527 Y299.485891 Z-0.125000 I20.007637 J34.218662
G02 X1399.886035 Y311.704286 Z-0.125000 I42.032969 J34.981760
G02 X1395.594175 Y325.422682 Z-0.125000 I51.951345 J23.783767
G02 X1396.032878 Y340.126050 Z-0.125000 I35.240845 J6.306750
G02 X1401.897908 Y352.662868 Z-0.125000 I33.723550 J-8.136389
G02 X1406.390334 Y357.056652 Z-0.125000 I16.027031 J-11.893314
G02 X1411.059167 Y358.826614 Z-0.125000 I5.745451 J-8.112694
G02 X1415.716872 Y358.056121 Z-0.125000 I0.950010 J-8.720482
G02 X1422.145331 Y353.227261 Z-0.125000 I-8.233684 J-17.654556
G03 X1411.672895 Y350.997184 Z-0.125000 I-3.379371 J-9.834787
G03 X1404.862268 Y332.335998 Z-0.125000 I14.951692 J-16.030206
G03 X1410.844534 Y315.771575 Z-0.125000 I38.965908 J4.710132
G03 X1426.688347 Y307.761931 Z-0.125000 I14.759018 J9.519614
G03 X1437.878080 Y311.825457 Z-0.125000 I-1.300756 J21.020242
G03 X1452.273823 Y340.164834 Z-0.125000 I-20.981847 J28.484329
G03 X1450.116984 Y356.512655 Z-0.125000 I-61.133922 J0.250526
G03 X1443.390113 Y369.953321 Z-0.125000 I-36.932000 J-10.080276
G03 X1432.439080 Y378.731802 Z-0.125000 I-23.934233 J-18.637753
G03 X1413.459434 Y382.763397 Z-0.125000 I-17.985468 J-37.979373
G03 X1404.003910 Y381.055274 Z-0.125000 I0.735979 J-31.099263
G03 X1387.925022 Y371.528880 Z-0.125000 I15.327287 J-44.202156
G03 X1377.873610 Y357.879191 Z-0.125000 I28.624007 J-31.603954
G03 X1371.801882 Y329.918931 Z-0.125000 I59.251084 J-27.506092
G03 X1374.781573 Y308.306296 Z-0.125000 I84.113154 J0.584796
G03 X1385.166374 Y287.110921 Z-0.125000 I60.738889 J16.617647
G03 X1401.755595 Y272.945371 Z-0.125000 I39.977185 J30.020565
G03 X1431.543331 Y265.348555 Z-0.125000 I30.612285 J57.834789
G03 X1480.381993 Y280.714645 Z-0.125000 I1.032968 J82.012863
G02 X1519.023584 Y294.173631 Z-0.125000 I42.114443 J-58.712497
G02 X1541.021772 Y291.126191 Z-0.125000 I2.889786 J-60.061402
G02 X1569.265430 Y274.909816 Z-0.125000 I-26.330809 J-78.563545
G02 X1587.542931 Y250.803478 Z-0.125000 I-49.404416 J-56.440781
G02 X1597.094888 Y207.134328 Z-0.125000 I-88.334616 J-42.201088
G02 X1593.978741 Y175.309144 Z-0.125000 I-193.749037 J2.905689
G02 X1583.807971 Y147.767430 Z-0.125000 I-83.639326 J15.238015
G02 X1565.552334 Y129.138705 Z-0.125000 I-45.914022 J26.735103
G02 X1531.806163 Y119.744225 Z-0.125000 I-33.457058 J54.874507
G02 X1499.811557 Y130.686914 Z-0.125000 I0.238246 J52.941393
G02 X1477.073537 Y176.250917 Z-0.125000 I35.394939 J46.118837
G02 X1490.130271 Y218.178948 Z-0.125000 I71.652565 J0.683805
G02 X1517.904404 Y232.985147 Z-0.125000 I28.544355 J-20.091700
G02 X1535.812473 Y226.913228 Z-0.125000 I0.610129 J-27.644856
G02 X1549.544337 Y198.637983 Z-0.125000 I-22.944589 J-28.615094
G02 X1546.153636 Y186.071138 Z-0.125000 I-24.154150 J-0.223741
G02 X1535.112650 Y174.005234 Z-0.125000 I-34.574975 J20.553548
G02 X1522.075394 Y169.306173 Z-0.125000 I-14.718624 J20.400852
G02 X1507.383639 Y174.707396 Z-0.125000 I-1.285218 J19.186085
G03 X1515.932591 Y162.497643 Z-0.125000 I26.768637 J9.644952
G03 X1532.768399 Y157.495404 Z-0.125000 I14.233992 J17.073822
G03 X1552.254812 Y165.913944 Z-0.125000 I-4.337804 J36.802617
G03 X1568.677508 Y205.624933 Z-0.125000 I-29.892169 J35.613413
G03 X1557.015279 Y240.972192 Z-0.125000 I-81.162041 J-7.180534
G03 X1517.279141 Y261.734688 Z-0.125000 I-37.179883 J-22.750829
G03 X1478.316807 Y242.169864 Z-0.125000 I3.232535 J-55.015572
G03 X1455.184889 Y179.985521 Z-0.125000 I75.600728 J-63.517258
G03 X1459.424274 Y147.719242 Z-0.125000 I113.269810 J-1.529405
G03 X1473.398065 Y119.794094 Z-0.125000 I79.906511 J22.526523
G03 X1495.907472 Y100.925889 Z-0.125000 I53.440239 J40.892433
G03 X1533.059258 Y91.734460 Z-0.125000 I37.764067 J72.962949
G03 X1554.772814 Y95.558445 Z-0.125000 I0.454078 J60.981163
G03 X1587.177740 Y115.509428 Z-0.125000 I-34.098635 J91.675893
G03 X1608.066068 Y144.024871 Z-0.125000 I-63.321597 J68.293123
G03 X1620.600302 Y198.209124 Z-0.125000 I-118.412740 J55.933836
G03 X1606.956535 Y258.543392 Z-0.125000 I-132.400160 J1.769329
G02 X1591.126311 Y320.673592 Z-0.125000 I138.788789 J68.443952
G02 X1593.691131 Y349.967575 Z-0.125000 I114.955873 J4.694368
G02 X1606.996058 Y380.740283 Z-0.125000 I85.544797 J-18.723635
G02 X1629.585375 Y401.762163 Z-0.125000 I58.161293 J-39.850173
G02 X1673.224840 Y415.050624 Z-0.125000 I49.784905 J-85.193732
G02 X1692.138543 Y412.212426 Z-0.125000 I2.840319 J-45.511548
G02 X1719.190692 Y395.883932 Z-0.125000 I-30.629773 J-81.319221
G02 X1736.912441 Y372.695051 Z-0.125000 I-50.669097 J-57.089317
G02 X1744.768851 Y335.112988 Z-0.125000 I-68.421066 J-33.915415
G02 X1741.138583 Y310.300544 Z-0.125000 I-128.991101 J6.200690
G02 X1730.771035 Y287.711116 Z-0.125000 I-64.631906 J15.989348
G02 X1713.787010 Y273.018024 Z-0.125000 I-38.569627 J27.420743
G02 X1681.640848 Y265.611174 Z-0.125000 I-30.749353 J59.992450
G02 X1653.795137 Y281.647666 Z-0.125000 I0.692072 J33.395557
G02 X1643.337648 Y310.830948 Z-0.125000 I65.875638 J40.071067
G02 X1644.918863 Y329.489980 Z-0.125000 I41.326404 J5.894406
G02 X1652.292415 Y343.404055 Z-0.125000 I42.681680 J-13.707714
G02 X1664.391730 Y353.844524 Z-0.125000 I32.479468 J-25.408909
G02 X1675.057902 Y356.234652 Z-0.125000 I9.245016 J-16.262296
G02 X1698.905020 Y341.596090 Z-0.125000 I-2.326320 J-30.533210
G02 X1703.391179 Y313.338399 Z-0.125000 I-32.294802 J-19.612040
G03 X1710.016563 Y328.412068 Z-0.125000 I-21.583332 J18.479474
G03 X1707.466496 Y350.934609 Z-0.125000 I-48.750606 J5.885948
G03 X1695.998977 Y366.906143 Z-0.125000 I-33.815366 J-12.176751
G03 X1669.903085 Y375.734415 Z-0.125000 I-25.337968 J-31.914500
G03 X1632.743715 Y356.571715 Z-0.125000 I0.880343 J-47.317284
G03 X1616.223543 Y308.194583 Z-0.125000 I67.751968 J-50.145710
G03 X1633.461153 Y256.287194 Z-0.125000 I81.614730 J-1.712921
G03 X1685.908697 Y231.992487 Z-0.125000 I49.857745 J38.873796
G03 X1722.320397 Y242.036457 Z-0.125000 I-3.419335 J83.418253
G03 X1746.802231 Y263.633332 Z-0.125000 I-34.823659 J64.150005
G03 X1761.683541 Y294.681514 Z-0.125000 I-80.135255 J57.498988
G03 X1768.840940 Y340.521326 Z-0.125000 I-192.067802 J53.468026
G03 X1739.189933 Y420.733208 Z-0.125000 I-111.745085 J4.278792
G03 X1676.050986 Y445.683425 Z-0.125000 I-57.524998 J-53.207868
G03 X1631.104295 Y432.957437 Z-0.125000 I8.250089 J-114.874545
G03 X1605.152695 Y417.472026 Z-0.125000 I120.692417 J-231.753806
G02 X1578.785289 Y403.268081 Z-0.125000 I-82.753834 J122.044113
G02 X1526.953662 Y392.902792 Z-0.125000 I-52.153891 J126.020866
G02 X1488.433128 Y399.141579 Z-0.125000 I-0.282210 J120.296797
G02 X1442.964649 Y424.842207 Z-0.125000 I43.727848 J130.432268
G02 X1413.373921 Y463.066680 Z-0.125000 I76.406914 J89.714696
G02 X1398.615194 Y530.488350 Z-0.125000 I132.374364 J64.303182
G02 X1405.652932 Y580.516138 Z-0.125000 I213.512068 J-4.527231
G02 X1424.208742 Y621.353688 Z-0.125000 I129.546551 J-34.229023
G02 X1454.645308 Y650.596950 Z-0.125000 I83.574937 J-56.524391
G02 X1502.044672 Y666.113189 Z-0.125000 I55.634094 J-89.795859
G02 X1511.576603 Y665.636233 Z-0.125000 I2.912698 J-37.275940
G02 X1557.746830 Y647.764459 Z-0.125000 I-23.042557 J-128.102846
G02 X1574.476011 Y634.712075 Z-0.125000 I-55.466567 J-88.338293
G02 X1589.441731 Y615.535915 Z-0.125000 I-58.802523 J-61.319421
G02 X1598.117989 Y593.434389 Z-0.125000 I-71.358086 J-40.766355
G02 X1600.804275 Y560.523506 Z-0.125000 I-109.277513 J-25.484636
G02 X1594.765125 Y526.122775 Z-0.125000 I-162.319252 J10.765164
G02 X1581.289819 Y498.138962 Z-0.125000 I-89.524007 J25.872980
G02 X1559.929754 Y478.834177 Z-0.125000 I-53.905943 J38.175553
G02 X1526.432087 Y469.798896 Z-0.125000 I-34.313534 J60.602253
G02 X1506.273500 Y474.959988 Z-0.125000 I-0.469048 J40.116976
G02 X1474.690001 Y526.101426 Z-0.125000 I30.509431 J54.165013
G02 X1476.673025 Y556.291727 Z-0.125000 I132.544317 J6.454215
G02 X1480.620037 Y567.338019 Z-0.125000 I35.485887 J-6.451346
G02 X1488.651737 Y575.172256 Z-0.125000 I17.079146 J-9.475440
G02 X1493.135086 Y575.923323 Z-0.125000 I3.391629 J-6.488904
G03 X1488.342642 Y545.215345 Z-0.125000 I80.792914 J-28.336909
G03 X1492.758240 Y527.093693 Z-0.125000 I44.447057 J1.231368
G03 X1504.866972 Y512.497832 Z-0.125000 I35.592815 J17.207178
G03 X1520.061753 Y505.817425 Z-0.125000 I22.406699 J30.344005
G03 X1536.738928 Y506.299703 Z-0.125000 I7.266734 J37.305827
G03 X1552.800210 Y514.883508 Z-0.125000 I-9.460695 J37.020197
G03 X1563.107864 Y529.358468 Z-0.125000 I-27.127092 J30.224799
G03 X1568.728196 Y557.080928 Z-0.125000 I-66.199409 J27.851934
G03 X1559.534518 Y598.565973 Z-0.125000 I-97.404669 J0.174983
G03 X1545.281050 Y616.255057 Z-0.125000 I-43.225156 J-20.242759
G03 X1522.271703 Y626.552087 Z-0.125000 I-33.347883 J-43.661476
G03 X1504.103201 Y627.560222 Z-0.125000 I-12.826909 J-66.945734
G03 X1464.508770 Y614.357619 Z-0.125000 I6.785569 J-86.322721
G03 X1442.720259 Y591.782288 Z-0.125000 I35.659668 J-56.219042
G03 X1431.866000 Y560.029370 Z-0.125000 I72.730042 J-42.593317
G03 X1432.574536 Y522.547612 Z-0.125000 I126.163318 J-16.362649
G03 X1463.757090 Y456.219551 Z-0.125000 I134.180959 J22.588077
G03 X1529.785395 Y427.389315 Z-0.125000 I63.088734 J54.463043
G03 X1579.378920 Y442.262038 Z-0.125000 I-3.604811 J102.142230
G03 X1607.863373 Y469.865619 Z-0.125000 I-46.830638 J76.823582
G03 X1625.017152 Y509.745289 Z-0.125000 I-105.778519 J69.128493
G03 X1630.507459 Y552.437712 Z-0.125000 I-198.484103 J47.224583
G03 X1627.237335 Y583.019224 Z-0.125000 I-119.752210 J2.660323
G03 X1619.347090 Y612.679642 Z-0.125000 I-603.432304 J-144.644965
G02 X1611.518222 Y642.310488 Z-0.125000 I556.712250 J162.940535
G02 X1609.320811 Y668.991658 Z-0.125000 I87.339526 J20.624193
G02 X1617.665774 Y705.252303 Z-0.125000 I117.490200 J-7.948427
G02 X1633.124791 Y729.731878 Z-0.125000 I75.603320 J-30.622982
G02 X1656.258866 Y746.594276 Z-0.125000 I53.318385 J-48.848839
G02 X1684.991052 Y753.251361 Z-0.125000 I30.543285 J-66.492724
G02 X1709.136662 Y748.590110 Z-0.125000 I1.423575 J-57.494393
G02 X1731.520335 Y732.508881 Z-0.125000 I-25.307146 J-58.844026
G02 X1745.558946 Y709.033279 Z-0.125000 I-53.356577 J-47.843097
G02 X1752.414901 Y669.199261 Z-0.125000 I-108.245940 J-39.137547
G02 X1746.800458 Y636.788271 Z-0.125000 I-99.845531 J0.604114
G02 X1736.600726 Y619.475475 Z-0.125000 I-48.835362 J17.110113
G02 X1720.031402 Y607.659773 Z-0.125000 I-34.273020 J30.535985
G02 X1702.272845 Y604.009486 Z-0.125000 I-18.207695 J43.557380
G02 X1669.110660 Y615.719733 Z-0.125000 I-0.489267 J51.425476
G02 X1651.763336 Y651.621021 Z-0.125000 I30.234008 J36.750637
G02 X1657.629048 Y677.667427 Z-0.125000 I56.298465 J1.005142
G02 X1670.595221 Y692.103662 Z-0.125000 I32.469363 J-16.121941
G02 X1686.697200 Y695.175287 Z-0.125000 I11.901068 J-18.646945
G02 X1707.462629 Y682.138134 Z-0.125000 I-6.445317 J-33.322074
G03 X1688.325346 Y685.543677 Z-0.125000 I-17.488465 J-42.802287
G03 X1678.770493 Y682.351584 Z-0.125000 I0.635050 J-17.797143
G03 X1672.008276 Y673.969387 Z-0.125000 I11.042613 J-15.827229
G03 X1669.392986 Y661.985671 Z-0.125000 I31.400334 J-13.129949
G03 X1675.699081 Y637.382584 Z-0.125000 I45.204273 J-1.523260
G03 X1695.102594 Y627.014743 Z-0.125000 I18.261148 J10.835061
G03 X1713.568651 Y634.531886 Z-0.125000 I-1.642105 J30.473619
G03 X1733.982233 Y679.375348 Z-0.125000 I-39.433029 J45.018705
G03 X1726.049658 Y709.288777 Z-0.125000 I-59.707651 J0.174973
G03 X1714.500095 Y721.245015 Z-0.125000 I-29.510286 J-16.950055
G03 X1695.734012 Y727.788932 Z-0.125000 I-23.984668 J-38.601331
G03 X1686.825355 Y727.942264 Z-0.125000 I-5.235138 J-45.288442
G03 X1668.454651 Y722.519908 Z-0.125000 I3.766530 J-46.591586
G03 X1649.729865 Y708.059885 Z-0.125000 I34.266886 J-63.727081
G03 X1636.781254 Y688.685063 Z-0.125000 I53.614300 J-49.845922
G03 X1630.958506 Y663.758073 Z-0.125000 I58.627730 J-26.838541
G03 X1643.892804 Y611.019064 Z-0.125000 I101.692099 J-3.015484
G03 X1700.365531 Y579.022072 Z-0.125000 I54.646550 J30.613862
G03 X1743.406685 Y591.711764 Z-0.125000 I-2.568042 J88.049111
G02 X1787.156710 Y601.971048 Z-0.125000 I37.675582 J-62.250821
G02 X1839.089584 Y569.994399 Z-0.125000 I-5.639641 J-67.319358
G02 X1852.202837 Y524.575924 Z-0.125000 I-75.661828 J-46.447406
G02 X1847.683110 Y500.722086 Z-0.125000 I-61.448780 J-0.712046
G02 X1833.265532 Y476.109756 Z-0.125000 I-92.194142 J37.477134
G02 X1812.704831 Y457.689739 Z-0.125000 I-65.065969 J51.942524
G02 X1791.798194 Y452.003828 Z-0.125000 I-19.694857 J31.137442
G02 X1761.893239 Y464.731416 Z-0.125000 I1.480193 J44.974272
G02 X1743.364288 Y509.045252 Z-0.125000 I42.720839 J43.893546
G02 X1745.160588 Y526.150970 Z-0.125000 I88.100710 J-0.604430
G02 X1751.212059 Y541.092425 Z-0.125000 I43.523038 J-8.931171
G02 X1761.734212 Y551.092040 Z-0.125000 I25.377122 J-16.167419
G02 X1781.168265 Y556.172633 Z-0.125000 I19.242287 J-33.895299
G02 X1795.530544 Y551.914052 Z-0.125000 I-0.131788 J-26.792508
G02 X1807.164516 Y539.026321 Z-0.125000 I-17.937511 J-27.887452
G02 X1810.290191 Y523.318789 Z-0.125000 I-26.487984 J-13.435658
G02 X1801.441078 Y499.385294 Z-0.125000 I-46.422252 J3.561380
G03 X1800.927314 Y530.599848 Z-0.125000 I-36.917640 J15.003873
G03 X1785.651901 Y540.718110 Z-0.125000 I-15.586144 J-6.940525
G03 X1777.347614 Y539.677803 Z-0.125000 I-0.535442 J-29.390597
G03 X1769.256357 Y534.926311 Z-0.125000 I4.760215 J-17.371111
G03 X1764.513959 Y527.197378 Z-0.125000 I14.440450 J-14.179930
G03 X1761.279811 Y507.991906 Z-0.125000 I58.817622 J-19.779770
G03 X1763.004248 Y499.158413 Z-0.125000 I22.425441 J-0.207267
G03 X1770.766383 Y485.706165 Z-0.125000 I55.926929 J23.305068
G03 X1781.184474 Y475.729790 Z-0.125000 I37.094171 J28.308689
G03 X1792.464746 Y472.568958 Z-0.125000 I10.174781 J14.602675
G03 X1805.932852 Y475.658541 Z-0.125000 I-2.639460 J42.405799
G03 X1819.445737 Y484.583453 Z-0.125000 I-15.852712 J38.694155
G03 X1828.379239 Y497.481701 Z-0.125000 I-29.716310 J30.124776
G03 X1833.994762 Y520.427958 Z-0.125000 I-60.503931 J26.967083
G03 X1831.512340 Y541.485251 Z-0.125000 I-59.736856 J3.632656
G03 X1821.172532 Y562.255000 Z-0.125000 I-66.971878 J-20.382015
G03 X1805.119623 Y576.866555 Z-0.125000 I-43.344837 J-31.496579
G03 X1784.099143 Y581.847447 Z-0.125000 I-18.510490 J-31.272403
G03 X1760.582499 Y576.857086 Z-0.125000 I5.950417 J-85.946086
G03 X1741.027283 Y564.423094 Z-0.125000 I18.384407 J-50.508022
G03 X1729.015445 Y545.661330 Z-0.125000 I36.404008 J-36.532976
G03 X1722.720127 Y509.427971 Z-0.125000 I96.547375 J-35.438063
G03 X1726.463818 Y481.974053 Z-0.125000 I108.708122 J0.841526
G03 X1733.640828 Y463.918843 Z-0.125000 I81.715779 J22.028265
G03 X1744.576424 Y447.240629 Z-0.125000 I101.114520 J54.374674
G02 X1757.237754 Y431.169163 Z-0.125000 I-135817.455188 J-107011.948601
G02 X1769.162705 Y414.661632 Z-0.125000 I-192.288820 J-151.469434
G02 X1781.116514 Y392.016718 Z-0.125000 I-108.849723 J-71.937195
G02 X1788.472888 Y367.646775 Z-0.125000 I-125.221424 J-51.094944
G02 X1792.882717 Y327.299299 Z-0.125000 I-221.217568 J-44.592984
G02 X1785.325214 Y282.839425 Z-0.125000 I-121.141350 J-2.280078
G02 X1771.386958 Y250.873695 Z-0.125000 I-294.072324 J109.204883
G03 X1757.307034 Y219.057664 Z-0.125000 I309.840637 J-156.140926
G03 X1750.588471 Y178.703676 Z-0.125000 I95.417220 J-36.622361
G03 X1759.068391 Y135.447563 Z-0.125000 I140.808238 J5.144762
G03 X1775.635718 Y106.911431 Z-0.125000 I88.810261 J32.483556
G03 X1801.221678 Y86.926064 Z-0.125000 I60.540337 J51.135140
G03 X1831.221110 Y79.862663 Z-0.125000 I30.390061 J61.833644
G03 X1883.429383 Y100.843140 Z-0.125000 I0.422201 J74.397723
G03 X1911.703071 Y166.935738 Z-0.125000 I-64.756142 J66.795853
G03 X1901.802865 Y211.288827 Z-0.125000 I-100.885025 J0.762579
G03 X1855.283801 Y242.818955 Z-0.125000 I-50.268413 J-24.083421
G03 X1837.769012 Y239.430467 Z-0.125000 I-2.347826 J-34.824718
G03 X1820.219104 Y226.693650 Z-0.125000 I26.568190 J-55.067305
G03 X1807.982603 Y208.727467 Z-0.125000 I47.235378 J-45.321459
G03 X1803.324657 Y187.255320 Z-0.125000 I46.252812 J-21.274904
G03 X1808.738467 Y161.179770 Z-0.125000 I66.747713 J0.258389
G03 X1818.821836 Y148.402647 Z-0.125000 I28.812545 J12.370773
G03 X1833.607959 Y143.430243 Z-0.125000 I15.004055 J20.146131
G03 X1852.592896 Y148.714966 Z-0.125000 I0.309154 J35.632672
G02 X1844.065665 Y149.008750 Z-0.125000 I-3.749515 J15.068926
G02 X1832.063512 Y155.433832 Z-0.125000 I11.778431 J36.424935
G02 X1823.583754 Y165.160530 Z-0.125000 I21.963404 J27.707431
G02 X1820.033963 Y178.791529 Z-0.125000 I22.039509 J13.017259
G02 X1836.361222 Y209.219510 Z-0.125000 I38.225330 J-0.916728
G02 X1850.654255 Y214.306450 Z-0.125000 I16.413283 J-23.493831
G02 X1864.086606 Y211.899436 Z-0.125000 I2.029513 J-27.357441
G02 X1875.565027 Y202.715121 Z-0.125000 I-12.538512 J-27.435385
G02 X1882.672797 Y188.983355 Z-0.125000 I-35.926829 J-27.301699
G02 X1887.552638 Y163.324699 Z-0.125000 I-106.225286 J-33.495605
G02 X1879.726612 Y132.064042 Z-0.125000 I-51.763604 J-3.651054
G02 X1834.974356 Y104.771673 Z-0.125000 I-49.772062 J31.275890
G02 X1813.697023 Y109.937538 Z-0.125000 I-2.939381 J34.295003
G02 X1793.725623 Y128.529491 Z-0.125000 I38.934274 J61.845612
G02 X1779.919765 Y154.040805 Z-0.125000 I85.393677 J62.703449
G02 X1773.279025 Y183.353209 Z-0.125000 I103.850032 J38.935712
G02 X1776.848179 Y215.985481 Z-0.125000 I84.042411 J7.319189
G02 X1792.953975 Y246.436921 Z-0.125000 I90.903043 J-28.593801
G02 X1817.779232 Y266.328069 Z-0.125000 I55.460883 J-43.781040
G02 X1850.153085 Y270.294529 Z-0.125000 I22.043011 J-45.813548
G02 X1835.534747 Y289.717442 Z-0.125000 I33.043397 J40.082155
G02 X1828.025113 Y327.663058 Z-0.125000 I83.701457 J36.280859
G02 X1843.577282 Y378.010683 Z-0.125000 I94.880179 J-1.732274
G02 X1889.220600 Y402.588681 Z-0.125000 I45.537362 J-29.895887
G02 X1932.013170 Y380.522263 Z-0.125000 I-0.102391 J-52.724777
G02 X1943.661634 Y339.786856 Z-0.125000 I-51.386109 J-36.727245
G02 X1932.011987 Y304.532862 Z-0.125000 I-73.264973 J4.658532
G02 X1902.581931 Y287.782415 Z-0.125000 I-30.859221 J19.989660
G02 X1891.222957 Y290.623712 Z-0.125000 I-0.812163 J20.879298
G02 X1880.763052 Y299.485891 Z-0.125000 I20.007637 J34.218662
G02 X1873.073559 Y311.704286 Z-0.125000 I42.032969 J34.981760
G02 X1868.781699 Y325.422682 Z-0.125000 I51.951345 J23.783767
G02 X1869.220391 Y340.126052 Z-0.125000 I35.240980 J6.306774
G02 X1875.085401 Y352.662868 Z-0.125000 I33.723490 J-8.136319
G02 X1879.577820 Y357.056650 Z-0.125000 I16.026990 J-11.893260
G02 X1884.246656 Y358.826614 Z-0.125000 I5.745453 J-8.112692
G02 X1888.904369 Y358.056123 Z-0.125000 I0.950013 J-8.720517
G02 X1895.332856 Y353.227261 Z-0.125000 I-8.233717 J-17.654681
G03 X1884.860420 Y350.997184 Z-0.125000 I-3.379371 J-9.834787
G03 X1878.049792 Y332.335998 Z-0.125000 I14.951692 J-16.030206
G03 X1884.032058 Y315.771575 Z-0.125000 I38.965908 J4.710132
G03 X1899.875871 Y307.761931 Z-0.125000 I14.759018 J9.519614
G03 X1911.065605 Y311.825457 Z-0.125000 I-1.300756 J21.020242
G03 X1925.461348 Y340.164834 Z-0.125000 I-20.981847 J28.484329
G03 X1923.304509 Y356.512655 Z-0.125000 I-61.133922 J0.250526
G03 X1916.577638 Y369.953321 Z-0.125000 I-36.932000 J-10.080276
G03 X1905.626605 Y378.731802 Z-0.125000 I-23.934233 J-18.637753
G03 X1886.646959 Y382.763397 Z-0.125000 I-17.985468 J-37.979373
G03 X1877.191435 Y381.055274 Z-0.125000 I0.735979 J-31.099263
G03 X1861.112547 Y371.528880 Z-0.125000 I15.327287 J-44.202156
G03 X1851.061135 Y357.879191 Z-0.125000 I28.624007 J-31.603954
G03 X1844.989406 Y329.918931 Z-0.125000 I59.251084 J-27.506092
G03 X1847.969098 Y308.306296 Z-0.125000 I84.113154 J0.584796
G03 X1858.353899 Y287.110921 Z-0.125000 I60.738889 J16.617647
G03 X1874.943119 Y272.945371 Z-0.125000 I39.977185 J30.020565
G03 X1904.730856 Y265.348555 Z-0.125000 I30.612285 J57.834789
G03 X1953.569518 Y280.714645 Z-0.125000 I1.032968 J82.012863
G02 X1992.211109 Y294.173631 Z-0.125000 I42.114443 J-58.712497
G02 X2014.209291 Y291.126188 Z-0.125000 I2.889783 J-60.061337
G02 X2042.452913 Y274.909816 Z-0.125000 I-26.330784 J-78.563391
G02 X2060.730384 Y250.803484 Z-0.125000 I-49.404418 J-56.440709
G02 X2070.282328 Y207.134328 Z-0.125000 I-88.334769 J-42.201092
G02 X2067.166230 Y175.309142 Z-0.125000 I-193.747875 J2.905276
G02 X2056.995485 Y147.767430 Z-0.125000 I-83.639174 J15.237896
G02 X2038.739859 Y129.138706 Z-0.125000 I-45.913982 J26.735050
G02 X2004.993687 Y119.744225 Z-0.125000 I-33.457058 J54.874500
G02 X1972.999082 Y130.686914 Z-0.125000 I0.238246 J52.941393
G02 X1950.261062 Y176.250917 Z-0.125000 I35.394939 J46.118837
G02 X1963.317795 Y218.178948 Z-0.125000 I71.652565 J0.683805
G02 X1991.091929 Y232.985147 Z-0.125000 I28.544355 J-20.091700
G02 X2008.999967 Y226.913221 Z-0.125000 I0.610127 J-27.644751
G02 X2022.731862 Y198.637983 Z-0.125000 I-22.944775 J-28.615224
G02 X2019.341161 Y186.071138 Z-0.125000 I-24.154150 J-0.223741
G02 X2008.300175 Y174.005234 Z-0.125000 I-34.574975 J20.553548
G02 X1995.262919 Y169.306173 Z-0.125000 I-14.718624 J20.400852
G02 X1980.571164 Y174.707396 Z-0.125000 I-1.285218 J19.186085
G03 X1989.120115 Y162.497643 Z-0.125000 I26.768637 J9.644952
G03 X2005.955924 Y157.495404 Z-0.125000 I14.233992 J17.073822
G03 X2025.442358 Y165.913958 Z-0.125000 I-4.337795 J36.802607
G03 X2041.865033 Y205.624933 Z-0.125000 I-29.892197 J35.613398
G03 X2030.202760 Y240.972188 Z-0.125000 I-81.162794 J-7.180872
G03 X1990.466665 Y261.734688 Z-0.125000 I-37.179844 J-22.750752
G03 X1951.504332 Y242.169864 Z-0.125000 I3.232535 J-55.015572
G03 X1928.372414 Y179.985521 Z-0.125000 I75.600728 J-63.517258
G03 X1932.611763 Y147.719244 Z-0.125000 I113.269106 J-1.529618
G03 X1946.585558 Y119.794094 Z-0.125000 I79.906397 J22.526471
G03 X1969.094985 Y100.925886 Z-0.125000 I53.440266 J40.892488
G03 X2006.246782 Y91.734460 Z-0.125000 I37.764080 J72.963028
G03 X2027.960339 Y95.558445 Z-0.125000 I0.454078 J60.981163
G03 X2060.365264 Y115.509428 Z-0.125000 I-34.098635 J91.675893
G03 X2081.253593 Y144.024871 Z-0.125000 I-63.321597 J68.293123
G03 X2093.787826 Y198.209124 Z-0.125000 I-118.412740 J55.933836
G03 X2080.144059 Y258.543392 Z-0.125000 I-132.400160 J1.769329
G02 X2064.313836 Y320.673592 Z-0.125000 I138.788789 J68.443952
G02 X2066.878656 Y349.967575 Z-0.125000 I114.955873 J4.694368
G02 X2080.183583 Y380.740283 Z-0.125000 I85.544797 J-18.723635
G02 X2102.772900 Y401.762163 Z-0.125000 I58.161293 J-39.850173
G02 X2146.412365 Y415.050624 Z-0.125000 I49.784905 J-85.193732
G02 X2165.326011 Y412.212436 Z-0.125000 I2.840319 J-45.511381
G02 X2192.378185 Y395.883932 Z-0.125000 I-30.629838 J-81.319378
G02 X2210.099954 Y372.695049 Z-0.125000 I-50.669139 J-57.089404
G02 X2217.956376 Y335.112988 Z-0.125000 I-68.420961 J-33.915417
G02 X2214.326107 Y310.300544 Z-0.125000 I-128.991101 J6.200690
G02 X2203.958560 Y287.711116 Z-0.125000 I-64.631906 J15.989348
G02 X2186.974534 Y273.018024 Z-0.125000 I-38.569627 J27.420743
G02 X2154.828373 Y265.611174 Z-0.125000 I-30.749353 J59.992450
G02 X2126.982662 Y281.647666 Z-0.125000 I0.692072 J33.395557
G02 X2116.525173 Y310.830948 Z-0.125000 I65.875638 J40.071067
G02 X2118.106388 Y329.489980 Z-0.125000 I41.326404 J5.894406
G02 X2125.479939 Y343.404055 Z-0.125000 I42.681680 J-13.707714
G02 X2137.579255 Y353.844524 Z-0.125000 I32.479468 J-25.408909
G02 X2148.245427 Y356.234652 Z-0.125000 I9.245016 J-16.262296
G02 X2172.092513 Y341.596132 Z-0.125000 I-2.326331 J-30.533217
G02 X2176.578704 Y313.338399 Z-0.125000 I-32.294753 J-19.612086
G03 X2183.204077 Y328.412067 Z-0.125000 I-21.583284 J18.479433
G03 X2180.653989 Y350.934609 Z-0.125000 I-48.750667 J5.885899
G03 X2169.186457 Y366.906154 Z-0.125000 I-33.815444 J-12.176805
G03 X2143.090610 Y375.734415 Z-0.125000 I-25.337924 J-31.914424
G03 X2105.931239 Y356.571715 Z-0.125000 I0.880343 J-47.317284
G03 X2089.411068 Y308.194583 Z-0.125000 I67.751968 J-50.145710
G03 X2106.648678 Y256.287194 Z-0.125000 I81.614730 J-1.712921
G03 X2159.096222 Y231.992487 Z-0.125000 I49.857745 J38.873796
G03 X2195.507921 Y242.036457 Z-0.125000 I-3.419335 J83.418253
G03 X2219.989756 Y263.633332 Z-0.125000 I-34.823659 J64.150005
G03 X2234.871065 Y294.681514 Z-0.125000 I-80.135255 J57.498988
G03 X2242.028464 Y340.521326 Z-0.125000 I-192.067802 J53.468026
G03 X2212.377423 Y420.733201 Z-0.125000 I-111.745365 J4.278646
G03 X2149.238510 Y445.683425 Z-0.125000 I-57.524969 J-53.207780
G03 X2104.291773 Y432.957431 Z-0.125000 I8.250089 J-114.874692
G03 X2078.340178 Y417.472026 Z-0.125000 I120.692129 J-231.753369
G02 X2051.972775 Y403.268086 Z-0.125000 I-82.753753 J122.043994
G02 X2000.141102 Y392.902792 Z-0.125000 I-52.153938 J126.021035
G02 X1961.620631 Y399.141573 Z-0.125000 I-0.282210 J120.296524
G02 X1916.152163 Y424.842207 Z-0.125000 I43.727872 J130.432246
G02 X1886.561445 Y463.066676 Z-0.125000 I76.406947 J89.714699
G02 X1871.802719 Y530.488350 Z-0.125000 I132.374384 J64.303185
G02 X1878.840457 Y580.516138 Z-0.125000 I213.512068 J-4.527231
G02 X1897.396267 Y621.353688 Z-0.125000 I129.546551 J-34.229023
G02 X1927.832833 Y650.596950 Z-0.125000 I83.574937 J-56.524391
G02 X1975.232197 Y666.113189 Z-0.125000 I55.634094 J-89.795859
G02 X1984.764129 Y665.636233 Z-0.125000 I2.912698 J-37.275948
G02 X2030.934344 Y647.764459 Z-0.125000 I-23.042535 J-128.102745
G02 X2047.663515 Y634.712075 Z-0.125000 I-55.466518 J-88.338177
G02 X2062.629220 Y615.535915 Z-0.125000 I-58.802469 J-61.319319
G02 X2071.305458 Y593.434392 Z-0.125000 I-71.358030 J-40.766263
G02 X2073.991715 Y560.523506 Z-0.125000 I-109.277505 J-25.484537
G02 X2067.952614 Y526.122776 Z-0.125000 I-162.318523 J10.764817
G02 X2054.477322 Y498.138962 Z-0.125000 I-89.523777 J25.872826
G02 X2033.117254 Y478.834183 Z-0.125000 I-53.905878 J38.175507
G02 X1999.619527 Y469.798896 Z-0.125000 I-34.313595 J60.602432
G02 X1979.461051 Y474.959957 Z-0.125000 I-0.469049 J40.116763
G02 X1947.877526 Y526.101426 Z-0.125000 I30.509436 J54.165045
G02 X1949.759902 Y556.502288 Z-0.125000 I137.946440 J6.717270
G02 X1953.669629 Y567.831164 Z-0.125000 I37.059928 J-6.450727
G02 X1961.596510 Y575.567459 Z-0.125000 I16.238415 J-8.709226
G02 X1966.322526 Y575.923323 Z-0.125000 I2.792451 J-5.525252
G03 X1961.530113 Y545.215349 Z-0.125000 I80.792901 J-28.336821
G03 X1965.945729 Y527.093693 Z-0.125000 I44.447094 J1.231413
G03 X1978.054476 Y512.497832 Z-0.125000 I35.592849 J17.207230
G03 X1993.249267 Y505.817425 Z-0.125000 I22.406715 J30.344052
G03 X2009.926450 Y506.299704 Z-0.125000 I7.266737 J37.305857
G03 X2025.987733 Y514.883508 Z-0.125000 I-9.460694 J37.020201
G03 X2036.295388 Y529.358468 Z-0.125000 I-27.127088 J30.224799
G03 X2041.915720 Y557.080928 Z-0.125000 I-66.199405 J27.851933
G03 X2032.722043 Y598.565973 Z-0.125000 I-97.404669 J0.174983
G03 X2018.468574 Y616.255057 Z-0.125000 I-43.225156 J-20.242759
G03 X1995.459228 Y626.552087 Z-0.125000 I-33.347883 J-43.661476
G03 X1977.290726 Y627.560222 Z-0.125000 I-12.826909 J-66.945734
G03 X1937.696292 Y614.357621 Z-0.125000 I6.785571 J-86.322744
G03 X1915.907772 Y591.782288 Z-0.125000 I35.659682 J-56.219076
G03 X1905.053502 Y560.029368 Z-0.125000 I72.730050 J-42.593346
G03 X1905.762029 Y522.547612 Z-0.125000 I126.163269 J-16.362681
G03 X1936.944571 Y456.219567 Z-0.125000 I134.180853 J22.588030
G03 X2002.972920 Y427.389315 Z-0.125000 I63.088777 J54.463092
G03 X2052.566444 Y442.262037 Z-0.125000 I-3.604811 J102.142232
G03 X2081.050901 Y469.865619 Z-0.125000 I-46.830650 J76.823604
G03 X2098.204689 Y509.745289 Z-0.125000 I-105.778565 J69.128538
G03 X2103.695012 Y552.437712 Z-0.125000 I-198.484338 J47.224690
G03 X2100.424824 Y583.019224 Z-0.125000 I-119.753512 J2.659940
G03 X2092.534576 Y612.679642 Z-0.125000 I-603.446841 J-144.648896
G02 X2084.705733 Y642.310487 Z-0.125000 I556.706412 J162.938525
G02 X2082.508335 Y668.991658 Z-0.125000 I87.339851 J20.624173
G02 X2090.853299 Y705.252303 Z-0.125000 I117.490200 J-7.948427
G02 X2106.312316 Y729.731878 Z-0.125000 I75.603320 J-30.622982
G02 X2129.446391 Y746.594276 Z-0.125000 I53.318385 J-48.848839
G02 X2158.178577 Y753.251361 Z-0.125000 I30.543285 J-66.492724
G02 X2182.324187 Y748.590110 Z-0.125000 I1.423575 J-57.494393
G02 X2204.707860 Y732.508881 Z-0.125000 I-25.307146 J-58.844026
G02 X2218.746471 Y709.033279 Z-0.125000 I-53.356577 J-47.843097
G02 X2225.602425 Y669.199261 Z-0.125000 I-108.245940 J-39.137547
G02 X2219.987982 Y636.788271 Z-0.125000 I-99.845531 J0.604114
G02 X2209.788250 Y619.475475 Z-0.125000 I-48.835362 J17.110113
G02 X2193.218926 Y607.659773 Z-0.125000 I-34.273020 J30.535985
G02 X2175.460370 Y604.009486 Z-0.125000 I-18.207695 J43.557380
G02 X2142.298185 Y615.719733 Z-0.125000 I-0.489267 J51.425476
G02 X2124.950861 Y651.621021 Z-0.125000 I30.234008 J36.750637
G02 X2130.816535 Y677.667423 Z-0.125000 I56.298199 J1.005270
G02 X2143.782714 Y692.103662 Z-0.125000 I32.469336 J-16.121916
G02 X2159.884714 Y695.175290 Z-0.125000 I11.901086 J-18.646991
G02 X2180.650154 Y682.138134 Z-0.125000 I-6.445309 J-33.322079
G03 X2161.512841 Y685.543677 Z-0.125000 I-17.488492 J-42.802421
G03 X2151.957982 Y682.351584 Z-0.125000 I0.635050 J-17.797161
G03 X2145.195763 Y673.969386 Z-0.125000 I11.042600 J-15.827222
G03 X2142.580479 Y661.985671 Z-0.125000 I31.400295 J-13.129925
G03 X2148.886593 Y637.382583 Z-0.125000 I45.204279 J-1.523232
G03 X2168.290119 Y627.014743 Z-0.125000 I18.261160 J10.835086
G03 X2186.756176 Y634.531886 Z-0.125000 I-1.642105 J30.473619
G03 X2207.169758 Y679.375348 Z-0.125000 I-39.433029 J45.018705
G03 X2199.237128 Y709.288777 Z-0.125000 I-59.707710 J0.174863
G03 X2187.687545 Y721.245015 Z-0.125000 I-29.510367 J-16.950162
G03 X2168.921449 Y727.788936 Z-0.125000 I-23.984695 J-38.601388
G03 X2160.012880 Y727.942264 Z-0.125000 I-5.235066 J-45.287769
G03 X2141.642167 Y722.519911 Z-0.125000 I3.766536 J-46.591662
G03 X2122.917358 Y708.059885 Z-0.125000 I34.266880 J-63.727147
G03 X2109.968742 Y688.685060 Z-0.125000 I53.614157 J-49.845839
G03 X2104.146031 Y663.758073 Z-0.125000 I58.627401 J-26.838370
G03 X2117.080289 Y611.019059 Z-0.125000 I101.691540 J-3.015693
G03 X2173.553056 Y579.022072 Z-0.125000 I54.646588 J30.613937
G03 X2216.594088 Y591.711731 Z-0.125000 I-2.568042 J88.048876
G02 X2260.344235 Y601.971048 Z-0.125000 I37.675701 J-62.251018
G02 X2312.277038 Y569.994392 Z-0.125000 I-5.639628 J-67.319202
G02 X2325.390277 Y524.575924 Z-0.125000 I-75.662193 J-46.447483
G02 X2320.870596 Y500.722083 Z-0.125000 I-61.448524 J-0.712209
G02 X2306.453046 Y476.109756 Z-0.125000 I-92.193919 J37.476922
G02 X2285.892357 Y457.689740 Z-0.125000 I-65.065894 J51.942416
G02 X2264.985718 Y452.003828 Z-0.125000 I-19.694858 J31.137439
G02 X2235.080764 Y464.731416 Z-0.125000 I1.480193 J44.974272
G02 X2216.551813 Y509.045252 Z-0.125000 I42.720839 J43.893546
G02 X2218.348113 Y526.150970 Z-0.125000 I88.100710 J-0.604430
G02 X2224.399584 Y541.092425 Z-0.125000 I43.523038 J-8.931171
G02 X2234.921737 Y551.092040 Z-0.125000 I25.377122 J-16.167419
G02 X2254.355790 Y556.172633 Z-0.125000 I19.242287 J-33.895299
G02 X2268.718068 Y551.914052 Z-0.125000 I-0.131788 J-26.792508
G02 X2280.352041 Y539.026321 Z-0.125000 I-17.937511 J-27.887452
G02 X2283.477716 Y523.318789 Z-0.125000 I-26.487984 J-13.435658
G02 X2274.628603 Y499.385294 Z-0.125000 I-46.422252 J3.561380
G03 X2274.114846 Y530.599851 Z-0.125000 I-36.917541 J15.003885
G03 X2258.839426 Y540.718110 Z-0.125000 I-15.586151 J-6.940542
G03 X2250.535139 Y539.677803 Z-0.125000 I-0.535442 J-29.390597
G03 X2242.443881 Y534.926311 Z-0.125000 I4.760215 J-17.371111
G03 X2237.701484 Y527.197378 Z-0.125000 I14.440450 J-14.179930
G03 X2234.467336 Y507.991906 Z-0.125000 I58.817622 J-19.779770
G03 X2236.191772 Y499.158413 Z-0.125000 I22.425441 J-0.207267
G03 X2243.953908 Y485.706165 Z-0.125000 I55.926929 J23.305068
G03 X2254.371999 Y475.729790 Z-0.125000 I37.094171 J28.308689
G03 X2265.652271 Y472.568958 Z-0.125000 I10.174781 J14.602675
G03 X2279.120377 Y475.658541 Z-0.125000 I-2.639460 J42.405799
G03 X2292.633262 Y484.583453 Z-0.125000 I-15.852712 J38.694155
G03 X2301.566764 Y497.481701 Z-0.125000 I-29.716310 J30.124776
G03 X2307.182287 Y520.427958 Z-0.125000 I-60.503931 J26.967083
G03 X2304.699864 Y541.485251 Z-0.125000 I-59.736856 J3.632656
G03 X2294.360056 Y562.255000 Z-0.125000 I-66.971878 J-20.382015
G03 X2278.307147 Y576.866555 Z-0.125000 I-43.344837 J-31.496579
G03 X2257.286668 Y581.847447 Z-0.125000 I-18.510490 J-31.272403
G03 X2233.770023 Y576.857086 Z-0.125000 I5.950417 J-85.946086
G03 X2214.214808 Y564.423094 Z-0.125000 I18.384407 J-50.508022
G03 X2202.202970 Y545.661330 Z-0.125000 I36.404008 J-36.532976
G03 X2195.907652 Y509.427971 Z-0.125000 I96.547375 J-35.438063
G03 X2199.651318 Y481.974052 Z-0.125000 I108.707956 J0.841406
G03 X2206.828317 Y463.918843 Z-0.125000 I81.715612 J22.028156
G03 X2217.763910 Y447.240630 Z-0.125000 I101.114303 J54.374524
G02 X2230.425247 Y431.169163 Z-0.125000 I-136025.624806 J-107175.993467
G02 X2242.350207 Y414.661632 Z-0.125000 I-192.289073 J-151.469727
G02 X2254.304026 Y392.016718 Z-0.125000 I-108.849682 J-71.937231
G02 X2261.660409 Y367.646774 Z-0.125000 I-125.221330 J-51.094956
G02 X2266.070242 Y327.299299 Z-0.125000 I-221.217299 J-44.592978
G02 X2258.512739 Y282.839425 Z-0.125000 I-121.141350 J-2.280078
G02 X2244.574483 Y250.873695 Z-0.125000 I-294.072324 J109.204883
G03 X2230.494559 Y219.057664 Z-0.125000 I309.840637 J-156.140926
G03 X2223.775996 Y178.703676 Z-0.125000 I95.417220 J-36.622361
G03 X2232.255920 Y135.447564 Z-0.125000 I140.808153 J5.144759
G03 X2248.823254 Y106.911431 Z-0.125000 I88.810284 J32.483584
G03 X2274.409220 Y86.926060 Z-0.125000 I60.540367 J51.135177
G03 X2304.408635 Y79.862663 Z-0.125000 I30.390044 J61.833604
G03 X2356.616907 Y100.843140 Z-0.125000 I0.422201 J74.397723
G03 X2384.890596 Y166.935738 Z-0.125000 I-64.756142 J66.795853
G03 X2374.990390 Y211.288827 Z-0.125000 I-100.885025 J0.762579
G03 X2328.471325 Y242.818955 Z-0.125000 I-50.268413 J-24.083421
G03 X2310.956418 Y239.430449 Z-0.125000 I-2.347832 J-34.825051
G03 X2293.406523 Y226.693650 Z-0.125000 I26.568008 J-55.067070
G03 X2281.170058 Y208.727469 Z-0.125000 I47.235066 J-45.321127
G03 X2276.512182 Y187.255320 Z-0.125000 I46.252680 J-21.274710
G03 X2281.925992 Y161.179770 Z-0.125000 I66.747713 J0.258389
G03 X2292.009361 Y148.402647 Z-0.125000 I28.812545 J12.370773
G03 X2306.795484 Y143.430243 Z-0.125000 I15.004055 J20.146131
G03 X2325.780421 Y148.714966 Z-0.125000 I0.309154 J35.632672
G02 X2317.253126 Y149.008756 Z-0.125000 I-3.749533 J15.069116
G02 X2305.250973 Y155.433832 Z-0.125000 I11.778372 J36.424853
G02 X2296.771233 Y165.160531 Z-0.125000 I21.963266 J27.707256
G02 X2293.221487 Y178.791529 Z-0.125000 I22.039427 J13.017150
G02 X2309.548720 Y209.219516 Z-0.125000 I38.225120 J-0.916590
G02 X2323.841780 Y214.306450 Z-0.125000 I16.413321 J-23.493983
G02 X2337.274131 Y211.899436 Z-0.125000 I2.029513 J-27.357441
G02 X2348.752552 Y202.715121 Z-0.125000 I-12.538512 J-27.435385
G02 X2355.860322 Y188.983355 Z-0.125000 I-35.926829 J-27.301699
G02 X2360.740163 Y163.324699 Z-0.125000 I-106.225286 J-33.495605
G02 X2352.914091 Y132.064074 Z-0.125000 I-51.763908 J-3.650886
G02 X2308.161796 Y104.771673 Z-0.125000 I-49.772092 J31.275880
G02 X2286.884523 Y109.937529 Z-0.125000 I-2.939376 J34.294859
G02 X2266.913137 Y128.529491 Z-0.125000 I38.934343 J61.845619
G02 X2253.107290 Y154.040802 Z-0.125000 I85.393803 J62.703482
G02 X2246.466550 Y183.353209 Z-0.125000 I103.850070 J38.935717
G02 X2250.035668 Y215.985479 Z-0.125000 I84.042008 J7.319320
G02 X2266.141468 Y246.436921 Z-0.125000 I90.902917 J-28.593742
G02 X2290.966746 Y266.328072 Z-0.125000 I55.460909 J-43.781094
G02 X2323.340610 Y270.294529 Z-0.125000 I22.043014 J-45.813588
G02 X2308.722243 Y289.717440 Z-0.125000 I33.043556 J40.082348
G02 X2301.212638 Y327.663058 Z-0.125000 I83.700318 J36.280563
G02 X2316.764767 Y378.010721 Z-0.125000 I94.879773 J-1.732048
G02 X2362.408040 Y402.588681 Z-0.125000 I45.537317 J-29.895887
G02 X2405.200664 Y380.522270 Z-0.125000 I-0.102391 J-52.724893
G02 X2416.849158 Y339.786856 Z-0.125000 I-51.385986 J-36.727258
G02 X2405.199476 Y304.532866 Z-0.125000 I-73.265585 J4.658801
G02 X2375.769456 Y287.782415 Z-0.125000 I-30.859182 J19.989581
G02 X2364.410469 Y290.623709 Z-0.125000 I-0.812165 J20.879361
G02 X2353.950535 Y299.485891 Z-0.125000 I20.007633 J34.218745
G02 X2346.261033 Y311.704293 Z-0.125000 I42.032684 J34.981605
G02 X2341.969224 Y325.422682 Z-0.125000 I51.950179 J23.783196
G02 X2342.407928 Y340.126052 Z-0.125000 I35.241107 J6.306741
G02 X2348.272936 Y352.662868 Z-0.125000 I33.723525 J-8.136332
G02 X2352.765352 Y357.056650 Z-0.125000 I16.026991 J-11.893252
G02 X2357.434185 Y358.826614 Z-0.125000 I5.745449 J-8.112680
G02 X2362.091894 Y358.056123 Z-0.125000 I0.950013 J-8.720507
G02 X2368.520380 Y353.227261 Z-0.125000 I-8.233723 J-17.654686
G03 X2358.047875 Y350.997141 Z-0.125000 I-3.379367 J-9.834880
G03 X2351.237204 Y332.335998 Z-0.125000 I14.951843 J-16.030305
G03 X2357.219570 Y315.771569 Z-0.125000 I38.966638 J4.710588
G03 X2373.063396 Y307.761931 Z-0.125000 I14.759029 J9.519646
G03 X2384.253103 Y311.825464 Z-0.125000 I-1.300748 J21.020111
G03 X2398.648873 Y340.164834 Z-0.125000 I-20.982065 J28.484473
G03 X2396.492033 Y356.512652 Z-0.125000 I-61.133877 J0.250526
G03 X2389.765152 Y369.953321 Z-0.125000 I-36.931953 J-10.080270
G03 X2378.814105 Y378.731798 Z-0.125000 I-23.934227 J-18.637780
G03 X2359.834399 Y382.763397 Z-0.125000 I-17.985526 J-37.979585
G03 X2350.378926 Y381.055285 Z-0.125000 I0.735982 J-31.099167
G03 X2334.299987 Y371.528880 Z-0.125000 I15.327324 J-44.202349
G03 X2324.248551 Y357.879185 Z-0.125000 I28.623960 J-31.603976
G03 X2318.176846 Y329.918931 Z-0.125000 I59.250695 J-27.505953
G03 X2321.156539 Y308.306299 Z-0.125000 I84.113096 J0.584795
G03 X2331.541353 Y287.110921 Z-0.125000 I60.738817 J16.617637
G03 X2348.130592 Y272.945378 Z-0.125000 I39.977171 J30.020599
G03 X2377.918409 Y265.348555 Z-0.125000 I30.612367 J57.835061
G03 X2426.757041 Y280.714641 Z-0.125000 I1.032967 J82.012791
G02 X2465.398634 Y294.173631 Z-0.125000 I42.114443 J-58.712475
G02 X2487.396815 Y291.126188 Z-0.125000 I2.889783 J-60.061337
G02 X2515.640437 Y274.909816 Z-0.125000 I-26.330784 J-78.563391
G02 X2533.917909 Y250.803484 Z-0.125000 I-49.404418 J-56.440709
G02 X2543.469852 Y207.134328 Z-0.125000 I-88.334769 J-42.201092
G02 X2540.353717 Y175.309142 Z-0.125000 I-193.749919 J2.905702
G02 X2530.182968 Y147.767430 Z-0.125000 I-83.639246 J15.237936
G02 X2511.927345 Y129.138715 Z-0.125000 I-45.913944 J26.735028
G02 X2478.181128 Y119.744225 Z-0.125000 I-33.457104 J54.874606
G02 X2446.186554 Y130.686921 Z-0.125000 I0.238245 J52.941270
G02 X2423.448502 Y176.250917 Z-0.125000 I35.395109 J46.118963
G02 X2436.505310 Y218.178986 Z-0.125000 I71.652968 J0.683613
G02 X2464.279369 Y232.985147 Z-0.125000 I28.544282 J-20.091647
G02 X2482.187504 Y226.913189 Z-0.125000 I0.610127 J-27.644913
G02 X2495.919387 Y198.637983 Z-0.125000 I-22.944739 J-28.615191
G02 X2492.528686 Y186.071138 Z-0.125000 I-24.154150 J-0.223741
G02 X2481.487700 Y174.005234 Z-0.125000 I-34.574975 J20.553548
G02 X2468.450444 Y169.306173 Z-0.125000 I-14.718624 J20.400852
G02 X2453.758689 Y174.707396 Z-0.125000 I-1.285218 J19.186085
G03 X2462.307590 Y162.497641 Z-0.125000 I26.768190 J9.644559
G03 X2479.143449 Y157.495404 Z-0.125000 I14.234029 J17.073934
G03 X2498.629857 Y165.913964 Z-0.125000 I-4.337779 J36.802479
G03 X2515.052558 Y205.624933 Z-0.125000 I-29.892372 J35.613500
G03 X2503.390283 Y240.972147 Z-0.125000 I-81.162566 J-7.180852
G03 X2463.654077 Y261.734688 Z-0.125000 I-37.179954 J-22.750862
G03 X2424.691864 Y242.169911 Z-0.125000 I3.232537 J-55.015403
G03 X2401.559939 Y179.985521 Z-0.125000 I75.600833 J-63.517307
G03 X2405.799288 Y147.719244 Z-0.125000 I113.269106 J-1.529618
G03 X2419.773083 Y119.794094 Z-0.125000 I79.906397 J22.526471
G03 X2442.282509 Y100.925886 Z-0.125000 I53.440266 J40.892488
G03 X2479.434307 Y91.734460 Z-0.125000 I37.764080 J72.963028
G03 X2501.147864 Y95.558445 Z-0.125000 I0.454078 J60.981163
G03 X2533.552789 Y115.509428 Z-0.125000 I-34.098635 J91.675893
G03 X2554.441117 Y144.024871 Z-0.125000 I-63.321597 J68.293123
G03 X2566.975351 Y198.209124 Z-0.125000 I-118.412740 J55.933836
G03 X2553.331538 Y258.543391 Z-0.125000 I-132.401366 J1.768965
G02 X2537.501360 Y320.673592 Z-0.125000 I138.789322 J68.443973
G02 X2540.066134 Y349.967575 Z-0.125000 I114.955285 J4.694597
G02 X2553.371044 Y380.740283 Z-0.125000 I85.544591 J-18.723506
G02 X2575.960364 Y401.762157 Z-0.125000 I58.161234 J-39.850133
G02 X2619.599890 Y415.050624 Z-0.125000 I49.784970 J-85.193928
G02 X2638.513535 Y412.212436 Z-0.125000 I2.840319 J-45.511381
G02 X2665.565709 Y395.883932 Z-0.125000 I-30.629838 J-81.319378
G02 X2683.287479 Y372.695049 Z-0.125000 I-50.669139 J-57.089404
G02 X2691.143901 Y335.112988 Z-0.125000 I-68.420961 J-33.915417
G02 X2687.513632 Y310.300544 Z-0.125000 I-128.991101 J6.200690
G02 X2677.146084 Y287.711116 Z-0.125000 I-64.631906 J15.989348
G02 X2660.162059 Y273.018024 Z-0.125000 I-38.569627 J27.420743
G02 X2628.015898 Y265.611174 Z-0.125000 I-30.749353 J59.992450
G02 X2600.170186 Y281.647666 Z-0.125000 I0.692072 J33.395557
G02 X2589.712698 Y310.830948 Z-0.125000 I65.875638 J40.071067
G02 X2591.293878 Y329.489979 Z-0.125000 I41.326121 J5.894504
G02 X2598.667432 Y343.404055 Z-0.125000 I42.681545 J-13.707649
G02 X2610.766771 Y353.844527 Z-0.125000 I32.479483 J-25.408962
G02 X2621.432951 Y356.234652 Z-0.125000 I9.245022 J-16.262338
G02 X2645.280038 Y341.596132 Z-0.125000 I-2.326331 J-30.533217
G02 X2649.766228 Y313.338399 Z-0.125000 I-32.294753 J-19.612086
G03 X2656.391602 Y328.412067 Z-0.125000 I-21.583284 J18.479433
G03 X2653.841514 Y350.934609 Z-0.125000 I-48.750667 J5.885899
G03 X2642.373982 Y366.906154 Z-0.125000 I-33.815444 J-12.176805
G03 X2616.278134 Y375.734415 Z-0.125000 I-25.337924 J-31.914424
G03 X2579.118736 Y356.571671 Z-0.125000 I0.880341 J-47.317271
G03 X2562.598592 Y308.194583 Z-0.125000 I67.752188 J-50.145737
G03 X2579.836203 Y256.287194 Z-0.125000 I81.614730 J-1.712921
G03 X2632.283747 Y231.992487 Z-0.125000 I49.857745 J38.873796
G03 X2668.695447 Y242.036458 Z-0.125000 I-3.419335 J83.418248
G03 X2693.177270 Y263.633332 Z-0.125000 I-34.823627 J64.149940
G03 X2708.058556 Y294.681512 Z-0.125000 I-80.135147 J57.498866
G03 X2715.215904 Y340.521326 Z-0.125000 I-192.067382 J53.467740
G03 X2685.564950 Y420.733185 Z-0.125000 I-111.745162 J4.278795
G03 X2622.426035 Y445.683425 Z-0.125000 I-57.524976 J-53.207746
G03 X2577.479297 Y432.957431 Z-0.125000 I8.250089 J-114.874692
G03 X2551.527703 Y417.472026 Z-0.125000 I120.692129 J-231.753369
G02 X2525.160300 Y403.268086 Z-0.125000 I-82.753753 J122.043994
G02 X2473.328627 Y392.902792 Z-0.125000 I-52.153938 J126.021035
G02 X2434.808155 Y399.141573 Z-0.125000 I-0.282210 J120.296524
G02 X2389.339688 Y424.842207 Z-0.125000 I43.727872 J130.432246
G02 X2359.748970 Y463.066676 Z-0.125000 I76.406947 J89.714699
G02 X2344.990244 Y530.488350 Z-0.125000 I132.374384 J64.303185
G02 X2352.027944 Y580.516138 Z-0.125000 I213.511101 J-4.526940
G02 X2370.583749 Y621.353688 Z-0.125000 I129.546475 J-34.228974
G02 X2401.020321 Y650.596960 Z-0.125000 I83.574986 J-56.524424
G02 X2448.419637 Y666.113189 Z-0.125000 I55.634047 J-89.795755
G02 X2457.951637 Y665.636226 Z-0.125000 I2.912700 J-37.276259
G02 X2504.121784 Y647.764459 Z-0.125000 I-23.042537 J-128.102536
G02 X2520.850939 Y634.712077 Z-0.125000 I-55.466508 J-88.338083
G02 X2535.816636 Y615.535915 Z-0.125000 I-58.802546 J-61.319347
G02 X2544.492877 Y593.434392 Z-0.125000 I-71.358159 J-40.766323
G02 X2547.179155 Y560.523506 Z-0.125000 I-109.277713 J-25.484626
G02 X2541.140104 Y526.122775 Z-0.125000 I-162.317861 J10.764474
G02 X2527.664836 Y498.138962 Z-0.125000 I-89.523622 J25.872687
G02 X2506.304779 Y478.834184 Z-0.125000 I-53.905833 J38.175441
G02 X2472.807052 Y469.798896 Z-0.125000 I-34.313595 J60.602426
G02 X2452.648470 Y474.959990 Z-0.125000 I-0.469048 J40.116947
G02 X2421.065050 Y526.101426 Z-0.125000 I30.509377 J54.164883
G02 X2422.973668 Y556.249947 Z-0.125000 I135.128693 J6.580060
G02 X2426.800554 Y567.173636 Z-0.125000 I35.361220 J-6.255886
G02 X2434.661530 Y575.010592 Z-0.125000 I17.153465 J-9.345028
G02 X2439.057507 Y575.923323 Z-0.125000 I3.721438 J-6.881008
G03 X2434.101417 Y545.192659 Z-0.125000 I80.862808 J-28.806135
G03 X2438.419185 Y527.093693 Z-0.125000 I44.251717 J0.992366
G03 X2450.447434 Y512.498067 Z-0.125000 I35.413576 J16.930264
G03 X2465.588404 Y505.817425 Z-0.125000 I22.321982 J30.092390
G03 X2482.224837 Y506.297225 Z-0.125000 I7.253835 J37.145943
G03 X2498.277366 Y514.883508 Z-0.125000 I-9.467876 J36.999402
G03 X2508.578509 Y529.356185 Z-0.125000 I-27.148318 J30.225554
G03 X2514.198271 Y557.080928 Z-0.125000 I-66.218167 J27.854249
G03 X2505.004631 Y598.565974 Z-0.125000 I-97.404437 J0.175116
G03 X2490.751171 Y616.255057 Z-0.125000 I-43.225130 J-20.242727
G03 X2467.741816 Y626.552094 Z-0.125000 I-33.347899 J-43.661486
G03 X2449.573390 Y627.560222 Z-0.125000 I-12.826839 J-66.945339
G03 X2409.978959 Y614.357619 Z-0.125000 I6.785569 J-86.322721
G03 X2388.190447 Y591.782288 Z-0.125000 I35.659670 J-56.219045
G03 X2377.336187 Y560.029370 Z-0.125000 I72.730047 J-42.593321
G03 X2378.044721 Y522.547612 Z-0.125000 I126.163329 J-16.362656
G03 X2409.227270 Y456.219546 Z-0.125000 I134.180974 J22.588070
G03 X2475.255556 Y427.389315 Z-0.125000 I63.088715 J54.463014
G03 X2524.849083 Y442.262044 Z-0.125000 I-3.604809 J102.142198
G03 X2553.333516 Y469.865619 Z-0.125000 I-46.830620 J76.823518
G03 X2570.487292 Y509.745286 Z-0.125000 I-105.778695 J69.128561
G03 X2575.977647 Y552.437712 Z-0.125000 I-198.485800 J47.225034
G03 X2572.707506 Y583.019222 Z-0.125000 I-119.752326 J2.660243
G03 X2564.817244 Y612.679642 Z-0.125000 I-603.429625 J-144.644604
G02 X2556.988345 Y642.310490 Z-0.125000 I556.717915 J162.942596
G02 X2554.790886 Y668.991658 Z-0.125000 I87.339841 J20.624378
G02 X2563.135851 Y705.252300 Z-0.125000 I117.490164 J-7.948424
G02 X2578.594878 Y729.731878 Z-0.125000 I75.603271 J-30.622968
G02 X2601.728966 Y746.594270 Z-0.125000 I53.318367 J-48.848861
G02 X2630.461212 Y753.251361 Z-0.125000 I30.543347 J-66.492946
G02 X2654.606761 Y748.590117 Z-0.125000 I1.423573 J-57.494178
G02 X2676.990432 Y732.508881 Z-0.125000 I-25.307203 J-58.844082
G02 X2691.029057 Y709.033279 Z-0.125000 I-53.356713 J-47.843219
G02 X2697.885061 Y669.199261 Z-0.125000 I-108.246117 J-39.137720
G02 X2692.270618 Y636.788271 Z-0.125000 I-99.845532 J0.604114
G02 X2682.070886 Y619.475475 Z-0.125000 I-48.835364 J17.110113
G02 X2665.501563 Y607.659773 Z-0.125000 I-34.273021 J30.535984
G02 X2647.743009 Y604.009486 Z-0.125000 I-18.207693 J43.557370
G02 X2614.580834 Y615.719733 Z-0.125000 I-0.489267 J51.425449
G02 X2597.233525 Y651.621021 Z-0.125000 I30.234000 J36.750614
G02 X2603.099184 Y677.667429 Z-0.125000 I56.298344 J1.005273
G02 X2616.065332 Y692.103662 Z-0.125000 I32.469286 J-16.121841
G02 X2632.167308 Y695.175291 Z-0.125000 I11.901071 J-18.646939
G02 X2652.932790 Y682.138134 Z-0.125000 I-6.445333 J-33.322203
G03 X2633.795509 Y685.543676 Z-0.125000 I-17.488462 J-42.802279
G03 X2624.240668 Y682.351584 Z-0.125000 I0.635048 J-17.797107
G03 X2617.478462 Y673.969390 Z-0.125000 I11.042608 J-15.827204
G03 X2614.863178 Y661.985671 Z-0.125000 I31.400398 J-13.129946
G03 X2621.169267 Y637.382541 Z-0.125000 I45.204483 J-1.523258
G03 X2640.572670 Y627.014743 Z-0.125000 I18.261039 J10.834958
G03 X2659.038783 Y634.531873 Z-0.125000 I-1.642116 J30.473836
G03 X2679.452394 Y679.375348 Z-0.125000 I-39.432648 J45.018570
G03 X2671.519781 Y709.288781 Z-0.125000 I-59.707703 J0.174900
G03 X2659.970216 Y721.245015 Z-0.125000 I-29.510351 J-16.950132
G03 X2641.204132 Y727.788940 Z-0.125000 I-23.984680 J-38.601312
G03 X2632.295628 Y727.942264 Z-0.125000 I-5.235013 J-45.287262
G03 X2613.924900 Y722.519908 Z-0.125000 I3.766536 J-46.591706
G03 X2595.200082 Y708.059885 Z-0.125000 I34.266918 J-63.727237
G03 X2582.251438 Y688.685058 Z-0.125000 I53.614319 J-49.846039
G03 X2576.428667 Y663.758073 Z-0.125000 I58.627662 J-26.838588
G03 X2589.362901 Y611.019107 Z-0.125000 I101.691521 J-3.015693
G03 X2645.835719 Y579.022072 Z-0.125000 I54.646642 J30.613937
G03 X2688.876817 Y591.711767 Z-0.125000 I-2.568045 J88.048898
G02 X2732.626786 Y601.971048 Z-0.125000 I37.675521 J-62.250617
G02 X2784.559712 Y569.994352 Z-0.125000 I-5.639628 J-67.319380
G02 X2797.673026 Y524.575924 Z-0.125000 I-75.662391 J-46.447687
G02 X2793.153285 Y500.722089 Z-0.125000 I-61.448608 J-0.712044
G02 X2778.735674 Y476.109756 Z-0.125000 I-92.194278 J37.477308
G02 X2758.174943 Y457.689725 Z-0.125000 I-65.066154 J51.942752
G02 X2737.268354 Y452.003828 Z-0.125000 I-19.694808 J31.137363
G02 X2707.363339 Y464.731454 Z-0.125000 I1.480189 J44.974316
G02 X2688.834364 Y509.045252 Z-0.125000 I42.721008 J43.893650
G02 X2690.630714 Y526.150971 Z-0.125000 I88.102678 J-0.604886
G02 X2696.682188 Y541.092425 Z-0.125000 I43.523149 J-8.931226
G02 X2707.204331 Y551.092031 Z-0.125000 I25.377078 J-16.167381
G02 X2726.638426 Y556.172633 Z-0.125000 I19.242330 J-33.895389
G02 X2741.000693 Y551.914050 Z-0.125000 I-0.131788 J-26.792458
G02 X2752.634656 Y539.026321 Z-0.125000 I-17.937544 J-27.887461
G02 X2755.760351 Y523.318775 Z-0.125000 I-26.488117 J-13.435726
G02 X2746.911323 Y499.385294 Z-0.125000 I-46.422301 J3.561281
G03 X2746.397499 Y530.599846 Z-0.125000 I-36.917721 J15.003802
G03 X2731.122062 Y540.718110 Z-0.125000 I-15.586170 J-6.940562
G03 X2722.817764 Y539.677805 Z-0.125000 I-0.535444 J-29.390712
G03 X2714.726496 Y534.926311 Z-0.125000 I4.760200 J-17.371108
G03 X2709.984114 Y527.197378 Z-0.125000 I14.440342 J-14.179824
G03 X2706.750056 Y507.991906 Z-0.125000 I58.817080 J-19.779388
G03 X2708.474411 Y499.158411 Z-0.125000 I22.424730 J-0.207600
G03 X2716.236512 Y485.706165 Z-0.125000 I55.926505 J23.304706
G03 X2726.654599 Y475.729778 Z-0.125000 I37.094183 J28.308646
G03 X2737.934822 Y472.568958 Z-0.125000 I10.174732 J14.602585
G03 X2751.402987 Y475.658546 Z-0.125000 I-2.639464 J42.406062
G03 X2764.915901 Y484.583453 Z-0.125000 I-15.852724 J38.694286
G03 X2773.849444 Y497.481707 Z-0.125000 I-29.716373 J30.124936
G03 X2779.465036 Y520.427958 Z-0.125000 I-60.504080 J26.967317
G03 X2776.982551 Y541.485242 Z-0.125000 I-59.736898 J3.632475
G03 X2766.642674 Y562.255000 Z-0.125000 I-66.972083 J-20.382286
G03 X2750.589711 Y576.866561 Z-0.125000 I-43.344990 J-31.496828
G03 X2729.569219 Y581.847447 Z-0.125000 I-18.510498 J-31.272477
G03 X2706.052703 Y576.857100 Z-0.125000 I5.950417 J-85.945553
G03 X2686.497486 Y564.423094 Z-0.125000 I18.384461 J-50.508069
G03 X2674.485656 Y545.661332 Z-0.125000 I36.404017 J-36.532962
G03 X2668.190372 Y509.427971 Z-0.125000 I96.547002 J-35.437902
G03 X2671.934038 Y481.974049 Z-0.125000 I108.708277 J0.841448
G03 X2679.111023 Y463.918843 Z-0.125000 I81.715789 J22.028171
G03 X2690.046591 Y447.240628 Z-0.125000 I101.114472 J54.374491
G02 X2702.707893 Y431.169163 Z-0.125000 I-135971.385200 J-107132.982466
G02 X2714.632819 Y414.661635 Z-0.125000 I-192.289132 J-151.469370
G02 X2726.586608 Y392.016718 Z-0.125000 I-108.849894 J-71.937174
G02 X2733.942970 Y367.646777 Z-0.125000 I-125.221630 J-51.094940
G02 X2738.352793 Y327.299299 Z-0.125000 I-221.217956 J-44.592993
G02 X2730.795291 Y282.839423 Z-0.125000 I-121.141375 J-2.280078
G02 X2716.857044 Y250.873695 Z-0.125000 I-294.073135 J109.205162
G03 X2702.777146 Y219.057666 Z-0.125000 I309.838974 J-156.139937
G03 X2696.058632 Y178.703676 Z-0.125000 I95.417114 J-36.622221
G03 X2704.538544 Y135.447564 Z-0.125000 I140.808372 J5.144767
G03 X2721.105868 Y106.911431 Z-0.125000 I88.810159 J32.483487
G03 X2746.691829 Y86.926077 Z-0.125000 I60.540255 J51.135082
G03 X2776.691355 Y79.862663 Z-0.125000 I30.390155 J61.833923
G03 X2828.899687 Y100.843145 Z-0.125000 I0.422201 J74.397854
G03 X2857.173203 Y166.935738 Z-0.125000 I-64.755607 J66.795382
G03 X2847.273020 Y211.288834 Z-0.125000 I-100.884008 J0.762861
G03 X2800.753876 Y242.818955 Z-0.125000 I-50.268502 J-24.083576
G03 X2783.239096 Y239.430464 Z-0.125000 I-2.347823 J-34.824669
G03 X2765.689215 Y226.693650 Z-0.125000 I26.568176 J-55.067203
G03 X2753.452727 Y208.727471 Z-0.125000 I47.235465 J-45.321479
G03 X2748.794761 Y187.255320 Z-0.125000 I46.253048 J-21.275004
G03 X2754.208609 Y161.179770 Z-0.125000 I66.747784 J0.258491
G03 X2764.291989 Y148.402647 Z-0.125000 I28.812607 J12.370841
G03 X2779.078111 Y143.430243 Z-0.125000 I15.004054 J20.146129
G03 X2798.062972 Y148.714966 Z-0.125000 I0.309152 J35.632411
G02 X2789.535826 Y149.008741 Z-0.125000 I-3.749491 J15.068673
G02 X2777.533672 Y155.433832 Z-0.125000 I11.778509 J36.425044
G02 X2769.053892 Y165.160529 Z-0.125000 I21.963589 J27.707664
G02 X2765.504038 Y178.791529 Z-0.125000 I22.039618 J13.017404
G02 X2781.831342 Y209.219506 Z-0.125000 I38.225261 J-0.916727
G02 X2796.124444 Y214.306450 Z-0.125000 I16.413363 J-23.494064
G02 X2809.556728 Y211.899449 Z-0.125000 I2.029512 J-27.357267
G02 X2821.035180 Y202.715121 Z-0.125000 I-12.538594 J-27.435544
G02 X2828.142989 Y188.983350 Z-0.125000 I-35.926933 J-27.301868
G02 X2833.022883 Y163.324699 Z-0.125000 I-106.224800 J-33.495746
G02 X2825.196718 Y132.064069 Z-0.125000 I-51.764495 J-3.650612
G02 X2780.444460 Y104.771673 Z-0.125000 I-49.772054 J31.275819
G02 X2759.167223 Y109.937513 Z-0.125000 I-2.939380 J34.294804
G02 X2739.195801 Y128.529491 Z-0.125000 I38.934397 J61.845756
G02 X2725.389950 Y154.040809 Z-0.125000 I85.393418 J62.703279
G02 X2718.749298 Y183.353209 Z-0.125000 I103.848306 J38.934986
G02 X2722.318369 Y215.985481 Z-0.125000 I84.041752 J7.319465
G02 X2738.424149 Y246.436921 Z-0.125000 I90.902728 J-28.593595
G02 X2763.249425 Y266.328068 Z-0.125000 I55.460860 J-43.781044
G02 X2795.623330 Y270.294529 Z-0.125000 I22.043046 J-45.813686
G02 X2781.004864 Y289.717508 Z-0.125000 I33.042683 J40.081863
G02 X2773.495302 Y327.663058 Z-0.125000 I83.701483 J36.280688
G02 X2789.047375 Y378.010625 Z-0.125000 I94.879481 J-1.731969
G02 X2834.690816 Y402.588681 Z-0.125000 I45.537485 J-29.895987
G02 X2877.483494 Y380.522248 Z-0.125000 I-0.102391 J-52.724966
G02 X2889.132048 Y339.786856 Z-0.125000 I-51.386158 J-36.727397
G02 X2877.482279 Y304.532883 Z-0.125000 I-73.264946 J4.658760
G02 X2848.052063 Y287.782415 Z-0.125000 I-30.859387 J19.989921
G02 X2836.693100 Y290.623706 Z-0.125000 I-0.812164 J20.879293
G02 X2826.233167 Y299.485891 Z-0.125000 I20.007709 J34.218826
G02 X2818.543646 Y311.704290 Z-0.125000 I42.032991 J34.981881
G02 X2814.251775 Y325.422682 Z-0.125000 I51.950984 J23.783700
G02 X2814.690534 Y340.126049 Z-0.125000 I35.241270 J6.306605
G02 X2820.555568 Y352.662868 Z-0.125000 I33.723749 J-8.136490
