%
(Header)
(Generated by gcodetools from Inkscape.)
(Using default header. To add your own header create file "header" in the output dir.)
M3
(Header end.)
G21 (All units in mm)

(Start cutting path id: path52634)
(Change tool to Default tool)

G00 Z5.000000
G00 X2935.013603 Y259.252448

G01 Z-0.125000 F100.0(Penetrate)
G02 X2946.683172 Y254.995616 Z-0.125000 I0.000000 J-18.123744 F400.000000
G02 X2950.940004 Y245.849734 Z-0.125000 I-7.696631 J-9.145882
G01 X2956.787974 Y209.423949 Z-0.125000
G02 X2954.229733 Y166.297509 Z-0.125000 I-1839.833738 J87.498997
G02 X2952.184250 Y144.671565 Z-0.125000 I-464.493595 J33.024268
G02 X2948.391417 Y124.484978 Z-0.125000 I-149.894913 J17.713963
G02 X2946.585081 Y123.087437 Z-0.125000 I-1.806336 J0.468584
G03 X2943.243053 Y119.219378 Z-0.125000 I7.896066 J-10.200048
G03 X2942.230157 Y115.358264 Z-0.125000 I6.852753 J-3.861114
G01 X2933.520556 Y117.249445 Z-0.125000
G02 X2930.628027 Y115.662090 Z-0.125000 I-10.028754 J14.845604
G02 X2929.165633 Y115.358264 Z-0.125000 I-1.462394 J3.367531
G03 X2928.206843 Y118.264061 Z-0.125000 I-4.882684 J-0.000000
G03 X2926.303756 Y119.222850 Z-0.125000 I-1.903087 J-1.409310
G01 X2926.303756 Y117.249445 Z-0.125000
G01 X2927.734694 Y113.467083 Z-0.125000
G01 X2921.949078 Y113.467083 Z-0.125000
G03 X2920.473844 Y116.988972 Z-0.125000 I-4.941596 J0.000000
G03 X2916.101108 Y119.222850 Z-0.125000 I-5.732333 J-5.824160
G01 X2917.594155 Y115.358264 Z-0.125000
G01 X2917.594155 Y113.467083 Z-0.125000
G02 X2910.533597 Y117.568993 Z-0.125000 I0.000000 J8.127571
G02 X2904.467277 Y136.490154 Z-0.125000 I41.807174 J23.836858
G03 X2895.854053 Y165.527814 Z-0.125000 I-168.708371 J-34.246431
G03 X2888.540875 Y176.780526 Z-0.125000 I-31.431163 J-12.424440
G01 X2888.540875 Y155.648636 Z-0.125000
G02 X2886.124933 Y124.578305 Z-0.125000 I-200.998674 J-0.000000
G02 X2879.831274 Y99.982142 Z-0.125000 I-131.798224 J20.621201
G02 X2868.618166 Y105.809705 Z-0.125000 I5.009729 J23.341105
G02 X2865.273458 Y113.467083 Z-0.125000 I7.093047 J7.657377
G01 X2863.842765 Y113.467083 Z-0.125000
G01 X2863.842765 Y105.737910 Z-0.125000
G01 X2862.411826 Y105.737910 Z-0.125000
G02 X2860.596022 Y106.992371 Z-0.125000 I0.000000 J1.941398
G02 X2858.056903 Y117.249445 Z-0.125000 I41.624017 J15.746761
G01 X2856.563856 Y117.249445 Z-0.125000
G01 X2856.563856 Y111.493677 Z-0.125000
G01 X2853.701979 Y111.493677 Z-0.125000
G03 X2852.730745 Y114.387030 Z-0.125000 I-4.795334 J-0.000000
G03 X2850.777995 Y115.358264 Z-0.125000 I-1.952751 J-1.477471
G01 X2852.208933 Y124.978618 Z-0.125000
G01 X2852.208933 Y142.245922 Z-0.125000
G02 X2853.125332 Y184.374056 Z-0.125000 I968.802692 J-0.000000
G02 X2855.132918 Y209.423949 Z-0.125000 I344.244278 J-14.983546
G02 X2854.121984 Y216.537389 Z-0.125000 I60.234430 J12.188833
G02 X2853.701979 Y226.691252 Z-0.125000 I122.527871 J10.153863
G02 X2858.366179 Y237.882143 Z-0.125000 I15.757346 J-0.000000
G02 X2871.121427 Y243.958553 Z-0.125000 I15.064915 J-15.197657
G02 X2879.757439 Y239.507915 Z-0.125000 I-2.702811 J-15.848503
G02 X2882.692905 Y232.447017 Z-0.125000 I-7.024322 J-7.060898
G02 X2885.642535 Y234.046236 Z-0.125000 I10.629156 J-16.084832
G02 X2887.047829 Y234.338198 Z-0.125000 I1.405294 J-3.236044
G01 X2921.949078 Y197.912413 Z-0.125000
G03 X2923.240415 Y214.856690 Z-0.125000 I-1032.435040 J87.204063
G03 X2923.379771 Y218.962079 Z-0.125000 I-60.402244 J4.105389
G01 X2924.810710 Y218.962079 Z-0.125000
G01 X2927.734694 Y217.070898 Z-0.125000
G01 X2929.165633 Y220.935484 Z-0.125000
G01 X2929.165633 Y222.826666 Z-0.125000
G02 X2925.042775 Y241.682733 Z-0.125000 I782.037675 J180.870415
G02 X2924.810710 Y243.958553 Z-0.125000 I11.043215 J2.275819
G02 X2927.034570 Y253.246228 Z-0.125000 I20.506344 J-0.000000
G02 X2930.658679 Y255.470088 Z-0.125000 I3.624110 J-1.841082
G01 X2935.013603 Y259.252448 Z-0.125000
G01 X2935.013603 Y259.252448 Z-0.125000
G00 Z5.000000

(End cutting path id: path52634)


(Start cutting path id: path52632)
(Change tool to Default tool)

G00 Z5.000000
G00 X2766.604740 Y268.872802

G01 Z-0.125000 F100.0(Penetrate)
G02 X2771.604517 Y267.073317 Z-0.125000 I0.000000 J-7.845555 F400.000000
G02 X2778.238326 Y259.252448 Z-0.125000 I-18.623218 J-22.520461
G02 X2788.791435 Y256.753874 Z-0.125000 I-0.000000 J-23.535624
G02 X2798.317493 Y249.179856 Z-0.125000 I-13.289893 J-26.492683
G02 X2805.051463 Y238.290933 Z-0.125000 I-35.711795 J-29.611714
G02 X2811.646529 Y218.962079 Z-0.125000 I-108.007847 J-47.642171
G02 X2818.678565 Y202.421049 Z-0.125000 I-78.942829 J-43.325984
G02 X2842.130501 Y121.114032 Z-0.125000 I-1905.714109 J-593.713804
G02 X2839.774760 Y107.249508 Z-0.125000 I-65.298871 J3.962631
G02 X2837.775578 Y105.737910 Z-0.125000 I-1.999182 J0.566221
G02 X2834.867184 Y107.184439 Z-0.125000 I0.000000 J3.647076
G02 X2833.420655 Y111.493677 Z-0.125000 I5.695388 J4.309239
G01 X2830.496670 Y111.493677 Z-0.125000
G02 X2828.887170 Y104.707180 Z-0.125000 I-15.112471 J-0.000000
G02 X2824.711053 Y99.982142 Z-0.125000 I-11.037840 J5.547540
G01 X2823.280115 Y99.982142 Z-0.125000
G03 X2821.642761 Y106.820346 Z-0.125000 I-15.098134 J-0.000000
G03 X2817.432145 Y111.493677 Z-0.125000 I-10.772909 J-5.472741
G01 X2818.925192 Y107.711318 Z-0.125000
G01 X2818.925192 Y103.846731 Z-0.125000
G01 X2817.432145 Y103.846731 Z-0.125000
G02 X2815.512201 Y105.156896 Z-0.125000 I0.000000 J2.061847
G02 X2797.151066 Y155.648636 Z-0.125000 I1025.781682 J401.606078
G03 X2779.380494 Y158.567679 Z-0.125000 I-36.644838 J-167.535285
G03 X2762.249816 Y159.513222 Z-0.125000 I-17.130678 J-154.707900
G03 X2761.774521 Y160.929109 Z-0.125000 I-2.346583 J-0.000000
G03 X2760.818878 Y161.404404 Z-0.125000 I-0.955643 J-0.723075
G02 X2758.249800 Y140.671154 Z-0.125000 I-84.946384 J-0.000000
G02 X2750.678338 Y121.114032 Z-0.125000 I-83.007733 J20.891920
G01 X2743.399430 Y121.114032 Z-0.125000
G02 X2736.388127 Y123.767958 Z-0.125000 I0.000000 J10.588406
G02 X2721.625304 Y140.354740 Z-0.125000 I61.510753 J69.609852
G02 X2732.232326 Y196.252800 Z-0.125000 I1024.663559 J-165.481187
G02 X2743.399430 Y240.093966 Z-0.125000 I641.166804 J-139.973481
G02 X2756.074726 Y265.535695 Z-0.125000 I113.940390 J-40.887783
G02 X2762.249816 Y268.872802 Z-0.125000 I6.175090 J-4.044737
G01 X2766.604740 Y268.872802 Z-0.125000
G01 X2766.604740 Y268.872802 Z-0.125000
G00 Z5.000000

(Change tool to Default tool)

G00 Z5.000000
G00 X2775.314341 Y226.691252

G01 Z-0.125000 F100.0(Penetrate)
G01 X2775.314341 Y224.717844 Z-0.125000 F400.000000
G02 X2776.320229 Y224.230440 Z-0.125000 I-0.000000 J-1.281662
G02 X2776.807633 Y222.826666 Z-0.125000 I-1.777809 J-1.403775
G03 X2773.329481 Y219.944491 Z-0.125000 I0.599420 J-4.263138
G03 X2770.959663 Y205.559362 Z-0.125000 I42.474978 J-14.385129
G01 X2781.162311 Y205.559362 Z-0.125000
G01 X2784.024188 Y203.668181 Z-0.125000
G01 X2784.024188 Y205.559362 Z-0.125000
G01 X2779.669264 Y226.691252 Z-0.125000
G01 X2776.807633 Y224.717844 Z-0.125000
G03 X2776.311645 Y226.195264 Z-0.125000 I-2.448422 J0.000000
G03 X2775.314341 Y226.691252 Z-0.125000 I-0.997304 J-0.754667
G01 X2775.314341 Y226.691252 Z-0.125000
G00 Z5.000000

(End cutting path id: path52632)


(Start cutting path id: path52630)
(Change tool to Default tool)

G00 Z5.000000
G00 X2695.309440 Y268.872802

G01 Z-0.125000 F100.0(Penetrate)
G01 X2698.233425 Y268.872802 Z-0.125000 F400.000000
G03 X2699.348716 Y266.130837 Z-0.125000 I3.928235 J0.000000
G03 X2711.297950 Y255.470088 Z-0.125000 I82.323555 J80.246293
G01 X2712.728888 Y241.985148 Z-0.125000
G02 X2712.166791 Y240.310611 Z-0.125000 I-2.775343 J0.000000
G02 X2704.019287 Y230.473612 Z-0.125000 I-115.732162 J87.562685
G02 X2694.785593 Y235.109713 Z-0.125000 I5.361353 J22.191572
G02 X2692.447563 Y240.093966 Z-0.125000 I4.143746 J4.984254
G01 X2690.954517 Y240.093966 Z-0.125000
G01 X2690.954517 Y236.229380 Z-0.125000
G01 X2688.092886 Y236.229380 Z-0.125000
G01 X2683.737962 Y253.496683 Z-0.125000
G02 X2691.321769 Y266.368553 Z-0.125000 I160.496233 J-85.890615
G02 X2692.447563 Y266.981624 Z-0.125000 I1.125795 J-0.727124
G01 X2693.878502 Y266.981624 Z-0.125000
G01 X2693.878502 Y263.117038 Z-0.125000
G01 X2695.309440 Y263.117038 Z-0.125000
G01 X2695.309440 Y268.872802 Z-0.125000
G01 X2695.309440 Y268.872802 Z-0.125000
G00 Z5.000000

(Change tool to Default tool)

G00 Z5.000000
G00 X2683.737962 Y224.717844

G01 Z-0.125000 F100.0(Penetrate)
G01 X2692.447563 Y224.717844 Z-0.125000 F400.000000
G02 X2698.898000 Y222.450829 Z-0.125000 I-0.000000 J-10.310364
G02 X2704.392364 Y215.138603 Z-0.125000 I-11.543341 J-14.393929
G02 X2707.071000 Y205.299357 Z-0.125000 I-36.847342 J-15.315555
G02 X2708.373965 Y186.400880 Z-0.125000 I-136.402233 J-18.898477
G02 X2709.337494 Y178.048909 Z-0.125000 I-65.690500 J-11.809983
G02 X2709.867011 Y157.622041 Z-0.125000 I-393.732935 J-20.426868
G01 X2709.867011 Y153.757454 Z-0.125000
G03 X2710.263588 Y149.482049 Z-0.125000 I23.244376 J-0.000000
G03 X2711.297950 Y146.110508 Z-0.125000 I15.413150 J2.884193
G02 X2708.539770 Y135.647555 Z-0.125000 I-42.141757 J5.514127
G02 X2701.157410 Y121.114032 Z-0.125000 I-89.383481 J36.260980
G01 X2702.588349 Y117.249445 Z-0.125000
G01 X2702.588349 Y109.602496 Z-0.125000
G02 X2701.617114 Y106.709144 Z-0.125000 I-4.795334 J0.000000
G02 X2699.664364 Y105.737910 Z-0.125000 I-1.952751 J1.477471
G01 X2695.309440 Y105.737910 Z-0.125000
G03 X2694.177066 Y108.256736 Z-0.125000 I-3.367596 J-0.000000
G03 X2686.599594 Y113.467083 Z-0.125000 I-24.784245 J-27.928858
G01 X2686.599594 Y115.358264 Z-0.125000
G01 X2685.168901 Y115.358264 Z-0.125000
G01 X2682.244916 Y113.467083 Z-0.125000
G03 X2681.294325 Y116.298855 Z-0.125000 I-4.693166 J0.000000
G03 X2679.383039 Y117.249445 Z-0.125000 I-1.911287 J-1.446151
G02 X2678.895682 Y115.845621 Z-0.125000 I-2.265524 J0.000000
G02 X2677.889992 Y115.358264 Z-0.125000 I-1.005689 J0.793970
G03 X2674.843944 Y134.399656 Z-0.125000 I-88.827683 J-4.445418
G03 X2672.104131 Y136.490154 Z-0.125000 I-2.739813 J-0.750154
G01 X2673.535069 Y149.892868 Z-0.125000
G01 X2676.459054 Y148.001690 Z-0.125000
G01 X2679.383039 Y148.001690 Z-0.125000
G01 X2680.813977 Y167.160172 Z-0.125000
G01 X2680.813977 Y188.292058 Z-0.125000
G02 X2681.657567 Y209.344031 Z-0.125000 I263.100290 J-0.000000
G02 X2683.737962 Y224.717844 Z-0.125000 I142.196244 J-11.414433
G01 X2683.737962 Y224.717844 Z-0.125000
G00 Z5.000000

(End cutting path id: path52630)


(Start cutting path id: path52628)
(Change tool to Default tool)

G00 Z5.000000
G00 X2626.938126 Y257.361270

G01 Z-0.125000 F100.0(Penetrate)
G03 X2628.174112 Y254.336238 Z-0.125000 I6.307532 J0.812152 F400.000000
G03 X2629.862111 Y253.496683 Z-0.125000 I1.687999 J1.277157
G01 X2642.926635 Y255.470088 Z-0.125000
G01 X2650.205543 Y253.496683 Z-0.125000
G02 X2650.688862 Y254.986769 Z-0.125000 I2.538647 J-0.000000
G02 X2651.636236 Y255.470088 Z-0.125000 I0.947374 J-0.686834
G02 X2659.862794 Y242.536656 Z-0.125000 I-24.250258 J-24.507887
G02 X2663.270068 Y222.826666 Z-0.125000 I-55.304353 J-19.709990
G02 X2648.263901 Y216.997393 Z-0.125000 I-33.152063 J63.112966
G02 X2634.216788 Y215.179716 Z-0.125000 I-14.047113 J53.369609
G01 X2624.076249 Y215.179716 Z-0.125000
G02 X2625.421017 Y205.059945 Z-0.125000 I-598.761808 J-84.715863
G02 X2625.507187 Y203.668181 Z-0.125000 I-11.196391 J-1.391765
G02 X2625.211550 Y194.145695 Z-0.125000 I-153.507566 J-0.000000
G02 X2624.076249 Y180.645112 Z-0.125000 I-309.840987 J19.257354
G02 X2625.418779 Y163.785191 Z-0.125000 I-1612.039750 J-136.847745
G02 X2625.507187 Y161.404404 Z-0.125000 I-32.012577 J-2.380787
G02 X2622.437818 Y105.051549 Z-0.125000 I-967.506793 J24.437150
G02 X2619.721325 Y92.335196 Z-0.125000 I-51.198913 J4.288884
G02 X2612.684712 Y95.501230 Z-0.125000 I0.000000 J9.402568
G02 X2609.518678 Y103.846731 Z-0.125000 I9.416138 J8.345502
G01 X2606.594693 Y101.955550 Z-0.125000
G01 X2605.163754 Y101.955550 Z-0.125000
G01 X2605.163754 Y109.602496 Z-0.125000
G01 X2602.239769 Y107.711318 Z-0.125000
G01 X2600.808831 Y107.711318 Z-0.125000
G03 X2598.513743 Y118.818944 Z-0.125000 I-28.026544 J-0.000000
G03 X2595.023215 Y121.114032 Z-0.125000 I-3.490528 J-1.506774
G01 X2593.529923 Y151.866276 Z-0.125000
G01 X2595.023215 Y169.133577 Z-0.125000
G01 X2593.529923 Y186.400880 Z-0.125000
G03 X2594.730653 Y202.694867 Z-0.125000 I-454.296939 J41.669105
G03 X2595.023215 Y213.206311 Z-0.125000 I-188.686343 J10.511444
G03 X2591.889067 Y212.712133 Z-0.125000 I0.000000 J-10.185686
G03 X2589.175245 Y211.315130 Z-0.125000 I2.900452 J-8.968869
G02 X2588.219602 Y211.790425 Z-0.125000 I-0.000000 J1.198371
G02 X2587.744306 Y213.206311 Z-0.125000 I1.871288 J1.415886
G01 X2580.465398 Y211.315130 Z-0.125000
G01 X2570.324859 Y211.315130 Z-0.125000
G02 X2554.221623 Y215.555327 Z-0.125000 I0.000000 J32.698180
G02 X2549.981426 Y222.826666 Z-0.125000 I4.114560 J7.271339
G03 X2548.961920 Y226.676980 Z-0.125000 I-7.780393 J0.000000
G03 X2545.626502 Y230.473612 Z-0.125000 I-10.884126 J-6.198492
G01 X2544.195564 Y230.473612 Z-0.125000
G01 X2544.195564 Y249.714320 Z-0.125000
G03 X2550.892524 Y251.727207 Z-0.125000 I-0.000000 J12.146981
G03 X2552.905411 Y255.470088 Z-0.125000 I-2.473425 J3.742881
G01 X2558.691027 Y255.470088 Z-0.125000
G02 X2559.688135 Y254.974149 Z-0.125000 I-0.000000 J-1.250334
G02 X2560.184073 Y253.496683 Z-0.125000 I-1.952812 J-1.477466
G03 X2561.131642 Y253.980053 Z-0.125000 I0.000000 J1.170463
G03 X2561.615012 Y255.470088 Z-0.125000 I-2.054905 J1.490035
G02 X2563.070726 Y255.155653 Z-0.125000 I0.000000 J-3.526916
G02 X2565.969935 Y253.496683 Z-0.125000 I-7.323018 J-16.160485
G02 X2602.467290 Y256.586482 Z-0.125000 I91.267051 J-860.963648
G02 X2626.938126 Y257.361270 Z-0.125000 I24.470835 J-386.054906
G01 X2626.938126 Y257.361270 Z-0.125000
G00 Z5.000000

(End cutting path id: path52628)


(Start cutting path id: path52626)
(Change tool to Default tool)

G00 Z5.000000
G00 X2493.492620 Y257.361270

G01 Z-0.125000 F100.0(Penetrate)
G02 X2505.992602 Y255.157714 Z-0.125000 I-0.000000 J-36.555732 F400.000000
G02 X2515.920107 Y249.200413 Z-0.125000 I-10.400393 J-28.582133
G02 X2523.335244 Y239.986851 Z-0.125000 I-24.630004 J-27.413051
G02 X2529.824562 Y224.717844 Z-0.125000 I-63.060669 J-35.814225
G01 X2529.824562 Y220.935484 Z-0.125000
G02 X2522.273929 Y205.157836 Z-0.125000 I-42.831657 J10.802182
G02 X2515.329099 Y201.694776 Z-0.125000 I-6.944829 J5.232059
G01 X2513.836053 Y201.694776 Z-0.125000
G01 X2513.836053 Y205.559362 Z-0.125000
G01 X2510.974176 Y203.668181 Z-0.125000
G01 X2509.481130 Y203.668181 Z-0.125000
G01 X2497.847543 Y226.691252 Z-0.125000
G01 X2493.492620 Y226.691252 Z-0.125000
G03 X2484.867214 Y225.002752 Z-0.125000 I0.000000 J-22.874932
G03 X2479.354830 Y220.935484 Z-0.125000 I5.239987 J-12.870885
G03 X2476.114426 Y214.653910 Z-0.125000 I13.128279 J-10.748919
G03 X2474.642234 Y203.668181 Z-0.125000 I40.252528 J-10.985729
G03 X2479.965917 Y194.366738 Z-0.125000 I10.787498 J-0.000000
G03 X2513.836053 Y180.645112 Z-0.125000 I63.528244 J108.148683
G02 X2531.164730 Y163.864855 Z-0.125000 I-36.079608 J-54.596419
G02 X2535.610424 Y149.892868 Z-0.125000 I-19.732830 J-13.971987
G01 X2535.610424 Y140.354740 Z-0.125000
G02 X2532.655852 Y124.097331 Z-0.125000 I-46.205150 J0.000000
G02 X2524.723239 Y111.390897 Z-0.125000 I-35.543547 J13.360423
G02 X2512.500943 Y102.118574 Z-0.125000 I-33.928225 J32.030868
G02 X2492.061682 Y94.226377 Z-0.125000 I-44.272242 J84.243563
G01 X2477.566219 Y94.226377 Z-0.125000
G01 X2478.997157 Y98.090964 Z-0.125000
G01 X2477.566219 Y98.090964 Z-0.125000
G02 X2476.594985 Y95.197611 Z-0.125000 I-4.795334 J0.000000
G02 X2474.642234 Y94.226377 Z-0.125000 I-1.952751 J1.477471
G03 X2473.267112 Y96.658654 Z-0.125000 I-2.838633 J-0.000000
G03 X2458.653724 Y103.846731 Z-0.125000 I-49.718872 J-82.630081
G02 X2450.362673 Y115.673220 Z-0.125000 I21.208417 J23.687821
G02 X2447.082148 Y132.625568 Z-0.125000 I42.160966 J16.952348
G02 X2453.907889 Y149.220489 Z-0.125000 I35.163333 J-4.761983
G02 X2463.008402 Y153.757454 Z-0.125000 I9.100513 J-6.858691
G01 X2465.932387 Y153.757454 Z-0.125000
G03 X2467.118447 Y149.662440 Z-0.125000 I7.662291 J-0.000000
G03 X2473.211295 Y142.245922 Z-0.125000 I32.825874 J20.756274
G01 X2473.211295 Y140.354740 Z-0.125000
G01 X2470.287310 Y134.598973 Z-0.125000
G01 X2470.287310 Y128.843205 Z-0.125000
G03 X2472.411518 Y124.881666 Z-0.125000 I4.756137 J-0.000000
G03 X2481.921142 Y121.114032 Z-0.125000 I13.628271 J20.513063
G03 X2499.399692 Y132.091103 Z-0.125000 I-17.054935 J46.560090
G03 X2503.695268 Y142.245922 Z-0.125000 I-9.855299 J10.154819
G01 X2503.695268 Y146.110508 Z-0.125000
G02 X2475.958257 Y158.385706 Z-0.125000 I37.954295 J123.236285
G02 X2459.042439 Y172.545925 Z-0.125000 I34.748197 J58.694187
G02 X2448.204014 Y191.316301 Z-0.125000 I43.976362 J37.907273
G02 X2444.158163 Y215.179716 Z-0.125000 I68.353196 J23.863415
G02 X2450.357702 Y233.648428 Z-0.125000 I30.609338 J-0.000000
G02 X2476.073172 Y257.361270 Z-0.125000 I78.696373 J-59.542508
G01 X2493.492620 Y257.361270 Z-0.125000
G01 X2493.492620 Y257.361270 Z-0.125000
G00 Z5.000000

(End cutting path id: path52626)


(Start cutting path id: path52624)
(Change tool to Default tool)

G00 Z5.000000
G00 X2417.842299 Y268.872802

G01 Z-0.125000 F100.0(Penetrate)
G01 X2420.766284 Y268.872802 Z-0.125000 F400.000000
G03 X2421.881578 Y266.130840 Z-0.125000 I3.928219 J-0.000000
G03 X2433.830882 Y255.470088 Z-0.125000 I82.323664 J80.246851
G01 X2435.261771 Y241.985148 Z-0.125000
G02 X2434.699668 Y240.310616 Z-0.125000 I-2.775305 J0.000000
G02 X2426.552023 Y230.473612 Z-0.125000 I-115.731938 J87.563996
G02 X2417.318554 Y235.109688 Z-0.125000 I5.361286 J22.190823
G02 X2414.980545 Y240.093966 Z-0.125000 I4.143855 J4.984278
G01 X2413.487449 Y240.093966 Z-0.125000
G01 X2413.487449 Y236.229380 Z-0.125000
G01 X2410.625671 Y236.229380 Z-0.125000
G01 X2406.270821 Y253.496683 Z-0.125000
G02 X2413.854710 Y266.368535 Z-0.125000 I160.491902 J-85.889174
G02 X2414.980545 Y266.981624 Z-0.125000 I1.125835 J-0.727160
G01 X2416.411434 Y266.981624 Z-0.125000
G01 X2416.411434 Y263.117038 Z-0.125000
G01 X2417.842299 Y263.117038 Z-0.125000
G01 X2417.842299 Y268.872802 Z-0.125000
G01 X2417.842299 Y268.872802 Z-0.125000
G00 Z5.000000

(Change tool to Default tool)

G00 Z5.000000
G00 X2406.270821 Y224.717844

G01 Z-0.125000 F100.0(Penetrate)
G01 X2414.980545 Y224.717844 Z-0.125000 F400.000000
G02 X2421.430957 Y222.450832 Z-0.125000 I0.000000 J-10.310306
G02 X2426.925309 Y215.138603 Z-0.125000 I-11.543366 J-14.393915
G02 X2429.603936 Y205.299358 Z-0.125000 I-36.847442 J-15.315549
G02 X2430.906897 Y186.400880 Z-0.125000 I-136.402664 J-18.898478
G02 X2431.870458 Y178.048906 Z-0.125000 I-65.688390 J-11.809992
G02 X2432.399993 Y157.622041 Z-0.125000 I-393.719928 J-20.426865
G01 X2432.399993 Y153.757454 Z-0.125000
G03 X2432.796557 Y149.482044 Z-0.125000 I23.245175 J0.000000
G03 X2433.830882 Y146.110508 Z-0.125000 I15.413531 J2.884165
G02 X2431.072717 Y135.647568 Z-0.125000 I-42.140575 J5.513783
G02 X2423.690269 Y121.114032 Z-0.125000 I-89.381684 J36.260514
G01 X2425.121158 Y117.249445 Z-0.125000
G01 X2425.121158 Y109.602496 Z-0.125000
G02 X2424.149924 Y106.709144 Z-0.125000 I-4.795334 J-0.000000
G02 X2422.197173 Y105.737910 Z-0.125000 I-1.952751 J1.477471
G01 X2417.842299 Y105.737910 Z-0.125000
G03 X2416.709932 Y108.256744 Z-0.125000 I-3.367628 J-0.000000
G03 X2409.132575 Y113.467083 Z-0.125000 I-24.784047 J-27.928241
G01 X2409.132575 Y115.358264 Z-0.125000
G01 X2407.701686 Y115.358264 Z-0.125000
G01 X2404.777725 Y113.467083 Z-0.125000
G03 X2403.827154 Y116.298874 Z-0.125000 I-4.693301 J-0.000000
G03 X2401.915947 Y117.249445 Z-0.125000 I-1.911208 J-1.446042
G02 X2401.428580 Y115.845631 Z-0.125000 I-2.265464 J0.000000
G02 X2400.422851 Y115.358264 Z-0.125000 I-1.005729 J0.794027
G03 X2397.376822 Y134.399723 Z-0.125000 I-88.831108 J-4.445796
G03 X2394.637112 Y136.490154 Z-0.125000 I-2.739710 J-0.750110
G01 X2396.067977 Y149.892868 Z-0.125000
G01 X2398.991962 Y148.001690 Z-0.125000
G01 X2401.915947 Y148.001690 Z-0.125000
G01 X2403.346836 Y167.160172 Z-0.125000
G01 X2403.346836 Y188.292058 Z-0.125000
G02 X2404.190425 Y209.344031 Z-0.125000 I263.100290 J-0.000000
G02 X2406.270821 Y224.717844 Z-0.125000 I142.196244 J-11.414433
G01 X2406.270821 Y224.717844 Z-0.125000
G00 Z5.000000

(End cutting path id: path52624)


(Start cutting path id: path52622)
(Change tool to Default tool)

G00 Z5.000000
G00 X2324.834883 Y259.252448

G01 Z-0.125000 F100.0(Penetrate)
G01 X2332.113718 Y259.252448 Z-0.125000 F400.000000
G02 X2349.780854 Y256.510290 Z-0.125000 I0.000000 J-58.283863
G02 X2363.779798 Y249.179856 Z-0.125000 I-13.801421 J-43.388722
G02 X2374.741909 Y237.555547 Z-0.125000 I-31.018793 J-40.232730
G02 X2384.372086 Y218.962079 Z-0.125000 I-72.100987 J-49.134135
G02 X2385.581067 Y208.422230 Z-0.125000 I-251.283757 J-34.162941
G02 X2385.802976 Y203.668181 Z-0.125000 I-50.813122 J-4.754050
G02 X2380.437245 Y186.244891 Z-0.125000 I-30.970813 J-0.000000
G02 X2359.673779 Y165.268990 Z-0.125000 I-67.110063 J45.665859
G02 X2379.251899 Y132.003718 Z-0.125000 I-163.431852 J-118.580991
G02 X2382.941197 Y115.358264 Z-0.125000 I-35.706011 J-16.645454
G01 X2382.941197 Y105.737910 Z-0.125000
G03 X2378.047653 Y99.582367 Z-0.125000 I22.724705 J-23.088636
G03 X2377.093252 Y96.199782 Z-0.125000 I5.517071 J-3.382585
G01 X2375.662362 Y96.199782 Z-0.125000
G01 X2366.952638 Y105.737910 Z-0.125000
G01 X2366.952638 Y103.846731 Z-0.125000
G02 X2369.011391 Y102.559657 Z-0.125000 I-0.657979 J-3.342562
G02 X2369.876599 Y99.982142 Z-0.125000 I-3.406694 J-2.577515
G01 X2369.876599 Y96.199782 Z-0.125000
G02 X2344.475062 Y128.385864 Z-0.125000 I822.565859 J675.292764
G02 X2343.685221 Y130.734386 Z-0.125000 I3.096641 J2.348522
G01 X2345.178316 Y134.598973 Z-0.125000
G01 X2333.544607 Y149.892868 Z-0.125000
G01 X2320.480009 Y146.110508 Z-0.125000
G03 X2320.784237 Y130.580304 Z-0.125000 I396.545119 J0.000000
G03 X2321.910899 Y109.602496 Z-0.125000 I724.785483 J28.407130
G03 X2319.492522 Y101.712434 Z-0.125000 I72.107576 J-26.417290
G03 X2319.049120 Y98.090964 Z-0.125000 I14.567399 J-3.621470
G01 X2311.770285 Y98.090964 Z-0.125000
G02 X2309.817534 Y99.062198 Z-0.125000 I0.000000 J2.448705
G02 X2308.846300 Y101.955550 Z-0.125000 I3.824100 J2.893352
G01 X2305.984522 Y99.982142 Z-0.125000
G02 X2304.987375 Y100.478091 Z-0.125000 I0.000000 J1.250398
G02 X2304.491426 Y101.955550 Z-0.125000 I1.952742 J1.477459
G02 X2301.592198 Y100.296562 Z-0.125000 I-10.222815 J14.502454
G02 X2300.136576 Y99.982142 Z-0.125000 I-1.455622 J3.212216
G03 X2297.237325 Y101.641131 Z-0.125000 I-10.222928 J-14.502741
G03 X2295.781702 Y101.955550 Z-0.125000 I-1.455623 J-3.212237
G02 X2294.822937 Y99.049728 Z-0.125000 I-4.882861 J0.000000
G02 X2292.919948 Y98.090964 Z-0.125000 I-1.902989 J1.409177
G01 X2285.641089 Y103.846731 Z-0.125000
G03 X2286.833184 Y123.014118 Z-0.125000 I-770.089139 J57.515641
G03 X2287.071978 Y132.625568 Z-0.125000 I-193.310771 J9.611449
G01 X2287.071978 Y134.598973 Z-0.125000
G03 X2286.791595 Y145.111508 Z-0.125000 I-197.215980 J0.000000
G03 X2285.641089 Y161.404404 Z-0.125000 I-475.069484 J-25.359483
G03 X2286.679319 Y164.855520 Z-0.125000 I-15.224135 J6.461742
G03 X2287.071978 Y169.133577 Z-0.125000 I-23.108591 J4.278056
G03 X2286.596693 Y170.549473 Z-0.125000 I-2.346650 J-0.000000
G03 X2285.641089 Y171.024758 Z-0.125000 I-0.955604 J-0.723021
G01 X2287.071978 Y180.645112 Z-0.125000
G01 X2287.071978 Y201.694776 Z-0.125000
G02 X2287.369122 Y208.580395 Z-0.125000 I79.927734 J0.000000
G02 X2288.565074 Y218.962079 Z-0.125000 I183.082566 J-15.831062
G01 X2287.071978 Y222.826666 Z-0.125000
G01 X2288.565074 Y234.338198 Z-0.125000
G01 X2288.565074 Y238.202785 Z-0.125000
G02 X2316.730252 Y256.989918 Z-0.125000 I164.421760 J-215.990984
G02 X2324.834883 Y259.252448 Z-0.125000 I8.416718 J-14.502500
G01 X2324.834883 Y259.252448 Z-0.125000
G00 Z5.000000

(Change tool to Default tool)

G00 Z5.000000
G00 X2317.556024 Y218.962079

G01 Z-0.125000 F100.0(Penetrate)
G01 X2319.049120 Y195.939008 Z-0.125000 F400.000000
G01 X2319.049120 Y182.536294 Z-0.125000
G01 X2320.480009 Y182.536294 Z-0.125000
G03 X2332.379142 Y185.964994 Z-0.125000 I-0.000000 J22.362023
G03 X2350.964055 Y201.694776 Z-0.125000 I-46.001419 J73.195225
G01 X2350.964055 Y205.559362 Z-0.125000
G03 X2347.637029 Y210.478887 Z-0.125000 I-5.300654 J0.000000
G03 X2317.556024 Y218.962079 Z-0.125000 I-54.659925 J-136.247036
G01 X2317.556024 Y218.962079 Z-0.125000
G00 Z5.000000

(End cutting path id: path52622)


(Start cutting path id: path52620)
(Change tool to Default tool)

G00 Z5.000000
G00 X2192.633624 Y265.008216

G01 Z-0.125000 F100.0(Penetrate)
G02 X2197.312880 Y261.428699 Z-0.125000 I0.000000 J-4.848193 F400.000000
G02 X2207.191318 Y211.315130 Z-0.125000 I-351.729529 J-95.363689
G01 X2220.255916 Y211.315130 Z-0.125000
G02 X2230.720909 Y208.510104 Z-0.125000 I0.000000 J-20.923917
G02 X2243.461128 Y197.912413 Z-0.125000 I-24.483188 J-42.389730
G01 X2243.461128 Y201.694776 Z-0.125000
G03 X2242.889145 Y220.907115 Z-0.125000 I-322.947641 J0.000000
G03 X2240.599349 Y249.714320 Z-0.125000 I-728.709681 J-43.428272
G01 X2243.461128 Y249.714320 Z-0.125000
G01 X2243.461128 Y247.740915 Z-0.125000
G03 X2249.086773 Y205.070732 Z-0.125000 I657.164748 J64.934788
G03 X2250.739962 Y203.668181 Z-0.125000 I1.653190 J0.273033
G01 X2250.739962 Y209.423949 Z-0.125000
G03 X2250.410795 Y215.817553 Z-0.125000 I-62.257976 J-0.000000
G03 X2246.385088 Y251.605502 Z-0.125000 I-1959.683978 J-202.320129
G01 X2246.385088 Y257.361270 Z-0.125000
G01 X2247.815977 Y257.361270 Z-0.125000
G02 X2256.499661 Y253.903426 Z-0.125000 I0.000000 J-12.632591
G02 X2266.059749 Y240.093967 Z-0.125000 I-28.039733 J-29.625385
G02 X2271.576948 Y222.380354 Z-0.125000 I-88.997587 J-37.435795
G02 X2276.869134 Y188.292058 Z-0.125000 I-326.759533 J-68.184159
G02 X2270.271186 Y119.118132 Z-0.125000 I-1288.964561 J88.042407
G02 X2268.159410 Y117.249445 Z-0.125000 I-2.111776 J0.258901
G02 X2265.167713 Y108.587452 Z-0.125000 I-46.589176 J11.243430
G02 X2263.804560 Y107.711318 Z-0.125000 I-1.363152 J0.622378
G02 X2252.649835 Y111.052080 Z-0.125000 I-0.000000 J20.293060
G02 X2249.309073 Y117.249445 Z-0.125000 I4.077908 J6.197365
G01 X2247.815977 Y117.249445 Z-0.125000
G03 X2246.631151 Y113.503389 Z-0.125000 I29.256074 J-11.313694
G03 X2246.385088 Y111.493677 Z-0.125000 I8.084084 J-2.009711
G02 X2243.762379 Y113.978595 Z-0.125000 I0.962951 J3.642877
G02 X2242.030238 Y124.978618 Z-0.125000 I34.061947 J11.000023
G01 X2240.599349 Y124.978618 Z-0.125000
G01 X2240.599349 Y119.222850 Z-0.125000
G01 X2237.675364 Y119.222850 Z-0.125000
G03 X2234.998979 Y126.166819 Z-0.125000 I-10.346369 J0.000000
G03 X2228.965640 Y128.843205 Z-0.125000 I-6.033339 J-5.462243
G01 X2228.965640 Y132.625568 Z-0.125000
G01 X2234.751379 Y159.513222 Z-0.125000
G02 X2230.311945 Y160.859527 Z-0.125000 I0.000000 J7.992658
G02 X2228.965640 Y163.377809 Z-0.125000 I1.682087 J2.518281
G01 X2228.965640 Y165.268990 Z-0.125000
G01 X2211.546192 Y165.268990 Z-0.125000
G02 X2210.174255 Y161.993706 Z-0.125000 I-4.595582 J-0.000000
G02 X2205.698222 Y159.513222 Z-0.125000 I-6.694826 J6.802070
G02 X2202.211408 Y126.734331 Z-0.125000 I-155.817515 J0.000000
G02 X2194.126720 Y105.737910 Z-0.125000 I-70.965076 J15.270438
G01 X2182.493011 Y105.737910 Z-0.125000
G03 X2181.298322 Y112.272394 Z-0.125000 I-18.467891 J-0.000000
G03 X2179.569051 Y113.467083 Z-0.125000 I-1.729272 J-0.654187
G01 X2179.569051 Y107.711318 Z-0.125000
G01 X2178.138161 Y107.711318 Z-0.125000
G01 X2173.783287 Y111.493677 Z-0.125000
G02 X2168.853817 Y108.285294 Z-0.125000 I-18.824667 J23.531761
G02 X2166.504452 Y107.711318 Z-0.125000 I-2.349365 J4.521157
G02 X2161.698395 Y118.971085 Z-0.125000 I67.723280 J35.562211
G02 X2160.718689 Y124.978618 Z-0.125000 I17.929160 J6.007533
G03 X2170.895832 Y188.178604 Z-0.125000 I-1383.329988 J255.178112
G03 X2172.352398 Y209.423949 Z-0.125000 I-154.213082 J21.245344
G03 X2172.103838 Y220.927433 Z-0.125000 I-266.318794 J-0.000000
G03 X2170.859302 Y243.958553 Z-0.125000 I-1069.131589 J-46.223654
G02 X2174.948979 Y256.104111 Z-0.125000 I20.079831 J-0.000000
G02 X2186.847885 Y265.008216 Z-0.125000 I21.503272 J-16.333129
G01 X2192.633624 Y265.008216 Z-0.125000
G01 X2192.633624 Y265.008216 Z-0.125000
G00 Z5.000000

(Change tool to Default tool)

G00 Z5.000000
G00 X2166.504452 Y126.869800

G01 Z-0.125000 F100.0(Penetrate)
G01 X2166.504452 Y119.222850 Z-0.125000 F400.000000
G01 X2172.352398 Y119.222850 Z-0.125000
G02 X2173.984952 Y122.258538 Z-0.125000 I3.638664 J0.000000
G02 X2181.062146 Y124.978618 Z-0.125000 I9.706744 J-14.688449
G02 X2181.537427 Y126.394519 Z-0.125000 I2.346684 J-0.000000
G02 X2182.493011 Y126.869800 Z-0.125000 I0.955584 J-0.722993
G01 X2185.416996 Y124.978618 Z-0.125000
G01 X2185.416996 Y132.625568 Z-0.125000
G02 X2176.470477 Y136.230191 Z-0.125000 I9.246318 J35.853706
G02 X2175.214176 Y138.381335 Z-0.125000 I1.213536 J2.151144
G03 X2171.396466 Y135.725589 Z-0.125000 I2.162296 J-7.180269
G03 X2166.504452 Y126.869800 Z-0.125000 I28.301146 J-21.412883
G01 X2166.504452 Y126.869800 Z-0.125000
G00 Z5.000000

(End cutting path id: path52620)


(Start cutting path id: path52618)
(Change tool to Default tool)

G00 Z5.000000
G00 X2096.702224 Y266.981624

G01 Z-0.125000 F100.0(Penetrate)
G01 X2101.057098 Y266.981624 Z-0.125000 F400.000000
G02 X2121.244650 Y261.599680 Z-0.125000 I0.000000 J-40.552502
G02 X2144.605718 Y241.985148 Z-0.125000 I-43.032733 J-74.971211
G02 X2150.468428 Y230.541429 Z-0.125000 I-48.704825 J-32.175497
G02 X2151.884577 Y222.826666 Z-0.125000 I-20.305814 J-7.714764
G02 X2147.780003 Y199.236027 Z-0.125000 I-159.484014 J15.596488
G02 X2143.174853 Y188.292058 Z-0.125000 I-38.204339 J9.635240
G01 X2140.250868 Y188.292058 Z-0.125000
G03 X2127.300001 Y214.994592 Z-0.125000 I-105.448579 J-34.651223
G03 X2119.907435 Y218.962079 Z-0.125000 I-7.392565 J-4.903490
G03 X2118.063001 Y221.798317 Z-0.125000 I-3.102898 J-0.000000
G03 X2102.487963 Y226.691252 Z-0.125000 I-29.303137 J-66.041372
G01 X2098.133113 Y226.691252 Z-0.125000
G03 X2092.892084 Y219.670303 Z-0.125000 I5.521906 J-9.588665
G03 X2089.423389 Y190.183240 Z-0.125000 I123.599102 J-29.487063
G01 X2089.423389 Y188.292058 Z-0.125000
G03 X2092.964056 Y170.595354 Z-0.125000 I107.450192 J12.295538
G03 X2097.308789 Y160.972722 Z-0.125000 I35.562278 J10.264627
G03 X2104.357004 Y154.139076 Z-0.125000 I17.881761 J11.391646
G03 X2112.628576 Y151.866276 Z-0.125000 I8.271572 J13.915278
G03 X2114.819228 Y153.397715 Z-0.125000 I-0.199632 J2.618097
G03 X2121.338300 Y171.024758 Z-0.125000 I-118.175175 J53.724150
G02 X2124.052233 Y172.421779 Z-0.125000 I5.614690 J-7.572790
G02 X2127.186270 Y172.915939 Z-0.125000 I3.134037 J-9.691166
G01 X2134.465104 Y172.915939 Z-0.125000
G02 X2137.027285 Y162.351101 Z-0.125000 I-190.321521 J-51.749806
G02 X2137.326883 Y159.513222 Z-0.125000 I-13.290785 J-2.837879
G01 X2141.681757 Y163.377809 Z-0.125000
G01 X2143.174853 Y163.377809 Z-0.125000
G01 X2143.174853 Y149.892868 Z-0.125000
G01 X2144.605718 Y138.381335 Z-0.125000
G02 X2131.019569 Y118.479513 Z-0.125000 I-39.643793 J12.474912
G02 X2111.197687 Y111.493677 Z-0.125000 I-19.821882 J24.628774
G02 X2095.360459 Y115.373455 Z-0.125000 I0.000000 J34.263623
G02 X2080.791417 Y127.342594 Z-0.125000 I21.177260 J40.628739
G02 X2070.547483 Y144.403402 Z-0.125000 I57.650512 J46.221301
G02 X2060.370208 Y174.889345 Z-0.125000 I177.099098 J76.063615
G02 X2059.234946 Y188.389926 Z-0.125000 I308.716144 J32.757923
G02 X2058.939318 Y197.912413 Z-0.125000 I153.217203 J9.522487
G02 X2070.540796 Y253.003422 Z-0.125000 I360.595237 J-47.169783
G02 X2076.358791 Y257.361270 Z-0.125000 I5.817994 J-1.704766
G02 X2083.137692 Y263.936000 Z-0.125000 I13.037907 J-6.660714
G02 X2096.702224 Y266.981624 Z-0.125000 I13.564532 J-28.683885
G01 X2096.702224 Y266.981624 Z-0.125000
G00 Z5.000000

(End cutting path id: path52618)


(Start cutting path id: path52616)
(Change tool to Default tool)

G00 Z5.000000
G00 X1896.005188 Y266.981624

G01 Z-0.125000 F100.0(Penetrate)
G01 X1898.866967 Y266.981624 Z-0.125000 F400.000000
G01 X1909.069787 Y257.361270 Z-0.125000
G02 X1932.195718 Y266.446316 Z-0.125000 I222.356474 J-532.031102
G02 X1935.198958 Y266.981624 Z-0.125000 I3.003240 J-8.156891
G01 X1945.339572 Y266.981624 Z-0.125000
G02 X1964.290312 Y259.819911 Z-0.125000 I0.000000 J-28.653806
G02 X1988.888216 Y228.582430 Z-0.125000 I-72.993478 J-82.782129
G02 X1997.107847 Y211.332595 Z-0.125000 I-78.542788 J-48.009289
G02 X1999.091036 Y199.803594 Z-0.125000 I-32.519563 J-11.529001
G01 X1999.091036 Y186.400880 Z-0.125000
G02 X1995.396411 Y159.832399 Z-0.125000 I-97.375848 J-0.000000
G02 X1985.653170 Y139.018581 Z-0.125000 I-68.762991 J19.501541
G02 X1969.846250 Y122.216398 Z-0.125000 I-61.456821 J41.980079
G02 X1945.339572 Y107.711318 Z-0.125000 I-69.565685 J89.578032
G01 X1938.122943 Y109.602496 Z-0.125000
G01 X1935.198958 Y109.602496 Z-0.125000
G03 X1932.064923 Y109.108334 Z-0.125000 I-0.000000 J-10.185300
G03 X1929.351013 Y107.711318 Z-0.125000 I2.900715 J-8.969659
G02 X1913.288462 Y114.532034 Z-0.125000 I27.131626 J86.217778
G02 X1904.714912 Y121.114032 Z-0.125000 I16.570935 J30.459744
G02 X1907.614163 Y122.773018 Z-0.125000 I10.222921 J-14.502754
G02 X1909.069787 Y123.087437 Z-0.125000 I1.455623 J-3.212243
G02 X1905.826613 Y128.518450 Z-0.125000 I13.589374 J11.798854
G02 X1904.714912 Y134.598973 Z-0.125000 I16.073060 J6.080523
G02 X1901.408849 Y135.292686 Z-0.125000 I0.000000 J8.224795
G02 X1887.295464 Y142.245922 Z-0.125000 I71.715515 J163.365106
G01 X1882.940590 Y142.245922 Z-0.125000
G01 X1882.940590 Y136.490154 Z-0.125000
G01 X1880.016630 Y136.490154 Z-0.125000
G02 X1873.998844 Y142.443194 Z-0.125000 I5.864755 J11.946678
G02 X1871.306881 Y153.757454 Z-0.125000 I22.430811 J11.314260
G01 X1880.016630 Y243.958553 Z-0.125000
G03 X1879.930463 Y245.350317 Z-0.125000 I-11.282946 J-0.000000
G03 X1878.585740 Y255.470088 Z-0.125000 I-600.126383 J-74.595994
G02 X1884.217561 Y263.438609 Z-0.125000 I13.040054 J-3.241742
G02 X1896.005188 Y266.981624 Z-0.125000 I11.787627 J-17.837234
G01 X1896.005188 Y266.981624 Z-0.125000
G00 Z5.000000

(Change tool to Default tool)

G00 Z5.000000
G00 X1913.424661 Y228.582430

G01 Z-0.125000 F100.0(Penetrate)
G01 X1911.931565 Y224.717844 Z-0.125000 F400.000000
G01 X1911.931565 Y201.694776 Z-0.125000
G03 X1909.159039 Y158.523565 Z-0.125000 I10460.986094 J-693.496336
G03 X1909.069787 Y155.648636 Z-0.125000 I46.257724 J-2.874929
G01 X1909.069787 Y151.866276 Z-0.125000
G01 X1910.500676 Y148.001690 Z-0.125000
G01 X1913.424661 Y149.892868 Z-0.125000
G01 X1917.779511 Y149.892868 Z-0.125000
G01 X1919.210400 Y140.354740 Z-0.125000
G01 X1920.641289 Y140.354740 Z-0.125000
G02 X1920.731137 Y141.745974 Z-0.125000 I10.816045 J0.000000
G02 X1922.134385 Y151.866276 Z-0.125000 I576.096563 J-74.722194
G01 X1924.996139 Y151.866276 Z-0.125000
G01 X1939.553833 Y153.757454 Z-0.125000
G01 X1938.122943 Y157.622041 Z-0.125000
G03 X1945.970755 Y159.592181 Z-0.125000 I0.000000 J16.615468
G03 X1952.431788 Y165.289545 Z-0.125000 I-8.894909 J16.599387
G03 X1956.546502 Y173.478952 Z-0.125000 I-24.713898 J17.545748
G03 X1959.897266 Y188.292058 Z-0.125000 I-79.163133 J25.692436
G03 X1956.780151 Y203.026283 Z-0.125000 I-36.382010 J0.000000
G03 X1948.279114 Y214.521914 Z-0.125000 I-29.980168 J-13.279300
G03 X1935.571486 Y222.292967 Z-0.125000 I-29.629142 J-34.175495
G03 X1913.424661 Y228.582430 Z-0.125000 I-40.424312 J-100.207364
G01 X1913.424661 Y228.582430 Z-0.125000
G00 Z5.000000

(End cutting path id: path52616)


(Start cutting path id: path52614)
(Change tool to Default tool)

G00 Z5.000000
G00 X1840.822860 Y259.252448

G01 Z-0.125000 F100.0(Penetrate)
G02 X1852.492386 Y254.995622 Z-0.125000 I-0.000000 J-18.123643 F400.000000
G02 X1856.749212 Y245.849734 Z-0.125000 I-7.696660 J-9.145888
G01 X1862.597182 Y209.423949 Z-0.125000
G02 X1860.038935 Y166.297508 Z-0.125000 I-1839.856005 J87.500579
G02 X1857.993458 Y144.671565 Z-0.125000 I-464.499153 J33.024663
G02 X1854.200650 Y124.484962 Z-0.125000 I-149.896725 J17.714092
G02 X1852.394338 Y123.087437 Z-0.125000 I-1.806313 J0.468574
G03 X1849.052371 Y119.219389 Z-0.125000 I7.896093 J-10.199911
G03 X1848.039488 Y115.358264 Z-0.125000 I6.852889 J-3.861125
G01 X1839.329764 Y117.249445 Z-0.125000
G02 X1836.437192 Y115.662074 Z-0.125000 I-10.029435 J14.846873
G02 X1834.974890 Y115.358264 Z-0.125000 I-1.462302 J3.367281
G03 X1834.016125 Y118.264086 Z-0.125000 I-4.882861 J-0.000000
G03 X1832.113136 Y119.222850 Z-0.125000 I-1.902989 J-1.409177
G01 X1832.113136 Y117.249445 Z-0.125000
G01 X1833.544001 Y113.467083 Z-0.125000
G01 X1827.758262 Y113.467083 Z-0.125000
G03 X1826.283027 Y116.988972 Z-0.125000 I-4.941596 J-0.000000
G03 X1821.910292 Y119.222850 Z-0.125000 I-5.732333 J-5.824160
G01 X1823.403387 Y115.358264 Z-0.125000
G01 X1823.403387 Y113.467083 Z-0.125000
G02 X1816.342912 Y117.568957 Z-0.125000 I0.000000 J8.127465
G02 X1810.276583 Y136.490154 Z-0.125000 I41.807758 J23.837057
G03 X1801.663373 Y165.527825 Z-0.125000 I-168.709415 J-34.246643
G03 X1794.350231 Y176.780526 Z-0.125000 I-31.431222 J-12.424425
G01 X1794.350231 Y155.648636 Z-0.125000
G02 X1791.934256 Y124.578316 Z-0.125000 I-200.995836 J0.000000
G02 X1785.640507 Y99.982142 Z-0.125000 I-131.796738 J20.621259
G02 X1774.427509 Y105.809690 Z-0.125000 I5.009705 J23.340798
G02 X1771.082813 Y113.467083 Z-0.125000 I7.093121 J7.657392
G01 X1769.651923 Y113.467083 Z-0.125000
G01 X1769.651923 Y105.737910 Z-0.125000
G01 X1768.221059 Y105.737910 Z-0.125000
G02 X1766.405260 Y106.992373 Z-0.125000 I0.000000 J1.941389
G02 X1763.866184 Y117.249445 Z-0.125000 I41.623949 J15.746558
G01 X1762.373089 Y117.249445 Z-0.125000
G01 X1762.373089 Y111.493677 Z-0.125000
G01 X1759.511310 Y111.493677 Z-0.125000
G03 X1758.540081 Y114.387035 Z-0.125000 I-4.795368 J-0.000000
G03 X1756.587350 Y115.358264 Z-0.125000 I-1.952731 J-1.477444
G01 X1758.018215 Y124.978618 Z-0.125000
G01 X1758.018215 Y142.245922 Z-0.125000
G02 X1758.934613 Y184.374056 Z-0.125000 I968.802692 J-0.000000
G02 X1760.942199 Y209.423949 Z-0.125000 I344.244278 J-14.983546
G02 X1759.931300 Y216.537386 Z-0.125000 I60.236425 J12.188818
G02 X1759.511310 Y226.691252 Z-0.125000 I122.532110 J10.153866
G02 X1764.175513 Y237.882140 Z-0.125000 I15.757330 J0.000000
G02 X1776.930783 Y243.958553 Z-0.125000 I15.064939 J-15.197702
G02 X1785.566794 Y239.507915 Z-0.125000 I-2.702811 J-15.848503
G02 X1788.502261 Y232.447017 Z-0.125000 I-7.024322 J-7.060898
G02 X1791.451798 Y234.046224 Z-0.125000 I10.628426 J-16.083175
G02 X1792.857135 Y234.338198 Z-0.125000 I1.405337 J-3.236107
G01 X1827.758262 Y197.912413 Z-0.125000
G03 X1829.049776 Y214.856692 Z-0.125000 I-1032.294897 J87.204195
G03 X1829.189151 Y218.962079 Z-0.125000 I-60.393930 J4.105387
G01 X1830.620040 Y218.962079 Z-0.125000
G01 X1833.544001 Y217.070898 Z-0.125000
G01 X1834.974890 Y220.935484 Z-0.125000
G01 X1834.974890 Y222.826666 Z-0.125000
G02 X1830.852102 Y241.682732 Z-0.125000 I782.049724 J180.870143
G02 X1830.620040 Y243.958553 Z-0.125000 I11.043406 J2.275820
G02 X1832.843894 Y253.246235 Z-0.125000 I20.506427 J-0.000000
G02 X1836.467985 Y255.470088 Z-0.125000 I3.624092 J-1.841065
G01 X1840.822860 Y259.252448 Z-0.125000
G01 X1840.822860 Y259.252448 Z-0.125000
G00 Z5.000000

(End cutting path id: path52614)


(Start cutting path id: path52612)
(Change tool to Default tool)

G00 Z5.000000
G00 X1717.269143 Y253.496683

G01 Z-0.125000 F100.0(Penetrate)
G01 X1718.700032 Y253.496683 Z-0.125000 F400.000000
G02 X1733.474372 Y241.044523 Z-0.125000 I-91.493064 J-123.546306
G02 X1734.688591 Y238.202785 Z-0.125000 I-2.718273 J-2.841739
G02 X1744.423960 Y207.497362 Z-0.125000 I-142.881266 J-62.197551
G02 X1747.753189 Y174.889345 Z-0.125000 I-158.024438 J-32.608018
G01 X1747.753189 Y165.268990 Z-0.125000
G02 X1741.638137 Y134.344948 Z-0.125000 I-217.306314 J26.904444
G02 X1734.750803 Y117.783910 Z-0.125000 I-68.372347 J18.721747
G02 X1723.515998 Y105.671270 Z-0.125000 I-31.855057 J18.279822
G02 X1711.421173 Y101.955550 Z-0.125000 I-12.094825 J17.826723
G02 X1684.565951 Y104.732383 Z-0.125000 I-0.000000 J131.249137
G02 X1667.856977 Y111.061996 Z-0.125000 I11.762204 J56.269037
G02 X1654.961929 Y122.477743 Z-0.125000 I20.803739 J36.490472
G02 X1647.529096 Y138.381335 Z-0.125000 I35.013302 J26.052835
G02 X1641.581003 Y161.179029 Z-0.125000 I204.934309 J65.643734
G02 X1637.388483 Y188.292058 Z-0.125000 I285.940653 J58.096005
G03 X1638.430125 Y191.742481 Z-0.125000 I-15.360305 J6.519538
G03 X1638.819372 Y195.939008 Z-0.125000 I-22.427050 J4.196527
G01 X1638.819372 Y203.668181 Z-0.125000
G01 X1637.388483 Y213.206311 Z-0.125000
G01 X1638.819372 Y213.206311 Z-0.125000
G01 X1637.388483 Y217.070898 Z-0.125000
G01 X1637.388483 Y238.202785 Z-0.125000
G02 X1641.728622 Y246.887261 Z-0.125000 I55.135890 J-22.127871
G02 X1643.174246 Y247.740915 Z-0.125000 I1.518939 J-0.921378
G01 X1651.883970 Y247.740915 Z-0.125000
G01 X1651.883970 Y243.958553 Z-0.125000
G01 X1653.377066 Y243.958553 Z-0.125000
G01 X1653.377066 Y247.740915 Z-0.125000
G02 X1656.567290 Y246.043233 Z-0.125000 I-0.921560 J-5.578081
G02 X1660.593694 Y240.093966 Z-0.125000 I-16.247868 J-15.333543
G01 X1662.086790 Y240.093966 Z-0.125000
G02 X1663.278885 Y220.926579 Z-0.125000 I-770.089139 J-57.515641
G02 X1663.517679 Y211.315130 Z-0.125000 I-193.310771 J-9.611449
G01 X1664.948568 Y211.315130 Z-0.125000
G01 X1664.948568 Y220.935484 Z-0.125000
G01 X1672.227403 Y209.423949 Z-0.125000
G03 X1671.017250 Y198.802070 Z-0.125000 I256.557063 J-34.609485
G03 X1670.796514 Y194.047826 Z-0.125000 I51.088391 J-4.754244
G02 X1671.752118 Y193.572541 Z-0.125000 I0.000000 J-1.198307
G02 X1672.227403 Y192.156648 Z-0.125000 I-1.871358 J-1.415893
G01 X1669.303418 Y192.156648 Z-0.125000
G01 X1669.303418 Y195.939008 Z-0.125000
G01 X1667.872529 Y195.939008 Z-0.125000
G01 X1670.796514 Y172.915939 Z-0.125000
G01 X1669.303418 Y172.915939 Z-0.125000
G03 X1672.823057 Y162.466477 Z-0.125000 I17.271533 J-0.000000
G03 X1683.861112 Y153.757454 Z-0.125000 I22.360364 J16.990662
G03 X1692.242552 Y146.466987 Z-0.125000 I21.184040 J15.891031
G03 X1701.280560 Y144.137100 Z-0.125000 I9.038008 J16.365001
G01 X1702.711449 Y144.137100 Z-0.125000
G03 X1711.214285 Y155.346832 Z-0.125000 I-37.709823 J37.433419
G03 X1715.776047 Y167.160172 Z-0.125000 I-37.436938 J21.243844
G01 X1717.269143 Y167.160172 Z-0.125000
G01 X1720.130897 Y165.268990 Z-0.125000
G01 X1718.700032 Y178.671707 Z-0.125000
G01 X1718.700032 Y190.183240 Z-0.125000
G02 X1715.606864 Y192.692420 Z-0.125000 I0.000000 J3.161127
G02 X1711.421173 Y224.717844 Z-0.125000 I203.397519 J42.870099
G01 X1712.914269 Y224.717844 Z-0.125000
G01 X1711.421173 Y228.582430 Z-0.125000
G01 X1711.421173 Y245.849734 Z-0.125000
G03 X1713.037491 Y246.648449 Z-0.125000 I0.000000 J2.034787
G03 X1717.269143 Y253.496683 Z-0.125000 I-32.225204 J24.644078
G01 X1717.269143 Y253.496683 Z-0.125000
G00 Z5.000000

(End cutting path id: path52612)


(Start cutting path id: path52610)
(Change tool to Default tool)

G00 Z5.000000
G00 X2731.392460 Y479.369432

G01 Z-0.125000 F100.0(Penetrate)
G02 X2736.392456 Y477.569899 Z-0.125000 I-0.000000 J-7.846003 F400.000000
G02 X2743.026291 Y469.749090 Z-0.125000 I-18.622372 J-22.519943
G02 X2753.579276 Y467.250526 Z-0.125000 I-0.000000 J-23.535175
G02 X2763.105274 Y459.676498 Z-0.125000 I-13.289947 J-26.492548
G02 X2769.839198 Y448.787586 Z-0.125000 I-35.712052 J-29.611710
G02 X2776.434249 Y429.458722 Z-0.125000 I-108.009016 J-47.642467
G02 X2783.466425 Y412.917624 Z-0.125000 I-78.938328 J-43.324691
G02 X2806.918221 Y331.610668 Z-0.125000 I-1905.588407 J-593.674603
G02 X2804.562569 Y317.746049 Z-0.125000 I-65.303700 J3.962924
G02 X2802.563543 Y316.234545 Z-0.125000 I-1.999026 J0.566145
G02 X2799.655149 Y317.681075 Z-0.125000 I0.000000 J3.647076
G02 X2798.208620 Y321.990313 Z-0.125000 I5.695388 J4.309239
G01 X2795.284635 Y321.990313 Z-0.125000
G02 X2793.675085 Y315.203863 Z-0.125000 I-15.111850 J0.000000
G02 X2789.498773 Y310.478781 Z-0.125000 I-11.037970 J5.547842
G01 X2788.068080 Y310.478781 Z-0.125000
G03 X2786.430727 Y317.316982 Z-0.125000 I-15.098124 J-0.000000
G03 X2782.220110 Y321.990313 Z-0.125000 I-10.772911 J-5.472743
G01 X2783.713157 Y318.207954 Z-0.125000
G01 X2783.713157 Y314.343367 Z-0.125000
G01 X2782.220110 Y314.343367 Z-0.125000
G02 X2780.299999 Y315.653641 Z-0.125000 I0.000000 J2.062030
G02 X2761.938786 Y366.145262 Z-0.125000 I1025.691855 J401.575846
G03 X2744.168214 Y369.064317 Z-0.125000 I-36.645110 J-167.536246
G03 X2727.037782 Y370.009855 Z-0.125000 I-17.130433 J-154.704338
G03 X2726.562486 Y371.425747 Z-0.125000 I-2.346598 J0.000000
G03 X2725.606843 Y371.901043 Z-0.125000 I-0.955643 J-0.723072
G02 X2723.037708 Y351.167818 Z-0.125000 I-84.944355 J-0.000000
G02 X2715.466058 Y331.610668 Z-0.125000 I-83.006517 J20.892118
G01 X2708.187395 Y331.610668 Z-0.125000
G02 X2701.175877 Y334.264653 Z-0.125000 I-0.000000 J10.588797
G02 X2686.413024 Y350.851376 Z-0.125000 I61.508870 J69.608505
G02 X2697.020109 Y406.749404 Z-0.125000 I1024.619610 J-165.474127
G02 X2708.187395 Y450.590592 Z-0.125000 I641.141277 J-139.969500
G02 X2720.862528 Y476.032235 Z-0.125000 I113.936466 J-40.885399
G02 X2727.037782 Y479.369432 Z-0.125000 I6.175254 J-4.044844
G01 X2731.392460 Y479.369432 Z-0.125000
G01 X2731.392460 Y479.369432 Z-0.125000
G00 Z5.000000

(Change tool to Default tool)

G00 Z5.000000
G00 X2740.102306 Y437.187875

G01 Z-0.125000 F100.0(Penetrate)
G01 X2740.102306 Y435.214470 Z-0.125000 F400.000000
G02 X2741.107998 Y434.727116 Z-0.125000 I0.000000 J-1.281337
G02 X2741.595353 Y433.323314 Z-0.125000 I-1.778113 J-1.403801
G03 X2738.117200 Y430.441132 Z-0.125000 I0.599431 J-4.263150
G03 X2735.747383 Y416.056004 Z-0.125000 I42.474990 J-14.385128
G01 X2745.950276 Y416.056004 Z-0.125000
G01 X2748.811908 Y414.164816 Z-0.125000
G01 X2748.811908 Y416.056004 Z-0.125000
G01 X2744.457230 Y437.187875 Z-0.125000
G01 X2741.595353 Y435.214470 Z-0.125000
G03 X2741.099414 Y436.691936 Z-0.125000 I-2.448751 J-0.000000
G03 X2740.102306 Y437.187875 Z-0.125000 I-0.997108 J-0.754396
G01 X2740.102306 Y437.187875 Z-0.125000
G00 Z5.000000

(End cutting path id: path52610)


(Start cutting path id: path52608)
(Change tool to Default tool)

G00 Z5.000000
G00 X2639.940297 Y479.369432

G01 Z-0.125000 F100.0(Penetrate)
G01 X2651.574128 Y479.369432 Z-0.125000 F400.000000
G02 X2660.763379 Y475.494158 Z-0.125000 I0.000000 J-12.832651
G02 X2664.638653 Y465.966714 Z-0.125000 I-9.774074 J-9.527443
G02 X2663.838313 Y463.582435 Z-0.125000 I-3.951656 J0.000000
G02 X2655.929052 Y454.455185 Z-0.125000 I-72.669802 J54.981835
G01 X2648.650143 Y454.455185 Z-0.125000
G02 X2641.205402 Y458.644275 Z-0.125000 I0.000000 J8.709845
G02 X2637.016312 Y473.613683 Z-0.125000 I24.651498 J14.969408
G01 X2637.016312 Y475.504839 Z-0.125000
G02 X2638.217523 Y478.512579 Z-0.125000 I6.082404 J-0.685412
G02 X2639.940297 Y479.369432 Z-0.125000 I1.722774 J-1.303466
G01 X2639.940297 Y479.369432 Z-0.125000
G00 Z5.000000

(Change tool to Default tool)

G00 Z5.000000
G00 X2653.005067 Y446.726032

G01 Z-0.125000 F100.0(Penetrate)
G02 X2667.597606 Y437.011039 Z-0.125000 I-6.691578 J-25.868135 F400.000000
G02 X2673.348500 Y419.920597 Z-0.125000 I-22.519145 J-17.090441
G02 X2674.228448 Y419.255251 Z-0.125000 I0.000000 J-0.914557
G02 X2677.703177 Y404.544475 Z-0.125000 I-165.202980 J-46.787204
G02 X2677.215820 Y403.140645 Z-0.125000 I-2.265539 J-0.000000
G02 X2676.210131 Y402.653287 Z-0.125000 I-1.005689 J0.793966
G01 X2677.703177 Y391.141758 Z-0.125000
G02 X2668.736733 Y351.733880 Z-0.125000 I-91.082815 J-0.000000
G02 X2650.081082 Y333.584073 Z-0.125000 I-34.058032 J16.344546
G02 X2647.281284 Y329.329777 Z-0.125000 I-6.391947 J1.158172
G02 X2635.585619 Y323.963718 Z-0.125000 I-22.931669 J34.552278
G02 X2633.564688 Y320.205870 Z-0.125000 I-4.504257 J0.000000
G02 X2621.027802 Y314.343367 Z-0.125000 I-26.127290 J39.536633
G02 X2594.925612 Y323.228098 Z-0.125000 I29.117758 J128.329005
G02 X2592.036876 Y327.746081 Z-0.125000 I2.088696 J4.517983
G01 X2593.467815 Y331.610668 Z-0.125000
G02 X2588.633378 Y335.077935 Z-0.125000 I8.283669 J16.653961
G02 X2587.681953 Y337.366435 Z-0.125000 I2.276598 J2.288501
G03 X2588.629522 Y337.849805 Z-0.125000 I0.000000 J1.170463
G03 X2589.112891 Y339.339840 Z-0.125000 I-2.054905 J1.490035
G01 X2581.833983 Y337.366435 Z-0.125000
G01 X2580.403290 Y337.366435 Z-0.125000
G01 X2580.403290 Y341.231022 Z-0.125000
G01 X2618.166171 Y348.877971 Z-0.125000
G03 X2633.299359 Y371.270594 Z-0.125000 I-73.070432 J65.691726
G03 X2637.016312 Y387.277165 Z-0.125000 I-32.606623 J16.006571
G01 X2637.016312 Y417.947192 Z-0.125000
G02 X2637.499682 Y419.437227 Z-0.125000 I2.538275 J0.000000
G02 X2638.447250 Y419.920597 Z-0.125000 I0.947569 J-0.687093
G02 X2637.325706 Y423.151236 Z-0.125000 I8.029452 J4.597491
G02 X2635.585619 Y439.079063 Z-0.125000 I200.880561 J30.004810
G02 X2640.378405 Y442.683423 Z-0.125000 I10.053830 J-8.380058
G02 X2653.005067 Y446.726032 Z-0.125000 I25.714807 J-58.577164
G01 X2653.005067 Y446.726032 Z-0.125000
G00 Z5.000000

(End cutting path id: path52608)


(Start cutting path id: path52606)
(Change tool to Default tool)

G00 Z5.000000
G00 X2468.483233 Y477.478244

G01 Z-0.125000 F100.0(Penetrate)
G01 X2471.344864 Y477.478244 Z-0.125000 F400.000000
G01 X2481.547758 Y467.857902 Z-0.125000
G02 X2504.673622 Y476.942905 Z-0.125000 I222.342610 J-531.996946
G02 X2507.677052 Y477.478244 Z-0.125000 I3.003430 J-8.157456
G01 X2517.817592 Y477.478244 Z-0.125000
G02 X2536.768312 Y470.316521 Z-0.125000 I0.000000 J-28.653727
G02 X2561.366089 Y439.079063 Z-0.125000 I-72.993157 J-82.781513
G02 X2569.585781 Y421.829221 Z-0.125000 I-78.542401 J-48.009399
G02 X2571.568982 Y410.300223 Z-0.125000 I-32.519321 J-11.528997
G01 X2571.568982 Y396.897506 Z-0.125000
G02 X2567.874362 Y370.329027 Z-0.125000 I-97.375949 J0.000000
G02 X2558.131135 Y349.515215 Z-0.125000 I-68.763021 J19.501526
G02 X2542.324234 Y332.713031 Z-0.125000 I-61.456822 J41.980028
G02 X2517.817592 Y318.207954 Z-0.125000 I-69.565625 J89.577839
G01 X2510.601037 Y320.099132 Z-0.125000
G01 X2507.677052 Y320.099132 Z-0.125000
G03 X2504.542904 Y319.604954 Z-0.125000 I-0.000000 J-10.185704
G03 X2501.829082 Y318.207954 Z-0.125000 I2.900449 J-8.968874
G02 X2485.766532 Y325.028650 Z-0.125000 I27.132058 J86.219024
G02 X2477.192834 Y331.610668 Z-0.125000 I16.571515 J30.460991
G02 X2480.092043 Y333.269637 Z-0.125000 I10.222227 J-14.501516
G02 X2481.547758 Y333.584073 Z-0.125000 I1.455715 J-3.212481
G02 X2478.304546 Y339.015093 Z-0.125000 I13.589294 J11.798917
G02 X2477.192834 Y345.095608 Z-0.125000 I16.072859 J6.080515
G02 X2473.886955 Y345.789283 Z-0.125000 I-0.000000 J8.224336
G02 X2459.773386 Y352.742558 Z-0.125000 I71.721176 J163.378001
G01 X2455.418708 Y352.742558 Z-0.125000
G01 X2455.418708 Y346.986790 Z-0.125000
G01 X2452.494601 Y346.986790 Z-0.125000
G02 X2446.476835 Y352.939828 Z-0.125000 I5.864760 J11.946646
G02 X2443.784877 Y364.254106 Z-0.125000 I22.430932 J11.314278
G01 X2452.494601 Y454.455185 Z-0.125000
G03 X2452.408436 Y455.846941 Z-0.125000 I-11.283053 J-0.000000
G03 X2451.063736 Y465.966714 Z-0.125000 I-600.140508 J-74.596512
G02 X2456.695559 Y473.935224 Z-0.125000 I13.040020 J-3.241735
G02 X2468.483233 Y477.478244 Z-0.125000 I11.787674 J-17.837365
G01 X2468.483233 Y477.478244 Z-0.125000
G00 Z5.000000

(Change tool to Default tool)

G00 Z5.000000
G00 X2485.902681 Y439.079063

G01 Z-0.125000 F100.0(Penetrate)
G01 X2484.409635 Y435.214470 Z-0.125000 F400.000000
G01 X2484.409635 Y412.191411 Z-0.125000
G03 X2481.637013 Y369.020197 Z-0.125000 I10460.610251 J-693.495167
G03 X2481.547758 Y366.145262 Z-0.125000 I46.256248 J-2.874935
G01 X2481.547758 Y362.362918 Z-0.125000
G01 X2482.978696 Y358.498326 Z-0.125000
G01 X2485.902681 Y360.389513 Z-0.125000
G01 X2490.257604 Y360.389513 Z-0.125000
G01 X2491.688297 Y350.851376 Z-0.125000
G01 X2493.119236 Y350.851376 Z-0.125000
G02 X2493.209081 Y352.242610 Z-0.125000 I10.816404 J0.000000
G02 X2494.612282 Y362.362918 Z-0.125000 I576.115772 J-74.722186
G01 X2497.474159 Y362.362918 Z-0.125000
G01 X2512.031730 Y364.254106 Z-0.125000
G01 X2510.601037 Y368.118667 Z-0.125000
G03 X2518.448818 Y370.088809 Z-0.125000 I0.000000 J16.615332
G03 X2524.909808 Y375.786174 Z-0.125000 I-8.894874 J16.599231
G03 X2529.024472 Y383.975576 Z-0.125000 I-24.713864 J17.545559
G03 X2532.375163 Y398.788694 Z-0.125000 I-79.163304 J25.692061
G03 X2529.258054 Y413.522927 Z-0.125000 I-36.382114 J-0.000000
G03 X2520.757042 Y425.018552 Z-0.125000 I-29.980158 J-13.279259
G03 X2508.049443 Y432.789605 Z-0.125000 I-29.629093 J-34.175351
G03 X2485.902681 Y439.079063 Z-0.125000 I-40.424178 J-100.206810
G01 X2485.902681 Y439.079063 Z-0.125000
G00 Z5.000000

(End cutting path id: path52606)


(Start cutting path id: path52604)
(Change tool to Default tool)

G00 Z5.000000
G00 X2359.611573 Y479.369432

G01 Z-0.125000 F100.0(Penetrate)
G02 X2364.611405 Y477.569943 Z-0.125000 I-0.000000 J-7.845697 F400.000000
G02 X2371.245282 Y469.749090 Z-0.125000 I-18.623168 J-22.520668
G02 X2381.798304 Y467.250523 Z-0.125000 I0.000000 J-23.535310
G02 X2391.324320 Y459.676498 Z-0.125000 I-13.289931 J-26.492588
G02 X2398.058258 Y448.787583 Z-0.125000 I-35.711975 J-29.611711
G02 X2404.653313 Y429.458722 Z-0.125000 I-108.008665 J-47.642378
G02 X2411.685426 Y412.917652 Z-0.125000 I-78.940975 J-43.325533
G02 X2435.137359 Y331.610668 Z-0.125000 I-1905.659177 J-593.698085
G02 X2432.781583 Y317.746086 Z-0.125000 I-65.301954 J3.963235
G02 X2430.782485 Y316.234545 Z-0.125000 I-1.999099 J0.566191
G02 X2427.874150 Y317.681060 Z-0.125000 I-0.000000 J3.646979
G02 X2426.427635 Y321.990313 Z-0.125000 I5.695503 J4.309253
G01 X2423.503650 Y321.990313 Z-0.125000
G02 X2421.894120 Y315.203844 Z-0.125000 I-15.112097 J-0.000000
G02 X2417.717887 Y310.478781 Z-0.125000 I-11.037914 J5.547720
G01 X2416.287022 Y310.478781 Z-0.125000
G03 X2414.649669 Y317.316982 Z-0.125000 I-15.098124 J0.000000
G03 X2410.439052 Y321.990313 Z-0.125000 I-10.772911 J-5.472743
G01 X2411.932148 Y318.207954 Z-0.125000
G01 X2411.932148 Y314.343367 Z-0.125000
G01 X2410.439052 Y314.343367 Z-0.125000
G02 X2408.519023 Y315.653586 Z-0.125000 I0.000000 J2.061939
G02 X2390.157825 Y366.145262 Z-0.125000 I1025.736900 J401.591537
G03 X2372.387327 Y369.064309 Z-0.125000 I-36.644671 J-167.533539
G03 X2355.256699 Y370.009855 Z-0.125000 I-17.130628 J-154.706645
G03 X2354.781413 Y371.425757 Z-0.125000 I-2.346665 J-0.000000
G03 X2353.825809 Y371.901043 Z-0.125000 I-0.955603 J-0.723018
G02 X2351.256720 Y351.167795 Z-0.125000 I-84.945994 J0.000000
G02 X2343.685221 Y331.610668 Z-0.125000 I-83.007485 J20.891957
G01 X2336.406362 Y331.610668 Z-0.125000
G02 X2329.394963 Y334.264612 Z-0.125000 I-0.000000 J10.588603
G02 X2314.632039 Y350.851376 Z-0.125000 I61.510328 J69.609998
G02 X2325.239124 Y406.749411 Z-0.125000 I1024.636381 J-165.477283
G02 X2336.406362 Y450.590592 Z-0.125000 I641.151218 J-139.971355
G02 X2349.081581 Y476.032304 Z-0.125000 I113.939445 J-40.887051
G02 X2355.256699 Y479.369432 Z-0.125000 I6.175118 J-4.044744
G01 X2359.611573 Y479.369432 Z-0.125000
G01 X2359.611573 Y479.369432 Z-0.125000
G00 Z5.000000

(Change tool to Default tool)

G00 Z5.000000
G00 X2368.321297 Y437.187875

G01 Z-0.125000 F100.0(Penetrate)
G01 X2368.321297 Y435.214470 Z-0.125000 F400.000000
G02 X2369.327029 Y434.727106 Z-0.125000 I-0.000000 J-1.281404
G02 X2369.814393 Y433.323314 Z-0.125000 I-1.778043 J-1.403792
G03 X2366.336239 Y430.441132 Z-0.125000 I0.599431 J-4.263150
G03 X2363.966423 Y416.056004 Z-0.125000 I42.474990 J-14.385128
G01 X2374.169267 Y416.056004 Z-0.125000
G01 X2377.031021 Y414.164816 Z-0.125000
G01 X2377.031021 Y416.056004 Z-0.125000
G01 X2372.676171 Y437.187875 Z-0.125000
G01 X2369.814393 Y435.214470 Z-0.125000
G03 X2369.318444 Y436.691926 Z-0.125000 I-2.448684 J-0.000000
G03 X2368.321297 Y437.187875 Z-0.125000 I-0.997147 J-0.754450
G01 X2368.321297 Y437.187875 Z-0.125000
G00 Z5.000000

(End cutting path id: path52604)


(Start cutting path id: path52602)
(Change tool to Default tool)

G00 Z5.000000
G00 X2284.147993 Y469.749090

G01 Z-0.125000 F100.0(Penetrate)
G02 X2295.817519 Y465.492263 Z-0.125000 I-0.000000 J-18.123640 F400.000000
G02 X2300.074346 Y456.346373 Z-0.125000 I-7.696664 J-9.145890
G01 X2305.922315 Y419.920597 Z-0.125000
G02 X2303.364081 Y376.794150 Z-0.125000 I-1839.856495 J87.500066
G02 X2301.318610 Y355.168204 Z-0.125000 I-464.499260 J33.024534
G02 X2297.525808 Y334.981598 Z-0.125000 I-149.896750 J17.714050
G02 X2295.719496 Y333.584073 Z-0.125000 I-1.806312 J0.468573
G03 X2292.377509 Y329.716021 Z-0.125000 I7.896084 J-10.199957
G03 X2291.364622 Y325.854900 Z-0.125000 I6.852843 J-3.861121
G01 X2282.654898 Y327.746081 Z-0.125000
G02 X2279.762349 Y326.158711 Z-0.125000 I-10.029322 J14.846576
G02 X2278.300048 Y325.854900 Z-0.125000 I-1.462301 J3.367260
G03 X2277.341278 Y328.760716 Z-0.125000 I-4.882826 J0.000000
G03 X2275.438269 Y329.719486 Z-0.125000 I-1.903009 J-1.409204
G01 X2275.438269 Y327.746081 Z-0.125000
G01 X2276.869159 Y323.963718 Z-0.125000
G01 X2271.083395 Y323.963718 Z-0.125000
G03 X2269.608164 Y327.485611 Z-0.125000 I-4.941611 J-0.000000
G03 X2265.235450 Y329.719486 Z-0.125000 I-5.732308 J-5.824110
G01 X2266.728545 Y325.854900 Z-0.125000
G01 X2266.728545 Y323.963718 Z-0.125000
G02 X2259.668057 Y328.065600 Z-0.125000 I0.000000 J8.127481
G02 X2253.601741 Y346.986790 Z-0.125000 I41.807629 J23.836983
G03 X2244.988519 Y376.024454 Z-0.125000 I-168.710233 J-34.246964
G03 X2237.675389 Y387.277165 Z-0.125000 I-31.431399 J-12.424494
G01 X2237.675389 Y366.145262 Z-0.125000
G02 X2235.259408 Y335.074954 Z-0.125000 I-200.995159 J0.000000
G02 X2228.965640 Y310.478781 Z-0.125000 I-131.796419 J20.621272
G02 X2217.752665 Y316.306324 Z-0.125000 I5.009694 J23.340732
G02 X2214.407971 Y323.963718 Z-0.125000 I7.093133 J7.657395
G01 X2212.977082 Y323.963718 Z-0.125000
G01 X2212.977082 Y316.234545 Z-0.125000
G01 X2211.546192 Y316.234545 Z-0.125000
G02 X2209.730394 Y317.489008 Z-0.125000 I0.000000 J1.941389
G02 X2207.191318 Y327.746081 Z-0.125000 I41.623949 J15.746558
G01 X2205.698222 Y327.746081 Z-0.125000
G01 X2205.698222 Y321.990313 Z-0.125000
G01 X2202.836468 Y321.990313 Z-0.125000
G03 X2201.865234 Y324.883666 Z-0.125000 I-4.795334 J-0.000000
G03 X2199.912483 Y325.854900 Z-0.125000 I-1.952751 J-1.477471
G01 X2201.343373 Y335.475254 Z-0.125000
G01 X2201.343373 Y352.742558 Z-0.125000
G02 X2202.259771 Y394.870685 Z-0.125000 I968.802731 J-0.000000
G02 X2204.267358 Y419.920597 Z-0.125000 I344.244928 J-14.983572
G02 X2203.256459 Y427.034015 Z-0.125000 I60.236046 J12.188775
G02 X2202.836468 Y437.187875 Z-0.125000 I122.531845 J10.153860
G02 X2207.500668 Y448.378771 Z-0.125000 I15.757357 J0.000000
G02 X2220.255916 Y454.455185 Z-0.125000 I15.064924 J-15.197657
G02 X2228.891950 Y450.004545 Z-0.125000 I-2.702815 J-15.848563
G02 X2231.827419 Y442.943656 Z-0.125000 I-7.024294 J-7.060889
G02 X2234.776933 Y444.542867 Z-0.125000 I10.628322 J-16.082826
G02 X2236.182269 Y444.834844 Z-0.125000 I1.405335 J-3.236074
G01 X2271.083395 Y408.409036 Z-0.125000
G03 X2272.374909 Y425.353321 Z-0.125000 I-1032.293376 J87.204033
G03 X2272.514284 Y429.458722 Z-0.125000 I-60.394177 J4.105400
G01 X2273.945174 Y429.458722 Z-0.125000
G01 X2276.869159 Y427.567534 Z-0.125000
G01 X2278.300048 Y431.432127 Z-0.125000
G01 X2278.300048 Y433.323314 Z-0.125000
G02 X2274.177237 Y452.179365 Z-0.125000 I782.043816 J180.869952
G02 X2273.945174 Y454.455185 Z-0.125000 I11.043334 J2.275820
G02 X2276.169033 Y463.742855 Z-0.125000 I20.506321 J0.000000
G02 X2279.793144 Y465.966714 Z-0.125000 I3.624110 J-1.841084
G01 X2284.147993 Y469.749090 Z-0.125000
G01 X2284.147993 Y469.749090 Z-0.125000
G00 Z5.000000

(End cutting path id: path52602)


(Start cutting path id: path52600)
(Change tool to Default tool)

G00 Z5.000000
G00 X2118.414340 Y469.749090

G01 Z-0.125000 F100.0(Penetrate)
G02 X2130.083865 Y465.492263 Z-0.125000 I-0.000000 J-18.123640 F400.000000
G02 X2134.340692 Y456.346373 Z-0.125000 I-7.696664 J-9.145890
G01 X2140.188662 Y419.920597 Z-0.125000
G02 X2137.630415 Y376.794150 Z-0.125000 I-1839.856557 J87.500592
G02 X2135.584938 Y355.168204 Z-0.125000 I-464.499291 J33.024668
G02 X2131.792130 Y334.981598 Z-0.125000 I-149.896769 J17.714094
G02 X2129.985818 Y333.584073 Z-0.125000 I-1.806313 J0.468574
G03 X2126.643851 Y329.716024 Z-0.125000 I7.896093 J-10.199911
G03 X2125.630968 Y325.854900 Z-0.125000 I6.852889 J-3.861125
G01 X2116.921244 Y327.746081 Z-0.125000
G02 X2114.028672 Y326.158709 Z-0.125000 I-10.029435 J14.846873
G02 X2112.566370 Y325.854900 Z-0.125000 I-1.462302 J3.367281
G03 X2111.607605 Y328.760721 Z-0.125000 I-4.882861 J0.000000
G03 X2109.704616 Y329.719486 Z-0.125000 I-1.902989 J-1.409177
G01 X2109.704616 Y327.746081 Z-0.125000
G01 X2111.135481 Y323.963718 Z-0.125000
G01 X2105.349742 Y323.963718 Z-0.125000
G03 X2103.874507 Y327.485608 Z-0.125000 I-4.941596 J-0.000000
G03 X2099.501772 Y329.719486 Z-0.125000 I-5.732333 J-5.824160
G01 X2100.994867 Y325.854900 Z-0.125000
G01 X2100.994867 Y323.963718 Z-0.125000
G02 X2093.934392 Y328.065592 Z-0.125000 I-0.000000 J8.127465
G02 X2087.868063 Y346.986790 Z-0.125000 I41.807758 J23.837057
G03 X2079.254841 Y376.024454 Z-0.125000 I-168.710233 J-34.246964
G03 X2071.941711 Y387.277165 Z-0.125000 I-31.431399 J-12.424494
G01 X2071.941711 Y366.145262 Z-0.125000
G02 X2069.525736 Y335.074952 Z-0.125000 I-200.995727 J0.000000
G02 X2063.231987 Y310.478781 Z-0.125000 I-131.796716 J20.621261
G02 X2052.018989 Y316.306327 Z-0.125000 I5.009699 J23.340793
G02 X2048.674293 Y323.963718 Z-0.125000 I7.093119 J7.657392
G01 X2047.243403 Y323.963718 Z-0.125000
G01 X2047.243403 Y316.234545 Z-0.125000
G01 X2045.812539 Y316.234545 Z-0.125000
G02 X2043.996740 Y317.489008 Z-0.125000 I0.000000 J1.941389
G02 X2041.457664 Y327.746081 Z-0.125000 I41.623949 J15.746558
G01 X2039.964569 Y327.746081 Z-0.125000
G01 X2039.964569 Y321.990313 Z-0.125000
G01 X2037.102790 Y321.990313 Z-0.125000
G03 X2036.131561 Y324.883671 Z-0.125000 I-4.795368 J0.000000
G03 X2034.178830 Y325.854900 Z-0.125000 I-1.952731 J-1.477444
G01 X2035.609695 Y335.475254 Z-0.125000
G01 X2035.609695 Y352.742558 Z-0.125000
G02 X2036.526093 Y394.870685 Z-0.125000 I968.802731 J-0.000000
G02 X2038.533679 Y419.920597 Z-0.125000 I344.244928 J-14.983572
G02 X2037.522781 Y427.034015 Z-0.125000 I60.236046 J12.188775
G02 X2037.102790 Y437.187875 Z-0.125000 I122.531845 J10.153860
G02 X2041.766993 Y448.378767 Z-0.125000 I15.757341 J0.000000
G02 X2054.522263 Y454.455185 Z-0.125000 I15.064947 J-15.197702
G02 X2063.158275 Y450.004549 Z-0.125000 I-2.702812 J-15.848511
G02 X2066.093741 Y442.943656 Z-0.125000 I-7.024312 J-7.060893
G02 X2069.043279 Y444.542868 Z-0.125000 I10.628441 J-16.083144
G02 X2070.448615 Y444.834844 Z-0.125000 I1.405336 J-3.236095
G01 X2105.349742 Y408.409036 Z-0.125000
G03 X2106.641256 Y425.353321 Z-0.125000 I-1032.293376 J87.204033
G03 X2106.780631 Y429.458722 Z-0.125000 I-60.394177 J4.105400
G01 X2108.211496 Y429.458722 Z-0.125000
G01 X2111.135481 Y427.567534 Z-0.125000
G01 X2112.566370 Y431.432127 Z-0.125000
G01 X2112.566370 Y433.323314 Z-0.125000
G02 X2108.443559 Y452.179365 Z-0.125000 I782.043816 J180.869952
G02 X2108.211496 Y454.455185 Z-0.125000 I11.043334 J2.275820
G02 X2110.435355 Y463.742855 Z-0.125000 I20.506321 J0.000000
G02 X2114.059465 Y465.966714 Z-0.125000 I3.624110 J-1.841084
G01 X2118.414340 Y469.749090 Z-0.125000
G01 X2118.414340 Y469.749090 Z-0.125000
G00 Z5.000000

(End cutting path id: path52600)


(Start cutting path id: path52598)
(Change tool to Default tool)

G00 Z5.000000
G00 X1957.035511 Y463.993309

G01 Z-0.125000 F100.0(Penetrate)
G01 X1964.314346 Y463.993309 Z-0.125000 F400.000000
G02 X1971.828783 Y461.162654 Z-0.125000 I-0.000000 J-11.389477
G02 X1981.733818 Y448.699437 Z-0.125000 I-29.536117 J-33.641157
G02 X1998.926366 Y444.669342 Z-0.125000 I-0.000000 J-38.687102
G02 X2004.939005 Y437.187875 Z-0.125000 I-5.079284 J-10.238900
G01 X2004.939005 Y435.214470 Z-0.125000
G01 X2002.077251 Y437.187875 Z-0.125000
G01 X2002.077251 Y435.214470 Z-0.125000
G02 X2017.754927 Y412.777866 Z-0.125000 I-41.261302 J-45.527243
G02 X2023.851573 Y381.521384 Z-0.125000 I-77.075051 J-31.256482
G02 X2024.633364 Y380.872310 Z-0.125000 I0.000000 J-0.795359
G02 X2025.282438 Y373.874448 Z-0.125000 I-37.398508 J-6.997863
G02 X2022.298353 Y355.594315 Z-0.125000 I-57.482949 J-0.000000
G02 X2013.664287 Y339.237060 Z-0.125000 I-54.346182 J18.228920
G02 X2000.401234 Y325.874089 Z-0.125000 I-56.221384 J42.537576
G02 X1978.809834 Y312.452186 Z-0.125000 I-78.327997 J101.926164
G02 X1969.241631 Y310.963321 Z-0.125000 I-19.642651 J94.744169
G02 X1959.959496 Y310.478781 Z-0.125000 I-9.282135 J88.664707
G01 X1959.959496 Y308.587599 Z-0.125000
G01 X1967.176125 Y308.587599 Z-0.125000
G02 X1965.607781 Y306.055843 Z-0.125000 I-2.827662 J0.000000
G02 X1955.604622 Y302.831831 Z-0.125000 I-15.683090 J31.529576
G02 X1933.345077 Y316.425386 Z-0.125000 I29.795850 J73.812781
G02 X1917.841741 Y335.475254 Z-0.125000 I46.161625 J53.401139
G02 X1910.792778 Y355.428667 Z-0.125000 I154.316982 J65.737526
G02 X1904.777143 Y381.521384 Z-0.125000 I258.363983 J73.305219
G02 X1907.478224 Y415.155890 Z-0.125000 I210.763009 J-0.000000
G02 X1913.486873 Y435.399483 Z-0.125000 I81.484471 J-13.172472
G02 X1925.057350 Y451.813052 Z-0.125000 I46.854425 J-20.744266
G02 X1939.616063 Y460.210966 Z-0.125000 I24.714885 J-26.027462
G02 X1949.834678 Y463.220542 Z-0.125000 I25.798146 J-68.741400
G02 X1957.035511 Y463.993309 Z-0.125000 I7.200834 J-33.163183
G01 X1957.035511 Y463.993309 Z-0.125000
G00 Z5.000000

(Change tool to Default tool)

G00 Z5.000000
G00 X1938.185174 Y389.168353

G01 Z-0.125000 F100.0(Penetrate)
G02 X1939.306854 Y381.574647 Z-0.125000 I-93.619172 J-17.708347 F400.000000
G02 X1939.616063 Y375.765636 Z-0.125000 I-54.411287 J-5.809011
G01 X1936.692079 Y377.656791 Z-0.125000
G01 X1936.692079 Y375.765636 Z-0.125000
G03 X1942.553204 Y360.389082 Z-0.125000 I72.185366 J18.709777
G03 X1949.274524 Y351.283061 Z-0.125000 I31.374187 J16.124284
G03 X1958.518146 Y345.310488 Z-0.125000 I19.340495 J19.793502
G03 X1970.100110 Y343.122203 Z-0.125000 I11.581964 J29.555860
G02 X1970.596058 Y344.599660 Z-0.125000 I2.448684 J0.000000
G02 X1971.593205 Y345.095608 Z-0.125000 I0.997147 J-0.754450
G03 X1972.076560 Y343.605558 Z-0.125000 I2.538387 J-0.000000
G03 X1973.024070 Y343.122203 Z-0.125000 I0.947510 J0.687015
G01 X1973.024070 Y345.095608 Z-0.125000
G02 X1972.068486 Y345.570889 Z-0.125000 I-0.000000 J1.198274
G02 X1971.593205 Y346.986790 Z-0.125000 I1.871403 J1.415901
G03 X1989.757185 Y369.163272 Z-0.125000 I-38.761189 J50.274913
G03 X1996.229281 Y396.897506 Z-0.125000 I-56.187336 J27.734234
G03 X1997.961254 Y398.089518 Z-0.125000 I0.000000 J1.854269
G03 X1999.153266 Y404.544475 Z-0.125000 I-16.881364 J6.454957
G01 X1996.229281 Y402.653287 Z-0.125000
G01 X1991.874432 Y406.435631 Z-0.125000
G02 X1991.399149 Y405.019758 Z-0.125000 I-2.346591 J-0.000000
G02 X1990.443542 Y404.544475 Z-0.125000 I-0.955607 J0.723033
G03 X1989.694235 Y406.776694 Z-0.125000 I-3.699592 J-0.000000
G03 X1983.164683 Y414.164816 Z-0.125000 I-51.733641 J-39.142258
G02 X1980.265455 Y412.505832 Z-0.125000 I-10.222807 J14.502467
G02 X1978.809834 Y412.191411 Z-0.125000 I-1.455622 J3.212222
G03 X1976.923200 Y415.709910 Z-0.125000 I-4.224248 J-0.000000
G03 X1967.176125 Y419.920597 Z-0.125000 I-16.533552 J-24.885742
G01 X1967.176125 Y416.056004 Z-0.125000
G01 X1961.390361 Y421.811753 Z-0.125000
G03 X1951.157626 Y420.197790 Z-0.125000 I0.000000 J-33.245419
G03 X1945.059638 Y416.528785 Z-0.125000 I4.829372 J-14.928566
G03 X1941.263661 Y410.548865 Z-0.125000 I10.603222 J-10.925569
G03 X1939.616063 Y400.679882 Z-0.125000 I28.733428 J-9.868983
G01 X1938.185174 Y389.168353 Z-0.125000
G01 X1938.185174 Y389.168353 Z-0.125000
G00 Z5.000000

(End cutting path id: path52598)


(Start cutting path id: path52596)
(Change tool to Default tool)

G00 Z5.000000
G00 X1880.265479 Y469.749090

G01 Z-0.125000 F100.0(Penetrate)
G01 X1884.620353 Y469.749090 Z-0.125000 F400.000000
G02 X1891.047946 Y463.853807 Z-0.125000 I-12.906764 J-20.523795
G02 X1896.191831 Y454.455185 Z-0.125000 I-29.177216 J-22.075691
G01 X1896.191831 Y452.481780 Z-0.125000
G02 X1893.664260 Y428.798745 Z-0.125000 I-112.217377 J-0.000000
G02 X1867.200881 Y318.207954 Z-0.125000 I-2500.302812 J539.838308
G03 X1858.911608 Y313.021956 Z-0.125000 I8.848896 J-23.361798
G03 X1856.998061 Y308.587599 Z-0.125000 I4.181206 J-4.434357
G01 X1854.136307 Y308.587599 Z-0.125000
G01 X1854.136307 Y312.452186 Z-0.125000
G01 X1846.857448 Y306.696418 Z-0.125000
G01 X1833.792850 Y321.990313 Z-0.125000
G01 X1833.792850 Y323.963718 Z-0.125000
G01 X1829.438000 Y320.099132 Z-0.125000
G02 X1827.859660 Y320.884146 Z-0.125000 I0.000000 J1.979203
G02 X1825.083126 Y325.854900 Z-0.125000 I16.465790 J12.458189
G02 X1826.495964 Y334.394583 Z-0.125000 I34.638645 J-1.344039
G02 X1827.944905 Y335.475254 Z-0.125000 I1.448940 J-0.431018
G03 X1806.716896 Y396.548393 Z-0.125000 I-1968.141061 J-649.867327
G03 X1787.320245 Y446.726032 Z-0.125000 I-1347.766911 J-492.154508
G01 X1787.320245 Y448.699437 Z-0.125000
G02 X1794.288635 Y458.292938 Z-0.125000 I32.747106 J-16.458822
G02 X1798.953954 Y460.210966 Z-0.125000 I4.665319 J-4.714836
G02 X1813.435202 Y451.775143 Z-0.125000 I0.000000 J-16.647437
G02 X1842.502598 Y383.412572 Z-0.125000 I-284.518667 J-161.336736
G01 X1845.364353 Y385.385977 Z-0.125000
G01 X1845.364353 Y375.765636 Z-0.125000
G01 X1848.288337 Y375.765636 Z-0.125000
G02 X1870.511303 Y451.557518 Z-0.125000 I1870.307747 J-507.239667
G02 X1877.341494 Y467.857902 Z-0.125000 I92.534754 J-29.192752
G01 X1880.265479 Y469.749090 Z-0.125000
G01 X1880.265479 Y469.749090 Z-0.125000
G00 Z5.000000

(End cutting path id: path52596)


(Start cutting path id: path52594)
(Change tool to Default tool)

G00 Z5.000000
G00 X2947.207143 Y680.245723

G01 Z-0.125000 F100.0(Penetrate)
G02 X2958.876711 Y675.988890 Z-0.125000 I0.000000 J-18.123740 F400.000000
G02 X2963.133544 Y666.843006 Z-0.125000 I-7.696635 J-9.145884
G01 X2968.981514 Y630.417230 Z-0.125000
G02 X2966.423273 Y587.290787 Z-0.125000 I-1839.834014 J87.499003
G02 X2964.377790 Y565.664841 Z-0.125000 I-464.493664 J33.024271
G02 X2960.584957 Y545.478252 Z-0.125000 I-149.894935 J17.713964
G02 X2958.778621 Y544.080712 Z-0.125000 I-1.806336 J0.468584
G03 X2955.436802 Y540.212696 Z-0.125000 I7.896088 J-10.199532
G03 X2954.423943 Y536.351526 Z-0.125000 I6.853252 J-3.861170
G01 X2945.714096 Y538.242714 Z-0.125000
G02 X2942.821566 Y536.655352 Z-0.125000 I-10.028769 J14.845575
G02 X2941.359173 Y536.351526 Z-0.125000 I-1.462393 J3.367518
G03 X2940.400432 Y539.257378 Z-0.125000 I-4.883053 J-0.000000
G03 X2938.497541 Y540.216119 Z-0.125000 I-1.902891 J-1.409042
G01 X2938.497541 Y538.242714 Z-0.125000
G01 X2939.928480 Y534.460370 Z-0.125000
G01 X2934.142618 Y534.460370 Z-0.125000
G03 X2932.667387 Y537.982243 Z-0.125000 I-4.941565 J0.000000
G03 X2928.294648 Y540.216119 Z-0.125000 I-5.732341 J-5.824187
G01 X2929.787695 Y536.351526 Z-0.125000
G01 X2929.787695 Y534.460370 Z-0.125000
G02 X2922.727320 Y538.562211 Z-0.125000 I0.000000 J8.127325
G02 X2916.661062 Y557.483429 Z-0.125000 I41.808212 J23.837017
G03 X2908.047837 Y586.521097 Z-0.125000 I-168.708331 J-34.246412
G03 X2900.734661 Y597.773797 Z-0.125000 I-31.431090 J-12.424412
G01 X2900.734661 Y576.641894 Z-0.125000
G02 X2898.318654 Y545.571592 Z-0.125000 I-200.992945 J0.000000
G02 X2892.024814 Y520.975404 Z-0.125000 I-131.795304 J20.621327
G02 X2880.811928 Y526.802949 Z-0.125000 I5.009702 J23.340490
G02 X2877.467243 Y534.460370 Z-0.125000 I7.093221 J7.657421
G01 X2876.036304 Y534.460370 Z-0.125000
G01 X2876.036304 Y526.731184 Z-0.125000
G01 X2874.605366 Y526.731184 Z-0.125000
G02 X2872.789590 Y527.985652 Z-0.125000 I0.000000 J1.941354
G02 X2870.250688 Y538.242714 Z-0.125000 I41.623628 J15.745735
G01 X2868.757396 Y538.242714 Z-0.125000
G01 X2868.757396 Y532.486965 Z-0.125000
G01 X2865.895765 Y532.486965 Z-0.125000
G03 X2864.924533 Y535.380294 Z-0.125000 I-4.795275 J0.000000
G03 X2862.971780 Y536.351526 Z-0.125000 I-1.952753 J-1.477483
G01 X2864.402718 Y545.971900 Z-0.125000
G01 X2864.402718 Y563.239177 Z-0.125000
G02 X2865.319117 Y605.367318 Z-0.125000 I968.803217 J0.000000
G02 X2867.326703 Y630.417230 Z-0.125000 I344.244888 J-14.983567
G02 X2866.315770 Y637.530651 Z-0.125000 I60.234051 J12.188790
G02 X2865.895765 Y647.684507 Z-0.125000 I122.527607 J10.153857
G02 X2870.559964 Y658.875403 Z-0.125000 I15.757357 J0.000000
G02 X2883.315213 Y664.951818 Z-0.125000 I15.064924 J-15.197657
G02 X2891.951225 Y660.501181 Z-0.125000 I-2.702812 J-15.848511
G02 X2894.886691 Y653.440288 Z-0.125000 I-7.024312 J-7.060893
G02 X2897.836096 Y655.039466 Z-0.125000 I10.626708 J-16.079694
G02 X2899.241614 Y655.331476 Z-0.125000 I1.405518 J-3.236550
G01 X2934.142618 Y618.905701 Z-0.125000
G03 X2935.434176 Y635.849954 Z-0.125000 I-1032.252820 J87.203766
G03 X2935.573556 Y639.955354 Z-0.125000 I-60.392006 J4.105400
G01 X2937.004495 Y639.955354 Z-0.125000
G01 X2939.928480 Y638.064166 Z-0.125000
G01 X2941.359173 Y641.928759 Z-0.125000
G01 X2941.359173 Y643.819947 Z-0.125000
G02 X2937.236548 Y662.675996 Z-0.125000 I782.075949 J180.869227
G02 X2937.004495 Y664.951818 Z-0.125000 I11.043843 J2.275822
G02 X2939.228355 Y674.239487 Z-0.125000 I20.506321 J0.000000
G02 X2942.852465 Y676.463347 Z-0.125000 I3.624110 J-1.841084
G01 X2947.207143 Y680.245723 Z-0.125000
G01 X2947.207143 Y680.245723 Z-0.125000
G00 Z5.000000

(End cutting path id: path52594)


(Start cutting path id: path52592)
(Change tool to Default tool)

G00 Z5.000000
G00 X2793.169527 Y680.245723

G01 Z-0.125000 F100.0(Penetrate)
G01 X2800.448190 Y680.245723 Z-0.125000 F400.000000
G02 X2818.115421 Y677.503557 Z-0.125000 I0.000000 J-58.284332
G02 X2832.114362 Y670.173131 Z-0.125000 I-13.801337 J-43.388585
G02 X2843.076447 Y658.548816 Z-0.125000 I-31.018543 J-40.232386
G02 X2852.706533 Y639.955354 Z-0.125000 I-72.100304 J-49.133391
G02 X2853.915555 Y629.415511 Z-0.125000 I-251.274456 J-34.162869
G02 X2854.137472 Y624.661449 Z-0.125000 I-50.811527 J-4.754062
G02 X2848.771758 Y607.238136 Z-0.125000 I-30.970968 J0.000000
G02 X2828.008423 Y586.262268 Z-0.125000 I-67.109866 J45.665479
G02 X2847.586540 Y552.996995 Z-0.125000 I-163.431743 J-118.580912
G02 X2851.275840 Y536.351526 Z-0.125000 I-35.706056 J-16.645469
G01 X2851.275840 Y526.731184 Z-0.125000
G03 X2846.382271 Y520.575629 Z-0.125000 I22.724855 J-23.088834
G03 X2845.427871 Y517.193060 Z-0.125000 I5.517019 J-3.382569
G01 X2843.996932 Y517.193060 Z-0.125000
G01 X2835.287085 Y526.731184 Z-0.125000
G01 X2835.287085 Y524.839996 Z-0.125000
G02 X2837.345859 Y523.552913 Z-0.125000 I-0.657991 J-3.342611
G02 X2838.211070 Y520.975404 Z-0.125000 I-3.406661 J-2.577509
G01 X2838.211070 Y517.193060 Z-0.125000
G02 X2812.809509 Y549.379126 Z-0.125000 I822.564755 J675.292835
G02 X2812.019668 Y551.727648 Z-0.125000 I3.096636 J2.348522
G01 X2813.512960 Y555.592241 Z-0.125000
G01 X2801.879128 Y570.886146 Z-0.125000
G01 X2788.814603 Y567.103770 Z-0.125000
G03 X2789.118841 Y551.573583 Z-0.125000 I396.530891 J-0.000000
G03 X2790.245542 Y530.595777 Z-0.125000 I724.760968 J28.407159
G03 X2787.827081 Y522.705704 Z-0.125000 I72.105783 J-26.417518
G03 X2787.383665 Y519.084248 Z-0.125000 I14.566837 J-3.621456
G01 X2780.104757 Y519.084248 Z-0.125000
G02 X2778.152003 Y520.055480 Z-0.125000 I0.000000 J2.448714
G02 X2777.180772 Y522.948809 Z-0.125000 I3.824043 J2.893329
G01 X2774.319140 Y520.975404 Z-0.125000
G02 X2773.322033 Y521.471342 Z-0.125000 I-0.000000 J1.250334
G02 X2772.826094 Y522.948809 Z-0.125000 I1.952812 J1.477466
G02 X2769.926662 Y521.289791 Z-0.125000 I-10.224526 J14.506050
G02 X2768.471171 Y520.975404 Z-0.125000 I-1.455492 J3.211988
G03 X2765.571962 Y522.634373 Z-0.125000 I-10.222227 J-14.501516
G03 X2764.116247 Y522.948809 Z-0.125000 I-1.455715 J-3.212481
G02 X2763.157510 Y520.042985 Z-0.125000 I-4.882978 J-0.000000
G02 X2761.254616 Y519.084248 Z-0.125000 I-1.902894 J1.409056
G01 X2753.975708 Y524.839996 Z-0.125000
G03 X2755.167844 Y544.007400 Z-0.125000 I-770.065330 J57.515787
G03 X2755.406646 Y553.618836 Z-0.125000 I-193.303887 J9.611436
G01 X2755.406646 Y555.592241 Z-0.125000
G03 X2755.126254 Y566.104769 Z-0.125000 I-197.209119 J0.000000
G03 X2753.975708 Y582.397675 Z-0.125000 I-475.054324 J-25.359541
G03 X2755.013973 Y585.848788 Z-0.125000 I-15.223551 J6.461735
G03 X2755.406646 Y590.126861 Z-0.125000 I-23.107929 J4.278073
G03 X2754.931353 Y591.542724 Z-0.125000 I-2.346524 J-0.000000
G03 X2753.975708 Y592.018017 Z-0.125000 I-0.955646 J-0.723087
G01 X2755.406646 Y601.638390 Z-0.125000
G01 X2755.406646 Y622.688044 Z-0.125000
G02 X2755.703780 Y629.573661 Z-0.125000 I79.930352 J0.000000
G02 X2756.899692 Y639.955354 Z-0.125000 I183.088859 J-15.831080
G01 X2755.406646 Y643.819947 Z-0.125000
G01 X2756.899692 Y655.331476 Z-0.125000
G01 X2756.899692 Y659.196069 Z-0.125000
G02 X2785.064760 Y677.983150 Z-0.125000 I164.418812 J-215.986414
G02 X2793.169527 Y680.245723 Z-0.125000 I8.416884 J-14.502804
G01 X2793.169527 Y680.245723 Z-0.125000
G00 Z5.000000

(Change tool to Default tool)

G00 Z5.000000
G00 X2785.890619 Y639.955354

G01 Z-0.125000 F100.0(Penetrate)
G01 X2787.383665 Y616.932296 Z-0.125000 F400.000000
G01 X2787.383665 Y603.529578 Z-0.125000
G01 X2788.814603 Y603.529578 Z-0.125000
G03 X2800.713772 Y606.958294 Z-0.125000 I0.000000 J22.362065
G03 X2819.298576 Y622.688044 Z-0.125000 I-46.000879 J73.194251
G01 X2819.298576 Y626.552637 Z-0.125000
G03 X2815.971545 Y631.472172 Z-0.125000 I-5.300666 J-0.000000
G03 X2785.890619 Y639.955354 Z-0.125000 I-54.659696 J-136.246164
G01 X2785.890619 Y639.955354 Z-0.125000
G00 Z5.000000

(End cutting path id: path52592)


(Start cutting path id: path52590)
(Change tool to Default tool)

G00 Z5.000000
G00 X2672.664084 Y686.001504

G01 Z-0.125000 F100.0(Penetrate)
G01 X2678.512054 Y686.001504 Z-0.125000 F400.000000
G02 X2722.024247 Y677.985312 Z-0.125000 I0.000000 J-122.101020
G02 X2743.834922 Y661.087225 Z-0.125000 I-16.920822 J-44.364785
G02 X2744.876601 Y657.636807 Z-0.125000 I-15.359758 J-6.519549
G02 X2745.265861 Y653.440288 Z-0.125000 I-22.426197 J-4.196518
G01 X2743.834922 Y645.711102 Z-0.125000
G03 X2714.609281 Y654.261108 Z-0.125000 I-136.156091 J-411.184390
G03 X2706.072042 Y655.331476 Z-0.125000 I-8.537239 J-33.511248
G01 X2697.362441 Y655.331476 Z-0.125000
G01 X2697.362441 Y651.466883 Z-0.125000
G01 X2694.438456 Y651.466883 Z-0.125000
G01 X2684.297670 Y653.440288 Z-0.125000
G03 X2686.053405 Y629.483384 Z-0.125000 I277.405450 J8.287481
G03 X2687.221655 Y628.443825 Z-0.125000 I1.168250 J0.136657
G02 X2700.964994 Y625.156118 Z-0.125000 I-5.933640 J-55.172867
G02 X2709.011615 Y620.180179 Z-0.125000 I-8.819986 J-23.256942
G02 X2714.209424 Y612.574179 Z-0.125000 I-13.931071 J-15.099300
G02 X2716.274935 Y601.638390 Z-0.125000 I-27.916859 J-10.935788
G01 X2714.781888 Y588.153456 Z-0.125000
G02 X2711.523894 Y588.490029 Z-0.125000 I0.000000 J15.936816
G02 X2687.221655 Y593.909205 Z-0.125000 I188.281409 J901.547315
G01 X2682.866977 Y593.909205 Z-0.125000
G02 X2680.281638 Y584.983015 Z-0.125000 I-16.702030 J-0.000000
G02 X2675.588069 Y582.397675 Z-0.125000 I-4.693569 J2.967812
G03 X2678.338833 Y578.591727 Z-0.125000 I4.008332 J0.000000
G03 X2710.426965 Y570.886146 Z-0.125000 I62.104375 J187.954857
G02 X2728.411236 Y558.226802 Z-0.125000 I-16.585881 J-42.666625
G02 X2733.694383 Y544.080712 Z-0.125000 I-16.297128 J-14.146090
G03 X2732.453984 Y540.250275 Z-0.125000 I29.841150 J-11.779428
G03 X2732.201336 Y538.242714 Z-0.125000 I7.849817 J-2.007562
G01 X2714.781888 Y538.242714 Z-0.125000
G02 X2659.943810 Y551.287639 Z-0.125000 I87.069547 J487.808029
G02 X2656.737683 Y555.592241 Z-0.125000 I1.286654 J4.304602
G01 X2656.737683 Y557.483429 Z-0.125000
G01 X2659.599560 Y557.483429 Z-0.125000
G01 X2659.599560 Y559.374617 Z-0.125000
G02 X2655.515323 Y562.507180 Z-0.125000 I0.000000 J4.228796
G02 X2652.382760 Y586.262268 Z-0.125000 I88.504393 J23.755088
G02 X2649.855857 Y598.806330 Z-0.125000 I200.756327 J46.967321
G02 X2649.458775 Y603.529578 Z-0.125000 I27.892684 J4.723248
G01 X2649.458775 Y607.394139 Z-0.125000
G03 X2653.806326 Y637.216334 Z-0.125000 I-309.907775 J60.407100
G03 X2655.244636 Y666.843006 Z-0.125000 I-304.409626 J29.626671
G01 X2666.878223 Y676.463347 Z-0.125000
G02 X2668.240295 Y681.335001 Z-0.125000 I9.393133 J0.000000
G02 X2672.664084 Y686.001504 Z-0.125000 I12.976789 J-7.871742
G01 X2672.664084 Y686.001504 Z-0.125000
G00 Z5.000000

(End cutting path id: path52590)


(Start cutting path id: path52588)
(Change tool to Default tool)

G00 Z5.000000
G00 X2604.292770 Y678.354535

G01 Z-0.125000 F100.0(Penetrate)
G03 X2605.528756 Y675.329498 Z-0.125000 I6.307551 J0.812153 F400.000000
G03 X2607.216755 Y674.489942 Z-0.125000 I1.687998 J1.277154
G01 X2620.281279 Y676.463347 Z-0.125000
G01 X2627.560187 Y674.489942 Z-0.125000
G02 X2628.043557 Y675.979977 Z-0.125000 I2.538275 J-0.000000
G02 X2628.991126 Y676.463347 Z-0.125000 I0.947569 J-0.687093
G02 X2637.217498 Y663.529967 Z-0.125000 I-24.250485 J-24.507613
G02 X2640.624712 Y643.819947 Z-0.125000 I-55.305565 J-19.710020
G02 X2625.618779 Y637.990673 Z-0.125000 I-33.151350 J63.110384
G02 X2611.571678 Y636.172978 Z-0.125000 I-14.047101 J53.368976
G01 X2601.430893 Y636.172978 Z-0.125000
G02 X2602.775662 Y626.053204 Z-0.125000 I-598.766028 J-84.716433
G02 X2602.861831 Y624.661449 Z-0.125000 I-11.196307 J-1.391755
G02 X2602.566194 Y615.138966 Z-0.125000 I-153.507449 J0.000000
G02 X2601.430893 Y601.638390 Z-0.125000 I-309.840666 J19.257343
G02 X2602.773424 Y584.778452 Z-0.125000 I-1612.049966 J-136.848481
G02 X2602.861831 Y582.397675 Z-0.125000 I-32.012457 J-2.380777
G02 X2599.792560 Y526.044791 Z-0.125000 I-967.565772 J24.438641
G02 X2597.076215 Y513.328467 Z-0.125000 I-51.201533 J4.288922
G02 X2590.039396 Y516.494542 Z-0.125000 I-0.000000 J9.402944
G02 X2586.873322 Y524.839996 Z-0.125000 I9.415853 J8.345455
G01 X2583.949337 Y522.948809 Z-0.125000
G01 X2582.518398 Y522.948809 Z-0.125000
G01 X2582.518398 Y530.595777 Z-0.125000
G01 X2579.594414 Y528.704589 Z-0.125000
G01 X2578.163475 Y528.704589 Z-0.125000
G03 X2575.868387 Y539.812218 Z-0.125000 I-28.026558 J-0.000000
G03 X2572.377859 Y542.107307 Z-0.125000 I-3.490528 J-1.506773
G01 X2570.884812 Y572.859551 Z-0.125000
G01 X2572.377859 Y590.126861 Z-0.125000
G01 X2570.884812 Y607.394139 Z-0.125000
G03 X2572.085345 Y623.688131 Z-0.125000 I-454.371778 J41.669094
G03 X2572.377859 Y634.199573 Z-0.125000 I-188.717352 J10.511442
G03 X2569.243712 Y633.705393 Z-0.125000 I-0.000000 J-10.185652
G03 X2566.529889 Y632.308385 Z-0.125000 I2.900459 J-8.968858
G02 X2565.574246 Y632.783681 Z-0.125000 I0.000000 J1.198368
G02 X2565.098951 Y634.199573 Z-0.125000 I1.871302 J1.415892
G01 X2557.820042 Y632.308385 Z-0.125000
G01 X2547.679503 Y632.308385 Z-0.125000
G02 X2531.576274 Y636.548589 Z-0.125000 I-0.000000 J32.698111
G02 X2527.336070 Y643.819947 Z-0.125000 I4.114580 J7.271358
G03 X2526.316565 Y647.670252 Z-0.125000 I-7.780367 J-0.000000
G03 X2522.981146 Y651.466883 Z-0.125000 I-10.884138 J-6.198507
G01 X2521.550208 Y651.466883 Z-0.125000
G01 X2521.550208 Y670.707598 Z-0.125000
G03 X2528.247173 Y672.720481 Z-0.125000 I-0.000000 J12.147018
G03 X2530.260055 Y676.463347 Z-0.125000 I-2.473407 J3.742866
G01 X2536.045671 Y676.463347 Z-0.125000
G02 X2537.042975 Y675.967359 Z-0.125000 I-0.000000 J-1.250656
G02 X2537.538963 Y674.489942 Z-0.125000 I-1.952427 J-1.477417
G03 X2538.486337 Y674.973261 Z-0.125000 I0.000000 J1.170153
G03 X2538.969656 Y676.463347 Z-0.125000 I-2.055328 J1.490086
G02 X2540.425371 Y676.148911 Z-0.125000 I0.000000 J-3.526916
G02 X2543.324579 Y674.489942 Z-0.125000 I-7.323018 J-16.160485
G02 X2579.821934 Y677.579745 Z-0.125000 I91.267053 J-860.962221
G02 X2604.292770 Y678.354535 Z-0.125000 I24.470835 J-386.054255
G01 X2604.292770 Y678.354535 Z-0.125000
G00 Z5.000000

(End cutting path id: path52588)


(Start cutting path id: path52586)
(Change tool to Default tool)

G00 Z5.000000
G00 X2470.847264 Y678.354535

G01 Z-0.125000 F100.0(Penetrate)
G02 X2483.347246 Y676.150978 Z-0.125000 I-0.000000 J-36.555725 F400.000000
G02 X2493.274751 Y670.193677 Z-0.125000 I-10.400395 J-28.582132
G02 X2500.689888 Y660.980113 Z-0.125000 I-24.630010 J-27.413052
G02 X2507.179206 Y645.711102 Z-0.125000 I-63.060693 J-35.814231
G01 X2507.179206 Y641.928759 Z-0.125000
G02 X2499.628572 Y626.151105 Z-0.125000 I-42.831680 J10.802184
G02 X2492.683743 Y622.688044 Z-0.125000 I-6.944829 J5.232056
G01 X2491.190697 Y622.688044 Z-0.125000
G01 X2491.190697 Y626.552637 Z-0.125000
G01 X2488.328820 Y624.661449 Z-0.125000
G01 X2486.835774 Y624.661449 Z-0.125000
G01 X2475.202187 Y647.684507 Z-0.125000
G01 X2470.847264 Y647.684507 Z-0.125000
G03 X2462.221883 Y645.996009 Z-0.125000 I-0.000000 J-22.874826
G03 X2456.709511 Y641.928743 Z-0.125000 I5.239985 J-12.870854
G03 X2453.469115 Y635.647174 Z-0.125000 I13.128289 J-10.748905
G03 X2451.996927 Y624.661449 Z-0.125000 I40.252594 J-10.985725
G03 X2457.320606 Y615.360009 Z-0.125000 I10.787497 J-0.000000
G03 X2491.190697 Y601.638390 Z-0.125000 I63.528173 J108.148472
G02 X2508.519375 Y584.858133 Z-0.125000 I-36.079608 J-54.596419
G02 X2512.965068 Y570.886146 Z-0.125000 I-19.732830 J-13.971987
G01 X2512.965068 Y561.348022 Z-0.125000
G02 X2510.010496 Y545.090604 Z-0.125000 I-46.205185 J0.000000
G02 X2502.077883 Y532.384170 Z-0.125000 I-35.543544 J13.360418
G02 X2489.855587 Y523.111847 Z-0.125000 I-33.928208 J32.030850
G02 X2469.416326 Y515.219655 Z-0.125000 I-44.272198 J84.243509
G01 X2454.920863 Y515.219655 Z-0.125000
G01 X2456.351801 Y519.084248 Z-0.125000
G01 X2454.920863 Y519.084248 Z-0.125000
G02 X2453.949638 Y516.190880 Z-0.125000 I-4.795416 J-0.000000
G02 X2451.996927 Y515.219655 Z-0.125000 I-1.952711 J1.477413
G03 X2450.621807 Y517.651922 Z-0.125000 I-2.838617 J-0.000000
G03 X2436.008344 Y524.839996 Z-0.125000 I-49.719119 J-82.630984
G02 X2427.717348 Y536.666482 Z-0.125000 I21.208527 J23.687764
G02 X2424.436841 Y553.618836 Z-0.125000 I42.161254 J16.952354
G02 X2431.262608 Y570.213745 Z-0.125000 I35.163098 J-4.761947
G02 X2440.363218 Y574.750739 Z-0.125000 I9.100610 J-6.858811
G01 X2443.287203 Y574.750739 Z-0.125000
G03 X2444.473253 Y570.655715 Z-0.125000 I7.662378 J-0.000000
G03 X2450.566038 Y563.239177 Z-0.125000 I32.826098 J20.756153
G01 X2450.566038 Y561.348022 Z-0.125000
G01 X2447.642053 Y555.592241 Z-0.125000
G01 X2447.642053 Y549.836492 Z-0.125000
G03 X2449.766258 Y545.874936 Z-0.125000 I4.756172 J-0.000000
G03 X2459.275786 Y542.107307 Z-0.125000 I13.628141 J20.512660
G03 X2476.754560 Y553.084393 Z-0.125000 I-17.054982 J46.560818
G03 X2481.050157 Y563.239177 Z-0.125000 I-9.855145 J10.154784
G01 X2481.050157 Y567.103770 Z-0.125000
G02 X2453.313059 Y579.378973 Z-0.125000 I37.954370 J123.236886
G02 X2436.397200 Y593.539187 Z-0.125000 I34.748185 J58.694336
G02 X2425.558741 Y612.309570 Z-0.125000 I43.976293 J37.907322
G02 X2421.512881 Y636.172978 Z-0.125000 I68.352979 J23.863408
G02 X2427.712410 Y654.641707 Z-0.125000 I30.609428 J-0.000000
G02 X2453.427792 Y678.354535 Z-0.125000 I78.696253 J-59.542229
G01 X2470.847264 Y678.354535 Z-0.125000
G01 X2470.847264 Y678.354535 Z-0.125000
G00 Z5.000000

(End cutting path id: path52586)


(Start cutting path id: path52584)
(Change tool to Default tool)

G00 Z5.000000
G00 X2322.781908 Y693.730657

G01 Z-0.125000 F100.0(Penetrate)
G01 X2331.491632 Y693.730657 Z-0.125000 F400.000000
G02 X2334.553186 Y693.222902 Z-0.125000 I-0.000000 J-9.483828
G02 X2337.277395 Y691.757252 Z-0.125000 I-3.042010 J-8.918773
G02 X2340.176623 Y693.416237 Z-0.125000 I10.222807 J-14.502467
G02 X2341.632245 Y693.730657 Z-0.125000 I1.455622 J-3.212222
G02 X2353.433037 Y682.702895 Z-0.125000 I-25.928947 J-39.574413
G02 X2356.189939 Y674.489942 Z-0.125000 I-10.854954 J-8.212953
G01 X2360.544813 Y674.489942 Z-0.125000
G03 X2363.606365 Y674.997699 Z-0.125000 I0.000000 J9.483786
G03 X2366.330552 Y676.463347 Z-0.125000 I-3.041971 J8.918619
G02 X2381.204023 Y668.797662 Z-0.125000 I-12.012200 J-41.568959
G02 X2388.104874 Y659.196069 Z-0.125000 I-13.425639 J-16.929952
G01 X2388.104874 Y657.222664 Z-0.125000
G01 X2382.319135 Y661.087225 Z-0.125000
G01 X2382.319135 Y659.196069 Z-0.125000
G02 X2404.447635 Y629.167435 Z-0.125000 I-90.947818 J-90.188367
G02 X2409.879196 Y607.394139 Z-0.125000 I-40.925118 J-21.773296
G01 X2409.879196 Y603.529578 Z-0.125000
G02 X2409.403910 Y602.113677 Z-0.125000 I-2.346665 J0.000000
G02 X2408.448307 Y601.638390 Z-0.125000 I-0.955603 J0.723018
G02 X2412.412375 Y587.518736 Z-0.125000 I-262.853909 J-81.412054
G02 X2412.803181 Y584.371080 Z-0.125000 I-12.480625 J-3.147656
G02 X2408.732280 Y560.195813 Z-0.125000 I-73.818519 J0.000000
G02 X2396.814598 Y538.242714 Z-0.125000 I-72.411412 J25.098567
G02 X2366.214374 Y510.197747 Z-0.125000 I-83.319113 J60.193923
G02 X2335.846506 Y501.816938 Z-0.125000 I-30.367868 J50.828594
G02 X2334.741227 Y501.935553 Z-0.125000 I-0.000000 J5.208893
G02 X2327.136782 Y503.708126 Z-0.125000 I54.534132 J251.152851
G01 X2324.212797 Y503.708126 Z-0.125000
G01 X2324.212797 Y501.816938 Z-0.125000
G01 X2338.770491 Y499.925750 Z-0.125000
G01 X2338.770491 Y497.952345 Z-0.125000
G02 X2337.807711 Y495.132749 Z-0.125000 I-4.610121 J0.000000
G02 X2335.846506 Y494.169969 Z-0.125000 I-1.961205 J1.516119
G01 X2330.060767 Y494.169969 Z-0.125000
G02 X2329.055039 Y494.657336 Z-0.125000 I0.000000 J1.281391
G02 X2328.567671 Y496.061157 Z-0.125000 I1.778110 J1.403821
G01 X2325.643686 Y494.169969 Z-0.125000
G02 X2297.375245 Y510.658261 Z-0.125000 I20.391602 J67.437132
G02 X2273.385318 Y544.080712 Z-0.125000 I76.903157 J80.520411
G02 X2265.044439 Y579.772209 Z-0.125000 I358.835386 J102.677936
G02 X2263.244705 Y599.664985 Z-0.125000 I109.039313 J19.892776
G02 X2266.366869 Y636.681558 Z-0.125000 I220.996480 J-0.000000
G02 X2273.400870 Y659.442737 Z-0.125000 I89.606163 J-15.223975
G02 X2286.729757 Y677.929390 Z-0.125000 I53.830046 J-24.763098
G02 X2303.869364 Y687.974909 Z-0.125000 I30.774856 J-32.863378
G02 X2319.389119 Y693.225816 Z-0.125000 I92.925141 J-249.091818
G02 X2322.781908 Y693.730657 Z-0.125000 I3.392789 J-11.148206
G01 X2322.781908 Y693.730657 Z-0.125000
G00 Z5.000000

(Change tool to Default tool)

G00 Z5.000000
G00 X2303.869364 Y597.773797

G01 Z-0.125000 F100.0(Penetrate)
G02 X2306.350962 Y589.800875 Z-0.125000 I-73.899164 J-27.374011 F400.000000
G02 X2306.793349 Y586.262268 Z-0.125000 I-13.931253 J-3.538607
G01 X2303.869364 Y584.371080 Z-0.125000
G03 X2303.394078 Y585.786982 Z-0.125000 I-2.346665 J-0.000000
G03 X2302.438475 Y586.262268 Z-0.125000 I-0.955603 J-0.723018
G01 X2302.438475 Y578.615299 Z-0.125000
G02 X2304.172722 Y577.496688 Z-0.125000 I0.000000 J-1.903657
G02 X2311.148199 Y559.374617 Z-0.125000 I-153.543482 J-69.504880
G03 X2327.851105 Y546.355147 Z-0.125000 I40.146263 J34.280384
G03 X2345.987119 Y542.107307 Z-0.125000 I18.136014 J36.591638
G01 X2347.480215 Y542.107307 Z-0.125000
G01 X2347.480215 Y544.080712 Z-0.125000
G02 X2344.309902 Y545.265273 Z-0.125000 I0.000000 J4.834731
G02 X2343.125341 Y547.863087 Z-0.125000 I2.256302 J2.597815
G03 X2351.374520 Y551.584686 Z-0.125000 I0.000000 J11.003236
G03 X2373.609387 Y582.397675 Z-0.125000 I-145.427568 J128.370453
G02 X2374.943827 Y602.195138 Z-0.125000 I147.522562 J-0.000000
G02 X2376.471165 Y603.529578 Z-0.125000 I1.527338 J-0.206839
G01 X2375.040276 Y607.394139 Z-0.125000
G01 X2375.040276 Y609.285327 Z-0.125000
G01 X2379.395150 Y609.285327 Z-0.125000
G01 X2379.395150 Y611.176515 Z-0.125000
G01 X2377.964261 Y615.041108 Z-0.125000
G01 X2380.826040 Y615.041108 Z-0.125000
G01 X2379.395150 Y618.905701 Z-0.125000
G01 X2376.471165 Y616.932296 Z-0.125000
G01 X2375.040276 Y616.932296 Z-0.125000
G03 X2373.434053 Y623.055226 Z-0.125000 I-12.473434 J-0.000000
G03 X2370.685426 Y624.661449 Z-0.125000 I-2.748627 J-1.548663
G01 X2370.685426 Y622.688044 Z-0.125000
G01 X2375.040276 Y615.041108 Z-0.125000
G01 X2373.609387 Y615.041108 Z-0.125000
G02 X2372.817267 Y615.434064 Z-0.125000 I0.000000 J0.994853
G02 X2359.051718 Y634.199573 Z-0.125000 I548.736313 J416.960413
G01 X2359.051718 Y630.417230 Z-0.125000
G01 X2354.696843 Y630.417230 Z-0.125000
G03 X2344.465800 Y638.380349 Z-0.125000 I-37.647310 J-37.815392
G03 X2338.770491 Y639.955354 Z-0.125000 I-5.695309 J-9.509784
G02 X2341.152931 Y633.682660 Z-0.125000 I-42.602178 J-19.769574
G02 X2341.632245 Y630.417230 Z-0.125000 I-10.883563 J-3.265430
G03 X2333.922217 Y639.906294 Z-0.125000 I-32.142168 J-18.239268
G03 X2328.567671 Y641.928759 Z-0.125000 I-5.354546 J-6.076939
G03 X2318.618900 Y639.961321 Z-0.125000 I-0.000000 J-26.137764
G03 X2312.236930 Y635.206846 Z-0.125000 I6.126476 J-14.884141
G03 X2308.496020 Y627.881962 Z-0.125000 I15.437969 J-12.502070
G03 X2306.793349 Y615.041108 Z-0.125000 I47.568931 J-12.840854
G03 X2305.687642 Y614.106896 Z-0.125000 I0.000000 J-1.121448
G03 X2303.869364 Y597.773797 Z-0.125000 I142.518748 J-24.133618
G01 X2303.869364 Y597.773797 Z-0.125000
G00 Z5.000000

(End cutting path id: path52584)


(Start cutting path id: path52582)
(Change tool to Default tool)

G00 Z5.000000
G00 X2130.919033 Y686.001504

G01 Z-0.125000 F100.0(Penetrate)
G01 X2136.766978 Y686.001504 Z-0.125000 F400.000000
G02 X2180.279131 Y677.985331 Z-0.125000 I-0.000000 J-122.101066
G02 X2202.089945 Y661.087225 Z-0.125000 I-16.920988 J-44.365287
G02 X2203.131587 Y657.636812 Z-0.125000 I-15.360207 J-6.519516
G02 X2203.520834 Y653.440288 Z-0.125000 I-22.426993 J-4.196523
G01 X2202.089945 Y645.711102 Z-0.125000
G03 X2172.864184 Y654.261123 Z-0.125000 I-136.158545 J-411.193538
G03 X2164.327064 Y655.331476 Z-0.125000 I-8.537119 J-33.510778
G01 X2155.617340 Y655.331476 Z-0.125000
G01 X2155.617340 Y651.466883 Z-0.125000
G01 X2152.693355 Y651.466883 Z-0.125000
G01 X2142.552742 Y653.440288 Z-0.125000
G03 X2144.308363 Y629.483485 Z-0.125000 I277.375988 J8.284149
G03 X2145.476727 Y628.443825 Z-0.125000 I1.168364 J0.136670
G02 X2159.220002 Y625.156120 Z-0.125000 I-5.933617 J-55.172418
G02 X2167.266595 Y620.180179 Z-0.125000 I-8.819980 J-23.256830
G02 X2172.464380 Y612.574184 Z-0.125000 I-13.931096 J-15.099263
G02 X2174.529884 Y601.638390 Z-0.125000 I-27.916991 J-10.935794
G01 X2173.036788 Y588.153456 Z-0.125000
G02 X2169.778916 Y588.490019 Z-0.125000 I0.000000 J15.936126
G02 X2145.476727 Y593.909205 Z-0.125000 I188.287705 J901.571839
G01 X2141.121853 Y593.909205 Z-0.125000
G02 X2138.536530 Y584.982998 Z-0.125000 I-16.702183 J0.000000
G02 X2133.843018 Y582.397675 Z-0.125000 I-4.693512 J2.967746
G03 X2136.593782 Y578.591727 Z-0.125000 I4.008332 J0.000000
G03 X2168.681914 Y570.886146 Z-0.125000 I62.104375 J187.954857
G02 X2186.666185 Y558.226802 Z-0.125000 I-16.585881 J-42.666625
G02 X2191.949332 Y544.080712 Z-0.125000 I-16.297128 J-14.146090
G03 X2190.708891 Y540.250273 Z-0.125000 I29.840341 J-11.779496
G03 X2190.456236 Y538.242714 Z-0.125000 I7.849548 J-2.007559
G01 X2173.036788 Y538.242714 Z-0.125000
G02 X2118.198807 Y551.287637 Z-0.125000 I87.069411 J487.806445
G02 X2114.992681 Y555.592241 Z-0.125000 I1.286657 J4.304604
G01 X2114.992681 Y557.483429 Z-0.125000
G01 X2117.854435 Y557.483429 Z-0.125000
G01 X2117.854435 Y559.374617 Z-0.125000
G02 X2113.770306 Y562.507117 Z-0.125000 I0.000000 J4.228677
G02 X2110.637807 Y586.262268 Z-0.125000 I88.506738 J23.755152
G02 X2108.110904 Y598.806330 Z-0.125000 I200.756327 J46.967321
G02 X2107.713822 Y603.529578 Z-0.125000 I27.892684 J4.723248
G01 X2107.713822 Y607.394139 Z-0.125000
G03 X2112.061281 Y637.216328 Z-0.125000 I-309.914106 J60.407052
G03 X2113.499561 Y666.843006 Z-0.125000 I-304.416144 J29.626677
G01 X2125.133270 Y676.463347 Z-0.125000
G02 X2126.495327 Y681.335016 Z-0.125000 I9.393278 J-0.000000
G02 X2130.919033 Y686.001504 Z-0.125000 I12.976722 J-7.871568
G01 X2130.919033 Y686.001504 Z-0.125000
G00 Z5.000000

(End cutting path id: path52582)


(Start cutting path id: path52580)
(Change tool to Default tool)

G00 Z5.000000
G00 X2014.706357 Y686.001504

G01 Z-0.125000 F100.0(Penetrate)
G02 X2019.385613 Y682.421987 Z-0.125000 I0.000000 J-4.848193 F400.000000
G02 X2029.264051 Y632.308385 Z-0.125000 I-351.729957 J-95.363748
G01 X2042.328649 Y632.308385 Z-0.125000
G02 X2052.793644 Y629.503362 Z-0.125000 I-0.000000 J-20.923942
G02 X2065.533836 Y618.905701 Z-0.125000 I-24.483073 J-42.389588
G01 X2065.533836 Y622.688044 Z-0.125000
G03 X2064.961858 Y641.900390 Z-0.125000 I-322.950584 J0.000000
G03 X2062.672082 Y670.707598 Z-0.125000 I-728.715886 J-43.428261
G01 X2065.533836 Y670.707598 Z-0.125000
G01 X2065.533836 Y668.734193 Z-0.125000
G03 X2071.159505 Y626.064001 Z-0.125000 I657.165145 J64.935179
G03 X2072.812695 Y624.661449 Z-0.125000 I1.653190 J0.273034
G01 X2072.812695 Y630.417230 Z-0.125000
G03 X2072.483529 Y636.810815 Z-0.125000 I-62.257792 J-0.000000
G03 X2068.457821 Y672.598786 Z-0.125000 I-1959.692534 J-202.320996
G01 X2068.457821 Y678.354535 Z-0.125000
G01 X2069.888710 Y678.354535 Z-0.125000
G02 X2078.572394 Y674.896691 Z-0.125000 I0.000000 J-12.632591
G02 X2088.132482 Y661.087233 Z-0.125000 I-28.039731 J-29.625384
G02 X2093.649681 Y643.373621 Z-0.125000 I-88.997580 J-37.435794
G02 X2098.941867 Y609.285327 Z-0.125000 I-326.759502 J-68.184156
G02 X2092.343919 Y540.111400 Z-0.125000 I-1288.964561 J88.042407
G02 X2090.232143 Y538.242714 Z-0.125000 I-2.111776 J0.258901
G02 X2087.240446 Y529.580723 Z-0.125000 I-46.589148 J11.243427
G02 X2085.877293 Y528.704589 Z-0.125000 I-1.363153 J0.622379
G02 X2074.722567 Y532.045351 Z-0.125000 I0.000000 J20.293067
G02 X2071.381806 Y538.242714 Z-0.125000 I4.077905 J6.197363
G01 X2069.888710 Y538.242714 Z-0.125000
G03 X2068.703884 Y534.496666 Z-0.125000 I29.255975 J-11.313685
G03 X2068.457821 Y532.486965 Z-0.125000 I8.084018 J-2.009701
G02 X2065.835114 Y534.971873 Z-0.125000 I0.962934 J3.642861
G02 X2064.102971 Y545.971900 Z-0.125000 I34.061943 J11.000027
G01 X2062.672082 Y545.971900 Z-0.125000
G01 X2062.672082 Y540.216119 Z-0.125000
G01 X2059.748097 Y540.216119 Z-0.125000
G03 X2057.071709 Y547.160105 Z-0.125000 I-10.346406 J-0.000000
G03 X2051.038373 Y549.836492 Z-0.125000 I-6.033336 J-5.462230
G01 X2051.038373 Y553.618836 Z-0.125000
G01 X2056.824112 Y580.506487 Z-0.125000
G02 X2052.384679 Y581.852794 Z-0.125000 I0.000000 J7.992646
G02 X2051.038373 Y584.371080 Z-0.125000 I1.682093 J2.518286
G01 X2051.038373 Y586.262268 Z-0.125000
G01 X2033.618925 Y586.262268 Z-0.125000
G02 X2032.246991 Y582.986987 Z-0.125000 I-4.595583 J-0.000000
G02 X2027.770955 Y580.506487 Z-0.125000 I-6.694878 J6.802108
G02 X2024.284140 Y547.727597 Z-0.125000 I-155.817486 J0.000000
G02 X2016.199453 Y526.731184 Z-0.125000 I-70.965009 J15.270426
G01 X2004.565744 Y526.731184 Z-0.125000
G03 X2003.371047 Y533.265673 Z-0.125000 I-18.467795 J0.000000
G03 X2001.641759 Y534.460370 Z-0.125000 I-1.729288 J-0.654197
G01 X2001.641759 Y528.704589 Z-0.125000
G01 X2000.210894 Y528.704589 Z-0.125000
G01 X1995.856020 Y532.486965 Z-0.125000
G02 X1990.926549 Y529.278567 Z-0.125000 I-18.824713 J23.531717
G02 X1988.577185 Y528.704589 Z-0.125000 I-2.349364 J4.521135
G02 X1983.771127 Y539.964369 Z-0.125000 I67.723496 J35.562282
G02 X1982.791422 Y545.971900 Z-0.125000 I17.929161 J6.007530
G03 X1992.968563 Y609.171863 Z-0.125000 I-1383.327534 J255.177751
G03 X1994.425130 Y630.417230 Z-0.125000 I-154.213245 J21.245367
G03 X1994.176571 Y641.920708 Z-0.125000 I-266.318518 J-0.000000
G03 X1992.932035 Y664.951818 Z-0.125000 I-1069.130789 J-46.223642
G02 X1997.021712 Y677.097387 Z-0.125000 I20.079864 J0.000000
G02 X2008.920618 Y686.001504 Z-0.125000 I21.503297 J-16.333130
G01 X2014.706357 Y686.001504 Z-0.125000
G01 X2014.706357 Y686.001504 Z-0.125000
G00 Z5.000000

(Change tool to Default tool)

G00 Z5.000000
G00 X1988.577185 Y547.863087

G01 Z-0.125000 F100.0(Penetrate)
G01 X1988.577185 Y540.216119 Z-0.125000 F400.000000
G01 X1994.425130 Y540.216119 Z-0.125000
G02 X1996.057687 Y543.251818 Z-0.125000 I3.638684 J0.000000
G02 X2003.134854 Y545.971900 Z-0.125000 I9.706705 J-14.688315
G02 X2003.610141 Y547.387801 Z-0.125000 I2.346665 J-0.000000
G02 X2004.565744 Y547.863087 Z-0.125000 I0.955603 J-0.723018
G01 X2007.489729 Y545.971900 Z-0.125000
G01 X2007.489729 Y553.618836 Z-0.125000
G02 X1998.543214 Y557.223463 Z-0.125000 I9.246281 J35.853564
G02 X1997.286909 Y559.374617 Z-0.125000 I1.213544 J2.151154
G03 X1993.469196 Y556.718863 Z-0.125000 I2.162326 J-7.180304
G03 X1988.577185 Y547.863087 Z-0.125000 I28.301137 J-21.412889
G01 X1988.577185 Y547.863087 Z-0.125000
G00 Z5.000000

