%
(Header)
(Generated by gcodetools from Inkscape.)
(Using default header. To add your own header create file "header" in the output dir.)
M3
(Header end.)
G21 (All units in mm)

(Start cutting path id: path4183)
(Change tool to Default tool)

G00 Z5.000000
G00 X2821.969114 Y20.078313

G01 Z-0.125000 F100.0(Penetrate)
G03 X2838.041527 Y23.030890 Z-0.125000 I-12.143316 J111.323933 F400.000000
G03 X2850.881905 Y27.605603 Z-0.125000 I-19.639941 J75.433350
G03 X2863.621091 Y34.803954 Z-0.125000 I-36.097728 J78.755154
G03 X2877.581821 Y45.827834 Z-0.125000 I-72.188584 J105.772129
G03 X2891.682205 Y60.434181 Z-0.125000 I-104.958968 J115.432349
G03 X2929.963113 Y107.681912 Z-0.125000 I-1068.061883 J904.493501
G02 X2978.328342 Y166.118686 Z-0.125000 I932.491122 J-722.543663
G02 X3021.467178 Y211.271884 Z-0.125000 I599.341382 J-529.419960
G03 X3043.354053 Y233.330457 Z-0.125000 I-535.884321 J553.600709
G03 X3048.922602 Y240.081933 Z-0.125000 I-44.249810 J42.168973
G03 X3053.716197 Y249.354333 Z-0.125000 I-30.283140 J21.530896
G03 X3055.434033 Y258.712994 Z-0.125000 I-29.152412 J10.188084
G02 X3056.234587 Y264.824189 Z-0.125000 I29.833318 J-0.800070
G02 X3057.721162 Y268.321345 Z-0.125000 I11.038495 J-2.627720
G03 X3059.278568 Y271.806556 Z-0.125000 I-10.753188 J6.895763
G03 X3060.162949 Y277.136398 Z-0.125000 I-24.644429 J6.827543
G03 X3059.386429 Y285.894496 Z-0.125000 I-29.956315 J1.757454
G03 X3055.542689 Y296.394224 Z-0.125000 I-47.187273 J-11.320892
G01 X3053.049256 Y301.347079 Z-0.125000
G01 X3055.652473 Y306.903359 Z-0.125000
G03 X3060.221110 Y318.599473 Z-0.125000 I-86.571943 J40.556332
G03 X3063.815751 Y332.684288 Z-0.125000 I-122.084173 J38.658696
G03 X3065.803910 Y353.202473 Z-0.125000 I-104.947597 J20.524565
G03 X3063.815751 Y374.196460 Z-0.125000 I-111.766801 J0.006668
G03 X3049.100188 Y415.149881 Z-0.125000 I-137.329643 J-26.225349
G03 X3024.127122 Y446.635482 Z-0.125000 I-104.564581 J-57.289668
G03 X3006.469019 Y459.781175 Z-0.125000 I-80.871846 J-90.199464
G03 X2986.789968 Y469.474126 Z-0.125000 I-62.781209 J-102.638028
G02 X2981.012226 Y472.293683 Z-0.125000 I13.153535 J34.283348
G02 X2980.042882 Y473.533746 Z-0.125000 I1.134706 J1.885881
G03 X2979.426014 Y475.159509 Z-0.125000 I-12.808291 J-3.929975
G03 X2975.847084 Y482.740769 Z-0.125000 I-283.213834 J-129.063018
G03 X2952.972430 Y514.955202 Z-0.125000 I-109.409384 J-53.460263
G03 X2926.599870 Y532.482535 Z-0.125000 I-55.586662 J-55.034208
G03 X2919.469214 Y535.240123 Z-0.125000 I-104.100702 J-258.588719
G03 X2917.081079 Y536.014309 Z-0.125000 I-10.448310 J-28.159493
G01 X2914.658766 Y536.689007 Z-0.125000
G01 X2918.090024 Y542.576871 Z-0.125000
G03 X2940.333467 Y588.259556 Z-0.125000 I-294.747260 J171.772592
G03 X2949.096368 Y620.527414 Z-0.125000 I-137.268002 J54.601316
G03 X2950.422837 Y639.287188 Z-0.125000 I-114.578559 J17.528418
G03 X2948.713393 Y656.558668 Z-0.125000 I-98.700917 J-1.048582
G03 X2940.870434 Y681.665078 Z-0.125000 I-111.529450 J-21.062308
G03 X2926.714453 Y705.964435 Z-0.125000 I-118.527332 J-52.776932
G03 X2895.834497 Y735.924585 Z-0.125000 I-105.719494 J-78.071109
G03 X2858.534079 Y753.196948 Z-0.125000 I-68.309367 J-98.604923
G03 X2791.199106 Y755.413898 Z-0.125000 I-38.432480 J-143.617696
G03 X2715.202188 Y724.790181 Z-0.125000 I42.747848 J-215.694794
G03 X2685.194247 Y701.005208 Z-0.125000 I103.800481 J-161.780274
G03 X2651.957881 Y663.464675 Z-0.125000 I229.424420 J-236.603133
G03 X2640.934139 Y647.983506 Z-0.125000 I254.716753 J-193.042699
G03 X2616.045640 Y609.717992 Z-0.125000 I1532.991912 J-1024.309041
G02 X2596.184687 Y578.553481 Z-0.125000 I-5031.316063 J3184.516236
G02 X2590.317020 Y569.621289 Z-0.125000 I-419.341645 J269.077308
G01 X2584.353213 Y560.751725 Z-0.125000
G01 X2564.086750 Y549.823293 Z-0.125000
G03 X2534.831556 Y533.031505 Z-0.125000 I301.838618 J-559.753533
G03 X2522.611711 Y524.532146 Z-0.125000 I64.472548 J-105.728727
G03 X2510.180446 Y513.124773 Z-0.125000 I70.086153 J-88.854090
G03 X2503.365792 Y504.026159 Z-0.125000 I37.459578 J-35.157684
G03 X2499.163938 Y494.258830 Z-0.125000 I36.541416 J-21.507401
G03 X2497.309444 Y483.007887 Z-0.125000 I46.857180 J-13.501780
G03 X2498.092391 Y470.291442 Z-0.125000 I59.206721 J-2.736989
G03 X2501.629335 Y457.716136 Z-0.125000 I61.431292 J10.493176
G01 X2503.942937 Y451.909640 Z-0.125000
G01 X2494.998919 Y444.638946 Z-0.125000
G03 X2480.647989 Y431.727417 Z-0.125000 I121.620571 J-149.610224
G03 X2467.766224 Y417.550997 Z-0.125000 I133.862829 J-134.578746
G03 X2441.881456 Y376.280271 Z-0.125000 I148.744618 J-122.044545
G03 X2427.489839 Y330.475326 Z-0.125000 I169.620665 J-78.457064
G03 X2425.893988 Y311.248228 Z-0.125000 I102.488678 J-18.186348
G03 X2427.810698 Y298.347413 Z-0.125000 I47.576086 J0.475717
G03 X2431.959381 Y288.848299 Z-0.125000 I39.346199 J11.528710
G03 X2434.268507 Y287.538001 Z-0.125000 I2.309126 J1.379526
G03 X2434.739247 Y287.782660 Z-0.125000 I0.000000 J0.575197
G03 X2435.428609 Y289.189477 Z-0.125000 I-4.111751 J2.887129
G02 X2439.174170 Y298.601096 Z-0.125000 I60.821323 J-18.754059
G02 X2447.208452 Y313.060194 Z-0.125000 I152.173400 J-75.094343
G02 X2454.679388 Y323.160157 Z-0.125000 I65.978939 J-40.991467
G02 X2461.380213 Y329.289225 Z-0.125000 I30.572872 J-26.697404
G02 X2470.414161 Y334.399156 Z-0.125000 I26.833647 J-36.899129
G02 X2476.226626 Y335.579756 Z-0.125000 I5.812465 J-13.717995
G02 X2480.506727 Y334.046874 Z-0.125000 I-0.000000 J-6.741875
G02 X2491.208872 Y323.269052 Z-0.125000 I-47.768521 J-58.135523
G02 X2494.496280 Y318.978428 Z-0.125000 I-77.753338 J-62.978050
G02 X2499.689114 Y311.558902 Z-0.125000 I-227.595129 J-164.817984
G03 X2508.561814 Y299.599319 Z-0.125000 I140.998103 J95.334063
G03 X2509.929914 Y298.947921 Z-0.125000 I1.368100 J1.110978
G03 X2510.646087 Y299.686594 Z-0.125000 I0.000000 J0.716515
G03 X2508.982155 Y329.574544 Z-0.125000 I-606.077806 J-18.751460
G02 X2510.917871 Y370.662142 Z-0.125000 I161.387136 J12.986137
G02 X2521.677414 Y401.609506 Z-0.125000 I101.170615 J-17.830146
G02 X2528.729054 Y413.062635 Z-0.125000 I103.660090 J-55.925649
G02 X2534.220329 Y419.593660 Z-0.125000 I38.882339 J-27.118171
G01 X2535.673605 Y421.035764 Z-0.125000
G01 X2540.376273 Y418.468406 Z-0.125000
G03 X2550.495096 Y413.763694 Z-0.125000 I41.478420 J75.977102
G03 X2563.563313 Y409.456026 Z-0.125000 I47.680001 J122.670865
G03 X2577.186613 Y406.770334 Z-0.125000 I25.569166 J93.805540
G03 X2595.680569 Y405.479856 Z-0.125000 I21.293656 J171.996839
G01 X2610.243489 Y405.244598 Z-0.125000
G01 X2611.651919 Y397.285548 Z-0.125000
G02 X2612.786155 Y385.227072 Z-0.125000 I-73.377670 J-12.984580
G02 X2611.932420 Y374.719767 Z-0.125000 I-56.450758 J-0.701623
G03 X2609.543779 Y353.508330 Z-0.125000 I168.442671 J-29.708712
G03 X2609.783411 Y331.515784 Z-0.125000 I181.368070 J-9.021381
G03 X2610.872021 Y319.089162 Z-0.125000 I390.970278 J27.989201
G03 X2611.696228 Y313.060194 Z-0.125000 I92.925412 J9.632812
G03 X2612.719963 Y307.055409 Z-0.125000 I7073.932654 J1202.919573
G03 X2613.242016 Y304.015672 Z-0.125000 I1909.245746 J326.334664
G01 X2613.766808 Y300.976364 Z-0.125000
G01 X2607.722116 Y300.232480 Z-0.125000
G03 X2585.482917 Y293.495364 Z-0.125000 I8.306092 J-67.492710
G03 X2577.066263 Y284.820087 Z-0.125000 I8.264762 J-16.438886
G03 X2575.363379 Y277.566673 Z-0.125000 I16.592479 J-7.722016
G03 X2576.652638 Y268.667144 Z-0.125000 I26.648954 J-0.682564
G03 X2580.523504 Y260.606098 Z-0.125000 I31.754772 J10.288546
G03 X2588.532134 Y250.615104 Z-0.125000 I57.174263 J37.624728
G02 X2592.474376 Y246.439875 Z-0.125000 I-162.498443 J-157.379422
G02 X2592.458663 Y246.349355 Z-0.125000 I-0.042615 J-0.039226
G02 X2592.315069 Y246.321693 Z-0.125000 I-0.121934 J0.246431
G02 X2583.358887 Y247.072030 Z-0.125000 I75.021961 J949.304734
G03 X2499.768849 Y245.757058 Z-0.125000 I-35.499922 J-400.823775
G03 X2470.056401 Y233.433376 Z-0.125000 I7.119522 J-59.145452
G03 X2463.801386 Y226.081396 Z-0.125000 I15.072127 J-19.160119
G03 X2461.890301 Y218.684287 Z-0.125000 I13.360209 J-7.397109
G03 X2462.537057 Y214.222642 Z-0.125000 I15.712715 J0.000000
G03 X2464.543416 Y209.724189 Z-0.125000 I17.993284 J5.328545
G03 X2470.849204 Y202.586668 Z-0.125000 I23.648717 J14.538692
G03 X2481.231865 Y196.371962 Z-0.125000 I27.994930 J34.989710
G03 X2517.623657 Y187.971490 Z-0.125000 I41.670204 J97.493120
G03 X2607.823942 Y190.061701 Z-0.125000 I30.803960 J617.977890
G02 X2618.053695 Y190.913470 Z-0.125000 I37.809817 J-392.240697
G02 X2618.398075 Y190.803133 Z-0.125000 I0.034109 J-0.486143
G02 X2618.584268 Y190.484383 Z-0.125000 I-0.350478 J-0.418483
G02 X2621.401032 Y174.639860 Z-0.125000 I-1013.801594 J-188.401458
G03 X2631.432389 Y124.711183 Z-0.125000 I832.974353 J141.383939
G03 X2639.704928 Y96.530068 Z-0.125000 I250.588283 J58.255189
G03 X2651.962474 Y70.731145 Z-0.125000 I133.531568 J47.631966
G03 X2663.366828 Y56.992819 Z-0.125000 I51.655153 J31.276969
G03 X2672.715394 Y50.722956 Z-0.125000 I27.113732 J30.323001
G03 X2696.837223 Y40.492756 Z-0.125000 I112.560346 J231.852909
G03 X2721.476814 Y32.459568 Z-0.125000 I126.709803 J346.843257
G03 X2749.786518 Y25.421627 Z-0.125000 I110.795667 J385.212999
G03 X2791.313067 Y19.544882 Z-0.125000 I64.755577 J307.922256
G03 X2821.967223 Y20.078313 Z-0.125000 I12.413577 J167.693972
G01 X2821.969114 Y20.078313 Z-0.125000
G00 Z5.000000

(Change tool to Default tool)

G00 Z5.000000
G00 X2778.698153 Y29.062519

G01 Z-0.125000 F100.0(Penetrate)
G02 X2709.119747 Y42.485471 Z-0.125000 I34.884377 J367.867258 F400.000000
G02 X2673.860753 Y59.960392 Z-0.125000 I32.216546 J109.311383
G02 X2661.498493 Y71.957306 Z-0.125000 I37.413854 J50.921054
G02 X2651.100998 Y89.065580 Z-0.125000 I67.228008 J52.571247
G02 X2644.072828 Y108.610008 Z-0.125000 I113.475013 J51.841456
G02 X2635.327880 Y147.916887 Z-0.125000 I452.933063 J121.394236
G02 X2628.441563 Y189.681897 Z-0.125000 I1659.922703 J295.142349
G02 X2628.828162 Y190.674389 Z-0.125000 I1.055406 J0.160436
G02 X2629.289942 Y190.796153 Z-0.125000 I0.368842 J-0.462292
G02 X2639.043788 Y189.046113 Z-0.125000 I-39.467753 J-248.030123
G02 X2648.515429 Y186.644650 Z-0.125000 I-18.779112 J-93.946267
G02 X2649.506386 Y185.817350 Z-0.125000 I-0.493066 J-1.597749
G02 X2649.981423 Y184.485583 Z-0.125000 I-4.619172 J-2.398248
G02 X2652.852103 Y169.835616 Z-0.125000 I-567.614790 J-118.831083
G03 X2661.593897 Y126.716129 Z-0.125000 I1115.992982 J203.804074
G03 X2666.636908 Y108.021832 Z-0.125000 I214.460980 J47.826067
G03 X2676.718219 Y88.285531 Z-0.125000 I64.421274 J20.463494
G03 X2693.366577 Y72.215466 Z-0.125000 I56.241125 J41.606242
G03 X2714.489223 Y61.246477 Z-0.125000 I55.065935 J80.216668
G03 X2749.434898 Y51.184099 Z-0.125000 I83.551579 J224.453956
G03 X2788.184650 Y45.613069 Z-0.125000 I64.551814 J311.446369
G03 X2812.892141 Y46.259563 Z-0.125000 I9.354764 J114.937436
G03 X2836.003477 Y52.973343 Z-0.125000 I-10.778650 J80.239943
G03 X2855.139792 Y65.383342 Z-0.125000 I-33.398594 J72.460062
G03 X2863.854940 Y74.332117 Z-0.125000 I-51.540986 J58.913598
G03 X2885.625155 Y102.147813 Z-0.125000 I-481.808237 J399.518890
G02 X2926.143687 Y154.433187 Z-0.125000 I1136.231632 J-838.679718
G02 X2953.115213 Y185.147702 Z-0.125000 I418.462056 J-340.267068
G03 X2990.861483 Y225.671404 Z-0.125000 I-2343.066072 J2220.317376
G03 X3003.041171 Y239.678014 Z-0.125000 I-267.365822 J244.791375
G01 X3008.396902 Y246.165272 Z-0.125000
G01 X3019.788520 Y245.956411 Z-0.125000
G03 X3030.959724 Y245.969434 Z-0.125000 I5.251611 J286.506655
G03 X3031.180138 Y246.194449 Z-0.125000 I-0.004649 J0.225015
G03 X3030.352486 Y247.572146 Z-0.125000 I-1.560474 J-0.000000
G03 X3022.073955 Y251.038195 Z-0.125000 I-22.851689 J-42.960916
G03 X3010.391302 Y253.016076 Z-0.125000 I-13.045209 J-41.561886
G03 X2996.878566 Y251.826724 Z-0.125000 I-1.785872 J-57.066603
G03 X2983.288630 Y246.855839 Z-0.125000 I10.371928 J-49.418142
G03 X2974.758271 Y239.901367 Z-0.125000 I13.860716 J-25.710469
G03 X2972.440046 Y236.882552 Z-0.125000 I34.310567 J-28.747474
G03 X2972.473117 Y236.648570 Z-0.125000 I0.141425 J-0.099339
G03 X2972.761818 Y236.596446 Z-0.125000 I0.192299 J0.239516
G03 X2979.361880 Y238.925747 Z-0.125000 I-54.829302 J165.873768
G02 X2992.142504 Y243.310102 Z-0.125000 I82.365720 J-219.280163
G02 X2994.706584 Y243.699751 Z-0.125000 I2.564080 J-8.241616
G02 X2994.827698 Y243.455621 Z-0.125000 I0.000000 J-0.152107
G02 X2987.976148 Y234.842046 Z-0.125000 I-197.350668 J149.948083
G02 X2935.417210 Y185.238876 Z-0.125000 I-231.656105 J192.813095
G02 X2892.342608 Y164.188059 Z-0.125000 I-78.818418 J106.684360
G02 X2874.852620 Y160.699923 Z-0.125000 I-31.652573 J113.117637
G02 X2852.650028 Y159.367142 Z-0.125000 I-22.028564 J181.369272
G02 X2833.274886 Y160.236438 Z-0.125000 I-0.000000 J216.354172
G02 X2809.063176 Y163.267871 Z-0.125000 I31.326670 J348.406410
G02 X2781.709650 Y168.216811 Z-0.125000 I113.023432 J702.765235
G02 X2693.914985 Y186.431889 Z-0.125000 I1460.272895 J7259.041913
G03 X2607.077258 Y203.735608 Z-0.125000 I-664.258783 J-3106.997865
G03 X2565.806443 Y210.108567 Z-0.125000 I-128.452349 J-695.028130
G03 X2531.719907 Y212.748398 Z-0.125000 I-45.492326 J-366.025520
G03 X2525.020506 Y211.370061 Z-0.125000 I-0.456400 J-14.752043
G03 X2524.307898 Y210.855355 Z-0.125000 I1.002717 J-2.138910
G03 X2524.377011 Y210.689298 Z-0.125000 I0.071464 J-0.067667
G02 X2525.146807 Y210.626206 Z-0.125000 I-0.000000 J-4.727738
G02 X2548.280612 Y206.762173 Z-0.125000 I-980.092059 J-5938.953294
G02 X2596.664156 Y198.061482 Z-0.125000 I-390.128946 J-2308.340135
G02 X2597.179959 Y197.438028 Z-0.125000 I-0.118885 J-0.623454
G02 X2596.809909 Y197.032880 Z-0.125000 I-0.406813 J0.000000
G02 X2570.288386 Y194.997006 Z-0.125000 I-86.601693 J954.401542
G02 X2539.804695 Y194.308372 Z-0.125000 I-23.811952 J379.027668
G02 X2517.633508 Y195.916732 Z-0.125000 I3.561829 J202.718429
G02 X2480.298524 Y206.515631 Z-0.125000 I16.605049 J129.548181
G02 X2473.358486 Y215.994021 Z-0.125000 I4.942187 J10.898578
G02 X2479.199751 Y227.143391 Z-0.125000 I11.042058 J1.319791
G02 X2514.264283 Y237.637205 Z-0.125000 I43.977295 J-83.117774
G02 X2545.550618 Y238.940422 Z-0.125000 I27.858507 J-292.602179
G02 X2590.083622 Y236.752907 Z-0.125000 I-6.949657 J-595.870697
G02 X2639.398926 Y230.163255 Z-0.125000 I-46.402178 J-535.088721
G02 X2710.686238 Y214.910355 Z-0.125000 I-205.499344 J-1134.653881
G03 X2743.336344 Y207.541388 Z-0.125000 I196.733465 J795.661465
G03 X2744.898542 Y207.919933 Z-0.125000 I0.378316 J1.851495
G03 X2744.817507 Y208.578396 Z-0.125000 I-0.244593 J0.304116
G03 X2730.186439 Y214.710296 Z-0.125000 I-93.466789 J-202.495932
G03 X2677.054858 Y231.355861 Z-0.125000 I-170.549680 J-451.264605
G03 X2616.975167 Y243.119807 Z-0.125000 I-141.963192 J-565.722162
G02 X2608.013317 Y244.404218 Z-0.125000 I424.948257 J2996.942241
G02 X2606.253290 Y244.672825 Z-0.125000 I16.788798 J115.907634
G02 X2606.046938 Y245.213449 Z-0.125000 I0.052955 J0.329906
G02 X2607.998101 Y246.820101 Z-0.125000 I4.947849 J-4.020706
G03 X2614.709660 Y253.428650 Z-0.125000 I-7.783894 J14.617587
G03 X2616.320496 Y261.882711 Z-0.125000 I-12.101453 J6.686304
G02 X2616.671785 Y264.303228 Z-0.125000 I4.509281 J0.581320
G02 X2617.544691 Y264.650041 Z-0.125000 I0.613095 J-0.271189
G02 X2619.190265 Y263.894270 Z-0.125000 I-10.846580 J-25.786138
G02 X2621.270363 Y262.790397 Z-0.125000 I-21.049869 J-42.177352
G03 X2622.784699 Y262.775669 Z-0.125000 I0.770547 J1.368343
G03 X2622.995242 Y263.511931 Z-0.125000 I-0.253083 J0.470607
G03 X2621.537242 Y265.481381 Z-0.125000 I-9.111029 J-5.220560
G03 X2617.846923 Y268.765092 Z-0.125000 I-20.157059 J-18.937530
G03 X2603.385366 Y274.829984 Z-0.125000 I-19.588601 J-26.434419
G03 X2589.911297 Y273.172177 Z-0.125000 I-3.842350 J-24.355886
G03 X2587.802446 Y272.105893 Z-0.125000 I6.913297 J-16.291363
G03 X2587.842637 Y271.946294 Z-0.125000 I0.043757 J-0.073841
G02 X2603.708158 Y269.809615 Z-0.125000 I-3.611871 J-86.790866
G02 X2608.198027 Y267.262733 Z-0.125000 I-2.024863 J-8.800621
G02 X2609.668360 Y263.359510 Z-0.125000 I-3.821049 J-3.667925
G02 X2607.722822 Y256.577435 Z-0.125000 I-15.140845 J0.673285
G02 X2603.064494 Y251.033592 Z-0.125000 I-17.180035 J9.706828
G02 X2599.352562 Y249.704966 Z-0.125000 I-3.711932 J4.520905
G02 X2597.065834 Y250.723299 Z-0.125000 I-0.000000 J3.076661
G02 X2587.965178 Y262.356051 Z-0.125000 I79.602276 J71.651518
G02 X2583.663401 Y277.557979 Z-0.125000 I20.854094 J14.110816
G02 X2589.043069 Y287.207853 Z-0.125000 I12.301763 J-0.533577
G02 X2597.312270 Y291.180626 Z-0.125000 I17.355883 J-25.533299
G02 X2612.493196 Y294.429504 Z-0.125000 I26.020634 J-84.493626
G01 X2615.481139 Y294.798598 Z-0.125000
G01 X2616.869644 Y289.817030 Z-0.125000
G03 X2621.195169 Y278.089531 Z-0.125000 I73.929629 J20.606467
G03 X2626.359620 Y269.388246 Z-0.125000 I45.611552 J21.188439
G03 X2638.815592 Y258.321712 Z-0.125000 I32.447846 J23.978579
G03 X2653.255906 Y254.044993 Z-0.125000 I16.333080 J28.631366
G03 X2659.802897 Y254.642467 Z-0.125000 I1.276447 J22.181961
G03 X2678.601663 Y260.233689 Z-0.125000 I-46.920676 J192.154512
G02 X2722.212474 Y269.682472 Z-0.125000 I59.303081 J-168.345936
G02 X2756.828301 Y267.138019 Z-0.125000 I9.494329 J-107.571540
G02 X2775.514337 Y261.286195 Z-0.125000 I-33.172837 J-138.687483
G02 X2808.951134 Y246.789398 Z-0.125000 I-179.652669 J-460.177391
G03 X2864.700249 Y225.442020 Z-0.125000 I160.509958 J335.706369
G03 X2898.215935 Y220.598623 Z-0.125000 I33.712248 J114.900608
G03 X2909.735927 Y221.053972 Z-0.125000 I0.256068 J139.473085
G03 X2915.364604 Y221.985804 Z-0.125000 I-2.771716 J34.208121
G03 X2933.702388 Y229.852641 Z-0.125000 I-15.523116 J61.491078
G03 X2963.066651 Y252.106996 Z-0.125000 I-115.452193 J182.837323
G02 X2985.740430 Y269.995941 Z-0.125000 I146.987522 J-162.989225
G02 X2999.342084 Y277.038450 Z-0.125000 I34.966062 J-50.876092
G02 X3009.307967 Y279.644350 Z-0.125000 I18.286094 J-49.573010
G02 X3019.323982 Y280.224702 Z-0.125000 I7.892930 J-49.499284
G02 X3034.679447 Y276.136999 Z-0.125000 I-1.557487 J-36.735980
G02 X3042.575530 Y268.803077 Z-0.125000 I-9.274277 J-17.902799
G02 X3045.215899 Y258.654302 Z-0.125000 I-15.245931 J-9.384332
G02 X3040.979740 Y245.042336 Z-0.125000 I-27.806321 J1.188415
G02 X3036.187177 Y238.879052 Z-0.125000 I-33.030825 J20.739747
G02 X3017.387373 Y220.279356 Z-0.125000 I-323.912293 J308.596281
G03 X2967.854738 Y169.489979 Z-0.125000 I510.146105 J-547.071144
G03 X2915.413428 Y105.279789 Z-0.125000 I764.427889 J-677.838188
G02 X2875.689044 Y57.446154 Z-0.125000 I-509.661401 J382.846590
G02 X2857.569443 Y42.163289 Z-0.125000 I-68.299303 J62.593833
G02 X2841.764095 Y33.853222 Z-0.125000 I-54.794611 J85.031173
G02 X2827.305625 Y29.521469 Z-0.125000 I-27.862420 J66.703308
G02 X2809.355572 Y27.757276 Z-0.125000 I-18.913387 J100.237265
G02 X2778.698097 Y29.062999 Z-0.125000 I-2.787201 J295.119421
G01 X2778.698153 Y29.062519 Z-0.125000
G00 Z5.000000

(Change tool to Default tool)

G00 Z5.000000
G00 X2781.085866 Y54.235957

G01 Z-0.125000 F100.0(Penetrate)
G02 X2744.534939 Y60.642822 Z-0.125000 I35.278897 J308.729056 F400.000000
G02 X2716.787290 Y69.512383 Z-0.125000 I44.275665 J186.350394
G02 X2696.125080 Y80.822798 Z-0.125000 I38.481962 J94.828401
G02 X2683.905268 Y92.797735 Z-0.125000 I31.206487 J44.066945
G02 X2678.503845 Y102.362589 Z-0.125000 I36.193599 J26.746651
G02 X2672.934697 Y119.356311 Z-0.125000 I110.238045 J45.536405
G02 X2658.056766 Y183.169838 Z-0.125000 I2524.846850 J622.301546
G02 X2658.596933 Y184.559096 Z-0.125000 I1.313650 J0.288873
G02 X2658.825550 Y184.604660 Z-0.125000 I0.167782 J-0.245523
G02 X2690.553520 Y177.876960 Z-0.125000 I-1135.954849 J-5435.365180
G03 X2722.318707 Y171.139346 Z-0.125000 I1183.638067 J5502.136470
G03 X2729.396922 Y169.754573 Z-0.125000 I57.101887 J273.091858
G01 X2736.493315 Y168.461124 Z-0.125000
G01 X2736.230651 Y161.075072 Z-0.125000
G03 X2736.275246 Y153.708290 Z-0.125000 I88.741873 J-3.146324
G03 X2736.830091 Y148.481873 Z-0.125000 I45.112824 J2.146591
G03 X2743.968530 Y129.269163 Z-0.125000 I53.066949 J8.784414
G03 X2756.102228 Y116.866662 Z-0.125000 I32.913178 J20.063231
G03 X2760.305578 Y115.493466 Z-0.125000 I4.751403 J7.424211
G03 X2765.908816 Y116.503877 Z-0.125000 I0.742749 J11.922677
G03 X2771.418159 Y119.704712 Z-0.125000 I-12.105572 J27.178176
G03 X2782.842220 Y128.777244 Z-0.125000 I-114.984569 J156.516460
G02 X2806.818100 Y146.948856 Z-0.125000 I162.816303 J-189.919258
G02 X2816.366918 Y151.144724 Z-0.125000 I16.684104 J-25.005756
G02 X2820.931037 Y151.760225 Z-0.125000 I5.186714 J-21.231115
G02 X2827.252003 Y151.455002 Z-0.125000 I1.175724 J-41.255672
G03 X2876.739980 Y151.998389 Z-0.125000 I22.761676 J180.807361
G03 X2920.065297 Y165.215686 Z-0.125000 I-22.388142 J151.003888
G02 X2925.731710 Y167.781370 Z-0.125000 I67.479147 J-141.490273
G02 X2925.854804 Y167.700241 Z-0.125000 I0.034811 J-0.081129
G02 X2925.764351 Y167.457719 Z-0.125000 I-0.370352 J0.000000
G02 X2921.754679 Y162.966389 Z-0.125000 I-153.458028 J132.965429
G03 X2912.067808 Y151.631193 Z-0.125000 I150.128003 J-138.103624
G03 X2888.144270 Y120.594188 Z-0.125000 I1103.739406 J-875.508680
G02 X2861.314510 Y86.195371 Z-0.125000 I-889.927918 J666.447193
G02 X2850.595732 Y74.354140 Z-0.125000 I-115.583970 J93.855563
G02 X2831.309946 Y60.520530 Z-0.125000 I-52.712699 J53.127902
G02 X2809.324429 Y53.752014 Z-0.125000 I-31.398831 J62.898814
G02 X2798.324494 Y53.107127 Z-0.125000 I-9.745964 J72.102235
G02 X2781.085612 Y54.237345 Z-0.125000 I3.087764 J179.131634
G01 X2781.085866 Y54.235957 Z-0.125000
G00 Z5.000000

(Change tool to Default tool)

G00 Z5.000000
G00 X2758.171482 Y123.089860

G01 Z-0.125000 F100.0(Penetrate)
G02 X2750.536799 Y133.413991 Z-0.125000 I25.993913 J27.207453 F400.000000
G02 X2744.687638 Y149.947134 Z-0.125000 I62.732395 J31.494959
G02 X2743.095305 Y162.777839 Z-0.125000 I69.268480 J15.110607
G02 X2744.169760 Y166.036307 Z-0.125000 I4.991150 J0.160587
G02 X2744.874197 Y166.323053 Z-0.125000 I0.605593 J-0.479080
G02 X2752.561892 Y164.951256 Z-0.125000 I-10.368552 J-80.333650
G03 X2785.490168 Y157.931943 Z-0.125000 I257.686935 J1128.089942
G03 X2799.426839 Y155.672032 Z-0.125000 I39.498961 J199.483463
G02 X2802.400379 Y155.092310 Z-0.125000 I-2.904246 J-22.812517
G02 X2802.601557 Y154.831035 Z-0.125000 I-0.069075 J-0.261276
G02 X2802.421095 Y154.501353 Z-0.125000 I-0.391375 J0.000000
G02 X2798.453201 Y152.177909 Z-0.125000 I-31.456012 J49.169603
G03 X2787.720297 Y145.132587 Z-0.125000 I33.427908 J-62.622322
G03 X2769.230416 Y128.957392 Z-0.125000 I161.641240 J-203.427761
G02 X2761.091814 Y121.360816 Z-0.125000 I-256.338151 J266.470255
G02 X2760.657662 Y121.193445 Z-0.125000 I-0.434153 J0.479400
G02 X2760.215814 Y121.342729 Z-0.125000 I0.000000 J0.728528
G02 X2758.171256 Y123.089860 Z-0.125000 I14.709222 J19.283162
G01 X2758.171482 Y123.089860 Z-0.125000
G00 Z5.000000

(Change tool to Default tool)

G00 Z5.000000
G00 X2873.745574 Y230.484882

G01 Z-0.125000 F100.0(Penetrate)
G02 X2856.232282 Y235.100291 Z-0.125000 I25.491640 J132.263733 F400.000000
G02 X2836.078503 Y243.174916 Z-0.125000 I61.802923 J183.444993
G02 X2831.158356 Y245.625630 Z-0.125000 I46.696293 J99.913563
G02 X2829.951176 Y246.420212 Z-0.125000 I3.562280 J6.726345
G02 X2827.568022 Y249.585783 Z-0.125000 I5.051266 J6.282620
G02 X2820.642923 Y268.621576 Z-0.125000 I194.263510 J81.449365
G02 X2812.761401 Y319.307100 Z-0.125000 I167.756400 J52.041411
G02 X2819.796906 Y378.216808 Z-0.125000 I234.961463 J1.813852
G02 X2842.670574 Y436.869063 Z-0.125000 I242.222281 J-60.677398
G02 X2868.713552 Y468.134734 Z-0.125000 I91.642703 J-49.855305
G02 X2880.365131 Y475.063448 Z-0.125000 I29.800172 J-36.851842
G02 X2889.147006 Y476.605193 Z-0.125000 I7.851433 J-18.940318
G02 X2898.252201 Y474.534473 Z-0.125000 I-1.195741 J-26.311468
G02 X2908.701901 Y468.295106 Z-0.125000 I-17.496021 J-41.172630
G02 X2930.078960 Y442.052344 Z-0.125000 I-50.126717 J-62.660796
G02 X2949.152636 Y391.357187 Z-0.125000 I-217.441543 J-110.746508
G02 X2957.839299 Y337.494975 Z-0.125000 I-298.316809 J-75.742811
G02 X2956.044679 Y281.833064 Z-0.125000 I-269.144034 J-19.182300
G02 X2952.417834 Y260.219468 Z-0.125000 I-354.488419 J48.373435
G02 X2949.969282 Y251.374409 Z-0.125000 I-61.552943 J12.278084
G02 X2949.197388 Y250.079536 Z-0.125000 I-3.681949 J1.317360
G02 X2945.533313 Y246.248817 Z-0.125000 I-62.332927 J55.953625
G02 X2941.611625 Y242.668394 Z-0.125000 I-51.610935 J52.592233
G02 X2941.090570 Y242.661469 Z-0.125000 I-0.264717 J0.311808
G02 X2941.009304 Y242.945479 Z-0.125000 I0.160156 J0.199458
G02 X2943.010810 Y248.144813 Z-0.125000 I85.942052 J-30.098852
G03 X2951.696048 Y288.452814 Z-0.125000 I-102.877869 J43.256993
G03 X2944.933026 Y320.860817 Z-0.125000 I-71.920191 J1.901095
G03 X2934.466071 Y333.800285 Z-0.125000 I-31.414071 J-14.708192
G03 X2921.690333 Y338.470318 Z-0.125000 I-13.992183 J-18.467990
G03 X2913.901487 Y337.186134 Z-0.125000 I-0.966989 J-18.397589
G03 X2905.563590 Y332.041637 Z-0.125000 I10.507175 J-26.358444
G03 X2895.946603 Y319.773839 Z-0.125000 I28.979918 J-32.621354
G03 X2887.321910 Y298.234861 Z-0.125000 I98.462405 J-51.922817
G03 X2882.875466 Y275.333699 Z-0.125000 I132.655494 J-37.638364
G03 X2882.532281 Y250.868145 Z-0.125000 I130.908576 J-14.071472
G03 X2884.743251 Y232.714562 Z-0.125000 I216.416641 J17.146491
G03 X2886.014621 Y229.737803 Z-0.125000 I6.709327 J1.105665
G02 X2885.610237 Y228.986717 Z-0.125000 I-0.375816 J-0.282063
G02 X2873.745574 Y230.484882 Z-0.125000 I5.616621 J92.210636
G01 X2873.745574 Y230.484882 Z-0.125000
G00 Z5.000000

(Change tool to Default tool)

G00 Z5.000000
G00 X2804.662174 Y258.222751

G01 Z-0.125000 F100.0(Penetrate)
G03 X2757.648910 Y274.764337 Z-0.125000 I-100.078537 J-209.356173 F400.000000
G03 X2723.195597 Y277.359937 Z-0.125000 I-25.503613 J-108.568351
G03 X2714.201146 Y276.364923 Z-0.125000 I12.189069 J-151.333597
G03 X2705.277082 Y274.834813 Z-0.125000 I21.182801 J-150.333484
G02 X2696.435269 Y273.220138 Z-0.125000 I-46.906308 J231.838728
G02 X2696.029732 Y273.327041 Z-0.125000 I-0.082873 J0.508271
G02 X2695.862819 Y273.699869 Z-0.125000 I0.281044 J0.349599
G02 X2696.521109 Y282.829571 Z-0.125000 I226.602055 J-11.750383
G03 X2696.592501 Y301.863020 Z-0.125000 I-107.207880 J9.918979
G03 X2693.570476 Y317.564116 Z-0.125000 I-75.725261 J-6.433634
G02 X2692.693308 Y322.148259 Z-0.125000 I21.001990 J6.394690
G02 X2691.731826 Y339.783402 Z-0.125000 I313.260942 J25.923006
G03 X2681.830330 Y422.216185 Z-0.125000 I-446.025503 J-11.763742
G03 X2669.676498 Y441.898249 Z-0.125000 I-33.855093 J-7.312214
G03 X2662.941113 Y445.661933 Z-0.125000 I-14.492919 J-18.027559
G03 X2655.445047 Y446.964564 Z-0.125000 I-7.543533 J-21.190103
G03 X2649.948964 Y446.473795 Z-0.125000 I-0.058503 J-30.365298
G03 X2645.921910 Y445.230007 Z-0.125000 I3.164914 J-17.388303
G03 X2633.314363 Y435.489396 Z-0.125000 I13.704028 J-30.766967
G03 X2622.646535 Y416.104165 Z-0.125000 I50.750653 J-40.556345
G02 X2620.989130 Y411.770768 Z-0.125000 I-65.741537 J22.660671
G02 X2620.627151 Y411.310110 Z-0.125000 I-1.021912 J0.430459
G02 X2619.798113 Y411.757278 Z-0.125000 I-0.309601 J0.418100
G02 X2621.901186 Y434.065346 Z-0.125000 I293.722964 J-16.437308
G02 X2627.217777 Y456.292671 Z-0.125000 I110.473417 J-14.674817
G02 X2634.619446 Y470.307622 Z-0.125000 I50.575021 J-17.748031
G02 X2642.964043 Y478.987257 Z-0.125000 I37.002535 J-27.223153
G02 X2652.083640 Y484.247709 Z-0.125000 I21.911257 J-27.450518
G02 X2662.361049 Y486.352386 Z-0.125000 I11.240492 J-28.743481
G02 X2671.586945 Y484.856649 Z-0.125000 I0.764452 J-24.485885
G02 X2675.775484 Y483.062773 Z-0.125000 I-15.143715 J-41.146094
G02 X2679.042776 Y481.193955 Z-0.125000 I-13.195807 J-26.861031
G02 X2688.237255 Y472.508858 Z-0.125000 I-20.049101 J-30.434399
G02 X2697.177586 Y456.810256 Z-0.125000 I-59.662632 J-44.372840
G03 X2699.397473 Y453.080358 Z-0.125000 I14.253448 J5.957541
G03 X2700.152829 Y453.114545 Z-0.125000 I0.365148 J0.293957
G03 X2701.455701 Y457.077409 Z-0.125000 I-6.516095 J4.337902
G03 X2700.704122 Y464.607822 Z-0.125000 I-25.733846 J1.234328
G02 X2701.120475 Y469.967706 Z-0.125000 I8.176774 J2.060946
G02 X2706.148471 Y477.415115 Z-0.125000 I21.680842 J-9.216477
G02 X2718.825079 Y487.036490 Z-0.125000 I41.534559 J-41.562008
G02 X2734.393892 Y493.340305 Z-0.125000 I32.146238 J-57.015594
G03 X2738.959901 Y495.083815 Z-0.125000 I-5.705231 J21.791823
G03 X2738.935158 Y495.666892 Z-0.125000 I-0.146447 J0.285849
G03 X2727.985287 Y497.956032 Z-0.125000 I-11.674791 J-28.511811
G03 X2714.527480 Y496.241420 Z-0.125000 I-1.066234 J-45.303000
G02 X2711.267045 Y495.457769 Z-0.125000 I-11.159628 J39.255985
G02 X2710.950172 Y495.535743 Z-0.125000 I-0.074770 J0.378996
G02 X2711.007461 Y496.758605 Z-0.125000 I0.474709 J0.590534
G02 X2723.363124 Y503.729865 Z-0.125000 I56.052918 J-84.911559
G02 X2728.372079 Y505.809943 Z-0.125000 I23.155024 J-48.687741
G02 X2735.372949 Y508.022518 Z-0.125000 I33.248470 J-93.020274
G02 X2742.548072 Y509.401705 Z-0.125000 I12.293691 J-44.603441
G02 X2753.181172 Y510.004884 Z-0.125000 I10.876195 J-97.706223
G01 X2763.893029 Y510.032655 Z-0.125000
G01 X2761.246067 Y511.873681 Z-0.125000
G03 X2750.211032 Y516.754821 Z-0.125000 I-18.122090 J-26.055207
G03 X2730.369799 Y518.946954 Z-0.125000 I-19.396126 J-84.667794
G01 X2719.017240 Y518.888602 Z-0.125000
G01 X2721.338772 Y521.210977 Z-0.125000
G02 X2730.024229 Y527.388909 Z-0.125000 I22.631595 J-22.623063
G02 X2744.420881 Y532.387864 Z-0.125000 I28.511205 J-58.880178
G02 X2759.564352 Y534.034837 Z-0.125000 I15.087362 J-68.280642
G02 X2777.390053 Y532.360065 Z-0.125000 I-0.077452 J-96.527066
G02 X2782.785777 Y530.594933 Z-0.125000 I-4.066561 J-21.560321
G02 X2785.555814 Y528.456697 Z-0.125000 I-3.594809 J-7.520375
G03 X2792.009551 Y521.772653 Z-0.125000 I53.834010 J45.521387
G03 X2796.204595 Y518.792124 Z-0.125000 I14.534855 J16.015069
G03 X2800.242898 Y516.780226 Z-0.125000 I29.739222 J54.634051
G03 X2800.949971 Y516.700426 Z-0.125000 I0.476590 J1.050426
G03 X2801.126208 Y517.064445 Z-0.125000 I-0.050835 J0.249283
G03 X2799.623859 Y519.489422 Z-0.125000 I-14.686295 J-7.420756
G02 X2792.035197 Y531.068873 Z-0.125000 I90.499211 J67.585553
G02 X2788.801709 Y538.443221 Z-0.125000 I33.177717 J18.943775
G02 X2786.491183 Y548.981276 Z-0.125000 I56.058236 J17.813397
G02 X2787.367399 Y549.950623 Z-0.125000 I0.856229 J0.106724
G02 X2787.930911 Y549.716709 Z-0.125000 I-0.021338 J-0.847127
G02 X2790.650095 Y546.818462 Z-0.125000 I-24.707365 J-25.905576
G03 X2799.123201 Y538.660348 Z-0.125000 I42.448594 J35.608387
G03 X2813.839533 Y528.816669 Z-0.125000 I76.984699 J99.170050
G03 X2830.055341 Y520.758155 Z-0.125000 I77.799093 J136.207399
G03 X2838.304672 Y518.373154 Z-0.125000 I13.849436 J32.443894
G02 X2840.604136 Y517.908204 Z-0.125000 I-4.641272 J-28.872560
G02 X2840.698199 Y517.788392 Z-0.125000 I-0.029273 J-0.119812
G02 X2840.629247 Y517.617377 Z-0.125000 I-0.246552 J0.000000
G02 X2835.421490 Y512.308664 Z-0.125000 I-288.350876 J277.658566
G03 X2813.489015 Y486.202348 Z-0.125000 I139.749482 J-139.672658
G03 X2801.171339 Y463.547429 Z-0.125000 I92.478502 J-64.957435
G03 X2797.506903 Y452.209538 Z-0.125000 I77.810256 J-31.409601
G03 X2797.509788 Y448.684508 Z-0.125000 I7.130682 J-1.756680
G03 X2797.896598 Y448.604661 Z-0.125000 I0.212534 J0.052746
G03 X2804.035980 Y457.262176 Z-0.125000 I-125.866046 J95.762127
G02 X2831.748722 Y494.516297 Z-0.125000 I344.353077 J-227.224132
G02 X2849.391490 Y511.562878 Z-0.125000 I88.394113 J-73.832415
G02 X2871.711218 Y524.262127 Z-0.125000 I54.885539 J-70.500997
G02 X2893.360866 Y528.773181 Z-0.125000 I24.151787 J-61.703810
G02 X2916.099899 Y525.636933 Z-0.125000 I2.491617 J-65.936378
G02 X2937.215942 Y514.633820 Z-0.125000 I-21.786522 J-67.573877
G02 X2955.574966 Y495.793225 Z-0.125000 I-53.362366 J-70.363591
G02 X2972.908868 Y464.948504 Z-0.125000 I-129.747087 J-93.207322
G02 X2980.996993 Y443.612469 Z-0.125000 I-271.597994 J-115.159193
G02 X2981.879302 Y438.208115 Z-0.125000 I-16.110338 J-5.404354
G03 X2982.681210 Y437.719790 Z-0.125000 I0.549637 J0.000000
G03 X2984.031528 Y439.319983 Z-0.125000 I-1.254573 J2.428495
G03 X2985.172817 Y445.502555 Z-0.125000 I-23.948579 J7.617480
G03 X2984.877066 Y454.105100 Z-0.125000 I-47.027916 J2.689561
G02 X2984.254061 Y460.551105 Z-0.125000 I108.489406 J13.738590
G02 X2984.420148 Y460.929961 Z-0.125000 I0.446996 J0.029875
G02 X2986.145672 Y461.124445 Z-0.125000 I1.016119 J-1.263390
G02 X2999.983293 Y453.356398 Z-0.125000 I-59.218244 J-121.697356
G02 X3031.789110 Y421.982853 Z-0.125000 I-58.282979 J-90.894810
G02 X3051.412931 Y375.514522 Z-0.125000 I-114.844405 J-75.877184
G02 X3053.839743 Y356.558537 Z-0.125000 I-106.221473 J-23.232186
G02 X3052.890929 Y337.960134 Z-0.125000 I-103.164554 J-4.060371
G02 X3049.693889 Y323.063966 Z-0.125000 I-107.568636 J15.295392
G02 X3045.675635 Y313.016451 Z-0.125000 I-52.661355 J15.233344
G01 X3044.515138 Y310.783871 Z-0.125000
G01 X3040.275313 Y314.139433 Z-0.125000
G03 X3030.205691 Y320.529091 Z-0.125000 I-35.630797 J-45.022150
G03 X3024.931738 Y321.767828 Z-0.125000 I-5.273953 J-10.607630
G03 X3024.586082 Y321.088988 Z-0.125000 I0.000000 J-0.427422
G03 X3028.316711 Y317.113768 Z-0.125000 I17.707678 J12.879990
G02 X3041.498019 Y303.668374 Z-0.125000 I-58.428181 J-70.464472
G02 X3049.475758 Y290.540698 Z-0.125000 I-47.669358 J-37.956741
G02 X3052.460722 Y279.720105 Z-0.125000 I-34.180289 J-15.250971
G02 X3051.215093 Y275.949066 Z-0.125000 I-4.652151 J-0.554572
G02 X3050.200081 Y275.729487 Z-0.125000 I-0.667611 J0.630298
G02 X3047.970949 Y277.275118 Z-0.125000 I2.370375 J5.798848
G03 X3035.914302 Y285.368081 Z-0.125000 I-23.051843 J-21.314637
G03 X3017.360844 Y288.719818 Z-0.125000 I-18.535137 J-49.573817
G03 X2993.927485 Y283.655151 Z-0.125000 I0.016104 J-56.817941
G03 X2966.932813 Y265.872376 Z-0.125000 I42.643118 J-94.113924
G02 X2961.989245 Y261.727580 Z-0.125000 I-51.953832 J56.945670
G02 X2961.721297 Y261.861987 Z-0.125000 I-0.101513 J0.131917
G02 X2961.814944 Y262.604048 Z-0.125000 I3.347745 J-0.045539
G02 X2962.775115 Y266.219569 Z-0.125000 I82.225641 J-19.901345
G03 X2965.109612 Y275.953505 Z-0.125000 I-103.976134 J30.083586
G03 X2967.832537 Y292.642544 Z-0.125000 I-303.132622 J58.024704
G03 X2969.733928 Y322.273803 Z-0.125000 I-209.573302 J28.324620
G03 X2967.448433 Y354.796529 Z-0.125000 I-254.959756 J-1.575321
G03 X2945.053936 Y434.723303 Z-0.125000 I-296.787980 J-40.055615
G03 X2915.826037 Y472.854065 Z-0.125000 I-91.926802 J-40.196280
G03 X2908.712133 Y477.810027 Z-0.125000 I-40.742668 J-50.899265
G03 X2902.360650 Y480.961127 Z-0.125000 I-22.488338 J-37.351692
G03 X2895.583893 Y482.922056 Z-0.125000 I-13.416659 J-33.676182
G03 X2888.152455 Y483.608462 Z-0.125000 I-7.431438 J-39.885381
G03 X2880.709981 Y482.983292 Z-0.125000 I-0.000000 J-44.612887
G03 X2875.023477 Y481.387229 Z-0.125000 I4.655129 J-27.513502
G03 X2864.696381 Y475.942832 Z-0.125000 I20.546265 J-51.489340
G03 X2854.803383 Y467.829660 Z-0.125000 I37.083811 J-55.307291
G03 X2822.426958 Y420.378388 Z-0.125000 I107.873792 J-108.374248
G03 X2802.964354 Y348.491036 Z-0.125000 I235.736336 J-102.400977
G03 X2801.446949 Y323.090136 Z-0.125000 I213.034910 J-25.472100
G03 X2802.947138 Y300.093060 Z-0.125000 I176.120429 J-0.058446
G03 X2807.892667 Y275.043990 Z-0.125000 I197.265013 J25.934011
G03 X2814.160504 Y257.793291 Z-0.125000 I99.387074 J26.347092
G02 X2815.776340 Y254.107220 Z-0.125000 I-73.589951 J-34.456285
G02 X2815.914244 Y253.321652 Z-0.125000 I-1.733248 J-0.709153
G02 X2815.571657 Y253.062127 Z-0.125000 I-0.278201 J0.011361
G02 X2813.991735 Y253.656932 Z-0.125000 I1.544520 J6.498253
G03 X2811.920876 Y254.711281 Z-0.125000 I-34.275595 J-64.760208
G03 X2804.660537 Y258.222819 Z-0.125000 I-386.906767 J-790.694180
G01 X2804.662174 Y258.222751 Z-0.125000
G00 Z5.000000

(Change tool to Default tool)

G00 Z5.000000
G00 X2648.488411 Y260.750932

G01 Z-0.125000 F100.0(Penetrate)
G02 X2633.322695 Y272.636638 Z-0.125000 I5.466371 J22.593180 F400.000000
G02 X2619.627378 Y316.363054 Z-0.125000 I116.675160 J60.551130
G02 X2618.289381 Y342.895586 Z-0.125000 I169.158626 J21.830431
G02 X2620.904459 Y373.013576 Z-0.125000 I256.081008 J-7.062419
G02 X2627.202324 Y402.616794 Z-0.125000 I234.223271 J-34.357742
G02 X2635.287494 Y423.121124 Z-0.125000 I104.194833 J-29.239398
G02 X2642.447458 Y433.897691 Z-0.125000 I52.899335 J-27.379550
G02 X2648.608948 Y439.090076 Z-0.125000 I17.739363 J-14.798306
G02 X2655.690466 Y441.120712 Z-0.125000 I7.589577 J-13.104292
G02 X2662.047608 Y439.541138 Z-0.125000 I0.401672 J-11.965678
G02 X2672.280387 Y426.137355 Z-0.125000 I-10.817559 J-18.866260
G02 X2682.322227 Y361.410517 Z-0.125000 I-317.595227 J-82.414680
G02 X2682.964474 Y347.303478 Z-0.125000 I-835.714723 J-45.115489
G02 X2683.083634 Y340.873319 Z-0.125000 I-173.433642 J-6.430159
G01 X2683.083634 Y334.439871 Z-0.125000
G01 X2680.493173 Y335.309999 Z-0.125000
G03 X2671.875787 Y335.752821 Z-0.125000 I-5.100333 J-15.184026
G03 X2664.519730 Y331.809404 Z-0.125000 I3.426499 J-15.224506
G03 X2659.217315 Y324.503557 Z-0.125000 I17.403550 J-18.208203
G03 X2654.221896 Y310.199737 Z-0.125000 I61.292213 J-29.429691
G03 X2652.323028 Y293.246619 Z-0.125000 I73.879666 J-16.857943
G03 X2654.262198 Y275.827711 Z-0.125000 I80.107454 J0.100612
G03 X2656.636614 Y267.127174 Z-0.125000 I96.490714 J21.658496
G03 X2658.919796 Y261.389087 Z-0.125000 I44.116248 J14.230549
G02 X2658.769851 Y260.892003 Z-0.125000 I-0.348094 J-0.166155
G02 X2657.181956 Y260.348539 Z-0.125000 I-2.070368 J3.457719
G02 X2652.510657 Y260.176217 Z-0.125000 I-3.370103 J27.955656
G02 X2648.485899 Y260.750977 Z-0.125000 I0.983889 J21.268743
G01 X2648.488411 Y260.750932 Z-0.125000
G00 Z5.000000

(End cutting path id: path4183)


(Start cutting path id: path4147)
(Change tool to Default tool)

G00 Z5.000000
G00 X414.384803 Y55.360632

G01 Z-0.125000 F100.0(Penetrate)
G02 X385.071424 Y66.995322 Z-0.125000 I9.685158 J67.146167 F400.000000
G02 X359.386295 Y93.998712 Z-0.125000 I54.457781 J77.516546
G02 X352.247060 Y106.727440 Z-0.125000 I120.587556 J76.001110
G02 X340.863825 Y131.389564 Z-0.125000 I442.478872 J219.192008
G03 X330.174463 Y155.253543 Z-0.125000 I-741.091400 J-317.630100
G03 X322.481111 Y170.706788 Z-0.125000 I-318.161031 J-148.753840
G01 X318.675965 Y177.901702 Z-0.125000
G01 X307.403304 Y177.950843 Z-0.125000
G02 X296.147449 Y178.235762 Z-0.125000 I0.000000 J222.475947
G02 X289.890286 Y178.801004 Z-0.125000 I4.027121 J79.495534
G03 X283.730137 Y179.521944 Z-0.125000 I-30.671933 J-235.400869
G03 X283.649986 Y179.449683 Z-0.125000 I-0.007501 J-0.072261
G03 X284.143296 Y178.677014 Z-0.125000 I0.851769 J-0.000000
G03 X300.822870 Y171.477337 Z-0.125000 I142.201661 J306.519497
G02 X304.518584 Y169.682628 Z-0.125000 I-10.661401 J-26.656757
G02 X305.497373 Y168.778446 Z-0.125000 I-1.512485 J-2.619153
G02 X305.655103 Y166.427248 Z-0.125000 I-1.901312 J-1.308439
G02 X303.463623 Y164.763527 Z-0.125000 I-2.806146 J1.421114
G02 X301.627624 Y164.573965 Z-0.125000 I-1.904126 J9.456353
G02 X281.575752 Y164.601356 Z-0.125000 I-8.401100 J1189.491577
G01 X261.507166 Y164.802841 Z-0.125000
G01 X255.870844 Y166.788186 Z-0.125000
G02 X245.529655 Y171.106688 Z-0.125000 I32.751113 J92.967500
G02 X231.714967 Y178.530722 Z-0.125000 I84.351858 J173.527690
G03 X224.451535 Y182.783926 Z-0.125000 I-533.710597 J-903.118579
G03 X222.661673 Y183.783044 Z-0.125000 I-30.984894 J-53.404825
G02 X221.391129 Y184.801212 Z-0.125000 I2.120657 J3.948135
G02 X221.429319 Y185.209644 Z-0.125000 I0.215146 J0.185884
G03 X221.386409 Y185.344542 Z-0.125000 I-0.047040 J0.059311
G03 X220.623665 Y185.258784 Z-0.125000 I-0.126302 J-2.311503
G03 X219.767266 Y184.672352 Z-0.125000 I0.503124 J-1.653277
G03 X219.766124 Y184.166353 Z-0.125000 I0.323339 J-0.253730
G02 X219.727506 Y183.951766 Z-0.125000 I-0.115869 J-0.089916
G02 X219.393847 Y183.935385 Z-0.125000 I-0.181622 J0.293111
G02 X218.869973 Y184.502069 Z-0.125000 I0.470355 J0.960313
G02 X218.895415 Y185.194409 Z-0.125000 I0.801176 J0.317197
G03 X218.206650 Y187.925378 Z-0.125000 I-1.976240 J0.953921
G03 X215.631176 Y187.558641 Z-0.125000 I-1.098037 J-1.515573
G03 X215.526210 Y187.113921 Z-0.125000 I0.433433 J-0.337050
G03 X215.752382 Y186.953210 Z-0.125000 I0.198374 J0.039671
G02 X217.034480 Y186.770575 Z-0.125000 I0.321661 J-2.333432
G02 X217.043605 Y186.377262 Z-0.125000 I-0.088784 J-0.198822
G03 X216.683998 Y185.222160 Z-0.125000 I0.379642 J-0.751718
G03 X226.538255 Y168.976981 Z-0.125000 I182.367096 J99.511744
G02 X230.318390 Y161.741053 Z-0.125000 I-30.988631 J-20.794188
G02 X229.926299 Y160.288634 Z-0.125000 I-1.180661 J-0.460405
G02 X225.784272 Y159.028145 Z-0.125000 I-3.667216 J4.614954
G02 X215.067005 Y161.489179 Z-0.125000 I3.063309 J37.906248
G02 X210.775665 Y163.485107 Z-0.125000 I13.296982 J34.200412
G02 X204.869171 Y167.058959 Z-0.125000 I37.392401 J68.466051
G03 X199.177365 Y170.778299 Z-0.125000 I-196.514089 J-294.515927
G01 X199.114005 Y170.741188 Z-0.125000
G03 X199.144020 Y170.584123 Z-0.125000 I0.639496 J0.040806
G03 X200.312222 Y167.057486 Z-0.125000 I296.729465 J96.335099
G02 X200.861261 Y162.665614 Z-0.125000 I-10.481477 J-3.540572
G02 X199.866353 Y161.280326 Z-0.125000 I-1.637881 J0.126406
G02 X198.221484 Y161.106011 Z-0.125000 I-1.107936 J2.606890
G02 X194.431272 Y162.330004 Z-0.125000 I3.110761 J16.113150
G02 X182.820904 Y170.043029 Z-0.125000 I19.314649 J41.669239
G02 X162.049596 Y191.821238 Z-0.125000 I144.154561 J158.284251
G01 X153.469008 Y202.188285 Z-0.125000
G01 X153.331724 Y199.499712 Z-0.125000
G03 X153.413713 Y196.824026 Z-0.125000 I16.397866 J-0.836629
G03 X154.484734 Y189.271248 Z-0.125000 I132.431768 J14.927147
G02 X155.474297 Y181.773187 Z-0.125000 I-97.390949 J-16.667586
G02 X155.282599 Y180.711163 Z-0.125000 I-2.003280 J-0.186715
G02 X153.309891 Y179.707300 Z-0.125000 I-1.646341 J0.795021
G02 X145.380240 Y182.507803 Z-0.125000 I4.710859 J25.965534
G02 X128.575076 Y194.533681 Z-0.125000 I40.785609 J74.749346
G02 X116.561735 Y208.968437 Z-0.125000 I47.558353 J51.796923
G02 X111.523375 Y220.613045 Z-0.125000 I35.530834 J22.285690
G02 X108.778518 Y238.641648 Z-0.125000 I83.813857 J21.983926
G01 X108.650507 Y241.440788 Z-0.125000
G01 X106.810077 Y238.563021 Z-0.125000
G02 X102.553677 Y233.985627 Z-0.125000 I-14.701739 J9.403111
G02 X97.917260 Y231.919335 Z-0.125000 I-6.886339 J9.216982
G02 X92.105584 Y232.475526 Z-0.125000 I-1.981685 J9.934640
G02 X84.656724 Y236.938993 Z-0.125000 I10.832090 J26.524391
G02 X78.637357 Y243.407809 Z-0.125000 I21.846034 J26.363166
G02 X75.191759 Y250.750884 Z-0.125000 I18.306832 J13.070062
G02 X74.382022 Y262.942312 Z-0.125000 I31.100125 J8.188229
G02 X80.370635 Y292.033352 Z-0.125000 I188.571055 J-23.656872
G03 X83.021711 Y301.584863 Z-0.125000 I-453.777702 J131.092238
G03 X82.950923 Y301.723612 Z-0.125000 I-0.112601 J0.029984
G03 X82.751414 Y301.786743 Z-0.125000 I-0.851350 J-2.343627
G03 X80.337982 Y302.427377 Z-0.125000 I-64.873212 J-239.527595
G02 X77.149674 Y306.219698 Z-0.125000 I1.076520 J4.141470
G02 X78.728407 Y322.087956 Z-0.125000 I44.181679 J3.617029
G02 X80.800447 Y328.543764 Z-0.125000 I106.637120 J-30.665559
G02 X81.915342 Y331.064815 Z-0.125000 I17.277320 J-6.133575
G02 X85.261023 Y335.306184 Z-0.125000 I13.576832 J-7.269435
G02 X93.660672 Y341.504396 Z-0.125000 I38.203576 J-42.981858
G01 X97.570708 Y343.873937 Z-0.125000
G01 X97.552166 Y364.081911 Z-0.125000
G02 X98.499021 Y392.563663 Z-0.125000 I417.937080 J0.362603
G02 X100.905824 Y413.823875 Z-0.125000 I235.209896 J-15.861048
G02 X107.849458 Y444.233454 Z-0.125000 I232.243207 J-37.032195
G02 X116.610599 Y466.287925 Z-0.125000 I130.402915 J-39.035156
G03 X120.054323 Y473.455508 Z-0.125000 I-202.816405 J101.855876
G03 X120.193690 Y474.093136 Z-0.125000 I-1.388950 J0.637629
G03 X119.067600 Y476.044160 Z-0.125000 I-2.253182 J0.000000
G03 X94.830017 Y488.745482 Z-0.125000 I-166.300602 J-287.870238
G03 X57.954273 Y504.104906 Z-0.125000 I-182.196382 J-385.480647
G03 X11.218916 Y519.057884 Z-0.125000 I-219.274832 J-604.829020
G02 X8.306288 Y520.166774 Z-0.125000 I4.531327 J16.281687
G02 X7.467499 Y520.898114 Z-0.125000 I0.949885 J1.936124
G02 X6.802288 Y523.328179 Z-0.125000 I3.267759 J2.200604
G02 X9.091796 Y548.733551 Z-0.125000 I402.999892 J-23.512125
G02 X25.198494 Y612.830447 Z-0.125000 I263.677649 J-32.186543
G02 X51.147275 Y656.869649 Z-0.125000 I148.094138 J-57.595662
G02 X78.300086 Y682.229842 Z-0.125000 I114.063691 J-94.910266
G02 X133.479394 Y716.365227 Z-0.125000 I265.061655 J-366.802027
G02 X184.352524 Y738.500649 Z-0.125000 I179.208359 J-342.341065
G02 X231.391679 Y750.840957 Z-0.125000 I98.603887 J-280.038449
G02 X302.627187 Y753.668348 Z-0.125000 I46.033827 J-261.017048
G02 X368.323774 Y737.761566 Z-0.125000 I-22.655801 J-237.190802
G02 X379.067374 Y733.091181 Z-0.125000 I-71.942704 J-180.186935
G02 X391.915047 Y726.759065 Z-0.125000 I-172.872526 J-366.953025
G02 X405.065024 Y719.556453 Z-0.125000 I-134.506284 J-261.176644
G02 X406.375994 Y718.164676 Z-0.125000 I-1.687859 J-2.903177
G02 X406.550949 Y717.353844 Z-0.125000 I-1.469226 J-0.741310
G02 X406.037129 Y710.166441 Z-0.125000 I-123.676580 J5.229439
G03 X403.394523 Y659.879298 Z-0.125000 I523.698914 J-52.733560
G03 X405.627117 Y621.997340 Z-0.125000 I298.926079 J-1.389398
G03 X414.150528 Y580.002433 Z-0.125000 I273.453665 J33.638545
G03 X424.606082 Y555.517490 Z-0.125000 I102.270105 J29.196519
G01 X427.922278 Y549.845639 Z-0.125000
G01 X433.696855 Y548.483370 Z-0.125000
G03 X449.043725 Y545.839295 Z-0.125000 I29.298311 J124.194142
G03 X461.595933 Y545.414683 Z-0.125000 I9.073877 J82.494296
G03 X475.441784 Y547.163007 Z-0.125000 I-3.501521 J83.430548
G03 X489.375123 Y551.314600 Z-0.125000 I-18.822411 J88.627622
G03 X502.523114 Y557.680294 Z-0.125000 I-32.642181 J84.181712
G03 X518.764729 Y568.608735 Z-0.125000 I-82.228288 J139.739111
G02 X542.562258 Y584.841690 Z-0.125000 I161.904906 J-211.792691
G02 X558.313658 Y592.562126 Z-0.125000 I51.210530 J-84.552430
G02 X569.246204 Y595.561457 Z-0.125000 I20.544921 J-53.461927
G02 X580.263492 Y596.299003 Z-0.125000 I9.119148 J-53.564136
G02 X586.705403 Y595.578084 Z-0.125000 I-1.481105 J-42.376651
G02 X592.291097 Y594.011337 Z-0.125000 I-6.346180 J-33.365423
G02 X601.082878 Y589.257387 Z-0.125000 I-12.881262 J-34.328701
G02 X608.750862 Y581.949272 Z-0.125000 I-24.344316 J-33.219934
G03 X611.345791 Y578.851586 Z-0.125000 I93.351934 J75.565096
G03 X613.776816 Y576.150692 Z-0.125000 I73.317737 J63.547461
G02 X617.890078 Y568.974574 Z-0.125000 I-13.191024 J-12.327825
G02 X619.748610 Y556.091914 Z-0.125000 I-42.851365 J-12.757396
G02 X618.485704 Y542.533310 Z-0.125000 I-75.662081 J0.209370
G02 X613.748199 Y523.664183 Z-0.125000 I-151.921415 J28.113888
G02 X601.419738 Y491.479791 Z-0.125000 I-289.053097 J92.270405
G02 X577.378447 Y442.796120 Z-0.125000 I-686.820938 J308.892486
G03 X574.055894 Y434.818435 Z-0.125000 I38.045364 J-20.525895
G03 X574.370099 Y432.878283 Z-0.125000 I2.139610 J-0.649012
G01 X575.698999 Y430.999527 Z-0.125000
G01 X583.264276 Y431.181354 Z-0.125000
G03 X598.728505 Y432.564914 Z-0.125000 I-2.864059 J119.126627
G03 X619.720981 Y436.856544 Z-0.125000 I-34.899652 J224.199453
G02 X628.890525 Y438.867427 Z-0.125000 I35.033043 J-137.837461
G02 X630.195038 Y438.793585 Z-0.125000 I0.501003 J-2.709009
G02 X630.918874 Y437.011060 Z-0.125000 I-0.361352 J-1.184963
G02 X625.396780 Y430.079830 Z-0.125000 I-23.025526 J12.679045
G03 X620.855985 Y425.786623 Z-0.125000 I72.556940 J-81.289232
G03 X620.451506 Y424.771678 Z-0.125000 I0.979858 J-0.978565
G03 X621.024890 Y424.092813 Z-0.125000 I0.710680 J0.018677
G03 X625.571193 Y423.445335 Z-0.125000 I8.390041 J42.626404
G02 X629.677548 Y422.862139 Z-0.125000 I-3.497426 J-39.374070
G02 X635.995918 Y421.401852 Z-0.125000 I-18.586304 J-94.818489
G02 X662.178722 Y413.129524 Z-0.125000 I-78.083068 J-292.713126
G02 X669.497135 Y409.121601 Z-0.125000 I-9.628793 J-26.267671
G02 X672.864246 Y404.920651 Z-0.125000 I-6.738285 J-8.850680
G02 X674.167095 Y398.972258 Z-0.125000 I-12.927819 J-5.948394
G03 X674.883849 Y397.562010 Z-0.125000 I1.745741 J-0.000000
G03 X677.554918 Y396.500157 Z-0.125000 I3.397882 J4.656870
G02 X684.766892 Y394.688307 Z-0.125000 I-3.923467 J-30.876523
G02 X690.874114 Y391.397278 Z-0.125000 I-9.692830 J-25.299308
G01 X694.098334 Y389.082530 Z-0.125000
G01 X695.083882 Y390.973326 Z-0.125000
G02 X699.290773 Y395.650752 Z-0.125000 I11.186913 J-5.830987
G02 X711.823865 Y402.092642 Z-0.125000 I35.024305 J-52.729036
G02 X718.956784 Y404.189984 Z-0.125000 I17.112154 J-45.019315
G02 X724.089130 Y404.690447 Z-0.125000 I4.800890 J-22.667257
G02 X738.466147 Y401.355705 Z-0.125000 I-0.497727 J-34.804918
G02 X747.179988 Y393.776400 Z-0.125000 I-9.108535 J-19.270731
G02 X750.376044 Y386.173910 Z-0.125000 I-18.984490 J-12.454055
G02 X751.844162 Y372.452456 Z-0.125000 I-62.103944 J-13.584034
G02 X751.272891 Y361.326215 Z-0.125000 I-113.097156 J0.229119
G02 X750.024816 Y354.412933 Z-0.125000 I-44.829383 J4.523881
G02 X748.137507 Y347.604832 Z-0.125000 I-247.163207 J64.851731
G02 X747.713557 Y346.502162 Z-0.125000 I-6.855073 J2.002779
G03 X747.956024 Y345.974051 Z-0.125000 I0.339340 J-0.163918
G03 X750.338054 Y345.804046 Z-0.125000 I1.636062 J6.150791
G02 X774.124084 Y346.691563 Z-0.125000 I17.416412 J-147.586886
G02 X786.853179 Y344.237540 Z-0.125000 I-1.889345 J-44.040226
G02 X792.099113 Y341.446001 Z-0.125000 I-6.550305 J-18.634425
G02 X794.170327 Y338.789336 Z-0.125000 I-3.790663 J-5.091032
G02 X793.208955 Y331.656639 Z-0.125000 I-6.600807 J-2.741456
G02 X769.313632 Y306.866985 Z-0.125000 I-129.072201 J100.504234
G02 X732.993756 Y277.316233 Z-0.125000 I-981.479124 J1169.209191
G02 X725.200718 Y272.086276 Z-0.125000 I-37.973642 J48.162552
G02 X696.227609 Y260.170760 Z-0.125000 I-62.168633 J109.983341
G02 X650.240210 Y251.673037 Z-0.125000 I-73.974331 J271.644650
G01 X639.009826 Y250.551071 Z-0.125000
G01 X628.607933 Y242.320926 Z-0.125000
G02 X618.044434 Y234.311268 Z-0.125000 I-199.625591 J252.304593
G02 X603.626496 Y224.176975 Z-0.125000 I-334.449382 J460.493899
G01 X589.046896 Y214.263022 Z-0.125000
G01 X588.583121 Y207.136908 Z-0.125000
G02 X586.562092 Y194.859224 Z-0.125000 I-63.356220 J4.123880
G02 X577.969759 Y167.447184 Z-0.125000 I-326.930668 J87.424108
G03 X571.338445 Y148.791521 Z-0.125000 I1992.943826 J-718.915210
G03 X568.310054 Y139.863650 Z-0.125000 I452.597586 J-158.501561
G02 X562.765338 Y125.013881 Z-0.125000 I-187.619102 J61.594549
G02 X559.018480 Y117.733429 Z-0.125000 I-48.572360 J20.393209
G02 X528.926731 Y86.817123 Z-0.125000 I-84.560091 J52.202078
G02 X473.736738 Y61.846917 Z-0.125000 I-107.384186 J163.867663
G02 X437.834383 Y54.978183 Z-0.125000 I-60.461047 J218.761501
G02 X414.382723 Y55.386678 Z-0.125000 I-10.111265 J92.896114
G01 X414.384803 Y55.360632 Z-0.125000
G00 Z5.000000

(Change tool to Default tool)

G00 Z5.000000
G00 X447.405875 Y61.112239

G01 Z-0.125000 F100.0(Penetrate)
G03 X506.107514 Y79.410138 Z-0.125000 I-34.619409 J214.372359 F400.000000
G03 X543.753100 Y106.967839 Z-0.125000 I-53.729851 J112.890412
G03 X553.796092 Y120.544632 Z-0.125000 I-54.100691 J50.522116
G03 X561.038562 Y136.978018 Z-0.125000 I-72.546060 J41.784903
G02 X563.900207 Y145.597900 Z-0.125000 I335.743354 J-106.675777
G02 X568.351927 Y158.093450 Z-0.125000 I710.598621 J-246.120272
G03 X579.904495 Y192.500489 Z-0.125000 I-627.893096 J229.965452
G03 X581.984982 Y202.671354 Z-0.125000 I-52.317106 J15.999874
G02 X582.508174 Y207.014305 Z-0.125000 I166.394137 J-17.842387
G02 X582.809495 Y208.833298 Z-0.125000 I29.291754 J-3.917789
G01 X583.167550 Y210.644188 Z-0.125000
G01 X579.752717 Y208.608717 Z-0.125000
G02 X576.311477 Y206.619893 Z-0.125000 I-75.539141 J126.733006
G02 X571.394509 Y203.927920 Z-0.125000 I-141.821145 J253.204007
G01 X566.451132 Y201.282592 Z-0.125000
G01 X565.517908 Y194.554530 Z-0.125000
G02 X559.468552 Y169.374907 Z-0.125000 I-131.160406 J18.194552
G02 X544.551760 Y134.078625 Z-0.125000 I-273.934903 J94.969231
G02 X530.392641 Y113.067833 Z-0.125000 I-89.350433 J44.936737
G02 X511.810670 Y96.848471 Z-0.125000 I-69.820732 J61.237189
G02 X489.588980 Y85.617738 Z-0.125000 I-59.103956 J89.346201
G02 X458.779572 Y77.339004 Z-0.125000 I-61.805662 J168.542355
G02 X450.688713 Y76.369208 Z-0.125000 I-12.969995 J73.971364
G02 X436.636755 Y75.897173 Z-0.125000 I-14.531613 J223.198507
G02 X422.637413 Y76.547099 Z-0.125000 I-0.496352 J140.405864
G02 X414.896500 Y77.976380 Z-0.125000 I4.393311 J45.470766
G02 X396.564821 Y85.801551 Z-0.125000 I19.787690 J71.740730
G02 X382.270651 Y97.434245 Z-0.125000 I32.591427 J54.646741
G02 X374.334918 Y107.968383 Z-0.125000 I50.319718 J46.163801
G02 X365.728760 Y124.480656 Z-0.125000 I116.121274 J71.021023
G03 X359.103088 Y138.677276 Z-0.125000 I-291.000885 J-127.167920
G03 X338.373948 Y179.508653 Z-0.125000 I-2429.044914 J-1207.492071
G02 X321.158767 Y213.742199 Z-0.125000 I1387.048903 J718.956980
G02 X320.688746 Y215.778569 Z-0.125000 I4.176287 J2.036370
G03 X320.412677 Y217.332884 Z-0.125000 I-4.513558 J0.000000
G03 X319.916530 Y217.883823 Z-0.125000 I-0.934659 J-0.342834
G02 X316.757124 Y220.458213 Z-0.125000 I3.988366 J8.120576
G02 X306.002043 Y235.816460 Z-0.125000 I151.284531 J117.386521
G02 X296.110171 Y254.753537 Z-0.125000 I112.308028 J70.716701
G02 X290.555287 Y272.270463 Z-0.125000 I90.412782 J38.310504
G03 X288.877249 Y275.981771 Z-0.125000 I-9.492132 J-2.056780
G03 X286.945297 Y277.160999 Z-0.125000 I-2.413130 J-1.781287
G03 X281.388098 Y276.846262 Z-0.125000 I-2.067189 J-12.718501
G03 X276.167459 Y274.128332 Z-0.125000 I3.901950 J-13.867824
G02 X273.244479 Y272.380354 Z-0.125000 I-7.374270 J9.013399
G02 X271.663681 Y272.265451 Z-0.125000 I-0.963970 J2.330480
G02 X270.345471 Y274.410646 Z-0.125000 I0.441031 J1.748625
G02 X273.077044 Y278.535458 Z-0.125000 I6.792152 J-1.531094
G02 X289.315977 Y281.124320 Z-0.125000 I10.702389 J-14.907245
G02 X317.082341 Y264.610270 Z-0.125000 I-21.369542 J-67.530187
G02 X325.091192 Y255.598294 Z-0.125000 I-53.912961 J-55.976573
G02 X325.269128 Y253.816229 Z-0.125000 I-1.366404 J-1.036349
G02 X323.014721 Y252.867111 Z-0.125000 I-1.665623 J0.804331
G02 X317.419315 Y256.452069 Z-0.125000 I4.345736 J12.941966
G03 X299.502879 Y273.035999 Z-0.125000 I-129.171604 J-121.580476
G03 X296.813452 Y273.044697 Z-0.125000 I-1.350151 J-1.676711
G03 X296.658226 Y272.587073 Z-0.125000 I0.277563 J-0.349288
G03 X298.825922 Y265.006897 Z-0.125000 I115.014045 J28.790425
G03 X318.491561 Y227.672904 Z-0.125000 I116.640563 J37.593864
G03 X344.935953 Y205.329455 Z-0.125000 I65.274847 J50.434732
G03 X358.531422 Y199.070971 Z-0.125000 I60.061731 J112.577525
G03 X373.859836 Y194.020353 Z-0.125000 I54.002942 J138.110834
G03 X420.396093 Y184.259039 Z-0.125000 I108.619512 J402.024968
G03 X449.117243 Y182.673905 Z-0.125000 I22.722169 J150.711774
G03 X490.258437 Y186.798545 Z-0.125000 I-13.449726 J341.397839
G03 X536.392377 Y196.799839 Z-0.125000 I-71.166639 J439.681173
G03 X561.219277 Y205.334678 Z-0.125000 I-53.533052 J196.098484
G03 X579.876980 Y214.966737 Z-0.125000 I-50.126356 J119.983253
G03 X614.613385 Y238.385124 Z-0.125000 I-309.489303 J496.535695
G03 X636.711145 Y256.317272 Z-0.125000 I-158.868044 J218.354468
G02 X672.174671 Y283.035517 Z-0.125000 I167.861597 J-185.910447
G02 X713.098005 Y303.881201 Z-0.125000 I141.645316 J-227.479587
G02 X737.836758 Y311.456247 Z-0.125000 I55.202744 J-136.098653
G02 X742.526078 Y310.121085 Z-0.125000 I1.081921 J-5.102538
G02 X742.290436 Y308.234329 Z-0.125000 I-0.819368 J-0.855760
G02 X733.512719 Y305.017910 Z-0.125000 I-14.110473 J24.922407
G03 X705.874303 Y295.414718 Z-0.125000 I18.584576 J-98.061137
G03 X656.080649 Y264.556312 Z-0.125000 I185.279232 J-354.572896
G03 X645.537335 Y256.390107 Z-0.125000 I126.635003 J-174.386603
G03 X645.687336 Y255.978929 Z-0.125000 I0.147762 J-0.179045
G03 X646.387563 Y256.022741 Z-0.125000 I-0.066897 J6.686787
G03 X656.454763 Y257.222522 Z-0.125000 I-159.413030 J1380.449967
G03 X698.041698 Y265.812372 Z-0.125000 I-31.843323 J259.130891
G03 X723.089970 Y276.752479 Z-0.125000 I-30.422117 J103.799020
G03 X733.200278 Y283.799899 Z-0.125000 I-45.003578 J75.338533
G03 X771.472342 Y315.798979 Z-0.125000 I-903.202530 J1119.150028
G03 X785.992085 Y330.441106 Z-0.125000 I-89.034303 J102.810380
G03 X788.297020 Y335.559709 Z-0.125000 I-7.674223 J6.534007
G01 X788.684765 Y338.295360 Z-0.125000
G01 X784.368317 Y339.773606 Z-0.125000
G03 X764.093396 Y342.509245 Z-0.125000 I-17.032345 J-49.732936
G03 X722.088533 Y335.924738 Z-0.125000 I14.005000 J-226.616852
G03 X714.881206 Y333.701194 Z-0.125000 I18.620019 J-73.146932
G03 X707.545057 Y330.628582 Z-0.125000 I28.717374 J-78.859573
G02 X700.335662 Y327.204005 Z-0.125000 I-2997.457825 J6300.932067
G02 X683.025929 Y318.998826 Z-0.125000 I-17110.708507 J36074.506424
G03 X649.438578 Y300.843327 Z-0.125000 I153.851199 J-324.767741
G03 X622.277313 Y281.861894 Z-0.125000 I141.186033 J-230.952310
G02 X586.192634 Y255.177335 Z-0.125000 I-405.203651 J510.203630
G02 X563.737340 Y241.614752 Z-0.125000 I-126.117385 J183.439323
G02 X554.593083 Y238.642052 Z-0.125000 I-13.225134 J25.130968
G02 X552.746478 Y240.018614 Z-0.125000 I-0.234179 J1.612714
G02 X553.262710 Y241.275170 Z-0.125000 I1.317245 J0.193156
G02 X560.391454 Y245.777592 Z-0.125000 I30.869857 J-40.981927
G03 X581.074356 Y257.924492 Z-0.125000 I-111.110497 J212.873432
G03 X606.129884 Y275.808604 Z-0.125000 I-217.077545 J330.617645
G03 X631.226491 Y295.970536 Z-0.125000 I-548.858634 J708.893449
G03 X631.217831 Y296.715625 Z-0.125000 I-0.307524 J0.369020
G03 X630.774945 Y296.930105 Z-0.125000 I-0.696974 J-0.874697
G03 X623.684360 Y298.473688 Z-0.125000 I-55.567901 J-238.198579
G03 X616.601994 Y299.506043 Z-0.125000 I-12.957351 J-64.082499
G03 X615.196132 Y299.239570 Z-0.125000 I-0.234838 J-2.602809
G02 X613.823344 Y299.012648 Z-0.125000 I-1.052084 J2.098819
G02 X610.364346 Y299.906086 Z-0.125000 I2.112916 J15.322857
G02 X602.706047 Y304.350188 Z-0.125000 I10.174855 J26.354453
G02 X598.980175 Y309.120574 Z-0.125000 I8.579816 J10.541421
G02 X597.818322 Y314.971490 Z-0.125000 I11.245762 J5.273959
G02 X599.655395 Y322.740908 Z-0.125000 I21.594719 J-1.004160
G02 X608.129363 Y336.253204 Z-0.125000 I51.423418 J-22.835887
G02 X613.004309 Y338.513944 Z-0.125000 I4.874946 J-4.125674
G02 X614.355212 Y338.189807 Z-0.125000 I0.000000 J-2.977143
G02 X615.322878 Y337.333301 Z-0.125000 I-1.168788 J-2.295356
G02 X615.374230 Y336.187477 Z-0.125000 I-0.913182 J-0.614989
G02 X611.713030 Y330.774730 Z-0.125000 I-31.294112 J17.222847
G03 X605.418481 Y320.571383 Z-0.125000 I34.836845 J-28.534462
G03 X604.269814 Y314.073693 Z-0.125000 I12.459970 J-5.553061
G03 X604.823514 Y309.924528 Z-0.125000 I33.042095 J2.297899
G03 X605.222285 Y309.274757 Z-0.125000 I1.077016 J0.213725
G03 X607.200499 Y309.449697 Z-0.125000 I0.895922 J1.141207
G03 X614.073078 Y318.506943 Z-0.125000 I-53.252413 J47.543637
G03 X619.844958 Y328.703291 Z-0.125000 I-90.929959 J58.204848
G03 X622.595744 Y336.416257 Z-0.125000 I-31.091246 J15.435529
G03 X621.338180 Y342.689303 Z-0.125000 I-7.611193 J1.736751
G03 X614.181797 Y348.201450 Z-0.125000 I-12.666973 J-9.043828
G03 X604.696801 Y350.188467 Z-0.125000 I-11.084533 J-29.280098
G03 X600.298439 Y348.911654 Z-0.125000 I-0.357255 J-6.983469
G03 X599.211597 Y347.482172 Z-0.125000 I1.730497 J-2.443612
G03 X597.707385 Y341.713252 Z-0.125000 I31.049077 J-11.176431
G02 X594.316672 Y327.833488 Z-0.125000 I-94.081499 J15.629299
G02 X590.628574 Y319.958082 Z-0.125000 I-33.593081 J10.930552
G02 X585.671022 Y314.959011 Z-0.125000 I-13.663259 J8.592054
G02 X576.085561 Y311.018490 Z-0.125000 I-15.640743 J24.417926
G02 X564.967140 Y309.603454 Z-0.125000 I-13.984552 J65.493268
G02 X540.909174 Y309.341689 Z-0.125000 I-16.126579 J376.466466
G03 X520.925638 Y309.103402 Z-0.125000 I-6.379114 J-303.087624
G03 X517.798166 Y308.303216 Z-0.125000 I0.354818 J-7.898627
G03 X514.990029 Y306.566383 Z-0.125000 I7.441040 J-15.169319
G03 X483.577423 Y282.192227 Z-0.125000 I1485.865033 J-1947.362539
G02 X433.970824 Y245.490365 Z-0.125000 I-615.989492 J780.702157
G02 X418.094981 Y236.819452 Z-0.125000 I-48.665844 J70.234565
G02 X389.625371 Y232.414065 Z-0.125000 I-23.221267 J55.871900
G02 X363.089051 Y241.608363 Z-0.125000 I4.988037 J57.287666
G02 X351.667089 Y251.094316 Z-0.125000 I36.133692 J55.127818
G02 X329.958589 Y276.127735 Z-0.125000 I236.878863 J227.346109
G03 X311.679594 Y296.899469 Z-0.125000 I-188.784625 J-147.700713
G03 X300.461654 Y305.980607 Z-0.125000 I-46.392173 J-45.838972
G03 X286.442996 Y309.754623 Z-0.125000 I-12.968641 J-20.248970
G03 X273.954730 Y304.821980 Z-0.125000 I0.898169 J-20.548912
G03 X264.667169 Y293.162024 Z-0.125000 I25.750843 J-30.040354
G03 X261.799721 Y281.650977 Z-0.125000 I22.189594 J-11.640187
G03 X265.434449 Y266.563488 Z-0.125000 I32.434690 J-0.167721
G03 X285.718873 Y235.478855 Z-0.125000 I164.755322 J85.351193
G02 X302.980935 Y212.781695 Z-0.125000 I-394.553461 J-317.985892
G02 X316.217133 Y192.945615 Z-0.125000 I-288.051851 J-206.545069
G02 X330.175603 Y168.216500 Z-0.125000 I-295.134545 J-182.894168
G02 X344.866244 Y136.958361 Z-0.125000 I-457.266498 J-233.986459
G03 X369.245533 Y90.516386 Z-0.125000 I310.469674 J133.358381
G03 X385.079694 Y72.972225 Z-0.125000 I58.080832 J36.502290
G03 X403.333563 Y63.375720 Z-0.125000 I35.577276 J45.513926
G03 X427.678203 Y59.581460 Z-0.125000 I24.729269 J78.670478
G03 X437.610218 Y59.938582 Z-0.125000 I0.758670 J117.190106
G03 X447.405452 Y61.112239 Z-0.125000 I-9.444120 J120.281608
G01 X447.405875 Y61.112239 Z-0.125000
G00 Z5.000000

(Change tool to Default tool)

G00 Z5.000000
G00 X222.291745 Y164.951741

G01 Z-0.125000 F100.0(Penetrate)
G03 X221.992057 Y165.433043 Z-0.125000 I-65.205706 J-40.267095 F400.000000
G03 X215.486594 Y175.793009 Z-0.125000 I-52961.090177 J-33249.338668
G02 X204.083219 Y197.051199 Z-0.125000 I149.350216 J93.802445
G02 X204.472651 Y200.199499 Z-0.125000 I2.779675 J1.254401
G02 X206.782897 Y200.812234 Z-0.125000 I1.565402 J-1.240543
G02 X216.209133 Y195.482335 Z-0.125000 I-15.287079 J-38.036465
G03 X239.187063 Y180.086211 Z-0.125000 I147.037936 J194.601852
G03 X255.936641 Y172.012498 Z-0.125000 I56.069072 J94.908844
G01 X263.117605 Y169.270853 Z-0.125000
G01 X278.416277 Y169.084112 Z-0.125000
G01 X293.714934 Y168.897371 Z-0.125000
G01 X286.870819 Y172.196289 Z-0.125000
G02 X280.097336 Y175.629174 Z-0.125000 I82.640338 J171.457945
G02 X272.138554 Y180.035458 Z-0.125000 I128.730443 J241.908242
G02 X264.986656 Y184.933080 Z-0.125000 I27.691617 J48.108199
G02 X264.489217 Y186.203300 Z-0.125000 I0.863287 J1.070590
G02 X265.867689 Y187.378567 Z-0.125000 I1.360548 J-0.199749
G02 X276.569169 Y186.046043 Z-0.125000 I-0.635349 J-48.740450
G03 X286.452482 Y184.187437 Z-0.125000 I23.944078 J100.117843
G03 X299.014319 Y182.816907 Z-0.125000 I30.449686 J220.837986
G03 X312.024105 Y182.272642 Z-0.125000 I13.566761 J168.530591
G03 X314.930058 Y182.957945 Z-0.125000 I0.021130 J6.414245
G03 X315.178632 Y183.733314 Z-0.125000 I-0.258029 J0.510251
G03 X308.776090 Y194.718664 Z-0.125000 I-123.669632 J-64.719361
G03 X299.144193 Y208.749786 Z-0.125000 I-252.412614 J-162.951283
G03 X284.779627 Y227.906392 Z-0.125000 I-717.049301 J-522.714945
G03 X269.057443 Y247.494060 Z-0.125000 I-511.021148 J-394.071208
G03 X267.988998 Y247.610103 Z-0.125000 I-0.594445 J-0.496463
G02 X265.900147 Y247.306431 Z-0.125000 I-1.313133 J1.696501
G02 X260.033622 Y250.697270 Z-0.125000 I7.980372 J20.577208
G02 X240.983191 Y282.022150 Z-0.125000 I33.860085 J42.047495
G02 X245.095532 Y324.408894 Z-0.125000 I71.386835 J14.466946
G02 X247.787617 Y330.415543 Z-0.125000 I108.802309 J-45.156882
G02 X248.427752 Y331.319470 Z-0.125000 I3.002800 J-1.447870
G02 X251.334377 Y332.503135 Z-0.125000 I2.849316 J-2.836215
G02 X253.300150 Y331.249691 Z-0.125000 I-0.031617 J-2.217765
G02 X253.360490 Y330.372661 Z-0.125000 I-1.065222 J-0.513878
G02 X250.930059 Y323.904940 Z-0.125000 I-69.450727 J22.407583
G03 X246.287495 Y309.322268 Z-0.125000 I71.387578 J-30.757413
G03 X244.782319 Y295.007294 Z-0.125000 I67.258444 J-14.308639
G03 X246.153553 Y282.150294 Z-0.125000 I60.960689 J0.000000
G03 X249.896329 Y271.299658 Z-0.125000 I46.996369 J10.139920
G03 X255.897997 Y261.763846 Z-0.125000 I46.194171 J22.417196
G03 X263.091500 Y254.701919 Z-0.125000 I32.172095 J25.576790
G01 X266.010298 Y252.468158 Z-0.125000
G01 X263.186425 Y257.325081 Z-0.125000
G02 X257.665780 Y269.902272 Z-0.125000 I52.641112 J30.606559
G02 X255.968242 Y280.610488 Z-0.125000 I36.238359 J11.233408
G02 X256.425885 Y287.546380 Z-0.125000 I43.661314 J0.602188
G02 X257.656667 Y292.127903 Z-0.125000 I20.125309 J-2.950392
G02 X266.366005 Y305.598049 Z-0.125000 I38.533911 J-15.364060
G02 X278.416277 Y313.600552 Z-0.125000 I24.255124 J-23.449698
G02 X294.650893 Y313.683626 Z-0.125000 I8.225996 J-21.198481
G02 X317.455439 Y298.909432 Z-0.125000 I-22.434130 J-59.614907
G03 X322.579928 Y293.889521 Z-0.125000 I172.793881 J171.268056
G03 X322.729862 Y293.892847 Z-0.125000 I0.073294 J0.077062
G03 X322.782579 Y294.074710 Z-0.125000 I-0.147081 J0.141207
G03 X318.596746 Y314.203036 Z-0.125000 I-2346.974988 J-477.571330
G02 X314.477444 Y334.390879 Z-0.125000 I1253.517161 J266.292658
G02 X308.454526 Y366.031582 Z-0.125000 I3072.913832 J601.333465
G01 X302.594153 Y397.704583 Z-0.125000
G01 X302.618988 Y414.660867 Z-0.125000
G02 X303.319186 Y431.502541 Z-0.125000 I211.031877 J-0.338317
G02 X304.424336 Y436.735998 Z-0.125000 I21.109145 J-1.724205
G02 X315.122790 Y452.122932 Z-0.125000 I32.849844 J-11.427568
G02 X336.129773 Y462.927776 Z-0.125000 I35.195895 J-42.605018
G02 X354.105894 Y463.609398 Z-0.125000 I10.499609 J-39.522573
G02 X375.266347 Y455.649812 Z-0.125000 I-11.808829 J-63.500798
G02 X388.206010 Y446.701573 Z-0.125000 I-57.971066 J-97.659317
G02 X403.730999 Y432.896811 Z-0.125000 I-123.658896 J-154.700340
G02 X436.299059 Y397.643269 Z-0.125000 I-369.284610 J-373.824251
G02 X454.945075 Y372.110228 Z-0.125000 I-174.379249 J-146.918785
G02 X466.049521 Y351.066361 Z-0.125000 I-132.944435 J-83.603970
G02 X473.571827 Y329.220902 Z-0.125000 I-135.820476 J-58.986526
G02 X479.726891 Y300.975182 Z-0.125000 I-359.135606 J-93.053234
G02 X480.930856 Y287.741074 Z-0.125000 I-77.185131 J-13.693688
G03 X481.460067 Y287.471817 Z-0.125000 I0.334044 J0.001849
G03 X496.028249 Y298.609861 Z-0.125000 I-186.070832 J258.470665
G02 X509.173633 Y308.891240 Z-0.125000 I295.442022 J-364.196754
G02 X514.689922 Y312.265112 Z-0.125000 I20.088434 J-26.648136
G02 X520.507885 Y313.978142 Z-0.125000 I8.035743 J-16.555499
G02 X528.711756 Y314.473858 Z-0.125000 I8.196722 J-67.518911
G01 X537.448791 Y314.473209 Z-0.125000
G01 X536.985636 Y317.377564 Z-0.125000
G02 X536.579364 Y320.289328 Z-0.125000 I74.218560 J11.839781
G02 X534.073752 Y341.716974 Z-0.125000 I4014.802744 J480.325710
G03 X529.853004 Y371.281896 Z-0.125000 I-528.567801 J-60.375664
G03 X524.799563 Y395.785029 Z-0.125000 I-368.005675 J-63.123547
G02 X515.994614 Y436.300409 Z-0.125000 I880.062014 J212.472707
G02 X513.466139 Y454.368712 Z-0.125000 I172.114958 J33.296803
G02 X514.155403 Y467.002563 Z-0.125000 I44.697032 J3.897197
G02 X516.852101 Y471.424358 Z-0.125000 I7.373975 J-1.463920
G02 X518.955006 Y472.347034 Z-0.125000 I2.799781 J-3.523345
G02 X523.802641 Y472.513792 Z-0.125000 I3.109022 J-19.835344
G02 X533.513214 Y470.653403 Z-0.125000 I-4.179913 J-48.090745
G02 X540.831535 Y467.397250 Z-0.125000 I-9.116747 J-30.342385
G03 X544.439054 Y465.318618 Z-0.125000 I47.632490 J78.497588
G03 X544.533359 Y465.374555 Z-0.125000 I0.030563 J0.055938
G03 X544.177071 Y467.049207 Z-0.125000 I-4.113802 J0.000000
G03 X534.483144 Y487.924650 Z-0.125000 I-678.930919 J-302.586571
G03 X519.458678 Y513.806042 Z-0.125000 I-178.022846 J-86.042808
G03 X511.243019 Y521.769935 Z-0.125000 I-23.828147 J-16.361796
G03 X507.934562 Y523.029917 Z-0.125000 I-4.658365 J-7.258267
G03 X498.762446 Y523.747763 Z-0.125000 I-9.116427 J-57.526839
G03 X486.429556 Y521.796528 Z-0.125000 I0.034401 J-40.168423
G03 X482.333698 Y518.432491 Z-0.125000 I2.229718 J-6.890236
G03 X480.604099 Y512.526510 Z-0.125000 I12.117363 J-6.754889
G03 X480.808710 Y499.328749 Z-0.125000 I85.932399 J-5.268213
G03 X482.894091 Y486.342306 Z-0.125000 I97.829244 J9.048895
G03 X486.102014 Y477.692401 Z-0.125000 I34.963283 J8.046758
G02 X486.369861 Y474.251993 Z-0.125000 I-3.863544 J-2.031421
G02 X484.463488 Y472.887960 Z-0.125000 I-1.906373 J0.650158
G02 X482.825154 Y473.472760 Z-0.125000 I0.000000 J2.587318
G02 X480.906387 Y475.798114 Z-0.125000 I4.920986 J6.014866
G02 X478.425778 Y481.541917 Z-0.125000 I31.690461 J17.093903
G02 X476.159635 Y490.088922 Z-0.125000 I68.250775 J22.669851
G03 X475.227447 Y494.102956 Z-0.125000 I-65.945564 J-13.199420
G03 X475.008733 Y494.437469 Z-0.125000 I-0.613676 J-0.162482
G03 X472.271743 Y495.590500 Z-0.125000 I-3.429351 J-4.315414
G03 X438.049927 Y499.116497 Z-0.125000 I-92.864254 J-733.466511
G03 X429.402727 Y499.382542 Z-0.125000 I-7.055602 J-88.664450
G03 X419.567870 Y498.785769 Z-0.125000 I2.064679 J-115.363911
G03 X388.105898 Y493.603957 Z-0.125000 I27.471790 J-264.901581
G03 X377.559572 Y489.253552 Z-0.125000 I7.544277 J-33.247460
G03 X377.351143 Y488.010247 Z-0.125000 I0.447004 J-0.714060
G03 X385.412208 Y479.528649 Z-0.125000 I56.466166 J45.594978
G02 X404.015309 Y459.952011 Z-0.125000 I-111.611329 J-124.688254
G02 X403.071276 Y457.652247 Z-0.125000 I-1.103415 J-0.890698
G02 X401.513508 Y458.045817 Z-0.125000 I-0.256404 J2.264782
G02 X396.227105 Y462.411919 Z-0.125000 I23.704881 J34.084872
G03 X391.094291 Y467.318261 Z-0.125000 I-243.795503 J-249.910830
G03 X383.494508 Y474.337363 Z-0.125000 I-506.864288 J-541.172671
G02 X375.857828 Y481.317762 Z-0.125000 I1929.119836 J2118.158732
G02 X372.221762 Y484.678756 Z-0.125000 I443.917471 J483.896114
G03 X357.386198 Y495.689716 Z-0.125000 I-56.634649 J-60.806631
G03 X330.599233 Y508.903859 Z-0.125000 I-109.254317 J-187.716594
G03 X307.214855 Y515.283968 Z-0.125000 I-37.473086 J-91.302094
G03 X295.899785 Y513.908604 Z-0.125000 I-3.115500 J-21.600912
G03 X283.355687 Y502.840089 Z-0.125000 I9.481865 J-23.388383
G03 X272.828773 Y472.661220 Z-0.125000 I80.399483 J-44.970155
G03 X270.289857 Y448.239127 Z-0.125000 I210.228707 J-34.198361
G03 X271.451788 Y442.691240 Z-0.125000 I11.338253 J-0.520971
G02 X271.861707 Y440.914013 Z-0.125000 I-3.554573 J-1.755751
G02 X271.420857 Y436.932507 Z-0.125000 I-19.136005 J0.103663
G03 X269.927257 Y422.011025 Z-0.125000 I63.510500 J-13.892721
G03 X271.848170 Y409.939563 Z-0.125000 I43.185402 J0.683456
G02 X272.661146 Y405.679977 Z-0.125000 I-18.671830 J-5.771046
G02 X272.260031 Y404.629842 Z-0.125000 I-1.309303 J-0.101564
G02 X269.647590 Y404.073411 Z-0.125000 I-1.756120 J1.834063
G02 X267.067867 Y406.489828 Z-0.125000 I1.499555 J4.186140
G02 X264.846042 Y414.832589 Z-0.125000 I26.661718 J11.567724
G02 X264.622885 Y428.387261 Z-0.125000 I71.216872 J7.951647
G01 X265.126864 Y434.816540 Z-0.125000
G01 X261.853676 Y431.937151 Z-0.125000
G03 X231.090840 Y397.623149 Z-0.125000 I128.799247 J-146.416367
G03 X224.272389 Y378.445437 Z-0.125000 I31.124725 J-21.867070
G01 X223.859913 Y372.623116 Z-0.125000
G01 X226.479530 Y372.206880 Z-0.125000
G03 X232.819323 Y371.872882 Z-0.125000 I4.754911 J29.919001
G03 X238.663354 Y372.845532 Z-0.125000 I-1.379410 J26.330839
G02 X243.876691 Y373.065140 Z-0.125000 I3.064561 J-10.760249
G02 X244.856933 Y371.633439 Z-0.125000 I-0.237601 J-1.214099
G02 X243.040045 Y369.437104 Z-0.125000 I-2.852517 J0.510041
G02 X233.864806 Y367.427357 Z-0.125000 I-11.243800 J29.383043
G02 X223.801073 Y367.763454 Z-0.125000 I-3.342770 J50.744518
G02 X219.492690 Y369.343854 Z-0.125000 I1.395633 J10.467497
G03 X218.468014 Y369.632822 Z-0.125000 I-0.985907 J-1.534788
G03 X211.906371 Y369.183160 Z-0.125000 I1.482337 J-69.730715
G02 X195.805854 Y368.603465 Z-0.125000 I-11.679695 J100.514476
G02 X181.391341 Y370.517910 Z-0.125000 I3.600319 J82.331143
G02 X169.251196 Y374.192001 Z-0.125000 I18.871736 J84.251223
G02 X158.868802 Y379.186256 Z-0.125000 I25.585216 J66.477209
G01 X153.786581 Y382.159312 Z-0.125000
G01 X154.191635 Y377.662798 Z-0.125000
G03 X157.002320 Y370.430392 Z-0.125000 I13.938322 J1.254411
G03 X163.349377 Y365.655041 Z-0.125000 I11.661591 J8.894053
G02 X168.043359 Y363.066410 Z-0.125000 I-7.314604 J-18.813756
G02 X168.131627 Y361.787161 Z-0.125000 I-0.501253 J-0.677256
G02 X166.156923 Y360.617403 Z-0.125000 I-3.375934 J3.447360
G02 X155.215091 Y357.689332 Z-0.125000 I-49.585410 J163.386278
G03 X102.830154 Y341.284524 Z-0.125000 I82.699862 J-355.924721
G03 X89.117286 Y331.390963 Z-0.125000 I12.817799 J-32.216046
G03 X85.156286 Y324.369413 Z-0.125000 I16.691344 J-14.043947
G03 X82.565926 Y312.123915 Z-0.125000 I49.782531 J-16.927505
G03 X82.508095 Y308.208408 Z-0.125000 I26.245926 J-2.345831
G03 X82.847268 Y307.311619 Z-0.125000 I1.609039 J0.096019
G03 X83.449467 Y307.226273 Z-0.125000 I0.345421 J0.270058
G03 X85.067121 Y308.924658 Z-0.125000 I-3.752257 J5.193469
G02 X92.527419 Y316.353324 Z-0.125000 I21.113779 J-13.743317
G02 X108.153582 Y323.812788 Z-0.125000 I36.932562 J-57.270058
G02 X110.600322 Y324.090605 Z-0.125000 I1.891713 J-5.747199
G02 X111.850210 Y323.472233 Z-0.125000 I-0.177988 J-1.932116
G02 X112.827572 Y322.229252 Z-0.125000 I-7.521707 J-6.920095
G02 X112.950039 Y321.825428 Z-0.125000 I-0.604556 J-0.403824
G02 X112.758033 Y321.489646 Z-0.125000 I-0.389613 J0.000000
G02 X105.099415 Y317.205665 Z-0.125000 I-101.559098 J172.572870
G03 X93.886214 Y309.175176 Z-0.125000 I24.312219 J-45.791746
G03 X89.841562 Y302.851170 Z-0.125000 I10.523838 J-11.186169
G03 X82.188420 Y274.963126 Z-0.125000 I252.749624 J-84.354627
G03 X80.437384 Y259.482659 Z-0.125000 I75.573284 J-16.387557
G03 X81.192534 Y251.391594 Z-0.125000 I38.843785 J-0.455426
G03 X82.938948 Y247.005643 Z-0.125000 I12.850291 J2.576102
G03 X92.145559 Y237.332341 Z-0.125000 I28.371966 J17.785287
G03 X97.612288 Y236.763911 Z-0.125000 I3.246573 J4.651430
G03 X101.009010 Y240.109913 Z-0.125000 I-2.542049 J5.977689
G03 X108.071150 Y260.365845 Z-0.125000 I-120.212869 J53.270736
G02 X111.787284 Y272.519457 Z-0.125000 I143.306230 J-37.172910
G02 X113.598868 Y276.008996 Z-0.125000 I13.361121 J-4.721378
G02 X117.717613 Y279.698487 Z-0.125000 I10.221518 J-7.267025
G02 X119.901937 Y279.519764 Z-0.125000 I0.958652 J-1.721100
G02 X120.505753 Y278.196415 Z-0.125000 I-0.996726 J-1.254213
G02 X119.556869 Y271.532384 Z-0.125000 I-34.272122 J1.480396
G03 X116.755123 Y255.960634 Z-0.125000 I124.685373 J-30.471936
G03 X115.831734 Y239.659864 Z-0.125000 I135.757448 J-15.866789
G03 X116.522178 Y225.052110 Z-0.125000 I166.511531 J0.550071
G03 X117.646806 Y219.824437 Z-0.125000 I22.104964 J2.020631
G03 X121.897476 Y211.292980 Z-0.125000 I34.848952 J12.038321
G03 X129.844248 Y201.680141 Z-0.125000 I52.393508 J35.221678
G03 X146.965588 Y186.287683 Z-0.125000 I166.248036 J167.702594
G03 X148.720007 Y186.305504 Z-0.125000 I0.866493 J1.063864
G03 X148.838438 Y186.612189 Z-0.125000 I-0.227848 J0.264197
G03 X148.301347 Y189.750865 Z-0.125000 I-33.359254 J-4.093154
G02 X147.804933 Y192.978882 Z-0.125000 I24.438958 J5.410468
G02 X147.061697 Y203.914638 Z-0.125000 I280.829071 J24.579369
G02 X147.369628 Y214.257241 Z-0.125000 I66.174009 J3.205681
G02 X148.298319 Y215.324973 Z-0.125000 I1.231566 J-0.133446
G02 X150.672725 Y214.813482 Z-0.125000 I0.670085 J-2.656275
G02 X155.524974 Y209.582214 Z-0.125000 I-14.705695 J-18.506208
G03 X163.800325 Y198.324847 Z-0.125000 I153.837037 J104.416116
G03 X175.308363 Y184.687250 Z-0.125000 I237.395389 J188.650959
G03 X191.346474 Y168.656392 Z-0.125000 I152.810788 J136.841806
G03 X193.289850 Y168.599556 Z-0.125000 I1.005383 J1.123730
G03 X193.618184 Y170.032947 Z-0.125000 I-0.732640 J0.922119
G03 X187.202474 Y181.231569 Z-0.125000 I-81.714520 J-39.377290
G02 X185.112454 Y185.424758 Z-0.125000 I15.113018 J10.150276
G02 X185.374538 Y186.510426 Z-0.125000 I0.977511 J0.338493
G02 X187.907070 Y187.350729 Z-0.125000 I2.151119 J-2.246646
G02 X190.617914 Y185.862240 Z-0.125000 I-0.512216 J-4.145598
G03 X203.675358 Y173.335922 Z-0.125000 I59.980891 J49.455422
G03 X217.157908 Y165.769948 Z-0.125000 I34.258076 J45.251901
G03 X221.963766 Y164.460666 Z-0.125000 I8.394299 J21.337316
G03 X222.292879 Y164.956152 Z-0.125000 I0.051188 J0.323045
G01 X222.291745 Y164.951741 Z-0.125000
G00 Z5.000000

(Change tool to Default tool)

G00 Z5.000000
G00 X220.499552 Y304.457934

G01 Z-0.125000 F100.0(Penetrate)
G02 X220.490525 Y306.330617 Z-0.125000 I2.373085 J0.947801 F400.000000
G02 X225.858105 Y318.989158 Z-0.125000 I208.774266 J-81.058930
G02 X231.789033 Y331.014805 Z-0.125000 I230.361985 J-106.136838
G02 X234.866596 Y335.640450 Z-0.125000 I24.034094 J-12.653901
G02 X237.227336 Y336.968691 Z-0.125000 I2.898820 J-2.390155
G02 X239.349013 Y336.289079 Z-0.125000 I0.363985 J-2.515310
G02 X239.603785 Y335.226585 Z-0.125000 I-0.698213 J-0.729214
G02 X236.495964 Y328.130878 Z-0.125000 I-47.906661 J16.754008
G03 X232.803213 Y320.846340 Z-0.125000 I179.893955 J-95.771890
G03 X228.855841 Y312.279756 Z-0.125000 I244.882565 J-118.031476
G02 X224.537355 Y304.357983 Z-0.125000 I-48.828962 J21.480710
G02 X223.019483 Y303.444474 Z-0.125000 I-1.716058 J1.133584
G02 X221.257687 Y303.698033 Z-0.125000 I-0.361393 J3.736441
G02 X220.499552 Y304.457934 Z-0.125000 I0.509028 J1.265983
G01 X220.499552 Y304.457934 Z-0.125000
G00 Z5.000000

(Change tool to Default tool)

G00 Z5.000000
G00 X206.811822 Y316.549725

G01 Z-0.125000 F100.0(Penetrate)
G02 X206.938278 Y318.134165 Z-0.125000 I1.416850 J0.684186 F400.000000
G02 X214.158617 Y327.514044 Z-0.125000 I103.576146 J-72.260759
G02 X221.895972 Y336.073145 Z-0.125000 I137.136235 J-116.193202
G02 X228.581829 Y342.243643 Z-0.125000 I56.162182 J-54.145457
G02 X233.714391 Y345.656647 Z-0.125000 I19.547619 J-23.830464
G02 X235.837621 Y346.082783 Z-0.125000 I1.779280 J-3.362717
G02 X238.011656 Y345.324064 Z-0.125000 I-0.428313 J-4.721391
G02 X238.438172 Y344.444041 Z-0.125000 I-0.523445 J-0.797066
G02 X237.953034 Y343.337497 Z-0.125000 I-1.878727 J0.164062
G02 X235.410915 Y341.196619 Z-0.125000 I-9.358086 J8.532246
G03 X229.281839 Y336.244537 Z-0.125000 I19.100111 J-29.908714
G03 X216.458909 Y322.037585 Z-0.125000 I148.822719 J-147.214960
G02 X210.775339 Y316.086711 Z-0.125000 I-43.024038 J35.401890
G02 X209.195581 Y315.479014 Z-0.125000 I-1.579758 J1.749505
G02 X207.550113 Y315.831722 Z-0.125000 I0.000000 J4.014603
G02 X206.811884 Y316.549725 Z-0.125000 I0.616831 J1.372721
G01 X206.811822 Y316.549725 Z-0.125000
G00 Z5.000000

(Change tool to Default tool)

G00 Z5.000000
G00 X192.302978 Y341.450929

G01 Z-0.125000 F100.0(Penetrate)
G02 X191.641047 Y342.532423 Z-0.125000 I1.150035 J1.447196 F400.000000
G02 X191.861438 Y343.638301 Z-0.125000 I1.433248 J0.289267
G02 X193.065830 Y344.424999 Z-0.125000 I1.533841 J-1.032947
G02 X204.338209 Y345.897270 Z-0.125000 I20.574790 J-113.640668
G03 X220.598623 Y348.418234 Z-0.125000 I-9.063342 J112.160165
G03 X228.183331 Y351.404887 Z-0.125000 I-6.214726 J26.906657
G02 X230.900065 Y351.566857 Z-0.125000 I1.520312 J-2.635332
G02 X232.117422 Y349.722157 Z-0.125000 I-0.788989 J-1.844700
G02 X229.211237 Y345.945015 Z-0.125000 I-3.907650 J0.000000
G02 X198.541486 Y340.819846 Z-0.125000 I-42.633808 J160.798163
G02 X193.682742 Y340.889998 Z-0.125000 I-2.024312 J28.089610
G02 X192.302792 Y341.450929 Z-0.125000 I0.266371 J2.633183
G01 X192.302978 Y341.450929 Z-0.125000
G00 Z5.000000

(Change tool to Default tool)

G00 Z5.000000
G00 X407.849355 Y238.344830

G01 Z-0.125000 F100.0(Penetrate)
G03 X416.251514 Y241.385214 Z-0.125000 I-15.363829 J55.588186 F400.000000
G03 X427.208698 Y247.100500 Z-0.125000 I-45.464445 J100.524185
G03 X445.622826 Y258.947498 Z-0.125000 I-160.502902 J269.708551
G03 X446.253647 Y260.314650 Z-0.125000 I-0.846184 J1.219551
G03 X446.043285 Y260.664812 Z-0.125000 I-0.474776 J-0.046956
G03 X441.306743 Y263.608850 Z-0.125000 I-49.374386 J-74.154199
G02 X427.835557 Y275.147708 Z-0.125000 I24.356169 J42.067899
G02 X416.485609 Y294.363678 Z-0.125000 I59.885764 J48.331556
G02 X409.978861 Y322.309409 Z-0.125000 I83.749458 J34.230179
G02 X412.634432 Y349.673555 Z-0.125000 I82.861619 J5.769571
G02 X416.344671 Y355.442888 Z-0.125000 I10.907034 J-2.936589
G02 X427.441532 Y361.914002 Z-0.125000 I25.241078 J-30.533991
G02 X438.416372 Y364.677309 Z-0.125000 I17.100298 J-44.740424
G02 X447.618276 Y364.515690 Z-0.125000 I4.050639 J-31.413241
G03 X453.116503 Y363.717446 Z-0.125000 I23.542624 J142.824660
G03 X453.394970 Y363.789907 Z-0.125000 I0.048406 J0.385282
G03 X453.608323 Y365.037784 Z-0.125000 I-0.540475 J0.734584
G03 X439.235768 Y384.583756 Z-0.125000 I-276.761509 J-188.451225
G03 X382.170979 Y445.175773 Z-0.125000 I-383.452585 J-303.963301
G03 X356.333244 Y458.806708 Z-0.125000 I-40.205703 J-44.907324
G03 X347.213081 Y459.894702 Z-0.125000 I-8.998674 J-36.662715
G03 X338.334916 Y458.748719 Z-0.125000 I0.115396 J-35.857481
G03 X318.872502 Y448.702993 Z-0.125000 I12.419373 J-47.937010
G03 X309.664977 Y434.625781 Z-0.125000 I18.805064 J-22.349689
G03 X308.762300 Y429.614074 Z-0.125000 I22.458341 J-6.632197
G03 X308.235465 Y414.017101 Z-0.125000 I219.374935 J-15.217446
G03 X309.105751 Y398.418339 Z-0.125000 I144.368998 J0.230980
G03 X312.503822 Y375.305652 Z-0.125000 I321.613467 J35.478077
G03 X323.852329 Y316.388295 Z-0.125000 I3597.256261 J662.342425
G03 X329.234774 Y292.124022 Z-0.125000 I615.270859 J123.753916
G03 X332.059784 Y284.188162 Z-0.125000 I39.464830 J9.577951
G03 X336.575289 Y276.767417 Z-0.125000 I38.960009 J18.622860
G03 X355.724503 Y254.418497 Z-0.125000 I192.370165 J145.450164
G03 X367.514775 Y244.828163 Z-0.125000 I46.194816 J44.748905
G03 X387.593274 Y237.227065 Z-0.125000 I28.548377 J45.091799
G03 X407.849355 Y238.344830 Z-0.125000 I7.562647 J47.048822
G01 X407.849355 Y238.344830 Z-0.125000
G00 Z5.000000

(Change tool to Default tool)

G00 Z5.000000
G00 X656.052314 Y311.287230

G01 Z-0.125000 F100.0(Penetrate)
G02 X667.383959 Y317.057608 Z-0.125000 I283.259777 J-542.243101 F400.000000
G02 X679.402958 Y322.873936 Z-0.125000 I299.718951 J-604.019980
G03 X691.384148 Y328.700795 Z-0.125000 I-239.780108 J508.267305
G03 X692.042449 Y329.207192 Z-0.125000 I-0.978949 J1.953690
G03 X692.440022 Y329.924789 Z-0.125000 I-1.424706 J1.258268
G03 X693.542855 Y334.265893 Z-0.125000 I-54.168683 J16.071889
G03 X694.092810 Y339.709067 Z-0.125000 I-24.717745 J5.246744
G03 X693.583375 Y360.087219 Z-0.125000 I-591.893964 J-4.601357
G03 X692.324509 Y380.815752 Z-0.125000 I-562.537855 J-23.761053
G03 X691.471711 Y383.296329 Z-0.125000 I-5.242898 J-0.415577
G03 X687.706371 Y387.235767 Z-0.125000 I-12.722395 J-8.390957
G03 X681.415992 Y390.601024 Z-0.125000 I-15.350513 J-21.131710
G03 X677.712341 Y391.492918 Z-0.125000 I-5.615328 J-15.182257
G03 X670.143246 Y391.941676 Z-0.125000 I-7.573267 J-63.679094
G03 X662.622851 Y391.361032 Z-0.125000 I-0.001997 J-48.965853
G03 X658.679859 Y390.160515 Z-0.125000 I2.245349 J-14.450114
G03 X641.015893 Y376.267238 Z-0.125000 I20.907159 J-44.757101
G03 X627.928644 Y351.730159 Z-0.125000 I59.062604 J-47.260685
G03 X627.226648 Y347.404999 Z-0.125000 I14.540311 J-4.579514
G03 X627.813638 Y344.838747 Z-0.125000 I5.501790 J-0.091810
G02 X628.915975 Y340.159900 Z-0.125000 I-9.217279 J-4.640871
G02 X627.770345 Y333.167515 Z-0.125000 I-22.415401 J0.082489
G03 X626.703757 Y329.201388 Z-0.125000 I33.460486 J-11.124818
G03 X626.535397 Y327.211280 Z-0.125000 I8.165216 J-1.692940
G03 X627.894095 Y320.877278 Z-0.125000 I18.519609 J0.659889
G03 X635.189177 Y305.976921 Z-0.125000 I112.574353 J45.879418
G01 X637.904437 Y301.273813 Z-0.125000
G01 X641.341565 Y303.336116 Z-0.125000
G02 X644.822618 Y305.319930 Z-0.125000 I45.928643 J-76.546176
G02 X656.051411 Y311.287230 Z-0.125000 I427.732038 J-791.323911
G01 X656.052314 Y311.287230 Z-0.125000
G00 Z5.000000

(Change tool to Default tool)

G00 Z5.000000
G00 X642.350933 Y317.558566

G01 Z-0.125000 F100.0(Penetrate)
G02 X640.815585 Y322.206403 Z-0.125000 I20.410788 J9.319930 F400.000000
G02 X638.690370 Y334.753039 Z-0.125000 I148.338737 J31.579698
G02 X642.694701 Y365.258806 Z-0.125000 I60.192103 J7.614597
G02 X659.444484 Y385.695452 Z-0.125000 I41.442826 J-16.884007
G02 X668.997681 Y389.677127 Z-0.125000 I15.149729 J-22.897316
G02 X670.948455 Y388.090691 Z-0.125000 I0.330315 J-1.586436
G02 X670.409595 Y386.929574 Z-0.125000 I-1.520398 J-0.000000
G02 X665.648067 Y383.610052 Z-0.125000 I-20.182300 J23.874790
G03 X653.984480 Y373.695526 Z-0.125000 I20.130319 J-35.499453
G03 X646.412675 Y359.706632 Z-0.125000 I34.329201 J-27.625108
G03 X643.980730 Y344.262528 Z-0.125000 I47.109123 J-15.331688
G03 X646.493673 Y323.989957 Z-0.125000 I84.576779 J0.191917
G02 X647.486787 Y318.776421 Z-0.125000 I-45.882284 J-11.441361
G02 X647.322503 Y317.751350 Z-0.125000 I-1.793434 J-0.238274
G02 X644.761651 Y316.074454 Z-0.125000 I-2.676097 J1.292934
G02 X642.350990 Y317.558713 Z-0.125000 I-0.098554 J2.539704
G01 X642.350933 Y317.558566 Z-0.125000
G00 Z5.000000

(Change tool to Default tool)

G00 Z5.000000
G00 X581.757172 Y325.559069

G01 Z-0.125000 F100.0(Penetrate)
G03 X587.408316 Y329.484955 Z-0.125000 I-16.434061 J29.686352 F400.000000
G03 X588.896435 Y331.679783 Z-0.125000 I-3.279877 J3.825690
G03 X591.746534 Y346.231405 Z-0.125000 I-51.674696 J17.675992
G03 X590.820288 Y365.253314 Z-0.125000 I-89.942587 J5.153875
G03 X582.828079 Y400.423265 Z-0.125000 I-258.815563 J-40.321567
G03 X573.452699 Y422.957695 Z-0.125000 I-114.862903 J-34.570843
G03 X571.270448 Y425.237728 Z-0.125000 I-5.253728 J-2.844068
G03 X567.624415 Y426.451267 Z-0.125000 I-4.553257 J-7.596131
G02 X558.307199 Y428.316367 Z-0.125000 I5.133543 J49.849813
G02 X557.037808 Y429.639419 Z-0.125000 I0.538082 J1.786739
G02 X556.754675 Y430.984915 Z-0.125000 I15.347619 J3.932139
G02 X556.182195 Y434.812671 Z-0.125000 I122.877522 J20.334286
G03 X553.350698 Y445.463202 Z-0.125000 I-43.154359 J-5.771153
G03 X548.755545 Y453.048615 Z-0.125000 I-26.114288 J-10.635172
G03 X535.850746 Y464.139507 Z-0.125000 I-41.199523 J-34.884544
G03 X525.107750 Y467.602234 Z-0.125000 I-12.450174 J-20.229996
G03 X520.963273 Y467.173532 Z-0.125000 I-0.859587 J-11.937656
G03 X519.815716 Y466.091603 Z-0.125000 I0.470558 J-1.648649
G03 X519.440038 Y464.202630 Z-0.125000 I6.482064 J-2.270993
G03 X519.302439 Y456.887803 Z-0.125000 I99.164170 J-5.524091
G03 X520.844927 Y441.529138 Z-0.125000 I94.222044 J1.706040
G03 X530.436134 Y396.421135 Z-0.125000 I827.096693 J152.289908
G02 X534.630935 Y378.479556 Z-0.125000 I-1234.244116 J-298.031614
G02 X535.284006 Y374.985886 Z-0.125000 I-46.079068 J-10.421417
G03 X535.988228 Y371.131608 Z-0.125000 I57.777762 J8.565207
G03 X536.426604 Y370.439701 Z-0.125000 I1.165527 J0.253624
G03 X537.085461 Y370.426966 Z-0.125000 I0.338048 J0.439571
G03 X539.071654 Y372.072980 Z-0.125000 I-9.946597 J14.023587
G02 X549.784643 Y377.586803 Z-0.125000 I14.535532 J-15.077344
G02 X560.777055 Y376.102346 Z-0.125000 I3.239711 J-17.451584
G02 X566.716649 Y371.118695 Z-0.125000 I-6.950543 J-14.315046
G02 X572.120525 Y360.432806 Z-0.125000 I-30.746324 J-22.257800
G02 X573.247952 Y354.726261 Z-0.125000 I-24.191914 J-7.744173
G02 X573.918224 Y338.095005 Z-0.125000 I-207.320627 J-16.684569
G03 X574.318860 Y321.982604 Z-0.125000 I327.926289 J0.092712
G03 X574.727722 Y321.736540 Z-0.125000 I0.287022 J0.014201
G03 X575.520622 Y322.137345 Z-0.125000 I-6.283788 J13.415686
G03 X581.757172 Y325.559069 Z-0.125000 I-448.518668 J824.879753
G01 X581.757172 Y325.559069 Z-0.125000
G00 Z5.000000

(Change tool to Default tool)

G00 Z5.000000
G00 X706.043945 Y335.514794

G01 Z-0.125000 F100.0(Penetrate)
G02 X716.466298 Y339.401271 Z-0.125000 I27.748995 J-58.496359 F400.000000
G02 X734.320778 Y343.368606 Z-0.125000 I46.845486 J-168.662475
G01 X740.926810 Y344.478042 Z-0.125000
G01 X742.590510 Y350.109349 Z-0.125000
G03 X746.495239 Y377.703728 Z-0.125000 I-91.425639 J27.010599
G03 X742.337554 Y391.396688 Z-0.125000 I-25.134009 J-0.153915
G03 X735.552866 Y397.292105 Z-0.125000 I-13.961319 J-9.215501
G03 X724.163572 Y400.028079 Z-0.125000 I-12.188107 J-25.662944
G03 X714.651596 Y398.407113 Z-0.125000 I-0.693706 J-24.648317
G03 X703.885594 Y392.262966 Z-0.125000 I14.555431 J-38.008933
G03 X700.685318 Y389.070005 Z-0.125000 I12.496713 J-15.725626
G03 X698.956996 Y385.286900 Z-0.125000 I6.693853 J-5.344453
G03 X698.568945 Y380.572026 Z-0.125000 I23.024484 J-4.268404
G03 X699.062783 Y366.247609 Z-0.125000 I465.461845 J8.876217
G02 X699.797851 Y348.761104 Z-0.125000 I-1112.828456 J-55.537869
G02 X699.935161 Y340.722101 Z-0.125000 I-235.259364 J-8.039002
G03 X700.229176 Y333.123808 Z-0.125000 I98.328902 J-0.000000
G03 X700.539342 Y332.934873 Z-0.125000 I0.223163 J0.017296
G03 X701.138054 Y333.201739 Z-0.125000 I-6.747577 J15.943201
G03 X706.043945 Y335.514794 Z-0.125000 I-490.884181 J1047.503719
G01 X706.043945 Y335.514794 Z-0.125000
G00 Z5.000000

(Change tool to Default tool)

G00 Z5.000000
G00 X702.464803 Y367.147601

G01 Z-0.125000 F100.0(Penetrate)
G02 X701.847373 Y370.723035 Z-0.125000 I3.716755 J2.482862 F400.000000
G02 X705.707395 Y380.010678 Z-0.125000 I33.303260 J-8.395165
G02 X712.493618 Y387.803100 Z-0.125000 I25.347472 J-15.223286
G02 X722.684191 Y393.701752 Z-0.125000 I24.100559 J-29.884380
G02 X729.218279 Y395.245268 Z-0.125000 I8.791848 J-22.616108
G02 X731.329448 Y394.509700 Z-0.125000 I0.250349 J-2.678907
G02 X731.308273 Y392.949648 Z-0.125000 I-0.737387 J-0.770161
G02 X726.150190 Y389.813669 Z-0.125000 I-10.720887 J11.823783
G03 X713.324616 Y381.458511 Z-0.125000 I12.149970 J-32.672312
G03 X708.286906 Y371.466662 Z-0.125000 I13.347103 J-12.995254
G02 X706.566404 Y367.006848 Z-0.125000 I-11.518393 J1.881780
G02 X704.766579 Y366.027845 Z-0.125000 I-1.799825 J1.164920
G02 X703.383204 Y366.346480 Z-0.125000 I-0.000000 J3.162329
G02 X702.464803 Y367.147601 Z-0.125000 I1.019532 J2.095770
G01 X702.464803 Y367.147601 Z-0.125000
G00 Z5.000000

(Change tool to Default tool)

G00 Z5.000000
G00 X112.174661 Y349.816608

G01 Z-0.125000 F100.0(Penetrate)
G03 X119.631782 Y353.057354 Z-0.125000 I-24.865726 J67.417279 F400.000000
G03 X119.842611 Y353.678599 Z-0.125000 I-0.210432 J0.417810
G02 X118.625911 Y358.721056 Z-0.125000 I11.042908 J5.332572
G02 X119.346032 Y374.665970 Z-0.125000 I116.068814 J2.746696
G02 X125.516910 Y405.473186 Z-0.125000 I186.515837 J-21.338642
G02 X138.685863 Y442.993530 Z-0.125000 I340.756152 J-98.527966
G02 X156.018446 Y478.801349 Z-0.125000 I321.481014 J-133.512387
G02 X172.891804 Y503.597443 Z-0.125000 I146.540586 J-81.579517
G02 X191.701197 Y522.940765 Z-0.125000 I123.776210 J-101.542887
G02 X215.566305 Y540.652160 Z-0.125000 I127.356343 J-146.671357
G02 X244.882410 Y556.401807 Z-0.125000 I128.784648 J-204.558332
G02 X275.885389 Y567.886097 Z-0.125000 I98.174521 J-217.441916
G02 X283.870061 Y570.020919 Z-0.125000 I48.182616 J-164.213299
G02 X294.640820 Y572.418289 Z-0.125000 I71.629919 J-296.420695
G02 X314.194816 Y574.424366 Z-0.125000 I19.907777 J-97.745525
G02 X334.267283 Y571.922352 Z-0.125000 I0.281974 J-79.504786
G02 X354.181417 Y565.099792 Z-0.125000 I-33.409004 J-129.990994
G02 X391.948785 Y547.409170 Z-0.125000 I-280.962536 J-648.981235
G03 X427.720550 Y530.721307 Z-0.125000 I286.494875 J567.440875
G03 X443.204433 Y525.408929 Z-0.125000 I43.120723 J100.461635
G03 X466.321484 Y523.527597 Z-0.125000 I16.898423 J64.673874
G03 X492.557367 Y530.020239 Z-0.125000 I-8.444423 J90.376904
G03 X507.948206 Y538.498540 Z-0.125000 I-30.172543 J72.981659
G03 X542.954354 Y565.619217 Z-0.125000 I-289.384098 J409.676485
G02 X554.871115 Y575.083923 Z-0.125000 I153.395595 J-180.901956
G02 X559.925985 Y578.232406 Z-0.125000 I21.666204 J-29.152932
G02 X576.687626 Y583.803969 Z-0.125000 I26.319124 J-51.180295
G02 X594.272515 Y584.016635 Z-0.125000 I9.474080 J-56.256607
G01 X600.128936 Y583.175472 Z-0.125000
G01 X597.090701 Y585.672433 Z-0.125000
G03 X582.041051 Y591.593873 Z-0.125000 I-16.670897 J-20.284502
G03 X559.650875 Y587.988602 Z-0.125000 I-3.187948 J-51.530191
G03 X546.179676 Y581.166250 Z-0.125000 I32.058789 J-80.013333
G03 X521.268596 Y564.112122 Z-0.125000 I181.989767 J-292.554648
G02 X497.854873 Y549.627102 Z-0.125000 I-91.854294 J122.308550
G02 X478.126019 Y542.526988 Z-0.125000 I-39.695036 J79.339281
G02 X462.135814 Y540.489642 Z-0.125000 I-18.119958 J78.446715
G02 X443.689743 Y541.615743 Z-0.125000 I-2.799308 J105.786737
G02 X423.313825 Y546.911374 Z-0.125000 I14.728773 J98.519542
G02 X387.537990 Y562.760416 Z-0.125000 I121.269007 J322.041614
G03 X353.464662 Y578.608164 Z-0.125000 I-222.402324 J-433.620982
G03 X334.959934 Y584.790771 Z-0.125000 I-50.763705 J-121.153398
G03 X318.114686 Y587.838669 Z-0.125000 I-30.435227 J-120.136176
G03 X301.364398 Y588.497139 Z-0.125000 I-13.031600 J-118.122739
G03 X284.996332 Y586.829815 Z-0.125000 I3.671837 J-117.222417
G03 X266.741011 Y582.492409 Z-0.125000 I26.058980 J-150.262599
G03 X217.221701 Y560.782775 Z-0.125000 I66.536829 J-219.100562
G03 X176.321840 Y529.330381 Z-0.125000 I105.678180 J-179.739857
G03 X149.468899 Y501.628638 Z-0.125000 I635.069916 J-642.476829
G03 X134.439390 Y484.235847 Z-0.125000 I234.963715 J-218.227603
G03 X116.214386 Y450.601922 Z-0.125000 I83.190759 J-66.832752
G03 X104.121944 Y391.622200 Z-0.125000 I251.208634 J-82.234079
G03 X103.644338 Y383.357837 Z-0.125000 I135.799026 J-11.993943
G03 X103.316790 Y365.712186 Z-0.125000 I1002.347954 J-27.431971
G03 X103.340172 Y347.172458 Z-0.125000 I841.083688 J-8.209151
G03 X103.684734 Y346.832102 Z-0.125000 I0.344562 J0.004232
G03 X104.070998 Y346.898016 Z-0.125000 I0.000000 J1.164741
G03 X112.174661 Y349.816608 Z-0.125000 I-186.386211 J530.223087
G01 X112.174661 Y349.816608 Z-0.125000
G00 Z5.000000

(Change tool to Default tool)

G00 Z5.000000
G00 X623.840683 Y356.905819

G01 Z-0.125000 F100.0(Penetrate)
G02 X638.782932 Y381.716229 Z-0.125000 I75.399443 J-28.505115 F400.000000
G02 X657.287093 Y394.832416 Z-0.125000 I37.077391 J-32.697525
G02 X660.309088 Y395.785615 Z-0.125000 I7.485773 J-18.465647
G02 X664.423195 Y396.472737 Z-0.125000 I7.733051 J-33.641221
G01 X668.599096 Y396.913051 Z-0.125000
G01 X668.053645 Y399.866498 Z-0.125000
G03 X667.016601 Y403.593911 Z-0.125000 I-21.470145 J-3.965471
G03 X665.236312 Y405.883153 Z-0.125000 I-4.578600 J-1.723803
G03 X662.260477 Y407.452474 Z-0.125000 I-7.802757 J-11.189898
G03 X651.623768 Y411.323075 Z-0.125000 I-158.028303 J-417.723302
G03 X624.079956 Y418.681687 Z-0.125000 I-62.566929 J-178.963969
G03 X613.415874 Y418.505066 Z-0.125000 I-4.901619 J-26.076556
G02 X608.470173 Y418.565774 Z-0.125000 I-2.343908 J10.534896
G02 X607.339375 Y420.014419 Z-0.125000 I0.359201 J1.446056
G02 X607.586024 Y420.626645 Z-0.125000 I0.883150 J0.000000
G02 X612.956247 Y425.854777 Z-0.125000 I82.247145 J-79.110315
G03 X618.445098 Y431.033540 Z-0.125000 I-147.993359 J162.352892
G03 X618.591321 Y431.357529 Z-0.125000 I-0.340457 J0.348647
G03 X618.419164 Y431.511481 Z-0.125000 I-0.147180 J0.008649
G03 X612.076334 Y430.237380 Z-0.125000 I19.569714 J-113.848743
G02 X594.333929 Y426.980013 Z-0.125000 I-45.319145 J196.897974
G02 X582.589220 Y426.174743 Z-0.125000 I-11.744709 J85.244532
G03 X578.993755 Y425.664546 Z-0.125000 I0.000000 J-12.924094
G03 X578.722776 Y425.054987 Z-0.125000 I0.121343 J-0.418955
G02 X590.833147 Y393.262134 Z-0.125000 I-173.544118 J-84.308476
G02 X597.362255 Y359.160218 Z-0.125000 I-193.372891 J-54.698908
G01 X597.905223 Y353.892024 Z-0.125000
G01 X600.004815 Y354.361331 Z-0.125000
G02 X607.744634 Y354.826068 Z-0.125000 I5.310827 J-23.764941
G02 X616.019346 Y352.755955 Z-0.125000 I-2.939628 J-29.323363
G03 X620.634396 Y350.894619 Z-0.125000 I135.385446 J329.026583
G03 X621.053880 Y350.766331 Z-0.125000 I1.014084 J2.565934
G03 X621.351534 Y350.915211 Z-0.125000 I0.056930 J0.258169
G03 X623.840824 Y356.906016 Z-0.125000 I-91.277933 J41.440247
G01 X623.840683 Y356.905819 Z-0.125000
G00 Z5.000000

(Change tool to Default tool)

G00 Z5.000000
G00 X612.125243 Y373.354560

G01 Z-0.125000 F100.0(Penetrate)
G02 X603.461411 Y376.885520 Z-0.125000 I12.882952 J44.005185 F400.000000
G02 X602.506912 Y378.474982 Z-0.125000 I0.846163 J1.589462
G02 X603.882760 Y379.913994 Z-0.125000 I1.440462 J0.000000
G02 X610.648262 Y378.840601 Z-0.125000 I0.764960 J-17.036407
G03 X615.842489 Y377.180778 Z-0.125000 I19.086691 J50.772346
G03 X617.949407 Y376.906165 Z-0.125000 I2.108622 J7.958245
G02 X621.807572 Y375.695105 Z-0.125000 I-0.001501 J-6.755933
G02 X622.280474 Y373.891439 Z-0.125000 I-0.820677 J-1.179000
G03 X621.878141 Y372.951189 Z-0.125000 I10.166469 J-4.906433
G03 X621.831515 Y372.694236 Z-0.125000 I0.684710 J-0.256953
G02 X620.870241 Y371.796099 Z-0.125000 I-0.900210 J0.000000
G02 X612.125187 Y373.354757 Z-0.125000 I2.782252 J40.922153
G01 X612.125243 Y373.354560 Z-0.125000
G00 Z5.000000

(Change tool to Default tool)

G00 Z5.000000
G00 X603.110868 Y385.876195

G01 Z-0.125000 F100.0(Penetrate)
G02 X601.692031 Y387.776907 Z-0.125000 I1.144105 J2.333967 F400.000000
G02 X602.517185 Y389.387802 Z-0.125000 I1.492461 J0.252295
G02 X603.374195 Y389.616560 Z-0.125000 I1.005798 J-2.048368
G02 X611.173026 Y389.953084 Z-0.125000 I11.503669 J-176.057500
G03 X618.918278 Y390.587469 Z-0.125000 I-1.344755 J64.016650
G03 X622.790957 Y391.619203 Z-0.125000 I-2.418021 J16.860232
G02 X626.514396 Y392.592642 Z-0.125000 I5.812006 J-14.623268
G02 X627.823403 Y392.293090 Z-0.125000 I0.254266 J-1.898770
G02 X628.230066 Y390.254827 Z-0.125000 I-0.804782 J-1.220264
G02 X624.448336 Y387.294639 Z-0.125000 I-6.468045 J4.367390
G02 X619.726824 Y386.076070 Z-0.125000 I-8.507325 J23.206447
G02 X612.169157 Y385.391408 Z-0.125000 I-9.168697 J59.153882
G02 X604.586657 Y385.491945 Z-0.125000 I-2.541722 J94.289394
G02 X603.110755 Y385.876441 Z-0.125000 I0.203741 J3.806973
G01 X603.110868 Y385.876195 Z-0.125000
G00 Z5.000000

(Change tool to Default tool)

G00 Z5.000000
G00 X598.212563 Y392.048805

G01 Z-0.125000 F100.0(Penetrate)
G02 X597.325851 Y394.227326 Z-0.125000 I1.491390 J1.876750 F400.000000
G02 X598.682547 Y395.747987 Z-0.125000 I1.784363 J-0.226429
G02 X599.690205 Y395.988992 Z-0.125000 I22.186883 J-90.537886
G02 X605.393764 Y397.313903 Z-0.125000 I694.203268 J-2975.510052
G03 X610.899978 Y399.079257 Z-0.125000 I-7.860937 J33.988337
G03 X614.777088 Y401.206411 Z-0.125000 I-7.818784 J18.848034
G02 X618.490760 Y403.667968 Z-0.125000 I50.995627 J-72.903342
G02 X618.878398 Y403.779498 Z-0.125000 I0.387638 J-0.617873
G02 X621.030057 Y402.977703 Z-0.125000 I0.000000 J-3.287942
G02 X621.831825 Y401.223462 Z-0.125000 I-1.518224 J-1.754240
G02 X620.767694 Y399.102496 Z-0.125000 I-2.645760 J-0.000000
G02 X613.553768 Y395.050362 Z-0.125000 I-19.230397 J25.787992
G02 X601.070471 Y391.352116 Z-0.125000 I-25.688650 J63.793525
G02 X598.212788 Y392.048805 Z-0.125000 I-0.673976 J3.444653
G01 X598.212563 Y392.048805 Z-0.125000
G00 Z5.000000

(Change tool to Default tool)

G00 Z5.000000
G00 X126.416791 Y482.417142

G01 Z-0.125000 F100.0(Penetrate)
G02 X141.208134 Y500.872446 Z-0.125000 I137.323848 J-94.905674 F400.000000
G02 X177.089955 Y537.190041 Z-0.125000 I570.946461 J-528.211257
G02 X201.334702 Y557.071436 Z-0.125000 I150.384739 J-158.665988
G02 X226.481238 Y572.083927 Z-0.125000 I110.054672 J-155.779094
G02 X250.708909 Y582.401858 Z-0.125000 I99.825936 J-200.798978
G02 X277.208459 Y590.248723 Z-0.125000 I83.270196 J-232.541666
G02 X298.683141 Y593.233164 Z-0.125000 I26.595685 J-112.617186
G02 X321.187376 Y592.196959 Z-0.125000 I5.529013 J-124.812078
G02 X346.434071 Y585.878621 Z-0.125000 I-16.263413 J-118.584336
G02 X391.143436 Y566.330843 Z-0.125000 I-145.924079 J-394.658387
G03 X418.581462 Y552.769409 Z-0.125000 I621.908155 J1223.731411
G03 X418.922654 Y552.984010 Z-0.125000 I0.103107 J0.214601
G03 X418.877219 Y553.184240 Z-0.125000 I-0.463925 J0.000000
G03 X416.068089 Y558.949632 Z-0.125000 I-406.211409 J-194.355459
G02 X410.547097 Y571.871634 Z-0.125000 I111.040864 J55.083214
G02 X405.760713 Y587.446284 Z-0.125000 I156.704182 J56.680962
G02 X401.130671 Y608.584491 Z-0.125000 I311.856433 J79.384166
G02 X400.403147 Y616.557055 Z-0.125000 I43.319893 J7.972564
G03 X399.542909 Y618.236300 Z-0.125000 I-2.069122 J-0.000000
G03 X393.760341 Y621.339198 Z-0.125000 I-14.624723 J-20.315021
G03 X339.502669 Y628.822164 Z-0.125000 I-43.553091 J-115.347899
G03 X241.377347 Y608.059203 Z-0.125000 I35.896268 J-411.895605
G03 X208.360041 Y594.017174 Z-0.125000 I80.826360 J-235.886792
