%
(Header)
(Generated by gcodetools from Inkscape.)
(Using default header. To add your own header create file "header" in the output dir.)
M3
(Header end.)
G21 (All units in mm)

(Start cutting path id: path21776)
(Change tool to Default tool)

G00 Z5.000000
G00 X1927.678542 Y111.936316

G01 Z-0.125000 F100.0(Penetrate)
G02 X1926.376500 Y112.578183 Z-0.125000 I1.620679 J4.929130 F400.000000
G02 X1924.671154 Y113.986491 Z-0.125000 I6.785061 J9.952825
G02 X1923.297639 Y115.707430 Z-0.125000 I6.764178 J6.807209
G02 X1922.483932 Y117.485906 Z-0.125000 I6.420382 J4.012906
G02 X1921.984362 Y119.414252 Z-0.125000 I20.664586 J6.382379
G02 X1921.864849 Y120.427762 Z-0.125000 I5.552723 J1.168580
G03 X1921.786077 Y121.448478 Z-0.125000 I-10.322384 J-0.283214
G03 X1921.653183 Y122.089825 Z-0.125000 I-4.184722 J-0.532682
G01 X1921.469653 Y122.723244 Z-0.125000
G01 X1920.199653 Y121.879344 Z-0.125000
G02 X1918.885849 Y121.180115 Z-0.125000 I-4.234903 J6.373212
G02 X1918.153542 Y121.034257 Z-0.125000 I-0.735235 J1.780121
G01 X1917.377431 Y121.034257 Z-0.125000
G01 X1917.377431 Y124.703146 Z-0.125000
G03 X1917.274632 Y128.268653 Z-0.125000 I-61.884762 J0.000000
G03 X1917.165764 Y128.370822 Z-0.125000 I-0.108237 J-0.006246
G03 X1916.969775 Y128.318776 Z-0.125000 I0.000000 J-0.395043
G03 X1915.684098 Y127.525368 Z-0.125000 I11.096595 J-19.419872
G02 X1914.376824 Y126.804075 Z-0.125000 I-5.015286 J7.544419
G02 X1913.799418 Y126.679915 Z-0.125000 I-0.580127 J1.293190
G02 X1913.429918 Y126.974521 Z-0.125000 I0.000000 J0.379020
G02 X1912.714358 Y131.430619 Z-0.125000 I33.671497 J7.692466
G03 X1911.195605 Y137.190749 Z-0.125000 I-18.166905 J-1.709715
G03 X1909.131293 Y139.416294 Z-0.125000 I-4.323045 J-1.939703
G03 X1908.464555 Y139.698843 Z-0.125000 I-1.800011 J-3.319596
G03 X1907.499653 Y139.929600 Z-0.125000 I-2.126494 J-6.759135
G01 X1906.511876 Y140.093740 Z-0.125000
G01 X1906.423794 Y153.494554 Z-0.125000
G02 X1906.479526 Y166.892906 Z-0.125000 I624.278521 J4.102548
G02 X1906.787268 Y177.902035 Z-0.125000 I421.761397 J-6.280788
G03 X1907.036786 Y188.908399 Z-0.125000 I-299.997620 J12.307057
G03 X1906.871032 Y197.234258 Z-0.125000 I-171.802813 J0.744263
G02 X1906.628240 Y205.559888 Z-0.125000 I277.621920 J12.262365
G02 X1906.691115 Y209.934258 Z-0.125000 I76.647888 J1.085933
G03 X1906.850642 Y214.309641 Z-0.125000 I-338.449496 J14.530500
G03 X1907.092294 Y223.311478 Z-0.125000 I-1431.736354 J42.938755
G01 X1907.305682 Y232.314226 Z-0.125000
G01 X1905.779876 Y232.112437 Z-0.125000
G03 X1904.295359 Y231.777595 Z-0.125000 I1.106046 J-8.361852
G03 X1902.682882 Y231.112919 Z-0.125000 I3.402077 J-10.541534
G02 X1900.672510 Y230.662262 Z-0.125000 I-1.890429 J3.723722
G02 X1900.157557 Y231.185507 Z-0.125000 I0.015229 J0.530006
G03 X1899.658851 Y231.683629 Z-0.125000 I-0.504519 J-0.006404
G03 X1896.059437 Y231.232722 Z-0.125000 I-0.153954 J-13.362875
G02 X1892.362935 Y230.544720 Z-0.125000 I-6.321796 J23.691466
G02 X1886.983368 Y230.255359 Z-0.125000 I-5.389784 J50.051557
G02 X1870.455720 Y232.023403 Z-0.125000 I-0.017956 J77.966248
G02 X1864.972292 Y235.024011 Z-0.125000 I2.335294 J10.778226
G02 X1863.303590 Y237.506719 Z-0.125000 I5.586052 J5.556697
G02 X1862.312122 Y241.302157 Z-0.125000 I12.475629 J5.286182
G03 X1861.304051 Y245.138426 Z-0.125000 I-13.482805 J-1.492344
G03 X1859.496701 Y247.893373 Z-0.125000 I-8.608303 J-3.677058
G03 X1857.934331 Y249.225772 Z-0.125000 I-6.975208 J-6.596903
G03 X1857.223147 Y249.445369 Z-0.125000 I-0.711184 J-1.041818
G01 X1856.417431 Y249.445369 Z-0.125000
G01 X1856.417431 Y259.040925 Z-0.125000
G01 X1856.417431 Y268.636480 Z-0.125000
G01 X1857.475764 Y268.640996 Z-0.125000
G03 X1860.352056 Y269.003770 Z-0.125000 I-0.049694 J11.977894
G03 X1862.664420 Y269.948025 Z-0.125000 I-2.172242 J8.623026
G03 X1864.250863 Y271.431186 Z-0.125000 I-2.474392 J4.236740
G03 X1865.067034 Y273.491240 Z-0.125000 I-4.227514 J2.866601
G01 X1865.241222 Y274.580533 Z-0.125000
G01 X1868.519882 Y274.501342 Z-0.125000
G01 X1871.798542 Y274.422150 Z-0.125000
G01 X1872.221875 Y273.511024 Z-0.125000
G03 X1872.693595 Y272.673124 Z-0.125000 I5.610084 J2.606623
G03 X1872.836725 Y272.593802 Z-0.125000 I0.148840 J0.099776
G03 X1873.551324 Y272.935088 Z-0.125000 I0.027461 J0.861273
G03 X1873.915209 Y274.018967 Z-0.125000 I-1.432298 J1.083879
G02 X1874.301281 Y274.346588 Z-0.125000 I0.332046 J0.000000
G02 X1876.621240 Y273.572718 Z-0.125000 I-1.260301 J-7.642608
G01 X1878.521640 Y272.582146 Z-0.125000
G01 X1884.050091 Y273.143542 Z-0.125000
G02 X1914.718496 Y275.667245 Z-0.125000 I81.412202 J-801.727650
G02 X1933.382677 Y276.256171 Z-0.125000 I18.686666 J-296.169724
G01 X1939.086783 Y276.256171 Z-0.125000
G01 X1939.399514 Y275.094827 Z-0.125000
G03 X1940.471978 Y273.105656 Z-0.125000 I4.756511 J1.280785
G03 X1941.625203 Y272.587282 Z-0.125000 I1.153224 J1.023601
G03 X1942.189021 Y272.626634 Z-0.125000 I0.000000 J4.058735
G03 X1948.639695 Y273.571250 Z-0.125000 I-74.998842 J534.656415
G01 X1955.087400 Y274.555218 Z-0.125000
G01 X1958.677239 Y273.571250 Z-0.125000
G03 X1962.269092 Y272.601931 Z-0.125000 I124.748306 J455.120542
G03 X1962.381293 Y272.587282 Z-0.125000 I0.112201 J0.422377
G03 X1962.449346 Y272.639290 Z-0.125000 I0.000000 J0.070529
G03 X1962.584803 Y273.334917 Z-0.125000 I-4.662903 J1.268993
G02 X1962.804510 Y273.998143 Z-0.125000 I1.737054 J-0.207431
G02 X1963.192061 Y274.393250 Z-0.125000 I0.952224 J-0.546388
G02 X1963.663178 Y274.390676 Z-0.125000 I0.233439 J-0.389182
G02 X1964.981970 Y273.292838 Z-0.125000 I-3.152849 J-5.128425
G02 X1972.388790 Y260.884591 Z-0.125000 I-27.639355 J-24.913472
G02 X1975.227484 Y244.579548 Z-0.125000 I-45.969378 J-16.402857
G01 X1975.232846 Y241.830731 Z-0.125000
G01 X1972.763401 Y240.594372 Z-0.125000
G02 X1964.763343 Y237.312061 Z-0.125000 I-25.887737 J51.706295
G02 X1955.618401 Y235.017097 Z-0.125000 I-21.267386 J65.378181
G02 X1952.213042 Y234.602626 Z-0.125000 I-5.390487 J30.092395
G02 X1944.226078 Y234.275755 Z-0.125000 I-10.780143 J165.666133
G01 X1936.220449 Y234.141051 Z-0.125000
G01 X1936.381627 Y232.973610 Z-0.125000
G02 X1937.425804 Y222.533229 Z-0.125000 I-138.603104 J-19.134569
G02 X1937.468351 Y215.518758 Z-0.125000 I-62.416882 J-3.885963
G02 X1937.059962 Y208.668790 Z-0.125000 I-360.860420 J18.077057
G02 X1936.691761 Y204.289503 Z-0.125000 I-147.766980 J10.218811
G03 X1936.460505 Y199.908417 Z-0.125000 I47.494778 J-4.703661
G03 X1936.593519 Y189.755058 Z-0.125000 I255.674654 J-1.728079
G02 X1936.794397 Y179.593818 Z-0.125000 I-384.982427 J-12.693321
G02 X1936.743831 Y166.895058 Z-0.125000 I-601.523629 J-3.954238
G02 X1934.905042 Y127.072914 Z-0.125000 I-630.783561 J9.172916
G02 X1932.599341 Y113.692924 Z-0.125000 I-72.954398 J5.683178
G01 X1931.991011 Y111.438391 Z-0.125000
G01 X1930.540247 Y111.455889 Z-0.125000
G02 X1929.107963 Y111.584179 Z-0.125000 I0.111955 J9.309360
G02 X1927.678401 Y111.937304 Z-0.125000 I1.618425 J9.622132
G01 X1927.678542 Y111.936316 Z-0.125000
G00 Z5.000000

(Change tool to Default tool)

G00 Z5.000000
G00 X1786.567430 Y114.330238

G01 Z-0.125000 F100.0(Penetrate)
G03 X1784.166411 Y116.642492 Z-0.125000 I-5.888426 J-3.711753 F400.000000
G03 X1773.505029 Y121.892269 Z-0.125000 I-44.323337 J-76.562378
G02 X1770.783192 Y123.346513 Z-0.125000 I5.860432 J14.242975
G02 X1768.760224 Y125.076413 Z-0.125000 I6.384959 J9.514444
G02 X1762.654111 Y134.609355 Z-0.125000 I23.559816 J21.812754
G02 X1759.564831 Y147.290943 Z-0.125000 I39.434943 J16.323564
G02 X1759.446481 Y151.193167 Z-0.125000 I35.305179 J3.023672
G02 X1759.733205 Y154.078811 Z-0.125000 I19.541998 J-0.484668
G02 X1763.272839 Y165.265407 Z-0.125000 I43.518816 J-7.616811
G02 X1767.301728 Y170.170783 Z-0.125000 I11.701702 J-5.503661
G02 X1770.621403 Y171.871937 Z-0.125000 I6.875479 J-9.327364
G02 X1774.925764 Y172.628939 Z-0.125000 I4.881368 J-15.139823
G01 X1778.241875 Y172.749279 Z-0.125000
G01 X1778.244697 Y171.938398 Z-0.125000
G03 X1779.144081 Y168.822989 Z-0.125000 I5.916408 J0.020476
G03 X1783.861907 Y162.951878 Z-0.125000 I27.062326 J16.915270
G02 X1784.928521 Y160.499040 Z-0.125000 I-2.493201 J-2.542493
G02 X1784.021419 Y156.618049 Z-0.125000 I-7.904153 J-0.199070
G01 X1782.475265 Y153.679749 Z-0.125000
G01 X1782.481473 Y150.268049 Z-0.125000
G03 X1782.677964 Y146.897761 Z-0.125000 I29.915000 J0.053199
G03 X1783.005758 Y145.715804 Z-0.125000 I3.925345 J0.452188
G03 X1785.206861 Y143.261360 Z-0.125000 I5.003180 J2.272588
G03 X1791.368341 Y140.758656 Z-0.125000 I11.401856 J19.234640
G01 X1793.987815 Y140.127183 Z-0.125000
G01 X1795.780998 Y140.774319 Z-0.125000
G03 X1804.760888 Y145.029392 Z-0.125000 I-17.565895 J48.674093
G03 X1810.838598 Y149.773059 Z-0.125000 I-15.979946 J26.739219
G03 X1814.538046 Y155.223492 Z-0.125000 I-12.500466 J12.465321
G03 X1815.991524 Y161.673044 Z-0.125000 I-16.317884 J7.065972
G01 X1816.113896 Y165.200822 Z-0.125000
G01 X1812.770691 Y166.277330 Z-0.125000
G02 X1800.254595 Y171.085720 Z-0.125000 I37.188029 J115.493058
G02 X1789.292907 Y176.820249 Z-0.125000 I42.315322 J94.230757
G02 X1778.992598 Y184.204760 Z-0.125000 I40.856269 J67.864467
G02 X1770.665196 Y192.576378 Z-0.125000 I44.405521 J52.498507
G02 X1761.944780 Y206.780560 Z-0.125000 I43.877996 J36.717115
G02 X1757.200063 Y224.035802 Z-0.125000 I60.636271 J25.953260
G02 X1756.495100 Y232.644480 Z-0.125000 I84.718813 J11.270810
G02 X1756.766344 Y237.952292 Z-0.125000 I32.344076 J1.007965
G02 X1763.687913 Y254.393013 Z-0.125000 I33.727119 J-4.521814
G02 X1785.358644 Y274.514324 Z-0.125000 I73.666879 J-57.609132
G01 X1788.383107 Y276.537490 Z-0.125000
G01 X1798.207150 Y276.537490 Z-0.125000
G02 X1808.024015 Y276.419672 Z-0.125000 I-0.000000 J-409.039321
G02 X1810.422659 Y276.244261 Z-0.125000 I-0.589259 J-24.545598
G02 X1818.116042 Y274.397666 Z-0.125000 I-4.249096 J-34.652385
G02 X1824.875654 Y270.982849 Z-0.125000 I-10.941818 J-30.056990
G02 X1829.315461 Y267.336021 Z-0.125000 I-15.734421 J-23.681790
G02 X1833.797291 Y261.999178 Z-0.125000 I-29.681248 J-29.476352
G02 X1837.525570 Y255.733641 Z-0.125000 I-38.027679 J-26.870207
G02 X1840.864672 Y247.676852 Z-0.125000 I-59.744375 J-29.481138
G02 X1841.784911 Y244.031915 Z-0.125000 I-22.242269 J-7.554150
G02 X1841.960202 Y241.185741 Z-0.125000 I-13.327303 J-2.249293
G02 X1841.617105 Y238.337036 Z-0.125000 I-18.956186 J0.838065
G02 X1840.772978 Y235.191933 Z-0.125000 I-23.973705 J4.748569
G02 X1835.942453 Y225.445086 Z-0.125000 I-39.336529 J13.424707
G02 X1831.717342 Y221.706706 Z-0.125000 I-9.280614 J6.232140
G02 X1829.578968 Y220.946533 Z-0.125000 I-4.028788 J7.945299
G02 X1826.885810 Y220.657489 Z-0.125000 I-2.693158 J12.402155
G02 X1826.501810 Y220.925876 Z-0.125000 I0.000000 J0.408902
G02 X1826.161515 Y222.636854 Z-0.125000 I5.324245 J1.948264
G01 X1826.078598 Y224.616192 Z-0.125000
G01 X1824.581861 Y223.606965 Z-0.125000
G02 X1823.046737 Y222.764667 Z-0.125000 I-5.361482 J7.951462
G02 X1822.465194 Y222.685961 Z-0.125000 I-0.429773 J0.987707
G02 X1822.007542 Y223.000602 Z-0.125000 I0.087930 J0.618050
G02 X1816.059709 Y234.204156 Z-0.125000 I284.597980 J158.270254
G01 X1810.274154 Y245.634156 Z-0.125000
G01 X1806.040820 Y245.614400 Z-0.125000
G03 X1801.829296 Y245.430437 Z-0.125000 I0.251090 J-54.048077
G03 X1799.993419 Y245.113512 Z-0.125000 I0.872332 J-10.529117
G03 X1791.946966 Y239.660554 Z-0.125000 I3.774681 J-14.233170
G03 X1787.284275 Y228.002717 Z-0.125000 I19.724319 J-14.650344
G03 X1787.007481 Y222.513262 Z-0.125000 I38.065222 J-4.671065
G03 X1787.456515 Y219.931698 Z-0.125000 I8.714830 J0.186014
G03 X1793.952588 Y212.086269 Z-0.125000 I13.407063 J4.489035
G03 X1821.316775 Y200.959845 Z-0.125000 I58.125162 J103.739511
G02 X1826.307043 Y199.323280 Z-0.125000 I-12.302938 J-45.941038
G02 X1828.372331 Y198.205864 Z-0.125000 I-3.457143 J-8.857057
G02 X1837.148316 Y190.988447 Z-0.125000 I-48.204659 J-67.558493
G02 X1842.340299 Y185.015729 Z-0.125000 I-27.639642 J-29.269689
G02 X1845.323049 Y179.970219 Z-0.125000 I-28.746652 J-20.398547
G02 X1847.148604 Y175.078656 Z-0.125000 I-25.177995 J-12.182981
G02 X1847.539168 Y172.790007 Z-0.125000 I-11.851391 J-3.200124
G02 X1847.882128 Y165.226814 Z-0.125000 I-130.177638 J-9.692384
G02 X1847.540097 Y154.052753 Z-0.125000 I-119.184554 J-1.944107
G02 X1846.539794 Y147.943159 Z-0.125000 I-36.447154 J2.830684
G02 X1835.730193 Y129.861979 Z-0.125000 I-35.506564 J8.955363
G02 X1810.556376 Y115.073498 Z-0.125000 I-47.438900 J51.932859
G01 X1806.040820 Y113.566629 Z-0.125000
G01 X1797.941720 Y113.474060 Z-0.125000
G01 X1789.842591 Y113.381491 Z-0.125000
G01 X1790.533386 Y115.144138 Z-0.125000
G03 X1791.208858 Y116.909686 Z-0.125000 I-108.692648 J42.596152
G03 X1791.224154 Y116.994387 Z-0.125000 I-0.226880 J0.084701
G01 X1791.183210 Y117.041037 Z-0.125000
G03 X1790.554666 Y117.081989 Z-0.125000 I-0.628544 J-4.803117
G03 X1790.086104 Y116.846393 Z-0.125000 I0.000000 J-0.583744
G03 X1789.701593 Y115.933853 Z-0.125000 I1.670388 J-1.241120
G02 X1788.814216 Y113.964074 Z-0.125000 I-4.077095 J0.651945
G02 X1787.638661 Y113.423966 Z-0.125000 I-1.143788 J0.940114
G02 X1787.216253 Y113.583813 Z-0.125000 I0.014376 J0.676036
G02 X1786.567487 Y114.330294 Z-0.125000 I2.095215 J2.476113
G01 X1786.567430 Y114.330238 Z-0.125000
G00 Z5.000000

(Change tool to Default tool)

G00 Z5.000000
G00 X1683.525133 Y119.760560

G01 Z-0.125000 F100.0(Penetrate)
G03 X1679.289047 Y124.339579 Z-0.125000 I-191.056570 J-172.499004 F400.000000
G03 X1679.111319 Y124.417227 Z-0.125000 I-0.180624 J-0.171205
G03 X1678.989133 Y124.328354 Z-0.125000 I0.000000 J-0.128429
G03 X1678.899652 Y123.761427 Z-0.125000 I1.751207 J-0.566926
G03 X1679.091811 Y123.207917 Z-0.125000 I0.893266 J-0.000000
G03 X1679.957985 Y122.420872 Z-0.125000 I2.797393 J2.208488
G02 X1681.356727 Y120.744122 Z-0.125000 I-1.982991 J-3.075996
G02 X1681.991904 Y117.505266 Z-0.125000 I-7.726512 J-3.196970
G01 X1681.980616 Y115.247488 Z-0.125000
G01 X1680.981295 Y116.376377 Z-0.125000
G02 X1680.002953 Y117.523029 Z-0.125000 I30.948270 J27.396253
G02 X1675.412345 Y123.149710 Z-0.125000 I741.297317 J609.483984
G02 X1658.767920 Y144.391428 Z-0.125000 I659.046991 J533.553000
G02 X1656.321535 Y148.328759 Z-0.125000 I19.935881 J15.115445
G01 X1655.706517 Y149.560179 Z-0.125000
G01 X1656.452374 Y151.423297 Z-0.125000
G03 X1657.085961 Y153.287261 Z-0.125000 I-17.205251 J6.887976
G03 X1657.070723 Y153.618760 Z-0.125000 I-0.507017 J0.142793
G03 X1654.833734 Y157.656430 Z-0.125000 I-15.493620 J-5.945412
G03 X1645.723329 Y168.687282 Z-0.125000 I-127.371168 J-95.918543
G03 X1645.613911 Y168.719575 Z-0.125000 I-0.081144 J-0.073422
G03 X1640.041377 Y167.167600 Z-0.125000 I72.684444 J-271.761717
G02 X1634.448757 Y165.551377 Z-0.125000 I-1387.047125 J4789.116470
G02 X1633.532458 Y165.290653 Z-0.125000 I-37.383515 J129.641924
G01 X1632.615235 Y165.033182 Z-0.125000
G01 X1632.615348 Y161.024780 Z-0.125000
G03 X1632.793051 Y151.861809 Z-0.125000 I236.736917 J0.007969
G03 X1633.606908 Y135.448532 Z-0.125000 I760.530046 J29.484267
G01 X1634.023327 Y128.556242 Z-0.125000
G01 X1633.060695 Y125.570754 Z-0.125000
G03 X1631.449060 Y119.774388 Z-0.125000 I70.326098 J-22.675870
G03 X1631.204124 Y117.658287 Z-0.125000 I9.018483 J-2.116101
G02 X1630.935412 Y117.350637 Z-0.125000 I-0.310471 J0.000000
G02 X1626.957950 Y117.081933 Z-0.125000 I-3.977462 J29.303582
G02 X1622.830142 Y117.367779 Z-0.125000 I-0.000000 J29.947048
G02 X1622.025496 Y117.768241 Z-0.125000 I0.194849 J1.400126
G02 X1621.488034 Y118.530558 Z-0.125000 I1.934560 J1.934560
G02 X1621.155574 Y119.602685 Z-0.125000 I3.580588 J1.697928
G03 X1620.929110 Y120.700540 Z-0.125000 I-12.342168 J-1.973644
G03 X1620.864490 Y120.750822 Z-0.125000 I-0.064620 J-0.016382
G03 X1620.766607 Y120.721306 Z-0.125000 I-0.000000 J-0.177065
G03 X1619.588225 Y119.904155 Z-0.125000 I19.255188 J-29.025385
G02 X1618.385329 Y119.162626 Z-0.125000 I-5.570704 J7.690273
G02 X1617.953791 Y119.057488 Z-0.125000 I-0.431538 J0.833060
G02 X1617.151629 Y119.398331 Z-0.125000 I-0.000000 J1.114352
G02 X1616.810791 Y120.242822 Z-0.125000 I0.875773 J0.844490
G03 X1616.566971 Y120.443874 Z-0.125000 I-0.204804 J-0.000000
G03 X1615.092001 Y119.909263 Z-0.125000 I0.961531 J-4.954819
G02 X1612.912466 Y119.347000 Z-0.125000 I-2.184874 J3.963895
G02 X1610.786475 Y119.904183 Z-0.125000 I-0.005089 J4.315140
G03 X1608.714641 Y120.292814 Z-0.125000 I-1.606233 J-2.846103
G03 X1607.807761 Y119.475431 Z-0.125000 I0.156182 J-1.085062
G02 X1606.808546 Y117.590728 Z-0.125000 I-4.336725 J1.091978
G02 X1605.673060 Y117.081961 Z-0.125000 I-1.135485 J1.012724
G02 X1605.045482 Y117.274141 Z-0.125000 I-0.000000 J1.120794
G02 X1601.420479 Y119.955971 Z-0.125000 I29.618760 J43.826227
G01 X1597.863463 Y122.829981 Z-0.125000
G01 X1598.035054 Y124.824304 Z-0.125000
G03 X1599.221231 Y150.747774 Z-0.125000 I-322.447024 J27.743036
G03 X1598.317474 Y175.061074 Z-0.125000 I-284.468824 J1.599372
G02 X1598.176694 Y180.094334 Z-0.125000 I48.310356 J3.869838
G02 X1598.483449 Y181.973825 Z-0.125000 I6.930905 J-0.166427
G03 X1598.928009 Y183.847535 Z-0.125000 I-13.815449 J4.267471
G03 X1599.222674 Y186.377508 Z-0.125000 I-24.946568 J4.187663
G03 X1599.185290 Y188.853715 Z-0.125000 I-15.329539 J1.006951
G03 X1598.933424 Y189.387916 Z-0.125000 I-0.869669 J-0.083557
G03 X1598.451230 Y189.804131 Z-0.125000 I-3.074822 J-3.074822
G03 X1598.189176 Y189.940648 Z-0.125000 I-0.558024 J-0.751393
G02 X1598.061897 Y190.134453 Z-0.125000 I0.059178 J0.177561
G02 X1598.603224 Y194.693072 Z-0.125000 I73.088106 J-6.367612
G03 X1599.052874 Y199.368675 Z-0.125000 I-43.335835 J6.526999
G03 X1599.313267 Y211.485295 Z-0.125000 I-291.501522 J12.325653
G02 X1599.643825 Y225.966101 Z-0.125000 I327.625965 J-0.234647
G02 X1600.331327 Y234.128322 Z-0.125000 I104.664302 J-4.705787
G01 X1600.793466 Y237.862461 Z-0.125000
G01 X1600.058955 Y239.844028 Z-0.125000
G01 X1599.324471 Y241.825567 Z-0.125000
G01 X1600.024298 Y247.116556 Z-0.125000
G03 X1600.617578 Y252.414529 Z-0.125000 I-132.240443 J17.490813
G03 X1600.724124 Y254.740931 Z-0.125000 I-25.344763 J2.326402
G01 X1600.724124 Y257.074372 Z-0.125000
G01 X1605.592458 Y260.694860 Z-0.125000
G02 X1620.120232 Y270.763784 Z-0.125000 I158.024809 J-212.488333
G02 X1628.240791 Y275.297716 Z-0.125000 I39.728440 J-61.616972
G02 X1633.671377 Y277.022685 Z-0.125000 I8.917252 J-18.662670
G02 X1642.916347 Y277.807518 Z-0.125000 I9.244969 J-54.058257
G02 X1652.634633 Y277.329000 Z-0.125000 I0.000000 J-98.924214
G02 X1658.815787 Y276.237968 Z-0.125000 I-4.044085 J-40.966350
G02 X1677.731878 Y266.136368 Z-0.125000 I-11.228730 J-43.788517
G02 X1693.015589 Y245.634184 Z-0.125000 I-42.866503 J-47.903430
G02 X1695.862270 Y237.524586 Z-0.125000 I-37.892935 J-17.855839
G02 X1697.580929 Y226.550910 Z-0.125000 I-68.042787 J-16.278047
G02 X1696.169809 Y213.492853 Z-0.125000 I-35.878081 J-2.728107
G02 X1689.883854 Y200.868857 Z-0.125000 I-39.736447 J11.909245
G02 X1683.912541 Y194.136532 Z-0.125000 I-39.169807 J28.727783
G02 X1672.585918 Y184.674183 Z-0.125000 I-89.298632 J95.382009
G01 X1671.826966 Y184.109739 Z-0.125000
G01 X1675.063885 Y179.453072 Z-0.125000
G02 X1688.609649 Y156.746877 Z-0.125000 I-156.200159 J-108.577418
G02 X1694.052417 Y141.917517 Z-0.125000 I-60.592228 J-30.652451
G02 X1694.534948 Y138.924938 Z-0.125000 I-19.590669 J-4.694042
G02 X1694.908425 Y131.818702 Z-0.125000 I-110.627154 J-9.377080
G01 X1695.054391 Y124.683193 Z-0.125000
G01 X1693.491049 Y123.044216 Z-0.125000
G03 X1690.474143 Y119.189047 Z-0.125000 I18.145590 J-17.308079
G03 X1689.341818 Y116.517206 Z-0.125000 I7.436939 J-4.727631
G02 X1688.217217 Y116.023941 Z-0.125000 I-0.749322 J0.179759
G02 X1683.525161 Y119.760588 Z-0.125000 I8.953155 J16.056547
G01 X1683.525133 Y119.760560 Z-0.125000
G00 Z5.000000

(Change tool to Default tool)

G00 Z5.000000
G00 X1636.566318 Y201.869419

G01 Z-0.125000 F100.0(Penetrate)
G03 X1646.065465 Y205.810578 Z-0.125000 I-5.950812 J27.761094 F400.000000
G03 X1659.355763 Y216.650977 Z-0.125000 I-42.967900 J66.245655
G01 X1663.095207 Y220.447995 Z-0.125000
G01 X1663.095207 Y222.838417 Z-0.125000
G03 X1662.935030 Y225.192769 Z-0.125000 I-17.382716 J0.000000
G03 X1662.636201 Y226.196156 Z-0.125000 I-3.390004 J-0.463420
G03 X1659.048350 Y229.724412 Z-0.125000 I-6.616266 J-3.139666
G03 X1642.492985 Y235.344728 Z-0.125000 I-36.557656 J-80.492148
G03 X1630.367676 Y237.900571 Z-0.125000 I-68.414814 J-294.530289
G03 X1629.848639 Y237.740541 Z-0.125000 I-0.108169 J-0.570898
G03 X1629.787291 Y237.580732 Z-0.125000 I0.148803 J-0.148803
G03 X1630.465690 Y225.957594 Z-0.125000 I972.323895 J50.919541
G02 X1631.080671 Y214.303215 Z-0.125000 I-503.677439 J-32.421608
G02 X1631.209853 Y207.886933 Z-0.125000 I-152.485938 J-6.279512
G01 X1631.204209 Y201.466378 Z-0.125000
G01 X1632.968098 Y201.471175 Z-0.125000
G03 X1634.721863 Y201.570397 Z-0.125000 I-0.047685 J16.391594
G03 X1636.566431 Y201.869306 Z-0.125000 I-2.032988 J18.386415
G01 X1636.566318 Y201.869419 Z-0.125000
G00 Z5.000000

(Change tool to Default tool)

G00 Z5.000000
G00 X1095.136585 Y119.482092

G01 Z-0.125000 F100.0(Penetrate)
G02 X1089.862061 Y121.638738 Z-0.125000 I8.258829 J27.726963 F400.000000
G02 X1086.687444 Y123.953874 Z-0.125000 I6.434287 J12.157132
G02 X1084.528371 Y126.857538 Z-0.125000 I8.031714 J8.226673
G02 X1083.354400 Y130.334863 Z-0.125000 I10.484785 J5.476575
G03 X1082.791326 Y132.058232 Z-0.125000 I-6.142968 J-1.053410
G03 X1082.365550 Y132.321933 Z-0.125000 I-0.425777 J-0.211884
G03 X1082.014118 Y132.025234 Z-0.125000 I0.000000 J-0.356480
G03 X1081.717426 Y128.511933 Z-0.125000 I20.653212 J-3.513301
G01 X1081.717426 Y124.701933 Z-0.125000
G01 X1080.637729 Y124.701933 Z-0.125000
G02 X1078.752030 Y125.853894 Z-0.125000 I0.000000 J2.119374
G02 X1076.366493 Y133.027488 Z-0.125000 I22.071124 J11.323070
G03 X1075.623089 Y135.571497 Z-0.125000 I-11.265072 J-1.911231
G03 X1075.133662 Y135.939006 Z-0.125000 I-0.561098 J-0.237588
G01 X1074.379648 Y136.028301 Z-0.125000
G01 X1074.379648 Y133.187339 Z-0.125000
G01 X1074.379648 Y130.346377 Z-0.125000
G01 X1073.004605 Y130.346377 Z-0.125000
G01 X1071.629562 Y130.346377 Z-0.125000
G01 X1071.455826 Y131.432820 Z-0.125000
G03 X1070.599336 Y133.495138 Z-0.125000 I-4.733571 J-0.756864
G03 X1069.578032 Y134.015266 Z-0.125000 I-1.021303 J-0.742631
G02 X1069.096495 Y134.097373 Z-0.125000 I-0.000000 J1.453106
G02 X1068.904537 Y134.251797 Z-0.125000 I0.122513 J0.348810
G02 X1068.847650 Y134.506524 Z-0.125000 I0.338796 J0.209377
G02 X1069.446319 Y138.979019 Z-0.125000 I118.293116 J-13.557894
G03 X1069.870160 Y143.489922 Z-0.125000 I-38.415177 J5.884821
G03 X1070.144283 Y158.709711 Z-0.125000 I-438.406762 J15.508494
G02 X1070.929295 Y200.370454 Z-0.125000 I1145.647472 J-0.749624
G02 X1072.559484 Y223.912950 Z-0.125000 I367.314092 J-13.606809
G03 X1072.778100 Y228.149896 Z-0.125000 I-42.489579 J4.316469
G03 X1072.572184 Y230.742474 Z-0.125000 I-16.047637 J0.029881
G02 X1071.352841 Y244.645452 Z-0.125000 I94.614932 J15.303044
G02 X1072.274186 Y251.137489 Z-0.125000 I21.155238 J0.309062
G02 X1077.132309 Y258.210748 Z-0.125000 I13.652395 J-4.171887
G02 X1086.779957 Y262.481722 Z-0.125000 I13.295240 J-17.000488
G02 X1090.167004 Y262.474914 Z-0.125000 I1.673911 J-9.761360
G02 X1094.355676 Y261.151213 Z-0.125000 I-2.881513 J-16.407253
G02 X1098.531391 Y257.738559 Z-0.125000 I-4.683215 J-9.991394
G02 X1100.506851 Y252.868076 Z-0.125000 I-8.414703 J-6.248851
G01 X1100.695403 Y251.446494 Z-0.125000
G01 X1102.346121 Y252.279783 Z-0.125000
G02 X1104.020031 Y253.015583 Z-0.125000 I7.728125 J-15.309197
G02 X1104.554397 Y253.113045 Z-0.125000 I0.534366 J-1.416188
G02 X1105.027483 Y252.915331 Z-0.125000 I0.000000 J-0.664851
G02 X1122.412996 Y235.027031 Z-0.125000 I-1119.702718 J-1105.623827
G01 X1139.714037 Y216.941045 Z-0.125000
G01 X1139.913512 Y218.023142 Z-0.125000
G03 X1140.859271 Y225.399019 Z-0.125000 I-66.828460 J12.317538
G03 X1141.266259 Y236.577419 Z-0.125000 I-153.310270 J11.178399
G02 X1141.526632 Y237.612666 Z-0.125000 I2.188272 J-0.000000
G02 X1141.961993 Y237.873044 Z-0.125000 I0.435362 J-0.233781
G02 X1142.619541 Y237.741464 Z-0.125000 I-0.000000 J-1.708771
G02 X1143.992808 Y237.026378 Z-0.125000 I-3.505366 J-8.407951
G03 X1145.341604 Y236.226970 Z-0.125000 I13.927798 J21.962027
G03 X1145.524823 Y236.179711 Z-0.125000 I0.183219 J0.331531
G03 X1146.504979 Y236.867661 Z-0.125000 I0.000000 J1.042213
G03 X1147.192926 Y240.794919 Z-0.125000 I-10.865729 J3.927258
G03 X1147.097996 Y241.724350 Z-0.125000 I-4.597384 J-0.000000
G03 X1145.518642 Y248.905845 Z-0.125000 I-279.003876 J-57.594107
G02 X1143.889969 Y256.086057 Z-0.125000 I566.088662 J132.179582
G02 X1143.225248 Y259.321933 Z-0.125000 I114.268198 J25.159444
G02 X1143.794534 Y270.711088 Z-0.125000 I23.714194 J4.523453
G02 X1147.625347 Y274.155083 Z-0.125000 I4.723116 J-1.401064
G03 X1148.657145 Y274.549329 Z-0.125000 I-0.550079 J2.986945
G03 X1150.903160 Y276.154966 Z-0.125000 I-9.883458 J16.198999
G02 X1153.662829 Y277.473212 Z-0.125000 I3.984939 J-4.794509
G02 X1157.735563 Y277.524478 Z-0.125000 I2.173161 J-10.841685
G02 X1161.364112 Y276.548112 Z-0.125000 I-3.582920 J-20.546217
G02 X1164.048112 Y275.198318 Z-0.125000 I-4.609926 J-12.510014
G02 X1167.095697 Y271.715995 Z-0.125000 I-4.695014 J-7.183604
G02 X1168.931855 Y264.982126 Z-0.125000 I-17.613764 J-8.420104
G03 X1169.233717 Y261.722603 Z-0.125000 I278.606646 J24.157862
G03 X1170.903769 Y244.966390 Z-0.125000 I7345.118413 J723.609305
G02 X1172.197439 Y225.388202 Z-0.125000 I-283.000767 J-28.531694
G02 X1172.309321 Y200.337489 Z-0.125000 I-463.438415 J-14.595427
G02 X1169.691719 Y154.681204 Z-0.125000 I-658.546098 J14.853104
G02 X1167.182698 Y144.764038 Z-0.125000 I-32.821420 J3.027775
G02 X1165.686910 Y142.341726 Z-0.125000 I-8.784277 J3.751343
G02 X1164.771589 Y141.917488 Z-0.125000 I-0.915321 J0.775316
G03 X1163.506543 Y141.361679 Z-0.125000 I-0.000000 J-1.717553
G03 X1161.187253 Y138.014383 Z-0.125000 I10.987266 J-10.090054
G03 X1160.570880 Y136.569679 Z-0.125000 I10.657843 J-5.400939
G03 X1160.287247 Y135.449689 Z-0.125000 I6.101619 J-2.141119
G02 X1160.015846 Y134.399697 Z-0.125000 I-5.682994 J0.908864
G02 X1159.870151 Y134.297488 Z-0.125000 I-0.145695 J0.052738
G02 X1159.639817 Y134.320943 Z-0.125000 I0.000000 J1.142724
G02 X1155.642829 Y135.167438 Z-0.125000 I71.693351 J348.381851
G01 X1151.648312 Y136.037417 Z-0.125000
G01 X1150.016108 Y135.167438 Z-0.125000
G02 X1147.832683 Y134.713236 Z-0.125000 I-1.868036 J3.504817
G02 X1147.088673 Y135.400639 Z-0.125000 I0.065066 J0.816765
G03 X1146.132015 Y137.325698 Z-0.125000 I-3.561178 J-0.569492
G03 X1144.631251 Y137.966377 Z-0.125000 I-1.500764 J-1.437398
G03 X1144.094602 Y137.405390 Z-0.125000 I0.000000 J-0.537177
G03 X1144.794037 Y134.297488 Z-0.125000 I9.035973 J0.400896
G02 X1145.472701 Y132.615737 Z-0.125000 I-56.384222 J-23.731460
G02 X1145.499592 Y132.471539 Z-0.125000 I-0.373174 J-0.144198
G02 X1145.426811 Y132.394742 Z-0.125000 I-0.076907 J0.000000
G02 X1142.714285 Y132.321933 Z-0.125000 I-2.712526 J50.491370
G01 X1139.929006 Y132.321933 Z-0.125000
G01 X1139.766812 Y133.321282 Z-0.125000
G03 X1138.911252 Y135.344335 Z-0.125000 I-4.575208 J-0.742443
G03 X1137.110565 Y136.893989 Z-0.125000 I-4.351202 J-3.235047
G03 X1134.521700 Y137.921542 Z-0.125000 I-5.866817 J-11.006105
G03 X1134.210703 Y137.683929 Z-0.125000 I-0.064725 J-0.237613
G03 X1134.258632 Y137.400090 Z-0.125000 I0.864426 J-0.000000
G03 X1134.916259 Y135.654328 Z-0.125000 I34.289484 J11.920068
G02 X1135.512098 Y133.896503 Z-0.125000 I-14.544544 J-5.909970
G02 X1135.621815 Y133.081590 Z-0.125000 I-2.971499 J-0.814913
G02 X1135.320591 Y132.590498 Z-0.125000 I-0.550932 J-0.000000
G02 X1134.326245 Y132.422799 Z-0.125000 I-0.765078 J1.504653
G02 X1128.469515 Y136.191828 Z-0.125000 I1.120678 J8.176361
G02 X1123.229437 Y149.990540 Z-0.125000 I31.338333 J19.795090
G03 X1121.686229 Y158.512948 Z-0.125000 I-256.710886 J-42.083396
G03 X1120.324834 Y164.636377 Z-0.125000 I-133.867078 J-26.549018
G03 X1114.045654 Y183.809660 Z-0.125000 I-131.174080 J-32.344188
G03 X1108.445226 Y193.436393 Z-0.125000 I-38.059694 J-15.699113
G01 X1106.694037 Y195.680822 Z-0.125000
G01 X1106.519906 Y179.311933 Z-0.125000
G02 X1106.231108 Y162.948645 Z-0.125000 I-1167.568889 J12.422347
G02 X1106.025763 Y159.274155 Z-0.125000 I-59.025178 J1.455587
G02 X1103.949184 Y142.773938 Z-0.125000 I-216.963371 J18.924406
G02 X1101.163892 Y129.781933 Z-0.125000 I-137.173662 J22.613420
G02 X1097.999209 Y119.070504 Z-0.125000 I-190.865826 J50.567946
G02 X1097.576791 Y118.794457 Z-0.125000 I-0.383151 J0.125088
G02 X1097.384082 Y118.830647 Z-0.125000 I0.106190 J1.096627
G02 X1095.136529 Y119.482092 Z-0.125000 I43.017496 J152.617895
G01 X1095.136585 Y119.482092 Z-0.125000
G00 Z5.000000

(Change tool to Default tool)

G00 Z5.000000
G00 X2189.312119 Y119.482092

G01 Z-0.125000 F100.0(Penetrate)
G02 X2184.037628 Y121.638733 Z-0.125000 I8.258919 J27.727033 F400.000000
G02 X2180.863006 Y123.953874 Z-0.125000 I6.434317 J12.157173
G02 X2178.703932 Y126.857538 Z-0.125000 I8.031714 J8.226673
G02 X2177.529962 Y130.334863 Z-0.125000 I10.484785 J5.476575
G03 X2176.966888 Y132.058232 Z-0.125000 I-6.142968 J-1.053410
G03 X2176.541112 Y132.321933 Z-0.125000 I-0.425777 J-0.211884
G03 X2176.189680 Y132.025234 Z-0.125000 I0.000000 J-0.356480
G03 X2175.892988 Y128.511933 Z-0.125000 I20.653212 J-3.513301
G01 X2175.892988 Y124.701933 Z-0.125000
G01 X2174.813291 Y124.701933 Z-0.125000
G02 X2172.927592 Y125.853894 Z-0.125000 I0.000000 J2.119374
G02 X2170.542055 Y133.027488 Z-0.125000 I22.071124 J11.323070
G03 X2169.798651 Y135.571497 Z-0.125000 I-11.265072 J-1.911231
G03 X2169.309224 Y135.939006 Z-0.125000 I-0.561098 J-0.237588
G01 X2168.555210 Y136.028301 Z-0.125000
G01 X2168.555210 Y133.187339 Z-0.125000
G01 X2168.555210 Y130.346377 Z-0.125000
G01 X2167.180167 Y130.346377 Z-0.125000
G01 X2165.805124 Y130.346377 Z-0.125000
G01 X2165.631388 Y131.432820 Z-0.125000
G03 X2164.774897 Y133.495138 Z-0.125000 I-4.733571 J-0.756864
G03 X2163.753594 Y134.015266 Z-0.125000 I-1.021303 J-0.742631
G02 X2163.272057 Y134.097373 Z-0.125000 I-0.000000 J1.453106
G02 X2163.080099 Y134.251797 Z-0.125000 I0.122513 J0.348810
G02 X2163.023212 Y134.506524 Z-0.125000 I0.338796 J0.209377
G02 X2163.621881 Y138.979019 Z-0.125000 I118.293116 J-13.557894
G03 X2164.045722 Y143.489922 Z-0.125000 I-38.415177 J5.884821
G03 X2164.319845 Y158.709711 Z-0.125000 I-438.406762 J15.508494
G02 X2165.104857 Y200.370454 Z-0.125000 I1145.647472 J-0.749624
G02 X2166.735046 Y223.912950 Z-0.125000 I367.314092 J-13.606809
G03 X2166.953653 Y228.149897 Z-0.125000 I-42.487618 J4.316270
G03 X2166.747746 Y230.742474 Z-0.125000 I-16.049261 J0.029810
G02 X2165.528403 Y244.645452 Z-0.125000 I94.614932 J15.303044
G02 X2166.449748 Y251.137489 Z-0.125000 I21.155238 J0.309062
G02 X2171.307886 Y258.210748 Z-0.125000 I13.652507 J-4.171983
G02 X2180.955519 Y262.481722 Z-0.125000 I13.295212 J-17.000409
G02 X2184.342600 Y262.474911 Z-0.125000 I1.673920 J-9.761524
G02 X2188.531266 Y261.151213 Z-0.125000 I-2.881499 J-16.407208
G02 X2192.706978 Y257.738558 Z-0.125000 I-4.683201 J-9.991365
G02 X2194.682413 Y252.868076 Z-0.125000 I-8.414597 J-6.248757
G01 X2194.870993 Y251.446494 Z-0.125000
G01 X2196.521683 Y252.279783 Z-0.125000
G02 X2198.195593 Y253.015583 Z-0.125000 I7.728125 J-15.309197
G02 X2198.729959 Y253.113045 Z-0.125000 I0.534366 J-1.416188
G02 X2199.203045 Y252.915331 Z-0.125000 I0.000000 J-0.664851
G02 X2216.588558 Y235.027031 Z-0.125000 I-1119.702718 J-1105.623827
G01 X2233.889599 Y216.941045 Z-0.125000
G01 X2234.089073 Y218.023142 Z-0.125000
G03 X2235.034882 Y225.399028 Z-0.125000 I-66.809719 J12.315584
G03 X2235.441821 Y236.577419 Z-0.125000 I-153.328757 J11.178390
G02 X2235.702200 Y237.612658 Z-0.125000 I2.188190 J0.000000
G02 X2236.137583 Y237.873044 Z-0.125000 I0.435383 J-0.233802
G02 X2236.795131 Y237.741464 Z-0.125000 I-0.000000 J-1.708771
G02 X2238.168398 Y237.026378 Z-0.125000 I-3.505366 J-8.407951
G03 X2239.517164 Y236.226971 Z-0.125000 I13.924283 J21.955641
G03 X2239.700385 Y236.179711 Z-0.125000 I0.183221 J0.331533
G03 X2240.680541 Y236.867661 Z-0.125000 I0.000000 J1.042213
G03 X2241.368488 Y240.794919 Z-0.125000 I-10.865729 J3.927258
G03 X2241.273561 Y241.724350 Z-0.125000 I-4.597515 J-0.000000
G03 X2239.694204 Y248.905845 Z-0.125000 I-278.865578 J-57.563799
G02 X2238.065531 Y256.086057 Z-0.125000 I566.088662 J132.179582
G02 X2237.400810 Y259.321933 Z-0.125000 I114.268198 J25.159444
G02 X2237.970099 Y270.711072 Z-0.125000 I23.714128 J4.523440
G02 X2241.800937 Y274.155083 Z-0.125000 I4.723140 J-1.401075
G03 X2242.832702 Y274.549321 Z-0.125000 I-0.550088 J2.986883
G03 X2245.078722 Y276.154966 Z-0.125000 I-9.883677 J16.199277
G02 X2247.838402 Y277.473216 Z-0.125000 I3.984948 J-4.794521
G02 X2251.911125 Y277.524478 Z-0.125000 I2.173145 J-10.841646
G02 X2255.539692 Y276.548110 Z-0.125000 I-3.582973 J-20.546525
G02 X2258.223674 Y275.198318 Z-0.125000 I-4.609707 J-12.509488
G02 X2261.271276 Y271.715985 Z-0.125000 I-4.694954 J-7.183579
G02 X2263.107445 Y264.982126 Z-0.125000 I-17.614086 J-8.420227
G03 X2263.409285 Y261.722604 Z-0.125000 I278.181306 J24.116604
G03 X2265.079331 Y244.966390 Z-0.125000 I7362.274227 J725.316374
G02 X2266.373013 Y225.388202 Z-0.125000 I-283.005954 J-28.532217
G02 X2266.484911 Y200.337489 Z-0.125000 I-463.427574 J-14.595672
G02 X2263.867299 Y154.681211 Z-0.125000 I-658.558889 J14.853985
G02 X2261.358260 Y144.764038 Z-0.125000 I-32.821026 J3.027724
G02 X2259.862511 Y142.341744 Z-0.125000 I-8.783737 J3.750937
G02 X2258.947150 Y141.917488 Z-0.125000 I-0.915361 J0.775349
G03 X2257.682119 Y141.361678 Z-0.125000 I-0.000000 J-1.717520
G03 X2255.362815 Y138.014383 Z-0.125000 I10.988326 J-10.090847
G03 X2254.746442 Y136.569679 Z-0.125000 I10.657843 J-5.400939
G03 X2254.462809 Y135.449689 Z-0.125000 I6.101619 J-2.141119
G02 X2254.191413 Y134.399696 Z-0.125000 I-5.680690 J0.908243
G02 X2254.045712 Y134.297488 Z-0.125000 I-0.145700 J0.052745
G02 X2253.815426 Y134.320938 Z-0.125000 I0.000000 J1.142499
G02 X2249.818390 Y135.167438 Z-0.125000 I71.678422 J348.313533
G01 X2245.823902 Y136.037417 Z-0.125000
G01 X2244.191698 Y135.167438 Z-0.125000
G02 X2242.008263 Y134.713234 Z-0.125000 I-1.868047 J3.504837
G02 X2241.264235 Y135.400639 Z-0.125000 I0.065068 J0.816788
G03 X2240.307571 Y137.325712 Z-0.125000 I-3.561208 J-0.569496
G03 X2238.806841 Y137.966377 Z-0.125000 I-1.500730 J-1.437363
G03 X2238.270173 Y137.405373 Z-0.125000 I0.000000 J-0.537196
G03 X2238.969599 Y134.297488 Z-0.125000 I9.035828 J0.400856
G02 X2239.648263 Y132.615737 Z-0.125000 I-56.384222 J-23.731460
G02 X2239.675154 Y132.471539 Z-0.125000 I-0.373174 J-0.144198
G02 X2239.602373 Y132.394742 Z-0.125000 I-0.076907 J0.000000
G02 X2236.889847 Y132.321933 Z-0.125000 I-2.712526 J50.491370
G01 X2234.104567 Y132.321933 Z-0.125000
G01 X2233.942403 Y133.321282 Z-0.125000
G03 X2233.086817 Y135.344337 Z-0.125000 I-4.575361 J-0.742552
G03 X2231.286127 Y136.893989 Z-0.125000 I-4.351222 J-3.235079
G03 X2228.697262 Y137.921542 Z-0.125000 I-5.866817 J-11.006105
G03 X2228.386265 Y137.683929 Z-0.125000 I-0.064725 J-0.237613
G03 X2228.434194 Y137.400090 Z-0.125000 I0.864426 J-0.000000
G03 X2229.091821 Y135.654328 Z-0.125000 I34.289484 J11.920068
G02 X2229.687660 Y133.896503 Z-0.125000 I-14.544544 J-5.909970
G02 X2229.797377 Y133.081590 Z-0.125000 I-2.971499 J-0.814913
G02 X2229.496153 Y132.590498 Z-0.125000 I-0.550932 J0.000000
G02 X2228.501807 Y132.422799 Z-0.125000 I-0.765078 J1.504653
G02 X2222.645077 Y136.191828 Z-0.125000 I1.120678 J8.176361
G02 X2217.404999 Y149.990540 Z-0.125000 I31.338333 J19.795090
G03 X2215.861790 Y158.512948 Z-0.125000 I-256.710886 J-42.083396
G03 X2214.500396 Y164.636377 Z-0.125000 I-133.867078 J-26.549018
G03 X2208.221216 Y183.809660 Z-0.125000 I-131.174080 J-32.344188
G03 X2202.620787 Y193.436393 Z-0.125000 I-38.059694 J-15.699113
G01 X2200.869599 Y195.680822 Z-0.125000
G01 X2200.695467 Y179.311933 Z-0.125000
G02 X2200.406668 Y162.948647 Z-0.125000 I-1167.547402 J12.422119
G02 X2200.201296 Y159.274155 Z-0.125000 I-59.012338 J1.455285
G02 X2198.124743 Y142.773939 Z-0.125000 I-216.957780 J18.923378
G02 X2195.339454 Y129.781933 Z-0.125000 I-137.172956 J22.613233
G02 X2192.174771 Y119.070504 Z-0.125000 I-190.865826 J50.567946
G02 X2191.752353 Y118.794457 Z-0.125000 I-0.383151 J0.125088
G02 X2191.559646 Y118.830647 Z-0.125000 I0.106189 J1.096621
G02 X2189.312062 Y119.482092 Z-0.125000 I43.034568 J152.678787
G01 X2189.312119 Y119.482092 Z-0.125000
G00 Z5.000000

(Change tool to Default tool)

G00 Z5.000000
G00 X2135.531033 Y119.974710

G01 Z-0.125000 F100.0(Penetrate)
G03 X2135.141744 Y122.864907 Z-0.125000 I-11.306410 J-0.051577 F400.000000
G03 X2133.950222 Y125.840982 Z-0.125000 I-13.189631 J-3.554134
G03 X2130.940297 Y129.995206 Z-0.125000 I-17.571173 J-9.563590
G03 X2130.023636 Y130.008896 Z-0.125000 I-0.464974 J-0.438042
G03 X2129.975483 Y129.822272 Z-0.125000 I0.134190 J-0.134147
G03 X2130.581110 Y128.071779 Z-0.125000 I16.843079 J4.847264
G02 X2131.126338 Y126.263651 Z-0.125000 I-9.410780 J-3.824022
G02 X2131.301877 Y124.512166 Z-0.125000 I-8.650153 J-1.751484
G01 X2131.301877 Y122.726377 Z-0.125000
G01 X2130.333318 Y122.726377 Z-0.125000
G02 X2129.335370 Y123.200596 Z-0.125000 I-0.000000 J1.287153
G02 X2126.999794 Y126.818599 Z-0.125000 I15.159176 J12.348755
G02 X2123.380100 Y135.179358 Z-0.125000 I75.082012 J37.469820
G02 X2110.247478 Y172.111597 Z-0.125000 I1456.781000 J538.813324
G01 X2109.429654 Y174.506789 Z-0.125000
G01 X2105.478543 Y175.272119 Z-0.125000
G03 X2092.698184 Y177.241103 Z-0.125000 I-31.972285 J-165.064899
G03 X2079.866877 Y178.214851 Z-0.125000 I-19.005233 J-165.409042
G02 X2074.813206 Y178.640562 Z-0.125000 I2.004003 J53.998972
G02 X2074.575210 Y178.911968 Z-0.125000 I0.035755 J0.271406
G03 X2074.218760 Y179.943224 Z-0.125000 I-1.670006 J0.000000
G03 X2073.485663 Y180.299711 Z-0.125000 I-0.733098 J-0.575546
G03 X2073.375842 Y180.200764 Z-0.125000 I0.000000 J-0.110418
G03 X2072.947691 Y175.149155 Z-0.125000 I129.168645 J-13.491701
G02 X2070.124815 Y157.877773 Z-0.125000 I-90.184808 J5.873642
G02 X2064.311747 Y142.552488 Z-0.125000 I-76.631908 J20.302291
G01 X2062.998426 Y139.941933 Z-0.125000
G01 X2058.960278 Y139.941933 Z-0.125000
G02 X2054.944889 Y140.102179 Z-0.125000 I-0.000000 J50.388285
G02 X2053.389211 Y140.387279 Z-0.125000 I0.622053 J7.781186
G02 X2047.493722 Y143.668942 Z-0.125000 I4.215472 J14.509511
G02 X2036.911695 Y155.225706 Z-0.125000 I54.531770 J60.555511
G01 X2034.011664 Y159.079506 Z-0.125000
G01 X2034.276106 Y160.729039 Z-0.125000
G02 X2043.985274 Y212.514401 Z-0.125000 I986.316892 J-158.120371
G02 X2054.238643 Y253.606482 Z-0.125000 I631.001829 J-135.623443
G02 X2062.908225 Y276.499060 Z-0.125000 I139.192113 J-39.625132
G02 X2069.433149 Y285.329108 Z-0.125000 I26.256595 J-12.576390
G02 X2070.740286 Y286.354728 Z-0.125000 I7.097218 J-7.699519
G02 X2072.213264 Y287.174051 Z-0.125000 I5.960100 J-8.981342
G02 X2073.812926 Y287.623351 Z-0.125000 I2.232831 J-4.877318
G02 X2077.342709 Y287.783764 Z-0.125000 I2.863173 J-24.086825
G02 X2080.863035 Y287.433365 Z-0.125000 I-0.678293 J-24.673429
G02 X2082.557922 Y286.883531 Z-0.125000 I-1.065169 J-6.170633
G02 X2085.571168 Y284.743311 Z-0.125000 I-5.077138 J-10.339478
G02 X2089.109767 Y280.418667 Z-0.125000 I-18.492457 J-18.741315
G01 X2090.518451 Y278.265989 Z-0.125000
G01 X2092.636275 Y278.072469 Z-0.125000
G02 X2100.916275 Y275.735694 Z-0.125000 I-2.139946 J-23.420410
G02 X2108.628002 Y270.169033 Z-0.125000 I-12.734130 J-25.766137
G02 X2115.804129 Y260.224748 Z-0.125000 I-28.392398 J-28.050307
G02 X2122.558830 Y242.802479 Z-0.125000 I-82.581601 J-42.037850
G03 X2123.863734 Y238.629959 Z-0.125000 I61.564192 J16.963135
G03 X2125.079723 Y235.615267 Z-0.125000 I33.313235 J11.684457
G02 X2132.401108 Y216.479753 Z-0.125000 I-145.597696 J-66.675082
G02 X2151.735923 Y149.870990 Z-0.125000 I-1752.412975 J-544.791120
G01 X2154.426122 Y139.903381 Z-0.125000
G01 X2154.143730 Y136.888768 Z-0.125000
G02 X2152.678923 Y128.001875 Z-0.125000 I-64.142082 J6.008228
G02 X2151.453249 Y125.567367 Z-0.125000 I-5.740141 J1.364132
G02 X2149.881322 Y124.753427 Z-0.125000 I-1.766228 J1.486173
G02 X2147.755009 Y125.254947 Z-0.125000 I-0.295956 J3.503490
G02 X2146.586196 Y126.493052 Z-0.125000 I1.682170 J2.758778
G02 X2145.815550 Y128.891127 Z-0.125000 I6.239194 J3.327894
G01 X2145.622482 Y130.346377 Z-0.125000
G01 X2144.305209 Y130.346377 Z-0.125000
G01 X2142.987909 Y130.346377 Z-0.125000
G01 X2142.650230 Y128.018044 Z-0.125000
G02 X2141.363179 Y123.859566 Z-0.125000 I-13.854237 J2.009484
G02 X2139.003326 Y120.587500 Z-0.125000 I-10.793717 J5.297545
G02 X2137.350038 Y119.298292 Z-0.125000 I-6.401603 J6.504759
G02 X2136.491944 Y119.057488 Z-0.125000 I-0.858095 J1.408492
G02 X2135.807994 Y119.331517 Z-0.125000 I0.000000 J0.990549
G02 X2135.531033 Y119.974710 Z-0.125000 I0.617852 J0.647276
G01 X2135.531033 Y119.974710 Z-0.125000
G00 Z5.000000

(Change tool to Default tool)

G00 Z5.000000
G00 X2096.306321 Y223.593672

G01 Z-0.125000 F100.0(Penetrate)
G03 X2096.230018 Y224.398896 Z-0.125000 I-4.286883 J0.000000 F400.000000
G03 X2094.211128 Y234.741785 Z-0.125000 I-1356.471203 J-259.409150
G03 X2092.091127 Y245.174727 Z-0.125000 I-1343.478378 J-267.566476
G03 X2091.959788 Y245.418115 Z-0.125000 I-0.472750 J-0.097978
G03 X2091.875397 Y245.427926 Z-0.125000 I-0.048396 J-0.048428
G03 X2090.680701 Y244.627554 Z-0.125000 I10.308260 J-16.678716
G02 X2089.512962 Y244.277660 Z-0.125000 I-1.085150 J1.498032
G02 X2088.848853 Y244.709426 Z-0.125000 I0.034872 J0.780260
G03 X2088.448602 Y245.238346 Z-0.125000 I-1.610891 J-0.803111
G03 X2088.044237 Y245.440692 Z-0.125000 I-0.562526 J-0.618931
G03 X2087.238242 Y244.725118 Z-0.125000 I-0.128457 J-0.667019
G03 X2088.192432 Y243.372737 Z-0.125000 I1.597749 J0.114502
G02 X2088.673306 Y242.980265 Z-0.125000 I-0.465614 J-1.061321
G02 X2088.913397 Y242.352504 Z-0.125000 I-1.109761 J-0.784227
G02 X2088.772698 Y241.767518 Z-0.125000 I-0.867966 J-0.100653
G02 X2088.303120 Y241.436100 Z-0.125000 I-0.663693 J0.441995
G03 X2087.685544 Y241.132291 Z-0.125000 I0.399335 J-1.591359
G03 X2086.523370 Y240.030436 Z-0.125000 I5.505471 J-6.970683
G03 X2084.713643 Y236.630712 Z-0.125000 I6.269974 J-5.519141
G03 X2083.421889 Y228.206933 Z-0.125000 I39.561591 J-10.377552
G01 X2083.236299 Y224.326378 Z-0.125000
G01 X2088.430741 Y224.314807 Z-0.125000
G01 X2093.625210 Y224.303236 Z-0.125000
G01 X2094.754099 Y223.479683 Z-0.125000
G03 X2095.900699 Y222.705820 Z-0.125000 I11.144413 J15.275831
G03 X2096.094654 Y222.644587 Z-0.125000 I0.216229 J0.347118
G03 X2096.211535 Y222.733045 Z-0.125000 I0.006307 J0.113113
G03 X2096.306321 Y223.593644 Z-0.125000 I-3.859461 J0.860600
G01 X2096.306321 Y223.593672 Z-0.125000
G00 Z5.000000

(Change tool to Default tool)

G00 Z5.000000
G00 X1014.125204 Y121.342613

G01 Z-0.125000 F100.0(Penetrate)
G02 X991.600614 Y125.311326 Z-0.125000 I7.174221 J106.621543 F400.000000
G02 X977.012981 Y132.079645 Z-0.125000 I14.682345 J50.748975
G02 X970.748940 Y137.159611 Z-0.125000 I23.755619 J35.694791
G02 X966.195601 Y142.686741 Z-0.125000 I23.667804 J24.137038
G02 X962.901352 Y148.875789 Z-0.125000 I31.228310 J20.593156
G02 X958.927024 Y160.107444 Z-0.125000 I99.689043 J41.594013
G02 X953.760399 Y180.848956 Z-0.125000 I251.477145 J73.656164
G02 X950.208530 Y202.393336 Z-0.125000 I267.810205 J55.216941
G01 X949.620746 Y207.130267 Z-0.125000
G01 X950.239716 Y209.025559 Z-0.125000
G03 X950.643063 Y210.957474 Z-0.125000 I-8.556145 J2.794423
G03 X950.981396 Y216.729689 Z-0.125000 I-76.912590 J7.404182
G03 X950.745592 Y224.242478 Z-0.125000 I-71.610102 J1.512464
G03 X949.743682 Y231.452489 Z-0.125000 I-66.942138 J-5.627720
G02 X949.868398 Y232.001304 Z-0.125000 I0.683957 J0.133151
G02 X950.320544 Y232.228600 Z-0.125000 I0.452146 J-0.336064
G03 X951.007366 Y232.269779 Z-0.125000 I0.000000 J5.748320
G01 X951.048537 Y232.316202 Z-0.125000
G03 X951.033227 Y232.400900 Z-0.125000 I-0.241947 J0.000000
G03 X950.342981 Y234.204156 Z-0.125000 I-114.082235 J-42.634408
G01 X949.637426 Y236.004508 Z-0.125000
G01 X949.637426 Y246.661332 Z-0.125000
G01 X949.637426 Y257.318156 Z-0.125000
G01 X950.761460 Y259.909746 Z-0.125000
G02 X952.730442 Y263.897664 Z-0.125000 I41.323770 J-17.923031
G02 X954.034335 Y265.788294 Z-0.125000 I10.495659 J-5.843504
G01 X954.767605 Y266.659711 Z-0.125000
G01 X959.399182 Y266.659711 Z-0.125000
G01 X964.030759 Y266.659711 Z-0.125000
G01 X964.030759 Y264.825267 Z-0.125000
G03 X964.318062 Y263.278069 Z-0.125000 I4.309671 J0.000000
G03 X964.736315 Y262.990822 Z-0.125000 I0.418252 J0.160880
G03 X965.154598 Y263.278100 Z-0.125000 I0.000000 J0.448155
G03 X965.441870 Y264.825267 Z-0.125000 I-4.022672 J1.547166
G02 X965.661783 Y266.439795 Z-0.125000 I6.036618 J-0.000000
G02 X965.951055 Y266.659711 Z-0.125000 I0.289272 J-0.080293
G02 X968.330805 Y265.653540 Z-0.125000 I0.000000 J-3.317321
G02 X972.186558 Y260.239156 Z-0.125000 I-15.750716 J-15.296674
G03 X972.922170 Y259.252506 Z-0.125000 I3.177868 J1.601761
G03 X973.457771 Y259.039711 Z-0.125000 I0.535601 J0.567654
G02 X973.871454 Y258.763335 Z-0.125000 I0.000000 J-0.447790
G02 X974.305595 Y256.993600 Z-0.125000 I-5.549430 J-2.299472
G02 X974.937037 Y248.283933 Z-0.125000 I-272.991085 J-24.169292
G02 X975.493525 Y235.968044 Z-0.125000 I-545.326793 J-30.810868
G01 X975.687158 Y230.253044 Z-0.125000
G01 X976.343409 Y230.253044 Z-0.125000
G01 X976.999660 Y230.253044 Z-0.125000
G01 X977.076876 Y235.040126 Z-0.125000
G01 X977.154092 Y239.827208 Z-0.125000
G01 X980.572340 Y234.405126 Z-0.125000
G02 X983.981834 Y228.977845 Z-0.125000 I-1700.832550 J-1072.271698
G02 X984.181877 Y228.639128 Z-0.125000 I-6.452262 J-4.039074
G02 X984.264099 Y228.274423 Z-0.125000 I-0.579517 J-0.322271
G02 X983.955620 Y225.111351 Z-0.125000 I-47.804062 J3.065518
G03 X982.829026 Y213.613821 Z-0.125000 I175.108915 J-22.962135
G03 X983.174316 Y213.100368 Z-0.125000 I0.505503 J-0.032884
G02 X984.045263 Y212.488044 Z-0.125000 I-0.586677 J-1.760030
G02 X984.350759 Y211.606227 Z-0.125000 I-1.119936 J-0.881817
G02 X984.129284 Y211.283418 Z-0.125000 I-0.345991 J0.000000
G02 X982.939648 Y211.061933 Z-0.125000 I-1.189636 J3.084136
G01 X981.528537 Y211.061933 Z-0.125000
G01 X981.528537 Y213.037489 Z-0.125000
G03 X981.236911 Y214.721327 Z-0.125000 I-5.007023 J-0.000000
G03 X980.822981 Y215.013044 Z-0.125000 I-0.413930 J-0.147812
G03 X980.191306 Y214.939144 Z-0.125000 I0.000000 J-2.736612
G03 X980.117426 Y214.845687 Z-0.125000 I0.022171 J-0.093457
G03 X980.388758 Y210.488032 Z-0.125000 I35.128148 J-0.000000
G03 X982.819280 Y193.233758 Z-0.125000 I555.130403 J69.400094
G02 X982.711414 Y192.397913 Z-0.125000 I-1.486525 J-0.233045
G02 X982.325673 Y192.104869 Z-0.125000 I-0.455475 J0.199150
G03 X981.938279 Y191.786581 Z-0.125000 I0.067597 J-0.477171
G03 X981.725020 Y190.384781 Z-0.125000 I3.638977 J-1.270728
G03 X984.655379 Y181.805307 Z-0.125000 I15.575951 J0.529862
G03 X993.472689 Y174.076626 Z-0.125000 I21.151007 J15.236268
G02 X995.538579 Y172.701022 Z-0.125000 I-6.217246 J-11.576181
G02 X998.834912 Y169.722361 Z-0.125000 I-26.540473 J-32.684255
G03 X1002.162643 Y166.794855 Z-0.125000 I23.773589 J23.668643
G03 X1004.670759 Y165.236015 Z-0.125000 I9.077120 J11.807596
G03 X1009.133048 Y163.595638 Z-0.125000 I10.050608 J20.450968
G03 X1013.157859 Y163.089066 Z-0.125000 I4.068637 J16.083848
G01 X1015.012736 Y163.084268 Z-0.125000
G01 X1016.562559 Y164.848157 Z-0.125000
G03 X1021.071279 Y170.651284 Z-0.125000 I-45.764389 J40.209567
G03 X1024.406729 Y176.309709 Z-0.125000 I-40.161149 J27.485911
G03 X1027.378107 Y183.200424 Z-0.125000 I-57.858971 J29.035653
G03 X1027.812982 Y185.666251 Z-0.125000 I-6.773428 J2.465827
G02 X1028.438203 Y186.229575 Z-0.125000 I0.566388 J-0.000000
G02 X1030.815854 Y185.352617 Z-0.125000 I-0.533490 J-5.108106
G03 X1032.076792 Y184.579024 Z-0.125000 I8.014788 J11.649446
G03 X1032.204783 Y184.597560 Z-0.125000 I0.051594 J0.094901
G03 X1032.256617 Y184.739981 Z-0.125000 I-0.126789 J0.126789
G03 X1031.620498 Y191.273555 Z-0.125000 I-334.998026 J-29.318203
G02 X1031.078856 Y197.839457 Z-0.125000 I133.672724 J14.332375
G02 X1030.911330 Y203.529168 Z-0.125000 I100.178480 J5.796946
G01 X1030.905121 Y209.227602 Z-0.125000
G01 X1029.996676 Y209.650935 Z-0.125000
G02 X1027.418550 Y212.824403 Z-0.125000 I1.975173 J4.238599
G02 X1024.715141 Y232.228713 Z-0.125000 I104.544767 J24.455656
G02 X1024.460418 Y243.474685 Z-0.125000 I230.123024 J10.838201
G02 X1024.735743 Y243.855958 Z-0.125000 I0.402645 J-0.000713
G03 X1024.846097 Y244.050818 Z-0.125000 I-0.052865 J0.158616
G03 X1024.312410 Y245.762567 Z-0.125000 I-10.465887 J-2.323972
G01 X1023.579592 Y247.565910 Z-0.125000
G01 X1023.579592 Y256.266144 Z-0.125000
G02 X1023.773650 Y264.772325 Z-0.125000 I186.523715 J0.000000
G02 X1023.976763 Y264.966378 Z-0.125000 I0.203114 J-0.009272
G03 X1025.010558 Y265.456950 Z-0.125000 I-0.000000 J1.334558
G03 X1028.203464 Y270.143605 Z-0.125000 I-25.391923 J20.729862
G02 X1029.731282 Y272.315480 Z-0.125000 I11.415274 J-6.406826
G02 X1030.316490 Y272.579013 Z-0.125000 I0.577632 J-0.501173
G02 X1030.985458 Y272.366759 Z-0.125000 I-0.011644 J-1.197028
G02 X1035.715147 Y268.847951 Z-0.125000 I-48.045275 J-69.516497
G02 X1044.579096 Y261.017195 Z-0.125000 I-75.307680 J-94.175922
G02 X1046.210935 Y258.616378 Z-0.125000 I-5.070450 J-5.201383
G02 X1053.998301 Y236.667875 Z-0.125000 I-195.952458 J-81.879993
G02 X1058.123959 Y218.117489 Z-0.125000 I-135.657263 J-39.904530
G02 X1059.290824 Y207.822674 Z-0.125000 I-132.247919 J-20.203169
G02 X1059.895073 Y194.269711 Z-0.125000 I-228.748476 J-16.988530
G02 X1059.774102 Y184.409596 Z-0.125000 I-180.961519 J-2.710639
G02 X1059.306752 Y179.388585 Z-0.125000 I-47.292890 J1.869710
G02 X1050.175788 Y143.438937 Z-0.125000 I-179.104698 J26.356939
G02 X1040.654036 Y128.503635 Z-0.125000 I-38.760640 J14.208332
G02 X1034.121619 Y123.648648 Z-0.125000 I-19.560917 J19.497144
G02 X1027.248481 Y121.331578 Z-0.125000 I-10.347095 J19.340203
G02 X1023.404558 Y121.026861 Z-0.125000 I-3.823633 J23.836713
G02 X1014.125147 Y121.342585 Z-0.125000 I0.117645 J139.980752
G01 X1014.125204 Y121.342613 Z-0.125000
G00 Z5.000000

(Change tool to Default tool)

G00 Z5.000000
G00 X1494.502989 Y126.709859

G01 Z-0.125000 F100.0(Penetrate)
G03 X1493.786349 Y130.558439 Z-0.125000 I-21.347954 J-1.984166 F400.000000
G03 X1493.038030 Y131.891657 Z-0.125000 I-3.146801 J-0.889642
G03 X1492.178328 Y131.827400 Z-0.125000 I-0.404250 J-0.374646
G03 X1491.504095 Y129.640822 Z-0.125000 I3.208490 J-2.186579
G02 X1491.220269 Y126.961580 Z-0.125000 I-12.787568 J0.000000
G02 X1490.869095 Y126.677855 Z-0.125000 I-0.350961 J0.075202
G02 X1490.303724 Y126.857204 Z-0.125000 I0.000638 J0.982814
G02 X1488.117429 Y128.616327 Z-0.125000 I12.666929 J17.981031
G01 X1486.000762 Y130.554403 Z-0.125000
G01 X1484.307429 Y129.355862 Z-0.125000
G02 X1481.208218 Y127.466146 Z-0.125000 I-15.345757 J21.681382
G02 X1479.452952 Y126.833670 Z-0.125000 I-3.235527 J6.227464
G02 X1478.730597 Y127.017956 Z-0.125000 I-0.176283 J0.816886
G02 X1477.677549 Y128.366221 Z-0.125000 I2.875785 J3.331470
G02 X1475.189311 Y133.939390 Z-0.125000 I57.292274 J28.921170
G02 X1473.762760 Y138.389711 Z-0.125000 I35.048400 J13.688576
G02 X1473.311338 Y142.681723 Z-0.125000 I14.649725 J3.710562
G02 X1474.265708 Y151.451999 Z-0.125000 I63.102697 J-2.429688
G03 X1480.755129 Y190.685310 Z-0.125000 I-1361.333261 J245.325915
G03 X1483.800050 Y214.730822 Z-0.125000 I-508.124125 J76.560088
G03 X1484.480086 Y228.211571 Z-0.125000 I-129.239718 J13.277021
G03 X1483.743182 Y250.996378 Z-0.125000 I-370.585450 J-0.581116
G02 X1483.328772 Y265.403832 Z-0.125000 I209.490906 J13.235390
G02 X1483.843963 Y269.045873 Z-0.125000 I13.670562 J-0.076333
G02 X1488.082694 Y276.721588 Z-0.125000 I18.578419 J-5.251263
G02 X1496.307066 Y282.871009 Z-0.125000 I19.668866 J-17.731139
G02 X1498.472356 Y283.568363 Z-0.125000 I3.643400 J-7.602484
G02 X1501.946120 Y283.875268 Z-0.125000 I3.473764 J-19.505772
G02 X1506.061745 Y282.765953 Z-0.125000 I0.000000 J-8.189268
G02 X1508.867423 Y279.851852 Z-0.125000 I-3.706679 J-6.376460
G02 X1512.653291 Y269.499777 Z-0.125000 I-35.362064 J-18.800604
G02 X1518.759029 Y234.017212 Z-0.125000 I-417.682613 J-90.140236
G01 X1519.238158 Y230.302490 Z-0.125000
G01 X1527.596113 Y230.181953 Z-0.125000
G02 X1535.919200 Y229.835000 Z-0.125000 I-2.206348 J-152.933565
G02 X1537.929651 Y229.468862 Z-0.125000 I-0.633603 J-9.181817
G02 X1544.696894 Y226.370543 Z-0.125000 I-7.774448 J-25.920236
G02 X1552.277490 Y220.326668 Z-0.125000 I-24.673686 J-38.723201
G01 X1555.659303 Y216.988854 Z-0.125000
G01 X1555.476874 Y226.231491 Z-0.125000
G03 X1555.211058 Y235.470753 Z-0.125000 I-511.481528 J-10.092022
G03 X1554.865948 Y242.388600 Z-0.125000 I-287.223715 J-10.861175
G03 X1553.426404 Y262.603629 Z-0.125000 I-1100.040119 J-68.176790
G03 X1552.839254 Y267.576934 Z-0.125000 I-67.052739 J-5.394967
G01 X1552.674182 Y268.635267 Z-0.125000
G01 X1554.121361 Y268.635267 Z-0.125000
G01 X1555.568540 Y268.635267 Z-0.125000
G01 X1555.568540 Y267.352764 Z-0.125000
G03 X1555.797484 Y263.079704 Z-0.125000 I39.991131 J-0.000000
G03 X1558.251345 Y242.388600 Z-0.125000 I942.632581 J101.300404
G03 X1561.565958 Y223.488098 Z-0.125000 I213.528179 J27.705908
G03 X1562.631349 Y222.633044 Z-0.125000 I1.065391 J0.236208
G03 X1563.284389 Y223.340223 Z-0.125000 I0.000000 J0.655112
G03 X1559.640555 Y260.145232 Z-0.125000 I-964.106740 J-76.867296
G02 X1558.520163 Y270.712850 Z-0.125000 I433.365914 J51.289197
G02 X1558.390762 Y273.480233 Z-0.125000 I29.527105 J2.767384
G01 X1558.390762 Y276.255268 Z-0.125000
G01 X1559.731318 Y276.251035 Z-0.125000
G02 X1569.810466 Y271.452137 Z-0.125000 I-0.040520 J-13.069193
G02 X1581.226943 Y249.948769 Z-0.125000 I-48.133579 J-39.337154
G02 X1584.857838 Y235.017054 Z-0.125000 I-140.423089 J-42.053520
G02 X1588.300250 Y212.379742 Z-0.125000 I-319.836913 J-60.217385
G01 X1588.885212 Y207.347607 Z-0.125000
G01 X1588.161397 Y197.421964 Z-0.125000
G02 X1582.800879 Y142.294291 Z-0.125000 I-1144.291920 J83.444469
G02 X1580.806940 Y136.975185 Z-0.125000 I-11.980018 J1.457592
G03 X1580.247419 Y135.912534 Z-0.125000 I4.461995 J-3.028018
G03 X1579.395772 Y133.369626 Z-0.125000 I25.037154 J-9.799272
G02 X1577.405266 Y127.999325 Z-0.125000 I-33.793695 J9.471619
G02 X1576.388187 Y126.924969 Z-0.125000 I-2.122064 J0.990326
G02 X1572.826600 Y126.311200 Z-0.125000 I-2.704547 J5.053486
G02 X1566.078806 Y128.484021 Z-0.125000 I3.297414 J21.804466
G02 X1562.631941 Y131.496862 Z-0.125000 I4.292518 J8.389018
G02 X1561.501416 Y135.073543 Z-0.125000 I5.195899 J3.609341
G03 X1561.214557 Y135.990896 Z-0.125000 I-1.637636 J-0.008565
G03 X1560.679190 Y136.272987 Z-0.125000 I-0.535368 J-0.366979
G03 X1560.027736 Y136.029873 Z-0.125000 I-0.000000 J-0.994380
G03 X1559.429622 Y135.189452 Z-0.125000 I1.433750 J-1.653419
G03 X1559.055766 Y134.087973 Z-0.125000 I10.116762 J-4.047950
G03 X1558.636945 Y132.367229 Z-0.125000 I24.320595 J-6.830859
G02 X1558.181956 Y130.746236 Z-0.125000 I-11.790511 J2.435073
G02 X1558.014842 Y130.628543 Z-0.125000 I-0.167113 J0.059796
G02 X1556.906220 Y131.201395 Z-0.125000 I-0.000000 J1.359168
G02 X1555.302489 Y134.452626 Z-0.125000 I9.356993 J6.636661
G02 X1554.458192 Y138.205303 Z-0.125000 I23.499154 J7.258284
G02 X1554.157429 Y142.403927 Z-0.125000 I29.155866 J4.198624
G03 X1553.884001 Y143.619558 Z-0.125000 I-2.839000 J-0.000000
G03 X1553.451873 Y143.892987 Z-0.125000 I-0.432128 J-0.204753
G03 X1553.055667 Y143.583639 Z-0.125000 I0.000000 J-0.408401
G03 X1552.746318 Y141.070765 Z-0.125000 I10.051494 J-2.512873
G01 X1552.746318 Y138.248543 Z-0.125000
G01 X1551.335207 Y138.248543 Z-0.125000
G02 X1550.226824 Y138.551183 Z-0.125000 I0.000000 J2.180977
G02 X1549.924096 Y139.081324 Z-0.125000 I0.312830 J0.530141
G03 X1549.868069 Y139.908212 Z-0.125000 I-6.129976 J-0.000000
G03 X1549.607104 Y141.409658 Z-0.125000 I-20.529457 J-2.794812
G03 X1547.155408 Y145.699706 Z-0.125000 I-7.914839 J-1.677631
G03 X1542.687692 Y147.744051 Z-0.125000 I-5.401450 J-5.900288
G01 X1541.175207 Y147.921823 Z-0.125000
G01 X1541.175207 Y149.792053 Z-0.125000
G02 X1541.349450 Y151.643570 Z-0.125000 I9.924303 J-0.000000
G02 X1543.994861 Y164.640413 Z-0.125000 I495.996845 J-94.188839
G03 X1546.769097 Y177.623527 Z-0.125000 I-1895.019690 J411.716479
G03 X1546.817083 Y178.072949 Z-0.125000 I-2.199442 J0.462111
G03 X1546.627344 Y178.354483 Z-0.125000 I-0.300083 J0.002463
G03 X1545.262321 Y178.688081 Z-0.125000 I-1.893808 J-4.789605
G02 X1542.656376 Y179.495061 Z-0.125000 I0.713895 J6.916463
G02 X1541.505887 Y180.729338 Z-0.125000 I1.269943 J2.337069
G02 X1541.281609 Y181.478191 Z-0.125000 I2.613708 J1.190804
G02 X1541.175207 Y182.852947 Z-0.125000 I8.827998 J1.374756
G01 X1541.175207 Y184.250765 Z-0.125000
G01 X1532.459818 Y184.250765 Z-0.125000
G01 X1523.744428 Y184.250765 Z-0.125000
G01 X1523.436834 Y183.029138 Z-0.125000
G02 X1523.023618 Y181.859390 Z-0.125000 I-6.485499 J1.633157
G02 X1522.509029 Y181.019095 Z-0.125000 I-3.830942 J1.768325
G02 X1520.335388 Y179.178383 Z-0.125000 I-5.589303 J4.396487
G02 X1518.103540 Y178.606547 Z-0.125000 I-2.234741 J4.080767
G03 X1517.914408 Y178.442580 Z-0.125000 I0.000127 J-0.191210
G03 X1517.748025 Y176.136877 Z-0.125000 I16.142836 J-2.323746
G02 X1517.698101 Y173.668803 Z-0.125000 I-68.019401 J0.141339
G02 X1517.466621 Y168.869654 Z-0.125000 I-244.360918 J9.381247
G02 X1513.936780 Y144.652415 Z-0.125000 I-141.051566 J8.193436
G02 X1507.788967 Y127.806321 Z-0.125000 I-73.840349 J17.402455
G01 X1506.289689 Y124.842987 Z-0.125000
G01 X1500.490164 Y124.766844 Z-0.125000
G01 X1494.690638 Y124.690672 Z-0.125000
G01 X1494.502989 Y126.709803 Z-0.125000
G01 X1494.502989 Y126.709859 Z-0.125000
G00 Z5.000000

(Change tool to Default tool)

G00 Z5.000000
G00 X1484.621316 Y139.024711

G01 Z-0.125000 F100.0(Penetrate)
G02 X1486.215611 Y141.356804 Z-0.125000 I3.826558 J-0.904957 F400.000000
G02 X1491.080085 Y143.478629 Z-0.125000 I7.878071 J-11.424153
G03 X1492.892835 Y144.173367 Z-0.125000 I-1.438647 J6.466135
G03 X1493.293356 Y144.725515 Z-0.125000 I-0.401405 J0.712514
G02 X1494.054472 Y145.389477 Z-0.125000 I0.811806 J-0.162369
G02 X1495.925135 Y144.886974 Z-0.125000 I0.186435 J-3.039161
G01 X1497.430762 Y143.887287 Z-0.125000
G01 X1497.430762 Y147.787908 Z-0.125000
G01 X1497.430762 Y151.688558 Z-0.125000
G01 X1495.949095 Y152.061966 Z-0.125000
G02 X1489.310111 Y154.637468 Z-0.125000 I7.081181 J28.098022
G02 X1487.562354 Y156.570438 Z-0.125000 I1.837407 J3.417981
G03 X1487.064705 Y157.028736 Z-0.125000 I-0.743472 J-0.307970
G03 X1486.322862 Y156.968061 Z-0.125000 I-0.297544 J-0.927491
G03 X1483.452014 Y154.656388 Z-0.125000 I4.144369 J-8.085337
G03 X1479.976164 Y149.256593 Z-0.125000 I21.294920 J-17.526147
G01 X1478.662984 Y146.574155 Z-0.125000
G01 X1478.572109 Y142.411377 Z-0.125000
G01 X1478.481205 Y138.248599 Z-0.125000
G01 X1481.459496 Y138.248599 Z-0.125000
G01 X1484.437787 Y138.248599 Z-0.125000
G01 X1484.621316 Y139.024711 Z-0.125000
G01 X1484.621316 Y139.024711 Z-0.125000
G00 Z5.000000

(Change tool to Default tool)

G00 Z5.000000
G00 X1730.024151 Y125.679099

G01 Z-0.125000 F100.0(Penetrate)
G03 X1728.652878 Y127.689197 Z-0.125000 I-4.594089 J-1.661266 F400.000000
G03 X1723.910456 Y131.045837 Z-0.125000 I-18.374293 J-20.931608
G02 X1721.840620 Y132.580673 Z-0.125000 I4.993144 J8.896691
G02 X1721.515208 Y133.343831 Z-0.125000 I0.732176 J0.763159
G03 X1721.270978 Y134.053260 Z-0.125000 I-1.152476 J-0.000000
G03 X1720.770310 Y134.297488 Z-0.125000 I-0.500668 J-0.391070
G03 X1720.063840 Y134.161685 Z-0.125000 I-0.000000 J-1.905492
G03 X1718.649410 Y133.450822 Z-0.125000 I3.420951 J-8.569382
G02 X1717.287057 Y132.950015 Z-0.125000 I-1.920761 J3.121659
G02 X1716.999652 Y133.196511 Z-0.125000 I-0.037998 J0.246496
G03 X1716.479599 Y134.988773 Z-0.125000 I-3.348364 J0.000000
G03 X1715.241380 Y135.971179 Z-0.125000 I-2.028896 J-1.285684
G03 X1714.372170 Y136.067949 Z-0.125000 I-0.646445 J-1.854402
G03 X1714.177430 Y135.849711 Z-0.125000 I0.024916 J-0.218239
G02 X1713.729419 Y134.745527 Z-0.125000 I-1.584712 J0.000000
G02 X1712.669573 Y134.297488 Z-0.125000 I-1.059846 J1.029528
G02 X1712.465525 Y134.479219 Z-0.125000 I0.000000 J0.205419
G02 X1712.104395 Y139.165822 Z-0.125000 I60.390916 J7.010686
G03 X1710.124320 Y152.707626 Z-0.125000 I-64.053918 J-2.450264
G03 X1707.979322 Y155.177474 Z-0.125000 I-3.546506 J-0.913685
G02 X1707.304328 Y155.654555 Z-0.125000 I0.716526 J1.729817
G02 X1707.121874 Y156.129917 Z-0.125000 I0.528026 J0.475362
G02 X1707.545158 Y164.237525 Z-0.125000 I77.858547 J-0.000000
G02 X1708.403982 Y168.375342 Z-0.125000 I20.981727 J-2.196824
G02 X1708.606254 Y168.477634 Z-0.125000 I0.151057 J-0.047567
G02 X1709.849185 Y167.881453 Z-0.125000 I-1.894519 J-5.543471
G03 X1711.244480 Y167.245264 Z-0.125000 I2.998618 J4.728414
G03 X1712.680467 Y167.035266 Z-0.125000 I1.435987 J4.804708
G03 X1714.145282 Y167.069658 Z-0.125000 I-0.000000 J31.212026
G01 X1714.182171 Y167.105822 Z-0.125000
G02 X1714.187621 Y167.176352 Z-0.125000 I7.802573 J-0.567460
G02 X1714.777180 Y174.373044 Z-0.125000 I37346.698902 J-3055.771533
G03 X1715.181367 Y181.578364 Z-0.125000 I-139.392539 J11.433299
G03 X1715.588061 Y201.184155 Z-0.125000 I-1032.308405 J31.220891
G02 X1716.502808 Y226.937788 Z-0.125000 I531.172833 J-5.973735
G02 X1717.906940 Y239.939334 Z-0.125000 I136.547254 J-8.170144
G01 X1718.518036 Y243.840069 Z-0.125000
G01 X1724.179386 Y243.740501 Z-0.125000
G02 X1731.489163 Y242.561163 Z-0.125000 I-0.458792 J-26.087096
G02 X1735.214500 Y240.298716 Z-0.125000 I-2.691857 J-8.630691
G02 X1738.628867 Y235.331011 Z-0.125000 I-11.988333 J-11.896955
G02 X1741.511301 Y226.301933 Z-0.125000 I-38.080879 J-17.131536
G02 X1742.770458 Y217.619395 Z-0.125000 I-83.990742 J-16.613057
G02 X1743.244089 Y207.675267 Z-0.125000 I-109.771281 J-10.211663
G03 X1743.329940 Y205.000395 Z-0.125000 I45.219400 J0.112508
G03 X1743.514430 Y203.300822 Z-0.125000 I18.374711 J1.134794
G02 X1744.055421 Y198.030639 Z-0.125000 I-50.085346 J-7.804178
G02 X1744.642811 Y180.757193 Z-0.125000 I-538.819871 J-26.969495
G03 X1745.107303 Y168.628451 Z-0.125000 I298.814338 J5.370369
G03 X1745.466448 Y166.714662 Z-0.125000 I7.678490 J0.450366
G02 X1745.808977 Y164.825620 Z-0.125000 I-6.886448 J-2.224254
G02 X1745.654352 Y162.662374 Z-0.125000 I-9.224928 J-0.427767
G02 X1743.166134 Y154.148541 Z-0.125000 I-45.782143 J8.759586
G02 X1737.700822 Y142.727748 Z-0.125000 I-88.210787 J35.194356
G01 X1736.169907 Y140.010259 Z-0.125000
G01 X1736.904221 Y138.071082 Z-0.125000
G02 X1737.365398 Y136.084494 Z-0.125000 I-7.143232 J-2.705090
G02 X1737.549663 Y131.239949 Z-0.125000 I-42.972628 J-4.060270
G01 X1737.460763 Y126.347966 Z-0.125000
G01 X1736.539082 Y125.524949 Z-0.125000
G02 X1735.507605 Y124.989753 Z-0.125000 I-1.562438 J1.749692
G02 X1732.997447 Y124.701933 Z-0.125000 I-2.510158 J10.801978
G01 X1730.377494 Y124.701933 Z-0.125000
G01 X1730.024151 Y125.679099 Z-0.125000
G01 X1730.024151 Y125.679099 Z-0.125000
G00 Z5.000000

(Change tool to Default tool)

G00 Z5.000000
G00 X2007.448597 Y125.679099

G01 Z-0.125000 F100.0(Penetrate)
G03 X2006.077324 Y127.689197 Z-0.125000 I-4.594089 J-1.661266 F400.000000
G03 X2001.334902 Y131.045837 Z-0.125000 I-18.374293 J-20.931608
G02 X1999.265066 Y132.580673 Z-0.125000 I4.993144 J8.896691
G02 X1998.939654 Y133.343831 Z-0.125000 I0.732176 J0.763159
G03 X1998.695425 Y134.053260 Z-0.125000 I-1.152476 J0.000000
G03 X1998.194757 Y134.297488 Z-0.125000 I-0.500668 J-0.391070
G03 X1997.488286 Y134.161685 Z-0.125000 I-0.000000 J-1.905492
G03 X1996.073857 Y133.450822 Z-0.125000 I3.420951 J-8.569382
G02 X1994.711504 Y132.950015 Z-0.125000 I-1.920761 J3.121659
G02 X1994.424098 Y133.196511 Z-0.125000 I-0.037998 J0.246496
G03 X1993.904045 Y134.988773 Z-0.125000 I-3.348364 J-0.000000
G03 X1992.665826 Y135.971179 Z-0.125000 I-2.028896 J-1.285684
G03 X1991.796616 Y136.067949 Z-0.125000 I-0.646445 J-1.854402
G03 X1991.601876 Y135.849711 Z-0.125000 I0.024916 J-0.218239
G02 X1991.153865 Y134.745527 Z-0.125000 I-1.584712 J-0.000000
G02 X1990.094019 Y134.297488 Z-0.125000 I-1.059846 J1.029528
G02 X1989.889971 Y134.479219 Z-0.125000 I0.000000 J0.205419
G02 X1989.528841 Y139.165822 Z-0.125000 I60.390916 J7.010686
G03 X1987.548766 Y152.707626 Z-0.125000 I-64.053918 J-2.450264
G03 X1985.403768 Y155.177474 Z-0.125000 I-3.546506 J-0.913685
G02 X1984.728774 Y155.654555 Z-0.125000 I0.716526 J1.729817
G02 X1984.546320 Y156.129917 Z-0.125000 I0.528026 J0.475362
G02 X1984.969604 Y164.237525 Z-0.125000 I77.858547 J-0.000000
G02 X1985.828428 Y168.375342 Z-0.125000 I20.981727 J-2.196824
G02 X1986.030700 Y168.477634 Z-0.125000 I0.151057 J-0.047567
G02 X1987.273631 Y167.881453 Z-0.125000 I-1.894519 J-5.543471
G03 X1988.668926 Y167.245264 Z-0.125000 I2.998618 J4.728414
G03 X1990.104913 Y167.035266 Z-0.125000 I1.435987 J4.804708
G03 X1991.569728 Y167.069658 Z-0.125000 I-0.000000 J31.212026
G01 X1991.606617 Y167.105822 Z-0.125000
G02 X1991.612068 Y167.176352 Z-0.125000 I7.802573 J-0.567460
G02 X1992.201626 Y174.373044 Z-0.125000 I37346.698902 J-3055.771533
G03 X1992.605813 Y181.578364 Z-0.125000 I-139.392539 J11.433299
G03 X1993.012507 Y201.184155 Z-0.125000 I-1032.308405 J31.220891
G02 X1993.927254 Y226.937788 Z-0.125000 I531.172833 J-5.973735
G02 X1995.331386 Y239.939334 Z-0.125000 I136.547254 J-8.170144
G01 X1995.942482 Y243.840069 Z-0.125000
G01 X2001.603832 Y243.740501 Z-0.125000
G02 X2008.913609 Y242.561163 Z-0.125000 I-0.458792 J-26.087096
G02 X2012.638946 Y240.298716 Z-0.125000 I-2.691857 J-8.630691
G02 X2016.053313 Y235.331011 Z-0.125000 I-11.988333 J-11.896955
G02 X2018.935748 Y226.301933 Z-0.125000 I-38.080879 J-17.131536
G02 X2020.194905 Y217.619395 Z-0.125000 I-83.990742 J-16.613057
G02 X2020.668536 Y207.675267 Z-0.125000 I-109.771281 J-10.211663
G03 X2020.754386 Y205.000395 Z-0.125000 I45.219400 J0.112508
G03 X2020.938876 Y203.300822 Z-0.125000 I18.374711 J1.134794
G02 X2021.479867 Y198.030639 Z-0.125000 I-50.085346 J-7.804178
G02 X2022.067257 Y180.757193 Z-0.125000 I-538.819871 J-26.969495
G03 X2022.531749 Y168.628451 Z-0.125000 I298.814338 J5.370369
G03 X2022.890894 Y166.714662 Z-0.125000 I7.678490 J0.450366
G02 X2023.233423 Y164.825620 Z-0.125000 I-6.886448 J-2.224254
G02 X2023.078798 Y162.662374 Z-0.125000 I-9.224928 J-0.427767
G02 X2020.590580 Y154.148541 Z-0.125000 I-45.782143 J8.759586
G02 X2015.125268 Y142.727748 Z-0.125000 I-88.210787 J35.194356
G01 X2013.594353 Y140.010259 Z-0.125000
G01 X2014.328667 Y138.071082 Z-0.125000
G02 X2014.789844 Y136.084494 Z-0.125000 I-7.143232 J-2.705090
G02 X2014.974110 Y131.239949 Z-0.125000 I-42.972628 J-4.060270
G01 X2014.885209 Y126.347966 Z-0.125000
G01 X2013.963528 Y125.524949 Z-0.125000
G02 X2012.932051 Y124.989753 Z-0.125000 I-1.562438 J1.749692
G02 X2010.421893 Y124.701933 Z-0.125000 I-2.510158 J10.801978
G01 X2007.801940 Y124.701933 Z-0.125000
G01 X2007.448597 Y125.679099 Z-0.125000
G01 X2007.448597 Y125.679099 Z-0.125000
G00 Z5.000000

(Change tool to Default tool)

G00 Z5.000000
G00 X1238.068538 Y127.770422

G01 Z-0.125000 F100.0(Penetrate)
G02 X1225.746397 Y133.301359 Z-0.125000 I29.565136 J82.358375 F400.000000
G02 X1218.737445 Y138.309955 Z-0.125000 I17.040126 J31.254101
G02 X1217.401416 Y139.979213 Z-0.125000 I4.706396 J5.136162
G02 X1217.507295 Y140.453969 Z-0.125000 I0.312740 J0.179438
G02 X1218.164044 Y140.843398 Z-0.125000 I2.893139 J-4.130601
G02 X1219.599831 Y141.489329 Z-0.125000 I9.513089 J-19.227172
G01 X1221.063436 Y142.084197 Z-0.125000
G01 X1219.731149 Y144.107702 Z-0.125000
G02 X1217.891520 Y147.773850 Z-0.125000 I14.650689 J9.646166
G02 X1217.018683 Y151.587522 Z-0.125000 I15.001528 J5.440126
G01 X1216.832219 Y153.407743 Z-0.125000
G01 X1215.402340 Y153.737802 Z-0.125000
G02 X1212.284710 Y154.771040 Z-0.125000 I3.969748 J17.198169
G02 X1204.010384 Y158.732514 Z-0.125000 I55.292358 J126.111108
G03 X1199.358180 Y160.755894 Z-0.125000 I-16.843094 J-32.366130
G03 X1197.307606 Y161.108600 Z-0.125000 I-2.050575 J-5.784504
G01 X1195.170760 Y161.108600 Z-0.125000
G01 X1195.170760 Y158.286377 Z-0.125000
G01 X1195.170760 Y155.464155 Z-0.125000
G01 X1193.572677 Y155.464155 Z-0.125000
G02 X1192.039700 Y155.686074 Z-0.125000 I0.000000 J5.405732
G02 X1190.608638 Y156.340681 Z-0.125000 I1.582368 J5.350828
G02 X1186.893788 Y160.020026 Z-0.125000 I6.770701 J10.551058
G02 X1184.339777 Y165.906377 Z-0.125000 I15.791540 J10.348995
G02 X1183.981992 Y170.122828 Z-0.125000 I13.404790 J3.260864
G02 X1187.950020 Y217.902125 Z-0.125000 I1766.707426 J-122.669075
G01 X1192.336459 Y263.265622 Z-0.125000
G01 X1191.622916 Y268.702125 Z-0.125000
G02 X1191.031040 Y274.135531 Z-0.125000 I123.204759 J16.169986
G02 X1191.073599 Y275.036068 Z-0.125000 I3.368037 J0.292102
G02 X1192.222333 Y278.114349 Z-0.125000 I9.219026 J-1.686820
G02 X1194.829441 Y281.397047 Z-0.125000 I13.137010 J-7.756743
G02 X1199.504132 Y284.264963 Z-0.125000 I9.016227 J-9.452588
G02 X1207.228366 Y285.766213 Z-0.125000 I8.937412 J-25.362782
G01 X1210.960388 Y285.934757 Z-0.125000
G01 X1215.081312 Y282.012235 Z-0.125000
G03 X1219.223278 Y278.113148 Z-0.125000 I354.133115 J372.042912
G03 X1220.265509 Y277.185896 Z-0.125000 I21.049011 J22.609736
G01 X1221.328781 Y276.282079 Z-0.125000
G01 X1229.345896 Y279.532066 Z-0.125000
G02 X1237.393912 Y282.698907 Z-0.125000 I158.463099 J-390.898662
G02 X1241.878538 Y284.315789 Z-0.125000 I45.702584 J-119.734082
G01 X1246.394094 Y285.849525 Z-0.125000
G01 X1252.885205 Y285.849525 Z-0.125000
G02 X1263.668839 Y284.900147 Z-0.125000 I-0.000000 J-61.718345
G02 X1270.388119 Y282.744404 Z-0.125000 I-4.586130 J-25.844201
G02 X1282.890188 Y273.521139 Z-0.125000 I-17.686319 J-37.058539
G02 X1297.969613 Y252.831302 Z-0.125000 I-81.979678 J-75.589557
G03 X1299.808638 Y249.587592 Z-0.125000 I1620.134396 J916.394019
G03 X1301.979116 Y245.775747 Z-0.125000 I2238.203930 J1271.916928
G02 X1308.560799 Y231.796321 Z-0.125000 I-85.630602 J-48.855006
G02 X1310.919041 Y222.138281 Z-0.125000 I-38.175876 J-14.438486
G02 X1311.589301 Y209.038077 Z-0.125000 I-98.351138 J-11.599299
G02 X1310.481653 Y193.282413 Z-0.125000 I-143.564747 J2.176066
G02 X1302.454296 Y166.655069 Z-0.125000 I-82.710053 J10.410958
G02 X1286.610761 Y145.150062 Z-0.125000 I-68.891696 J34.166300
G02 X1277.098426 Y137.498004 Z-0.125000 I-50.285101 J52.771356
G02 X1263.557156 Y129.593803 Z-0.125000 I-67.258305 J99.673795
G01 X1257.577996 Y126.608231 Z-0.125000
G01 X1253.454334 Y127.678954 Z-0.125000
G03 X1249.310234 Y128.457826 Z-0.125000 I-7.768468 J-29.919176
G03 X1246.823213 Y128.461866 Z-0.125000 I-1.260865 J-10.679409
G03 X1244.364472 Y128.007482 Z-0.125000 I2.083641 J-18.154387
G03 X1242.786786 Y127.426026 Z-0.125000 I2.054535 J-8.005773
G02 X1241.252820 Y126.708401 Z-0.125000 I-21.336437 J43.609580
G02 X1241.144845 Y126.692531 Z-0.125000 I-0.082197 J0.183996
G02 X1241.034619 Y126.718806 Z-0.125000 I0.071905 J0.545981
G02 X1238.068538 Y127.770902 Z-0.125000 I137.422551 J392.130357
G01 X1238.068538 Y127.770422 Z-0.125000
G00 Z5.000000

(Change tool to Default tool)

G00 Z5.000000
G00 X1232.825188 Y160.050266

G01 Z-0.125000 F100.0(Penetrate)
G03 X1232.958690 Y160.969061 Z-0.125000 I-38.332764 J6.038885 F400.000000
G03 X1233.595288 Y165.835822 Z-0.125000 I-1075.762066 J143.190372
G01 X1234.220946 Y170.704155 Z-0.125000
G01 X1235.791965 Y170.715726 Z-0.125000
G03 X1249.228348 Y171.617971 Z-0.125000 I-0.822216 J112.744123
G03 X1251.460209 Y172.712928 Z-0.125000 I-0.486105 J3.812923
G03 X1251.505704 Y172.886382 Z-0.125000 I-0.125593 J0.125635
G03 X1250.936348 Y174.587223 Z-0.125000 I-17.115803 J-4.783797
G02 X1251.046900 Y176.008998 Z-0.125000 I1.522794 J0.596778
G02 X1252.132180 Y176.634237 Z-0.125000 I1.089368 J-0.636382
G03 X1256.868227 Y177.722204 Z-0.125000 I-0.035465 J11.006652
G03 X1262.085170 Y181.422193 Z-0.125000 I-8.266141 J17.183073
G03 X1266.995423 Y188.657088 Z-0.125000 I-16.444320 J16.444320
G03 X1271.197589 Y202.551889 Z-0.125000 I-58.856764 J25.382713
G03 X1271.781088 Y208.128155 Z-0.125000 I-36.350878 J6.622404
G03 X1271.493556 Y213.001336 Z-0.125000 I-27.999000 J0.793050
G03 X1262.272064 Y230.698068 Z-0.125000 I-30.094766 J-4.430960
G03 X1237.970974 Y244.623574 Z-0.125000 I-41.119978 J-43.591159
G03 X1226.495933 Y247.516230 Z-0.125000 I-44.240666 J-151.294000
G03 X1225.603206 Y247.251769 Z-0.125000 I-0.202811 J-0.954377
G03 X1225.441777 Y247.015226 Z-0.125000 I0.545919 J-0.545919
G03 X1224.676783 Y245.133550 Z-0.125000 I35.566218 J-15.555751
G01 X1223.957427 Y243.222426 Z-0.125000
G01 X1223.957427 Y231.022777 Z-0.125000
G02 X1223.726603 Y218.830550 Z-0.125000 I-322.114081 J-0.000000
G02 X1222.843948 Y201.607545 Z-0.125000 I-645.743782 J24.459349
G03 X1221.758427 Y184.390389 Z-0.125000 I5449.084222 J-352.200860
G03 X1221.386862 Y177.900878 Z-0.125000 I773.838475 J-47.562425
G03 X1221.320915 Y171.447685 Z-0.125000 I75.357089 J-3.997032
G03 X1221.657993 Y169.575323 Z-0.125000 I6.554338 J0.213443
G03 X1222.948550 Y167.857673 Z-0.125000 I3.231142 J1.084064
G03 X1224.168924 Y167.836157 Z-0.125000 I0.626319 J0.904247
G02 X1225.635121 Y168.471750 Z-0.125000 I2.684135 J-4.182885
G02 X1227.699863 Y168.728656 Z-0.125000 I2.064742 J-8.168656
G02 X1229.587166 Y168.418781 Z-0.125000 I0.000000 J-5.902283
G02 X1229.999325 Y167.952545 Z-0.125000 I-0.199742 J-0.591869
G02 X1231.127057 Y161.620943 Z-0.125000 I-120.068613 J-24.651847
G02 X1231.295910 Y159.374175 Z-0.125000 I-14.863347 J-2.246769
G03 X1231.396071 Y159.233267 Z-0.125000 I0.149196 J0.000000
G03 X1231.988681 Y159.133100 Z-0.125000 I0.592610 J1.702930
G03 X1232.491732 Y159.355027 Z-0.125000 I-0.000000 J0.681106
G03 X1232.825894 Y160.050323 Z-0.125000 I-0.990191 J0.903838
G01 X1232.825188 Y160.050266 Z-0.125000
G00 Z5.000000

(Change tool to Default tool)

G00 Z5.000000
G00 X1417.844095 Y130.812185

G01 Z-0.125000 F100.0(Penetrate)
G02 X1395.878705 Y143.883993 Z-0.125000 I5.150603 J33.645709 F400.000000
G02 X1374.086245 Y188.484155 Z-0.125000 I102.266931 J77.593685
G02 X1372.685436 Y195.737704 Z-0.125000 I51.655753 J13.737817
G02 X1371.516611 Y209.509711 Z-0.125000 I185.718806 J22.697486
G01 X1371.193156 Y216.283044 Z-0.125000
G01 X1372.091131 Y222.633044 Z-0.125000
G02 X1378.596794 Y258.091087 Z-0.125000 I435.708081 J-61.615686
G02 X1382.846620 Y270.187490 Z-0.125000 I54.289628 J-12.278814
G02 X1385.479211 Y274.317989 Z-0.125000 I19.330843 J-9.416399
G02 X1387.429429 Y275.836394 Z-0.125000 I4.251907 J-3.449472
G03 X1388.665193 Y276.633619 Z-0.125000 I-2.229793 J4.812742
G03 X1389.594525 Y277.704987 Z-0.125000 I-3.222971 J3.734433
G02 X1392.178328 Y280.714007 Z-0.125000 I12.026097 J-7.712789
G02 X1395.758456 Y283.133306 Z-0.125000 I11.206764 J-12.725381
G02 X1401.838663 Y285.075726 Z-0.125000 I9.163369 J-18.195972
G02 X1413.038923 Y285.778942 Z-0.125000 I9.530761 J-62.252376
G02 X1418.528733 Y285.455982 Z-0.125000 I-2.260570 J-85.246665
G02 X1421.504630 Y285.006358 Z-0.125000 I-2.321658 J-25.439246
G02 X1431.895025 Y281.413805 Z-0.125000 I-9.217834 J-43.481695
G02 X1443.244095 Y274.319901 Z-0.125000 I-29.058877 J-59.114651
G02 X1449.191664 Y269.157811 Z-0.125000 I-44.423302 J-57.190210
G02 X1455.090288 Y262.851066 Z-0.125000 I-60.564146 J-62.556765
G02 X1461.069278 Y253.607177 Z-0.125000 I-32.855054 J-27.806364
G02 X1463.866807 Y244.489914 Z-0.125000 I-29.141948 J-13.929703
G02 X1464.013149 Y242.213539 Z-0.125000 I-13.230724 J-1.993462
G02 X1463.732525 Y238.139914 Z-0.125000 I-42.868158 J0.906623
G02 X1460.122423 Y218.423155 Z-0.125000 I-154.019325 J18.011777
G02 X1456.417890 Y208.979218 Z-0.125000 I-38.525663 J9.663748
G01 X1455.470075 Y207.251933 Z-0.125000
G01 X1453.995718 Y207.251933 Z-0.125000
G01 X1452.521332 Y207.251933 Z-0.125000
G01 X1450.611930 Y212.473044 Z-0.125000
G03 X1443.727201 Y227.890831 Z-0.125000 I-114.386072 J-41.832414
G03 X1439.004496 Y234.268813 Z-0.125000 I-23.747494 J-12.646807
G03 X1435.465285 Y237.026611 Z-0.125000 I-12.881460 J-12.881460
G03 X1433.447992 Y237.588056 Z-0.125000 I-2.034823 J-3.406367
G02 X1432.819440 Y237.831540 Z-0.125000 I0.004359 J0.944298
G02 X1431.597546 Y239.259320 Z-0.125000 I4.917680 J5.445287
G03 X1429.148190 Y241.298650 Z-0.125000 I-4.555837 J-2.981253
G03 X1418.707046 Y244.667770 Z-0.125000 I-24.960392 J-59.490555
G03 X1415.143970 Y245.320600 Z-0.125000 I-8.906005 J-38.558153
G03 X1412.675138 Y245.489686 Z-0.125000 I-2.493500 J-18.299434
G01 X1410.187293 Y245.493073 Z-0.125000
G01 X1408.690951 Y243.996759 Z-0.125000
G03 X1404.705110 Y236.764174 Z-0.125000 I10.502555 J-10.502485
G03 X1401.862979 Y213.743073 Z-0.125000 I114.307047 J-25.798071
G03 X1401.950850 Y206.704561 Z-0.125000 I97.250281 J-2.305704
G03 X1402.433463 Y202.030850 Z-0.125000 I43.294781 J2.108901
G03 X1404.870876 Y190.953528 Z-0.125000 I94.261758 J14.934186
G03 X1407.698883 Y183.443187 Z-0.125000 I45.968016 J13.021573
G03 X1414.145586 Y174.724083 Z-0.125000 I25.595767 J12.182095
G03 X1421.149792 Y171.119840 Z-0.125000 I10.105199 J11.029822
G03 X1424.793284 Y170.803210 Z-0.125000 I3.111741 J14.685762
G03 X1426.141315 Y171.296765 Z-0.125000 I-0.081928 J2.311461
G03 X1428.561371 Y174.489260 Z-0.125000 I-4.897194 J6.225798
G03 X1433.354351 Y188.696725 Z-0.125000 I-102.509556 J42.494465
G02 X1433.904256 Y189.711289 Z-0.125000 I2.357518 J-0.621492
G02 X1435.141326 Y190.671067 Z-0.125000 I3.327408 J-3.011611
G02 X1436.684598 Y191.161986 Z-0.125000 I2.147743 J-4.080525
G02 X1441.700904 Y191.538421 Z-0.125000 I5.832165 J-44.107010
G01 X1446.789935 Y191.631752 Z-0.125000
G01 X1447.998016 Y186.666108 Z-0.125000
G02 X1449.125600 Y181.686235 Z-0.125000 I-155.279413 J-37.777260
G02 X1449.400096 Y179.979473 Z-0.125000 I-17.916012 J-3.756855
G01 X1449.594095 Y178.258482 Z-0.125000
G01 X1451.675343 Y180.125777 Z-0.125000
G02 X1453.838863 Y181.778145 Z-0.125000 I11.514762 J-12.834218
G02 X1454.568121 Y181.993072 Z-0.125000 I0.729258 J-1.129738
G01 X1455.379651 Y181.993072 Z-0.125000
G01 X1455.379651 Y175.181583 Z-0.125000
G03 X1455.575723 Y168.382433 Z-0.125000 I117.984249 J-0.000000
G03 X1456.102619 Y162.656984 Z-0.125000 I84.159484 J4.857983
G01 X1456.825560 Y156.943874 Z-0.125000
G01 X1455.511985 Y153.593473 Z-0.125000
G02 X1447.958340 Y140.862279 Z-0.125000 I-42.765091 J16.766839
G02 X1438.869651 Y133.727682 Z-0.125000 I-21.452022 J17.971214
G02 X1429.107734 Y130.732705 Z-0.125000 I-14.166161 J28.766980
G02 X1417.844095 Y130.812213 Z-0.125000 I-5.359281 J38.649370
G01 X1417.844095 Y130.812185 Z-0.125000
G00 Z5.000000

(Change tool to Default tool)

G00 Z5.000000
G00 X1736.472986 Y250.248630

G01 Z-0.125000 F100.0(Penetrate)
G02 X1732.401212 Y251.957005 Z-0.125000 I9.001979 J27.162041 F400.000000
G02 X1730.014020 Y253.566152 Z-0.125000 I5.557209 J10.819491
G02 X1728.018569 Y256.034849 Z-0.125000 I5.814249 J6.740476
G02 X1727.444640 Y258.263600 Z-0.125000 I4.104955 J2.245344
G03 X1727.205659 Y258.802754 Z-0.125000 I-0.734614 J-0.003078
G03 X1726.595208 Y259.039711 Z-0.125000 I-0.610451 J-0.667846
G01 X1725.748541 Y259.039711 Z-0.125000
G01 X1725.748541 Y257.064156 Z-0.125000
G01 X1725.748541 Y255.088600 Z-0.125000
G01 X1724.488475 Y255.088600 Z-0.125000
G02 X1723.339828 Y255.271205 Z-0.125000 I0.000000 J3.704004
G02 X1722.974381 Y255.582489 Z-0.125000 I0.195675 J0.599880
G02 X1722.775587 Y256.097275 Z-0.125000 I2.306804 J1.186596
G02 X1720.645540 Y264.268188 Z-0.125000 I586.649075 J157.294558
G01 X1718.570727 Y272.459972 Z-0.125000
G01 X1720.221812 Y275.415911 Z-0.125000
G02 X1724.595943 Y282.767694 Z-0.125000 I136.661360 J-76.333029
G02 X1726.209946 Y284.881898 Z-0.125000 I12.790871 J-8.091497
G02 X1727.184051 Y285.648185 Z-0.125000 I2.798912 J-2.555699
G02 X1727.973835 Y285.850824 Z-0.125000 I0.789784 J-1.437768
G01 X1728.852986 Y285.850824 Z-0.125000
G01 X1728.852986 Y283.875268 Z-0.125000
G03 X1729.144612 Y282.191430 Z-0.125000 I5.007023 J0.000000
G03 X1729.558541 Y281.899713 Z-0.125000 I0.413930 J0.147812
G01 X1730.264097 Y281.899713 Z-0.125000
G01 X1730.264097 Y284.863046 Z-0.125000
G01 X1730.264097 Y287.826379 Z-0.125000
G01 X1731.604652 Y287.814808 Z-0.125000
G02 X1732.719737 Y287.451657 Z-0.125000 I-0.016916 J-1.945500
G02 X1733.614837 Y286.376688 Z-0.125000 I-1.610427 J-2.251109
G03 X1735.387096 Y283.817295 Z-0.125000 I8.488417 J3.984527
G03 X1741.964268 Y277.807490 Z-0.125000 I55.009031 J53.598319
G02 X1744.740350 Y275.546430 Z-0.125000 I-954.030842 J-1174.173461
G02 X1745.456204 Y274.956481 Z-0.125000 I-63.981299 J-78.365317
G02 X1745.900214 Y274.218631 Z-0.125000 I-0.836962 J-1.006172
G02 X1746.815894 Y268.465369 Z-0.125000 I-58.628431 J-12.280708
G02 X1747.284013 Y260.844949 Z-0.125000 I-79.365624 J-8.699987
G02 X1746.938745 Y259.381257 Z-0.125000 I-3.097571 J-0.041887
G02 X1745.267127 Y256.793476 Z-0.125000 I-14.174115 J7.322201
G02 X1740.240342 Y250.930535 Z-0.125000 I-78.563433 J62.272536
G01 X1738.871875 Y249.453610 Z-0.125000
G01 X1736.472986 Y250.248630 Z-0.125000
G01 X1736.472986 Y250.248630 Z-0.125000
G00 Z5.000000

(Change tool to Default tool)

G00 Z5.000000
G00 X2013.897432 Y250.248630

G01 Z-0.125000 F100.0(Penetrate)
G02 X2009.825658 Y251.957005 Z-0.125000 I9.001979 J27.162041 F400.000000
G02 X2007.438466 Y253.566152 Z-0.125000 I5.557209 J10.819491
G02 X2005.443015 Y256.034849 Z-0.125000 I5.814249 J6.740476
G02 X2004.869086 Y258.263600 Z-0.125000 I4.104955 J2.245344
G03 X2004.630105 Y258.802754 Z-0.125000 I-0.734614 J-0.003078
G03 X2004.019654 Y259.039711 Z-0.125000 I-0.610451 J-0.667846
G01 X2003.172987 Y259.039711 Z-0.125000
G01 X2003.172987 Y257.064156 Z-0.125000
G01 X2003.172987 Y255.088600 Z-0.125000
G01 X2001.912921 Y255.088600 Z-0.125000
G02 X2000.764274 Y255.271205 Z-0.125000 I-0.000000 J3.704004
G02 X2000.398827 Y255.582489 Z-0.125000 I0.195675 J0.599880
G02 X2000.200033 Y256.097275 Z-0.125000 I2.306804 J1.186596
G02 X1998.069986 Y264.268188 Z-0.125000 I586.649075 J157.294558
G01 X1995.995173 Y272.459972 Z-0.125000
G01 X1997.646258 Y275.415911 Z-0.125000
G02 X2002.020389 Y282.767694 Z-0.125000 I136.661360 J-76.333029
G02 X2003.634392 Y284.881898 Z-0.125000 I12.790871 J-8.091497
G02 X2004.608497 Y285.648185 Z-0.125000 I2.798912 J-2.555699
G02 X2005.398281 Y285.850824 Z-0.125000 I0.789784 J-1.437768
G01 X2006.277432 Y285.850824 Z-0.125000
G01 X2006.277432 Y283.875268 Z-0.125000
G03 X2006.569058 Y282.191430 Z-0.125000 I5.007023 J0.000000
G03 X2006.982987 Y281.899713 Z-0.125000 I0.413930 J0.147812
G01 X2007.688543 Y281.899713 Z-0.125000
G01 X2007.688543 Y284.863046 Z-0.125000
G01 X2007.688543 Y287.826379 Z-0.125000
G01 X2009.029098 Y287.814808 Z-0.125000
G02 X2010.144183 Y287.451657 Z-0.125000 I-0.016916 J-1.945500
G02 X2011.039283 Y286.376688 Z-0.125000 I-1.610427 J-2.251109
G03 X2012.811542 Y283.817295 Z-0.125000 I8.488417 J3.984527
G03 X2019.388714 Y277.807490 Z-0.125000 I55.009031 J53.598319
G02 X2022.164796 Y275.546430 Z-0.125000 I-954.030848 J-1174.173455
G02 X2022.880650 Y274.956481 Z-0.125000 I-63.981299 J-78.365317
G02 X2023.324660 Y274.218631 Z-0.125000 I-0.836962 J-1.006172
G02 X2024.240340 Y268.465369 Z-0.125000 I-58.628431 J-12.280708
G02 X2024.708459 Y260.844949 Z-0.125000 I-79.365624 J-8.699987
G02 X2024.363191 Y259.381257 Z-0.125000 I-3.097571 J-0.041887
G02 X2022.691573 Y256.793476 Z-0.125000 I-14.174115 J7.322201
G02 X2017.664788 Y250.930535 Z-0.125000 I-78.563433 J62.272536
G01 X2016.296321 Y249.453610 Z-0.125000
G01 X2013.897432 Y250.248630 Z-0.125000
G01 X2013.897432 Y250.248630 Z-0.125000
G00 Z5.000000

(Change tool to Default tool)

G00 Z5.000000
G00 X1264.839743 Y323.205362

G01 Z-0.125000 F100.0(Penetrate)
G02 X1248.123758 Y333.311250 Z-0.125000 I33.481549 J74.259053 F400.000000
G02 X1235.482959 Y346.176032 Z-0.125000 I42.795138 J54.692797
G02 X1231.331436 Y352.307495 Z-0.125000 I57.734537 J43.562404
G02 X1229.073749 Y356.772630 Z-0.125000 I28.256427 J17.090515
G02 X1223.355801 Y373.087644 Z-0.125000 I144.741032 J59.887109
G02 X1218.023648 Y394.929723 Z-0.125000 I254.486210 J73.697810
G01 X1216.840770 Y400.856390 Z-0.125000
G01 X1217.017639 Y407.158949 Z-0.125000
G02 X1226.317550 Y455.317650 Z-0.125000 I151.333525 J-4.246664
G02 X1242.019649 Y474.921605 Z-0.125000 I37.246178 J-13.742519
G02 X1245.856258 Y477.007798 Z-0.125000 I15.695592 J-24.293996
G02 X1252.461872 Y479.615807 Z-0.125000 I31.360773 J-69.761724
G02 X1262.841769 Y482.294814 Z-0.125000 I22.550075 J-65.922866
G02 X1272.228688 Y483.122503 Z-0.125000 I9.404056 J-53.009567
G02 X1279.117914 Y482.531155 Z-0.125000 I0.019310 J-40.200599
G02 X1282.343956 Y481.369226 Z-0.125000 I-1.692597 J-9.758854
G02 X1286.859529 Y477.705842 Z-0.125000 I-8.957161 J-15.655498
G02 X1292.525800 Y469.930279 Z-0.125000 I-36.885458 J-32.831838
G01 X1293.730635 Y467.884168 Z-0.125000
G01 X1295.079685 Y467.884168 Z-0.125000
G02 X1299.831017 Y467.597551 Z-0.125000 I-0.000000 J-39.525329
G02 X1304.672983 Y466.722542 Z-0.125000 I-5.077089 J-41.928969
G02 X1309.764630 Y464.880111 Z-0.125000 I-5.784940 J-23.943685
G02 X1313.248588 Y462.502247 Z-0.125000 I-6.600123 J-13.411468
G02 X1316.146968 Y458.732836 Z-0.125000 I-9.221463 J-10.089599
G02 X1316.756610 Y455.775057 Z-0.125000 I-4.888758 J-2.549362
G01 X1316.667428 Y454.574314 Z-0.125000
G01 X1315.470439 Y455.443671 Z-0.125000
G03 X1314.260821 Y456.274316 Z-0.125000 I-16.325813 J-22.478225
G03 X1314.129883 Y456.313057 Z-0.125000 I-0.130938 J-0.201904
G03 X1314.052364 Y456.247001 Z-0.125000 I0.000000 J-0.078513
G03 X1313.986317 Y455.419683 Z-0.125000 I5.148478 J-0.827318
G03 X1314.250856 Y454.634081 Z-0.125000 I1.298769 J0.000000
G03 X1317.041175 Y451.398016 Z-0.125000 I27.480321 J20.874071
G02 X1329.299869 Y432.964839 Z-0.125000 I-42.675872 J-41.673732
G02 X1335.425836 Y407.941523 Z-0.125000 I-74.398980 J-31.475149
G02 X1335.671774 Y404.300372 Z-0.125000 I-145.335065 J-11.645412
G02 X1335.717428 Y402.638426 Z-0.125000 I-30.227379 J-1.661947
G03 X1335.915553 Y401.039964 Z-0.125000 I6.547200 J0.000000
G03 X1336.352428 Y400.116178 Z-0.125000 I2.555662 J0.643421
G02 X1336.730101 Y399.170121 Z-0.125000 I-1.610680 J-1.191410
G02 X1337.085895 Y394.172070 Z-0.125000 I-48.108587 J-5.936373
G02 X1335.794355 Y380.491167 Z-0.125000 I-60.660847 J-1.174753
G02 X1331.649561 Y368.364625 Z-0.125000 I-51.634453 J10.876802
G02 X1326.382526 Y359.560487 Z-0.125000 I-52.499127 J25.429802
G02 X1319.091067 Y351.037846 Z-0.125000 I-56.452058 J40.916595
G02 X1308.670059 Y342.259683 Z-0.125000 I-58.267936 J58.598125
G02 X1293.948539 Y333.183017 Z-0.125000 I-77.086284 J108.550076
G02 X1290.915316 Y331.811545 Z-0.125000 I-12.410769 J23.408384
G02 X1288.622300 Y331.167386 Z-0.125000 I-4.800624 J12.685490
G02 X1282.647828 Y330.266484 Z-0.125000 I-15.396773 J81.845333
G02 X1275.738037 Y329.700254 Z-0.125000 I-12.406122 J108.950011
G01 X1271.935205 Y329.509387 Z-0.125000
G01 X1271.935205 Y328.564563 Z-0.125000
G01 X1271.935205 Y327.619712 Z-0.125000
G01 X1275.462983 Y327.619712 Z-0.125000
G02 X1278.754496 Y327.383445 Z-0.125000 I0.000000 J-23.045742
G02 X1278.990761 Y327.110639 Z-0.125000 I-0.039367 J-0.272806
G02 X1278.536290 Y326.057339 Z-0.125000 I-1.447822 J0.000000
G02 X1275.976119 Y324.267562 Z-0.125000 I-7.365687 J7.810207
G02 X1273.429661 Y323.277837 Z-0.125000 I-6.554480 J13.093242
G02 X1268.548538 Y322.153661 Z-0.125000 I-13.472688 J47.338919
G02 X1267.588638 Y322.202101 Z-0.125000 I-0.374564 J2.112582
G02 X1264.839743 Y323.205362 Z-0.125000 I5.426260 J19.135291
G01 X1264.839743 Y323.205362 Z-0.125000
G00 Z5.000000

(Change tool to Default tool)

G00 Z5.000000
G00 X1282.095205 Y362.756390

G01 Z-0.125000 F100.0(Penetrate)
G02 X1282.198923 Y363.136771 Z-0.125000 I0.749375 J0.000000 F400.000000
G02 X1282.702209 Y363.786727 Z-0.125000 I2.806887 J-1.653646
G01 X1283.309212 Y364.393730 Z-0.125000
G01 X1283.619431 Y363.437392 Z-0.125000
G03 X1284.049926 Y362.617264 Z-0.125000 I2.608454 J0.846159
G03 X1284.423539 Y362.386368 Z-0.125000 I0.489687 J0.374644
G03 X1284.722115 Y362.527998 Z-0.125000 I0.052647 J0.274548
G03 X1284.917427 Y363.300147 Z-0.125000 I-1.428654 J0.772149
G03 X1284.751444 Y364.142640 Z-0.125000 I-2.221136 J0.000000
G03 X1284.504028 Y364.308612 Z-0.125000 I-0.247416 J-0.101426
G02 X1283.841097 Y364.660682 Z-0.125000 I0.000000 J0.800169
G02 X1283.515037 Y365.771737 Z-0.125000 I1.577578 J1.066342
G02 X1283.644795 Y366.080858 Z-0.125000 I0.458766 J-0.010778
G02 X1284.836514 Y367.130834 Z-0.125000 I7.384247 J-7.179812
G03 X1289.257531 Y370.935025 Z-0.125000 I-26.798883 J35.615178
G03 X1294.469972 Y376.585279 Z-0.125000 I-54.236554 J55.263415
G03 X1300.503952 Y385.253094 Z-0.125000 I-46.486638 J38.795173
G03 X1304.669145 Y394.365279 Z-0.125000 I-47.268155 J27.114393
G03 X1306.822052 Y402.485660 Z-0.125000 I-51.196155 J17.918906
G03 X1308.222153 Y413.709947 Z-0.125000 I-96.716544 J17.763751
G02 X1308.617129 Y415.956924 Z-0.125000 I10.612429 J-0.707260
G02 X1308.997361 Y416.391058 Z-0.125000 I0.653785 J-0.189033
G03 X1310.139506 Y417.571361 Z-0.125000 I-0.872171 J1.986737
G03 X1311.071497 Y421.571868 Z-0.125000 I-12.598702 J5.043912
G01 X1311.251499 Y423.906072 Z-0.125000
G01 X1309.836041 Y423.035106 Z-0.125000
G02 X1308.406648 Y422.213283 Z-0.125000 I-14.499913 J23.565669
G02 X1308.211034 Y422.164168 Z-0.125000 I-0.195614 J0.364984
G02 X1308.025297 Y422.228116 Z-0.125000 I0.000000 J0.301710
G02 X1305.996662 Y423.894021 Z-0.125000 I33.159436 J42.447619
G01 X1303.991755 Y425.623846 Z-0.125000
G01 X1303.752515 Y424.906070 Z-0.125000
G02 X1303.011974 Y423.813441 Z-0.125000 I-2.314763 J0.771588
G02 X1302.586486 Y423.921425 Z-0.125000 I-0.174117 J0.206192
G03 X1301.319924 Y426.331862 Z-0.125000 I-11.414868 J-4.459953
G03 X1298.493643 Y429.966907 Z-0.125000 I-29.014365 J-19.642690
G03 X1295.161104 Y432.653940 Z-0.125000 I-9.705061 J-8.626436
G03 X1293.768707 Y432.628319 Z-0.125000 I-0.674403 J-1.197303
G02 X1292.364485 Y431.864322 Z-0.125000 I-8.110662 J13.234879
G02 X1291.632482 Y431.604896 Z-0.125000 I-1.583157 J3.304646
G02 X1291.043911 Y431.706840 Z-0.125000 I-0.175695 J0.735656
G02 X1290.679022 Y432.226096 Z-0.125000 I0.466057 J0.715339
G03 X1289.832048 Y434.019922 Z-0.125000 I-4.644429 J-1.096050
G03 X1287.942596 Y435.821889 Z-0.125000 I-6.578335 J-5.006135
G03 X1284.706528 Y437.560641 Z-0.125000 I-9.484293 J-13.770861
G03 X1280.190205 Y438.945017 Z-0.125000 I-10.330718 J-25.643354
G01 X1279.272983 Y439.142346 Z-0.125000
G01 X1279.272983 Y437.219962 Z-0.125000
G01 X1279.272983 Y435.297577 Z-0.125000
G01 X1276.375379 Y438.185303 Z-0.125000
G01 X1273.477804 Y441.073057 Z-0.125000
G01 X1272.071490 Y441.070235 Z-0.125000
G03 X1267.707050 Y440.710434 Z-0.125000 I0.036840 J-27.097431
G03 X1263.673065 Y439.686979 Z-0.125000 I3.966279 J-24.095017
G03 X1255.784791 Y433.870174 Z-0.125000 I5.404423 J-15.586155
G03 X1251.866242 Y423.621987 Z-0.125000 I16.658111 J-12.242731
G02 X1251.557658 Y420.612541 Z-0.125000 I-271.008988 J26.268240
G02 X1250.884334 Y414.543011 Z-0.125000 I-1105.136459 J119.526376
G01 X1250.194273 Y408.475233 Z-0.125000
G01 X1250.748444 Y404.806344 Z-0.125000
G02 X1251.230591 Y401.129723 Z-0.125000 I-93.983236 J-14.194755
G02 X1251.501470 Y398.043227 Z-0.125000 I-65.947621 J-7.342858
G01 X1251.700323 Y394.948999 Z-0.125000
G01 X1250.952209 Y395.432672 Z-0.125000
G03 X1250.204056 Y395.916285 Z-0.125000 I-2513.302498 J-3887.228190
G03 X1249.498538 Y396.372133 Z-0.125000 I-2085.372179 J-3226.796877
G01 X1248.792983 Y396.827922 Z-0.125000
G01 X1248.792983 Y395.698158 Z-0.125000
G03 X1249.518121 Y391.327177 Z-0.125000 I13.536240 J-0.000000
G03 X1253.751176 Y381.165999 Z-0.125000 I79.071620 J26.978204
G03 X1263.537350 Y368.682053 Z-0.125000 I35.035921 J17.387014
G03 X1275.321872 Y362.932440 Z-0.125000 I17.253293 J20.410995
G03 X1281.533386 Y362.207920 Z-0.125000 I7.121756 J34.068023
G03 X1282.095205 Y362.755233 Z-0.125000 I0.014319 J0.547313
G01 X1282.095205 Y362.756390 Z-0.125000
G00 Z5.000000

(Change tool to Default tool)

G00 Z5.000000
G00 X1152.555204 Y333.429454

G01 Z-0.125000 F100.0(Penetrate)
G02 X1146.437783 Y341.024559 Z-0.125000 I148.100816 J125.547875 F400.000000
G02 X1146.064093 Y341.916311 Z-0.125000 I1.515865 J1.159399
G01 X1145.922982 Y342.912470 Z-0.125000
G01 X1143.811593 Y341.051666 Z-0.125000
G02 X1141.665701 Y339.282187 Z-0.125000 I-27.993641 J31.762675
G02 X1141.397521 Y339.190823 Z-0.125000 I-0.268180 J0.347909
G02 X1140.466776 Y339.641688 Z-0.125000 I-0.000000 J1.186124
G02 X1138.419484 Y342.960617 Z-0.125000 I13.233415 J10.453982
G02 X1137.815279 Y344.953244 Z-0.125000 I6.645416 J3.102942
G02 X1137.684662 Y347.758395 Z-0.125000 I13.186939 J2.019645
G02 X1138.512833 Y352.693144 Z-0.125000 I23.308807 J-1.374921
G02 X1139.473160 Y354.130663 Z-0.125000 I2.683534 J-0.753191
G01 X1140.207361 Y354.708202 Z-0.125000
G01 X1137.230961 Y363.530074 Z-0.125000
G03 X1118.858975 Y415.942103 Z-0.125000 I-2239.181375 J-755.474184
G03 X1103.565321 Y456.074043 Z-0.125000 I-1328.000827 J-483.100244
G02 X1100.398008 Y467.040994 Z-0.125000 I54.114450 J21.569384
G02 X1100.944464 Y470.233809 Z-0.125000 I4.612480 J0.853736
G02 X1105.171072 Y476.062686 Z-0.125000 I29.675952 J-17.071660
G02 X1108.446750 Y478.571049 Z-0.125000 I8.356116 J-7.519232
G02 X1112.664083 Y479.201125 Z-0.125000 I3.057282 J-6.034399
G02 X1118.861455 Y476.758194 Z-0.125000 I-2.831065 J-16.264416
G02 X1122.586033 Y473.722456 Z-0.125000 I-12.508190 J-19.149152
G02 X1127.216390 Y468.341453 Z-0.125000 I-35.435761 J-35.175213
G02 X1137.516180 Y450.506790 Z-0.125000 I-71.590650 J-53.236166
G02 X1152.579447 Y409.671799 Z-0.125000 I-365.737751 J-158.109617
G03 X1154.652342 Y403.144605 Z-0.125000 I374.126165 J115.221584
G03 X1154.796585 Y402.896574 Z-0.125000 I0.652556 J0.213539
G03 X1155.012164 Y402.852784 Z-0.125000 I0.137620 J0.124962
G03 X1156.171120 Y403.531575 Z-0.125000 I-2.906035 J6.290509
G02 X1157.360631 Y404.345552 Z-0.125000 I15.766555 J-21.764412
G02 X1157.491638 Y404.384168 Z-0.125000 I0.131007 J-0.202917
G02 X1157.564495 Y404.313452 Z-0.125000 I0.000000 J-0.072890
G02 X1157.635205 Y399.571630 Z-0.125000 I-158.959871 J-4.741822
G01 X1157.635205 Y394.759120 Z-0.125000
G01 X1159.095874 Y394.844408 Z-0.125000
G01 X1160.556571 Y394.929723 Z-0.125000
G01 X1161.785706 Y399.445279 Z-0.125000
G02 X1182.248980 Y469.277862 Z-0.125000 I1820.027073 J-495.414083
G02 X1188.689950 Y485.099724 Z-0.125000 I99.170506 J-31.149659
G02 X1189.946286 Y487.047422 Z-0.125000 I9.958173 J-5.044343
G02 X1191.014361 Y487.992502 Z-0.125000 I3.294498 J-2.647172
G02 X1192.336548 Y488.523055 Z-0.125000 I2.177172 J-3.512929
G02 X1194.684858 Y488.768613 Z-0.125000 I2.348311 J-11.105866
G02 X1197.000615 Y488.461190 Z-0.125000 I0.000000 J-8.875793
G02 X1198.465253 Y487.746912 Z-0.125000 I-1.126858 J-4.169410
G02 X1202.910515 Y483.425586 Z-0.125000 I-14.602029 J-19.467857
G02 X1206.822305 Y477.237577 Z-0.125000 I-26.558903 J-21.119816
G01 X1208.294094 Y474.234168 Z-0.125000
G01 X1208.257320 Y470.141946 Z-0.125000
G02 X1206.831093 Y455.131615 Z-0.125000 I-88.024701 J0.790864
G02 X1196.258812 Y404.384168 Z-0.125000 I-1023.534196 J186.759215
G02 X1181.000295 Y341.716290 Z-0.125000 I-3681.959562 J863.300317
G02 X1179.368658 Y337.501892 Z-0.125000 I-17.998733 J4.545299
G02 X1179.050563 Y337.163094 Z-0.125000 I-0.789443 J0.422476
G02 X1178.051076 Y336.686129 Z-0.125000 I-2.676241 J4.322394
G03 X1170.977633 Y332.360263 Z-0.125000 I6.475725 J-18.534791
G03 X1169.209081 Y328.254712 Z-0.125000 I3.938512 J-4.130292
G02 X1168.958098 Y327.868909 Z-0.125000 I-0.425229 J0.002093
G02 X1167.795205 Y327.619712 Z-0.125000 I-1.162894 J2.588756
G01 X1166.384093 Y327.619712 Z-0.125000
G01 X1166.384093 Y329.454156 Z-0.125000
G03 X1166.314828 Y331.219311 Z-0.125000 I-22.526027 J0.000000
G03 X1166.239878 Y331.288601 Z-0.125000 I-0.074950 J-0.005891
G03 X1166.110933 Y331.244990 Z-0.125000 I0.000000 J-0.212430
G03 X1162.729683 Y328.607489 Z-0.125000 I127.943076 J-167.507966
G02 X1159.339838 Y325.997544 Z-0.125000 I-80.877631 J101.538963
G02 X1159.134425 Y325.932559 Z-0.125000 I-0.196569 J0.264202
G02 X1158.944905 Y326.021502 Z-0.125000 I0.007083 J0.261481
G02 X1152.555204 Y333.429454 Z-0.125000 I429.272819 J376.727289
G01 X1152.555204 Y333.429454 Z-0.125000
G00 Z5.000000

(Change tool to Default tool)

G00 Z5.000000
G00 X1372.843225 Y330.019871

G01 Z-0.125000 F100.0(Penetrate)
G02 X1367.568735 Y332.176512 Z-0.125000 I8.258919 J27.727033 F400.000000
G02 X1364.394113 Y334.491653 Z-0.125000 I6.434317 J12.157173
G02 X1362.235041 Y337.395316 Z-0.125000 I8.031697 J8.226657
G02 X1361.061068 Y340.872653 Z-0.125000 I10.484814 J5.476584
G03 X1360.497995 Y342.596022 Z-0.125000 I-6.142968 J-1.053410
G03 X1360.072218 Y342.859723 Z-0.125000 I-0.425777 J-0.211884
G03 X1359.720786 Y342.563024 Z-0.125000 I0.000000 J-0.356480
G03 X1359.424095 Y339.049712 Z-0.125000 I20.653339 J-3.513313
G01 X1359.424095 Y335.239712 Z-0.125000
G01 X1358.344397 Y335.239712 Z-0.125000
G02 X1356.458700 Y336.391672 Z-0.125000 I0.000000 J2.119372
G02 X1354.073161 Y343.565279 Z-0.125000 I22.071168 J11.323082
G03 X1353.329757 Y346.109287 Z-0.125000 I-11.265072 J-1.911231
G03 X1352.840330 Y346.476796 Z-0.125000 I-0.561098 J-0.237588
G01 X1352.086317 Y346.566091 Z-0.125000
G01 X1352.086317 Y343.725129 Z-0.125000
G01 X1352.086317 Y340.884167 Z-0.125000
G01 X1350.711274 Y340.884167 Z-0.125000
G01 X1349.336231 Y340.884167 Z-0.125000
G01 X1349.162495 Y341.970610 Z-0.125000
G03 X1348.306004 Y344.032928 Z-0.125000 I-4.733571 J-0.756864
G03 X1347.284701 Y344.553056 Z-0.125000 I-1.021303 J-0.742631
G02 X1346.803163 Y344.635163 Z-0.125000 I-0.000000 J1.453106
G02 X1346.611206 Y344.789587 Z-0.125000 I0.122513 J0.348810
G02 X1346.554319 Y345.044315 Z-0.125000 I0.338796 J0.209377
G02 X1347.152988 Y349.516809 Z-0.125000 I118.293116 J-13.557894
G03 X1347.576828 Y354.027712 Z-0.125000 I-38.415177 J5.884821
G03 X1347.850951 Y369.247501 Z-0.125000 I-438.406762 J15.508494
G02 X1348.635963 Y410.908253 Z-0.125000 I1145.647476 J-0.749624
G02 X1350.266153 Y434.450712 Z-0.125000 I367.312514 J-13.606754
G03 X1350.484759 Y438.687659 Z-0.125000 I-42.487618 J4.316270
G03 X1350.278853 Y441.280236 Z-0.125000 I-16.049261 J0.029810
G02 X1349.059511 Y455.183251 Z-0.125000 I94.615612 J15.303091
G02 X1349.980854 Y461.675279 Z-0.125000 I21.155209 J0.309061
G02 X1354.838992 Y468.748527 Z-0.125000 I13.652459 J-4.171968
G02 X1364.486625 Y473.019512 Z-0.125000 I13.295325 J-17.000607
G02 X1367.873710 Y473.012693 Z-0.125000 I1.673898 J-9.761399
G02 X1372.062373 Y471.689004 Z-0.125000 I-2.881711 J-16.407953
G02 X1376.238077 Y468.276336 Z-0.125000 I-4.683338 J-9.991490
G02 X1378.213519 Y463.405838 Z-0.125000 I-8.414583 J-6.248762
G01 X1378.402100 Y461.984284 Z-0.125000
G01 X1380.052789 Y462.817546 Z-0.125000
G02 X1381.726699 Y463.553367 Z-0.125000 I7.729766 J-15.312448
G02 X1382.261065 Y463.650835 Z-0.125000 I0.534366 J-1.416093
G02 X1382.734151 Y463.453120 Z-0.125000 I-0.000000 J-0.664851
G02 X1400.119664 Y445.564821 Z-0.125000 I-1119.869691 J-1105.786114
G01 X1417.420705 Y427.478836 Z-0.125000
G01 X1417.620180 Y428.560932 Z-0.125000
G03 X1418.565988 Y435.936807 Z-0.125000 I-66.809752 J12.315591
G03 X1418.972927 Y447.115181 Z-0.125000 I-153.328058 J11.178373
G02 X1419.233309 Y448.150447 Z-0.125000 I2.188282 J-0.000000
G02 X1419.668690 Y448.410835 Z-0.125000 I0.435381 J-0.233796
G02 X1420.326238 Y448.279254 Z-0.125000 I-0.000000 J-1.708771
G02 X1421.699504 Y447.564168 Z-0.125000 I-3.505366 J-8.407951
G03 X1423.048271 Y446.764761 Z-0.125000 I13.924283 J21.955641
G03 X1423.231491 Y446.717501 Z-0.125000 I0.183221 J0.331533
G03 X1424.211629 Y447.405434 Z-0.125000 I0.000000 J1.042197
G03 X1424.899594 Y451.332710 Z-0.125000 I-10.865532 J3.927276
G03 X1424.804667 Y452.262142 Z-0.125000 I-4.597525 J-0.000000
G03 X1423.225311 Y459.443607 Z-0.125000 I-278.848690 J-57.560349
G02 X1421.596637 Y466.623838 Z-0.125000 I566.039270 J132.168049
G02 X1420.931916 Y469.859724 Z-0.125000 I114.273128 J25.160394
G02 X1421.501197 Y481.248852 Z-0.125000 I23.714100 J4.523452
G02 X1425.332043 Y484.692872 Z-0.125000 I4.723150 J-1.401075
G03 X1426.363811 Y485.087109 Z-0.125000 I-0.550094 J2.986920
G03 X1428.609829 Y486.692727 Z-0.125000 I-9.884056 J16.200031
G02 X1431.369513 Y488.010984 Z-0.125000 I3.984909 J-4.794407
G02 X1435.442231 Y488.062239 Z-0.125000 I2.173123 J-10.841748
G02 X1439.070798 Y487.085871 Z-0.125000 I-3.582973 J-20.546525
G02 X1441.754780 Y485.736079 Z-0.125000 I-4.609707 J-12.509488
G02 X1444.802380 Y482.253775 Z-0.125000 I-4.694835 J-7.183500
G02 X1446.638551 Y475.519916 Z-0.125000 I-17.614045 J-8.420223
