%
(Header)
(Generated by gcodetools from Inkscape.)
(Using default header. To add your own header create file "header" in the output dir.)
M3
(Header end.)
G21 (All units in mm)

(Start cutting path id: path9763)
(Change tool to Default tool)

G00 Z5.000000
G00 X0.000000 Y5.987336

G01 Z-0.125000 F100.0(Penetrate)
G01 X3195.431779 Y5.987336 Z-0.125000 F400.000000
G00 Z5.000000

(End cutting path id: path9763)


(Start cutting path id: path9761)
(Change tool to Default tool)

G00 Z5.000000
G00 X0.000000 Y777.783966

G01 Z-0.125000 F100.0(Penetrate)
G01 X3195.431779 Y777.783966 Z-0.125000 F400.000000
G00 Z5.000000

(End cutting path id: path9761)


(Start cutting path id: path9648)
(Change tool to Default tool)

G00 Z5.000000
G00 X3195.431779 Y64.980981

G01 Z-0.125000 F100.0(Penetrate)
G01 X3140.162507 Y64.980868 Z-0.125000 F400.000000
G01 X3073.425700 Y64.980783 Z-0.125000
G01 X3073.425700 Y109.421555 Z-0.125000
G01 X3140.186778 Y109.421555 Z-0.125000
G01 X3140.186778 Y153.862214 Z-0.125000
G01 X3140.186778 Y198.302872 Z-0.125000
G01 X3073.425700 Y198.302872 Z-0.125000
G01 X3073.425700 Y153.862214 Z-0.125000
G01 X3006.664622 Y153.862214 Z-0.125000
G01 X3006.664622 Y198.302872 Z-0.125000
G01 X2939.903544 Y198.302872 Z-0.125000
G01 X2939.903544 Y153.862214 Z-0.125000
G01 X2939.903544 Y109.421555 Z-0.125000
G01 X3006.664622 Y109.421555 Z-0.125000
G01 X3006.664622 Y64.980783 Z-0.125000
G01 X2939.903544 Y64.980783 Z-0.125000
G01 X2873.142466 Y64.980783 Z-0.125000
G01 X2873.142466 Y109.421555 Z-0.125000
G01 X2806.381303 Y109.421555 Z-0.125000
G01 X2806.381303 Y64.980783 Z-0.125000
G01 X2739.620253 Y64.980783 Z-0.125000
G01 X2672.859203 Y64.980783 Z-0.125000
G01 X2672.859203 Y109.421555 Z-0.125000
G01 X2739.620253 Y109.421555 Z-0.125000
G01 X2739.620253 Y153.862214 Z-0.125000
G01 X2672.859203 Y153.862214 Z-0.125000
G01 X2672.859203 Y198.302872 Z-0.125000
G01 X2739.620253 Y198.302872 Z-0.125000
G01 X2806.381303 Y198.302872 Z-0.125000
G01 X2806.381303 Y153.862214 Z-0.125000
G01 X2873.142466 Y153.862214 Z-0.125000
G01 X2873.142466 Y198.302872 Z-0.125000
G01 X2873.142466 Y242.743559 Z-0.125000
G01 X2873.142466 Y287.184331 Z-0.125000
G01 X2806.381303 Y287.184331 Z-0.125000
G01 X2806.381303 Y242.743559 Z-0.125000
G01 X2739.620253 Y242.743559 Z-0.125000
G01 X2672.859203 Y242.743559 Z-0.125000
G01 X2672.859203 Y287.184331 Z-0.125000
G01 X2739.620253 Y287.184331 Z-0.125000
G01 X2739.620253 Y331.624990 Z-0.125000
G01 X2672.859203 Y331.624990 Z-0.125000
G01 X2672.859203 Y376.065761 Z-0.125000
G01 X2739.620253 Y376.065761 Z-0.125000
G01 X2806.381303 Y376.065761 Z-0.125000
G01 X2806.381303 Y331.624990 Z-0.125000
G01 X2873.142466 Y331.624990 Z-0.125000
G01 X2873.142466 Y376.065761 Z-0.125000
G01 X2939.903544 Y376.065761 Z-0.125000
G01 X3006.664622 Y376.065761 Z-0.125000
G01 X3006.664622 Y331.624990 Z-0.125000
G01 X2939.903544 Y331.624990 Z-0.125000
G01 X2939.903544 Y287.184331 Z-0.125000
G01 X2939.903544 Y242.743559 Z-0.125000
G01 X3006.664622 Y242.743559 Z-0.125000
G01 X3006.664622 Y287.184331 Z-0.125000
G01 X3073.425700 Y287.184331 Z-0.125000
G01 X3073.425700 Y242.743559 Z-0.125000
G01 X3140.186778 Y242.743559 Z-0.125000
G01 X3140.186778 Y287.184331 Z-0.125000
G01 X3140.186778 Y331.624990 Z-0.125000
G01 X3073.425700 Y331.624990 Z-0.125000
G01 X3073.425700 Y376.065761 Z-0.125000
G01 X3140.186778 Y376.065761 Z-0.125000
G01 X3140.186778 Y420.506420 Z-0.125000
G01 X3140.186778 Y464.947192 Z-0.125000
G01 X3073.425700 Y464.947192 Z-0.125000
G01 X3073.425700 Y420.506420 Z-0.125000
G01 X3006.664622 Y420.506420 Z-0.125000
G01 X2939.903544 Y420.506420 Z-0.125000
G01 X2939.903544 Y464.947192 Z-0.125000
G01 X3006.664622 Y464.947192 Z-0.125000
G01 X3006.664622 Y509.387963 Z-0.125000
G01 X2939.903544 Y509.387963 Z-0.125000
G01 X2939.903544 Y553.828619 Z-0.125000
G01 X3006.664622 Y553.828619 Z-0.125000
G01 X3073.425700 Y553.828619 Z-0.125000
G01 X3073.425700 Y509.387963 Z-0.125000
G01 X3140.186778 Y509.387963 Z-0.125000
G01 X3140.186778 Y553.828619 Z-0.125000
G01 X3140.186778 Y598.269385 Z-0.125000
G01 X3073.425700 Y598.269385 Z-0.125000
G01 X3073.425700 Y642.710055 Z-0.125000
G01 X3140.186778 Y642.710055 Z-0.125000
G01 X3140.186778 Y687.150821 Z-0.125000
G01 X3140.186778 Y731.591488 Z-0.125000
G01 X3073.425700 Y731.591488 Z-0.125000
G01 X3073.425700 Y687.150821 Z-0.125000
G01 X3006.664622 Y687.150821 Z-0.125000
G01 X3006.664622 Y731.591488 Z-0.125000
G01 X2939.903544 Y731.591488 Z-0.125000
G01 X2939.903544 Y687.150821 Z-0.125000
G01 X2939.903544 Y642.710055 Z-0.125000
G01 X3006.664622 Y642.710055 Z-0.125000
G01 X3006.664622 Y598.269385 Z-0.125000
G01 X2939.903544 Y598.269385 Z-0.125000
G01 X2873.142466 Y598.269385 Z-0.125000
G01 X2806.381303 Y598.269385 Z-0.125000
G01 X2806.381303 Y642.710055 Z-0.125000
G01 X2873.142466 Y642.710055 Z-0.125000
G01 X2873.142466 Y687.150821 Z-0.125000
G01 X2873.142466 Y731.591488 Z-0.125000
G01 X2806.381303 Y731.591488 Z-0.125000
G01 X2806.381303 Y687.150821 Z-0.125000
G01 X2739.620253 Y687.150821 Z-0.125000
G01 X2739.620253 Y731.591488 Z-0.125000
G01 X2672.859203 Y731.591488 Z-0.125000
G01 X2672.859203 Y687.150821 Z-0.125000
G01 X2672.859203 Y642.710055 Z-0.125000
G01 X2739.620253 Y642.710055 Z-0.125000
G01 X2739.620253 Y598.269385 Z-0.125000
G01 X2672.859203 Y598.269385 Z-0.125000
G01 X2672.859203 Y553.828619 Z-0.125000
G01 X2672.859203 Y509.387963 Z-0.125000
G01 X2739.620253 Y509.387963 Z-0.125000
G01 X2739.620253 Y553.828619 Z-0.125000
G01 X2806.381303 Y553.828619 Z-0.125000
G01 X2873.142466 Y553.828619 Z-0.125000
G01 X2873.142466 Y509.387963 Z-0.125000
G01 X2806.381303 Y509.387963 Z-0.125000
G01 X2806.381303 Y464.947192 Z-0.125000
G01 X2873.142466 Y464.947192 Z-0.125000
G01 X2873.142466 Y420.506420 Z-0.125000
G01 X2806.381303 Y420.506420 Z-0.125000
G01 X2739.620253 Y420.506420 Z-0.125000
G01 X2739.620253 Y464.947192 Z-0.125000
G01 X2672.859203 Y464.947192 Z-0.125000
G01 X2672.859203 Y420.506420 Z-0.125000
G01 X2606.098040 Y420.506420 Z-0.125000
G01 X2606.098040 Y464.947192 Z-0.125000
G01 X2539.336962 Y464.947192 Z-0.125000
G01 X2539.336962 Y420.506420 Z-0.125000
G01 X2472.576025 Y420.506420 Z-0.125000
G01 X2405.814947 Y420.506420 Z-0.125000
G01 X2405.814947 Y464.947192 Z-0.125000
G01 X2472.576025 Y464.947192 Z-0.125000
G01 X2472.576025 Y509.387963 Z-0.125000
G01 X2405.814947 Y509.387963 Z-0.125000
G01 X2405.814947 Y553.828619 Z-0.125000
G01 X2472.576025 Y553.828619 Z-0.125000
G01 X2539.336962 Y553.828619 Z-0.125000
G01 X2539.336962 Y509.387963 Z-0.125000
G01 X2606.098040 Y509.387963 Z-0.125000
G01 X2606.098040 Y553.828619 Z-0.125000
G01 X2606.098040 Y598.269385 Z-0.125000
G01 X2539.336962 Y598.269385 Z-0.125000
G01 X2539.336962 Y642.710055 Z-0.125000
G01 X2606.098040 Y642.710055 Z-0.125000
G01 X2606.098040 Y687.150821 Z-0.125000
G01 X2606.098040 Y731.591488 Z-0.125000
G01 X2539.336962 Y731.591488 Z-0.125000
G01 X2539.336962 Y687.150821 Z-0.125000
G01 X2472.576025 Y687.150821 Z-0.125000
G01 X2472.576025 Y731.591488 Z-0.125000
G01 X2405.814947 Y731.591488 Z-0.125000
G01 X2405.814947 Y687.150821 Z-0.125000
G01 X2405.814947 Y642.710055 Z-0.125000
G01 X2472.576025 Y642.710055 Z-0.125000
G01 X2472.576025 Y598.269385 Z-0.125000
G01 X2405.814947 Y598.269385 Z-0.125000
G01 X2339.053784 Y598.269385 Z-0.125000
G01 X2272.292847 Y598.269385 Z-0.125000
G01 X2272.292847 Y642.710055 Z-0.125000
G01 X2339.053784 Y642.710055 Z-0.125000
G01 X2339.053784 Y687.150821 Z-0.125000
G01 X2339.053784 Y731.591488 Z-0.125000
G01 X2272.292847 Y731.591488 Z-0.125000
G01 X2272.292847 Y687.150821 Z-0.125000
G01 X2205.531684 Y687.150821 Z-0.125000
G01 X2205.531684 Y731.591488 Z-0.125000
G01 X2138.770634 Y731.591488 Z-0.125000
G01 X2138.770634 Y687.150821 Z-0.125000
G01 X2138.770634 Y642.710055 Z-0.125000
G01 X2205.531684 Y642.710055 Z-0.125000
G01 X2205.531684 Y598.269385 Z-0.125000
G01 X2138.770634 Y598.269385 Z-0.125000
G01 X2138.770634 Y553.828619 Z-0.125000
G01 X2138.770634 Y509.387963 Z-0.125000
G01 X2205.531684 Y509.387963 Z-0.125000
G01 X2205.531684 Y553.828619 Z-0.125000
G01 X2272.292847 Y553.828619 Z-0.125000
G01 X2339.053784 Y553.828619 Z-0.125000
G01 X2339.053784 Y509.387963 Z-0.125000
G01 X2272.292847 Y509.387963 Z-0.125000
G01 X2272.292847 Y464.947192 Z-0.125000
G01 X2339.053784 Y464.947192 Z-0.125000
G01 X2339.053784 Y420.506420 Z-0.125000
G01 X2272.292847 Y420.506420 Z-0.125000
G01 X2205.531684 Y420.506420 Z-0.125000
G01 X2205.531684 Y464.947192 Z-0.125000
G01 X2138.770634 Y464.947192 Z-0.125000
G01 X2138.770634 Y420.506420 Z-0.125000
G01 X2138.770634 Y376.065761 Z-0.125000
G01 X2205.531684 Y376.065761 Z-0.125000
G01 X2205.531684 Y331.624990 Z-0.125000
G01 X2138.770634 Y331.624990 Z-0.125000
G01 X2138.770634 Y287.184331 Z-0.125000
G01 X2138.770634 Y242.743559 Z-0.125000
G01 X2205.531684 Y242.743559 Z-0.125000
G01 X2205.531684 Y287.184331 Z-0.125000
G01 X2272.292847 Y287.184331 Z-0.125000
G01 X2272.292847 Y242.743559 Z-0.125000
G01 X2339.053784 Y242.743559 Z-0.125000
G01 X2339.053784 Y287.184331 Z-0.125000
G01 X2339.053784 Y331.624990 Z-0.125000
G01 X2272.292847 Y331.624990 Z-0.125000
G01 X2272.292847 Y376.065761 Z-0.125000
G01 X2339.053784 Y376.065761 Z-0.125000
G01 X2405.814947 Y376.065761 Z-0.125000
G01 X2405.814947 Y331.624990 Z-0.125000
G01 X2472.576025 Y331.624990 Z-0.125000
G01 X2472.576025 Y376.065761 Z-0.125000
G01 X2539.336962 Y376.065761 Z-0.125000
G01 X2606.098040 Y376.065761 Z-0.125000
G01 X2606.098040 Y331.624990 Z-0.125000
G01 X2539.336962 Y331.624990 Z-0.125000
G01 X2539.336962 Y287.184331 Z-0.125000
G01 X2606.098040 Y287.184331 Z-0.125000
G01 X2606.098040 Y242.743559 Z-0.125000
G01 X2539.336962 Y242.743559 Z-0.125000
G01 X2472.576025 Y242.743559 Z-0.125000
G01 X2472.576025 Y287.184331 Z-0.125000
G01 X2405.814947 Y287.184331 Z-0.125000
G01 X2405.814947 Y242.743559 Z-0.125000
G01 X2405.814947 Y198.302872 Z-0.125000
G01 X2405.814947 Y153.862214 Z-0.125000
G01 X2472.576025 Y153.862214 Z-0.125000
G01 X2472.576025 Y198.302872 Z-0.125000
G01 X2539.336962 Y198.302872 Z-0.125000
G01 X2606.098040 Y198.302872 Z-0.125000
G01 X2606.098040 Y153.862214 Z-0.125000
G01 X2539.336962 Y153.862214 Z-0.125000
G01 X2539.336962 Y109.421555 Z-0.125000
G01 X2606.098040 Y109.421555 Z-0.125000
G01 X2606.098040 Y64.980783 Z-0.125000
G01 X2539.336962 Y64.980783 Z-0.125000
G01 X2472.576025 Y64.980783 Z-0.125000
G01 X2472.576025 Y109.421555 Z-0.125000
G01 X2405.814947 Y109.421555 Z-0.125000
G01 X2405.814947 Y64.980783 Z-0.125000
G01 X2339.053784 Y64.980783 Z-0.125000
G01 X2272.292847 Y64.980783 Z-0.125000
G01 X2272.292847 Y109.421555 Z-0.125000
G01 X2339.053784 Y109.421555 Z-0.125000
G01 X2339.053784 Y153.862214 Z-0.125000
G01 X2339.053784 Y198.302872 Z-0.125000
G01 X2272.292847 Y198.302872 Z-0.125000
G01 X2272.292847 Y153.862214 Z-0.125000
G01 X2205.531684 Y153.862214 Z-0.125000
G01 X2205.531684 Y198.302872 Z-0.125000
G01 X2138.770634 Y198.302872 Z-0.125000
G01 X2138.770634 Y153.862214 Z-0.125000
G01 X2138.770634 Y109.421555 Z-0.125000
G01 X2205.531684 Y109.421555 Z-0.125000
G01 X2205.531684 Y64.980783 Z-0.125000
G01 X2138.770634 Y64.980783 Z-0.125000
G01 X2072.009471 Y64.980868 Z-0.125000
G01 X2005.248393 Y64.980868 Z-0.125000
G01 X2005.248393 Y109.421555 Z-0.125000
G01 X2072.009471 Y109.421555 Z-0.125000
G01 X2072.009471 Y153.862327 Z-0.125000
G01 X2072.009471 Y198.302985 Z-0.125000
G01 X2005.248393 Y198.302985 Z-0.125000
G01 X2005.248393 Y153.862327 Z-0.125000
G01 X1938.487258 Y153.862327 Z-0.125000
G01 X1938.487258 Y198.302985 Z-0.125000
G01 X1871.726293 Y198.302985 Z-0.125000
G01 X1871.726293 Y153.862327 Z-0.125000
G01 X1871.726293 Y109.421555 Z-0.125000
G01 X1938.487258 Y109.421555 Z-0.125000
G01 X1938.487258 Y64.980868 Z-0.125000
G01 X1871.726293 Y64.980868 Z-0.125000
G01 X1804.965215 Y64.980868 Z-0.125000
G01 X1804.965215 Y109.421555 Z-0.125000
G01 X1738.204080 Y109.421555 Z-0.125000
G01 X1738.204080 Y64.980868 Z-0.125000
G01 X1671.443002 Y64.980868 Z-0.125000
G01 X1604.681952 Y64.980868 Z-0.125000
G01 X1604.681952 Y109.421555 Z-0.125000
G01 X1671.443002 Y109.421555 Z-0.125000
G01 X1671.443002 Y153.862327 Z-0.125000
G01 X1604.681952 Y153.862327 Z-0.125000
G01 X1604.681952 Y198.302985 Z-0.125000
G01 X1671.443002 Y198.302985 Z-0.125000
G01 X1738.204080 Y198.302985 Z-0.125000
G01 X1738.204080 Y153.862327 Z-0.125000
G01 X1804.965215 Y153.862327 Z-0.125000
G01 X1804.965215 Y198.302985 Z-0.125000
G01 X1804.965215 Y242.743644 Z-0.125000
G01 X1804.965215 Y287.184416 Z-0.125000
G01 X1738.204080 Y287.184416 Z-0.125000
G01 X1738.204080 Y242.743644 Z-0.125000
G01 X1671.443002 Y242.743644 Z-0.125000
G01 X1604.681952 Y242.743644 Z-0.125000
G01 X1604.681952 Y287.184416 Z-0.125000
G01 X1671.443002 Y287.184416 Z-0.125000
G01 X1671.443002 Y331.625074 Z-0.125000
G01 X1604.681952 Y331.625074 Z-0.125000
G01 X1604.681952 Y376.065761 Z-0.125000
G01 X1671.443002 Y376.065761 Z-0.125000
G01 X1738.204080 Y376.065761 Z-0.125000
G01 X1738.204080 Y331.625074 Z-0.125000
G01 X1804.965215 Y331.625074 Z-0.125000
G01 X1804.965215 Y376.065761 Z-0.125000
G01 X1871.726293 Y376.065761 Z-0.125000
G01 X1938.487258 Y376.065761 Z-0.125000
G01 X1938.487258 Y331.625074 Z-0.125000
G01 X1871.726293 Y331.625074 Z-0.125000
G01 X1871.726293 Y287.184416 Z-0.125000
G01 X1871.726293 Y242.743644 Z-0.125000
G01 X1938.487258 Y242.743644 Z-0.125000
G01 X1938.487258 Y287.184416 Z-0.125000
G01 X2005.248393 Y287.184416 Z-0.125000
G01 X2005.248393 Y242.743644 Z-0.125000
G01 X2072.009471 Y242.743644 Z-0.125000
G01 X2072.009471 Y287.184416 Z-0.125000
G01 X2072.009471 Y331.625074 Z-0.125000
G01 X2005.248393 Y331.625074 Z-0.125000
G01 X2005.248393 Y376.065761 Z-0.125000
G01 X2072.009471 Y376.065761 Z-0.125000
G01 X2072.009471 Y420.506533 Z-0.125000
G01 X2072.009471 Y464.947192 Z-0.125000
G01 X2005.248393 Y464.947192 Z-0.125000
G01 X2005.248393 Y420.506533 Z-0.125000
G01 X1938.487258 Y420.506533 Z-0.125000
G01 X1871.726293 Y420.506533 Z-0.125000
G01 X1871.726293 Y464.947192 Z-0.125000
G01 X1938.487258 Y464.947192 Z-0.125000
G01 X1938.487258 Y509.387963 Z-0.125000
G01 X1871.726293 Y509.387963 Z-0.125000
G01 X1871.726293 Y553.828619 Z-0.125000
G01 X1938.487258 Y553.828619 Z-0.125000
G01 X2005.248393 Y553.828619 Z-0.125000
G01 X2005.248393 Y509.387963 Z-0.125000
G01 X2072.009471 Y509.387963 Z-0.125000
G01 X2072.009471 Y553.828619 Z-0.125000
G01 X2072.009471 Y598.269385 Z-0.125000
G01 X2005.248393 Y598.269385 Z-0.125000
G01 X2005.248393 Y642.710055 Z-0.125000
G01 X2072.009471 Y642.710055 Z-0.125000
G01 X2072.009471 Y687.150821 Z-0.125000
G01 X2072.009471 Y731.591488 Z-0.125000
G01 X2005.248393 Y731.591488 Z-0.125000
G01 X2005.248393 Y687.150821 Z-0.125000
G01 X1938.487258 Y687.150821 Z-0.125000
G01 X1938.487258 Y731.591488 Z-0.125000
G01 X1871.726293 Y731.591488 Z-0.125000
G01 X1871.726293 Y687.150821 Z-0.125000
G01 X1871.726293 Y642.710055 Z-0.125000
G01 X1938.487258 Y642.710055 Z-0.125000
G01 X1938.487258 Y598.269385 Z-0.125000
G01 X1871.726293 Y598.269385 Z-0.125000
G01 X1804.965215 Y598.269385 Z-0.125000
G01 X1738.204080 Y598.269385 Z-0.125000
G01 X1738.204080 Y642.710055 Z-0.125000
G01 X1804.965215 Y642.710055 Z-0.125000
G01 X1804.965215 Y687.150821 Z-0.125000
G01 X1804.965215 Y731.591488 Z-0.125000
G01 X1738.204080 Y731.591488 Z-0.125000
G01 X1738.204080 Y687.150821 Z-0.125000
G01 X1671.443002 Y687.150821 Z-0.125000
G01 X1671.443002 Y731.591488 Z-0.125000
G01 X1604.681952 Y731.591488 Z-0.125000
G01 X1604.681952 Y687.150821 Z-0.125000
G01 X1604.681952 Y642.710055 Z-0.125000
G01 X1671.443002 Y642.710055 Z-0.125000
G01 X1671.443002 Y598.269385 Z-0.125000
G01 X1604.681952 Y598.269385 Z-0.125000
G01 X1604.681952 Y553.828619 Z-0.125000
G01 X1604.681952 Y509.387963 Z-0.125000
G01 X1671.443002 Y509.387963 Z-0.125000
G01 X1671.443002 Y553.828619 Z-0.125000
G01 X1738.204080 Y553.828619 Z-0.125000
G01 X1804.965215 Y553.828619 Z-0.125000
G01 X1804.965215 Y509.387963 Z-0.125000
G01 X1738.204080 Y509.387963 Z-0.125000
G01 X1738.204080 Y464.947192 Z-0.125000
G01 X1804.965215 Y464.947192 Z-0.125000
G01 X1804.965215 Y420.506533 Z-0.125000
G01 X1738.204080 Y420.506533 Z-0.125000
G01 X1671.443002 Y420.506533 Z-0.125000
G01 X1671.443002 Y464.947192 Z-0.125000
G01 X1604.681952 Y464.947192 Z-0.125000
G01 X1604.681952 Y420.506533 Z-0.125000
G01 X1537.920902 Y420.506533 Z-0.125000
G01 X1537.920902 Y464.947192 Z-0.125000
G01 X1471.159739 Y464.947192 Z-0.125000
G01 X1471.159739 Y420.506533 Z-0.125000
G01 X1404.398774 Y420.506533 Z-0.125000
G01 X1337.637611 Y420.506533 Z-0.125000
G01 X1337.637611 Y464.947192 Z-0.125000
G01 X1404.398774 Y464.947192 Z-0.125000
G01 X1404.398774 Y509.387963 Z-0.125000
G01 X1337.637611 Y509.387963 Z-0.125000
G01 X1337.637611 Y553.828619 Z-0.125000
G01 X1404.398774 Y553.828619 Z-0.125000
G01 X1471.159739 Y553.828619 Z-0.125000
G01 X1471.159739 Y509.387963 Z-0.125000
G01 X1537.920902 Y509.387963 Z-0.125000
G01 X1537.920902 Y553.828619 Z-0.125000
G01 X1537.920902 Y598.269385 Z-0.125000
G01 X1471.159739 Y598.269385 Z-0.125000
G01 X1471.159739 Y642.710055 Z-0.125000
G01 X1537.920902 Y642.710055 Z-0.125000
G01 X1537.920902 Y687.150821 Z-0.125000
G01 X1537.920902 Y731.591488 Z-0.125000
G01 X1471.159739 Y731.591488 Z-0.125000
G01 X1471.159739 Y687.150821 Z-0.125000
G01 X1404.398774 Y687.150821 Z-0.125000
G01 X1404.398774 Y731.591488 Z-0.125000
G01 X1337.637611 Y731.591488 Z-0.125000
G01 X1337.637611 Y687.150821 Z-0.125000
G01 X1337.637611 Y642.710055 Z-0.125000
G01 X1404.398774 Y642.710055 Z-0.125000
G01 X1404.398774 Y598.269385 Z-0.125000
G01 X1337.637611 Y598.269385 Z-0.125000
G01 X1270.876561 Y598.269385 Z-0.125000
G01 X1204.115596 Y598.269385 Z-0.125000
G01 X1204.115596 Y642.710055 Z-0.125000
G01 X1270.876561 Y642.710055 Z-0.125000
G01 X1270.876561 Y687.150821 Z-0.125000
G01 X1270.876561 Y731.591488 Z-0.125000
G01 X1204.115596 Y731.591488 Z-0.125000
G01 X1204.115596 Y687.150821 Z-0.125000
G01 X1137.354546 Y687.150821 Z-0.125000
G01 X1137.354546 Y731.591488 Z-0.125000
G01 X1070.593383 Y731.591488 Z-0.125000
G01 X1070.593383 Y687.150821 Z-0.125000
G01 X1070.593383 Y642.710055 Z-0.125000
G01 X1137.354546 Y642.710055 Z-0.125000
G01 X1137.354546 Y598.269385 Z-0.125000
G01 X1070.593383 Y598.269385 Z-0.125000
G01 X1070.593383 Y553.828619 Z-0.125000
G01 X1070.593383 Y509.387963 Z-0.125000
G01 X1137.354546 Y509.387963 Z-0.125000
G01 X1137.354546 Y553.828619 Z-0.125000
G01 X1204.115596 Y553.828619 Z-0.125000
G01 X1270.876561 Y553.828619 Z-0.125000
G01 X1270.876561 Y509.387963 Z-0.125000
G01 X1204.115596 Y509.387963 Z-0.125000
G01 X1204.115596 Y464.947192 Z-0.125000
G01 X1270.876561 Y464.947192 Z-0.125000
G01 X1270.876561 Y420.506533 Z-0.125000
G01 X1204.115596 Y420.506533 Z-0.125000
G01 X1137.354546 Y420.506533 Z-0.125000
G01 X1137.354546 Y464.947192 Z-0.125000
G01 X1070.593383 Y464.947192 Z-0.125000
G01 X1070.593383 Y420.506533 Z-0.125000
G01 X1070.593383 Y376.065761 Z-0.125000
G01 X1137.354546 Y376.065761 Z-0.125000
G01 X1137.354546 Y331.625074 Z-0.125000
G01 X1070.593383 Y331.625074 Z-0.125000
G01 X1070.593383 Y287.184416 Z-0.125000
G01 X1070.593383 Y242.743644 Z-0.125000
G01 X1137.354546 Y242.743644 Z-0.125000
G01 X1137.354546 Y287.184416 Z-0.125000
G01 X1204.115596 Y287.184416 Z-0.125000
G01 X1204.115596 Y242.743644 Z-0.125000
G01 X1270.876561 Y242.743644 Z-0.125000
G01 X1270.876561 Y287.184416 Z-0.125000
G01 X1270.876561 Y331.625074 Z-0.125000
G01 X1204.115596 Y331.625074 Z-0.125000
G01 X1204.115596 Y376.065761 Z-0.125000
G01 X1270.876561 Y376.065761 Z-0.125000
G01 X1337.637611 Y376.065761 Z-0.125000
G01 X1337.637611 Y331.625074 Z-0.125000
G01 X1404.398774 Y331.625074 Z-0.125000
G01 X1404.398774 Y376.065761 Z-0.125000
G01 X1471.159739 Y376.065761 Z-0.125000
G01 X1537.920902 Y376.065761 Z-0.125000
G01 X1537.920902 Y331.625074 Z-0.125000
G01 X1471.159739 Y331.625074 Z-0.125000
G01 X1471.159739 Y287.184416 Z-0.125000
G01 X1537.920902 Y287.184416 Z-0.125000
G01 X1537.920902 Y242.743644 Z-0.125000
G01 X1471.159739 Y242.743644 Z-0.125000
G01 X1404.398774 Y242.743644 Z-0.125000
G01 X1404.398774 Y287.184416 Z-0.125000
G01 X1337.637611 Y287.184416 Z-0.125000
G01 X1337.637611 Y242.743644 Z-0.125000
G01 X1337.637611 Y198.302985 Z-0.125000
G01 X1337.637611 Y153.862327 Z-0.125000
G01 X1404.398774 Y153.862327 Z-0.125000
G01 X1404.398774 Y198.302985 Z-0.125000
G01 X1471.159739 Y198.302985 Z-0.125000
G01 X1537.920902 Y198.302985 Z-0.125000
G01 X1537.920902 Y153.862327 Z-0.125000
G01 X1471.159739 Y153.862327 Z-0.125000
G01 X1471.159739 Y109.421555 Z-0.125000
G01 X1537.920902 Y109.421555 Z-0.125000
G01 X1537.920902 Y64.980868 Z-0.125000
G01 X1471.159739 Y64.980868 Z-0.125000
G01 X1404.398774 Y64.980868 Z-0.125000
G01 X1404.398774 Y109.421555 Z-0.125000
G01 X1337.637611 Y109.421555 Z-0.125000
G01 X1337.637611 Y64.980868 Z-0.125000
G01 X1270.876561 Y64.980868 Z-0.125000
G01 X1204.115596 Y64.980868 Z-0.125000
G01 X1204.115596 Y109.421555 Z-0.125000
G01 X1270.876561 Y109.421555 Z-0.125000
G01 X1270.876561 Y153.862327 Z-0.125000
G01 X1270.876561 Y198.302985 Z-0.125000
G01 X1204.115596 Y198.302985 Z-0.125000
G01 X1204.115596 Y153.862327 Z-0.125000
G01 X1137.354546 Y153.862327 Z-0.125000
G01 X1137.354546 Y198.302985 Z-0.125000
G01 X1070.593383 Y198.302985 Z-0.125000
G01 X1070.593383 Y153.862327 Z-0.125000
G01 X1070.593383 Y109.421555 Z-0.125000
G01 X1137.354546 Y109.421555 Z-0.125000
G01 X1137.354546 Y64.980868 Z-0.125000
G01 X1070.593383 Y64.980868 Z-0.125000
G01 X1003.819944 Y64.980783 Z-0.125000
G01 X937.058866 Y64.980783 Z-0.125000
G01 X937.058866 Y109.421555 Z-0.125000
G01 X1003.819944 Y109.421555 Z-0.125000
G01 X1003.819944 Y153.862214 Z-0.125000
G01 X1003.819944 Y198.302985 Z-0.125000
G01 X937.058866 Y198.302985 Z-0.125000
G01 X937.058866 Y153.862214 Z-0.125000
G01 X870.297788 Y153.862214 Z-0.125000
G01 X870.297788 Y198.302985 Z-0.125000
G01 X803.536709 Y198.302985 Z-0.125000
G01 X803.536709 Y153.862214 Z-0.125000
G01 X803.536709 Y109.421555 Z-0.125000
G01 X870.297788 Y109.421555 Z-0.125000
G01 X870.297788 Y64.980783 Z-0.125000
G01 X803.536709 Y64.980783 Z-0.125000
G01 X736.775659 Y64.980783 Z-0.125000
G01 X736.775659 Y109.421555 Z-0.125000
G01 X670.014581 Y109.421555 Z-0.125000
G01 X670.014581 Y64.980783 Z-0.125000
G01 X603.253503 Y64.980783 Z-0.125000
G01 X536.492453 Y64.980783 Z-0.125000
G01 X536.492453 Y109.421555 Z-0.125000
G01 X603.253503 Y109.421555 Z-0.125000
G01 X603.253503 Y153.862214 Z-0.125000
G01 X536.492453 Y153.862214 Z-0.125000
G01 X536.492453 Y198.302985 Z-0.125000
G01 X603.253503 Y198.302985 Z-0.125000
G01 X670.014581 Y198.302985 Z-0.125000
G01 X670.014581 Y153.862214 Z-0.125000
G01 X736.775659 Y153.862214 Z-0.125000
G01 X736.775659 Y198.302985 Z-0.125000
G01 X736.775659 Y242.743644 Z-0.125000
G01 X736.775659 Y287.184416 Z-0.125000
G01 X670.014581 Y287.184416 Z-0.125000
G01 X670.014581 Y242.743644 Z-0.125000
G01 X603.253503 Y242.743644 Z-0.125000
G01 X536.492453 Y242.743644 Z-0.125000
G01 X536.492453 Y287.184416 Z-0.125000
G01 X603.253503 Y287.184416 Z-0.125000
G01 X603.253503 Y331.625074 Z-0.125000
G01 X536.492453 Y331.625074 Z-0.125000
G01 X536.492453 Y376.065846 Z-0.125000
G01 X603.253503 Y376.065846 Z-0.125000
G01 X670.014581 Y376.065846 Z-0.125000
G01 X670.014581 Y331.625074 Z-0.125000
G01 X736.775659 Y331.625074 Z-0.125000
G01 X736.775659 Y376.065846 Z-0.125000
G01 X803.536709 Y376.065846 Z-0.125000
G01 X870.297788 Y376.065846 Z-0.125000
G01 X870.297788 Y331.625074 Z-0.125000
G01 X803.536709 Y331.625074 Z-0.125000
G01 X803.536709 Y287.184416 Z-0.125000
G01 X803.536709 Y242.743644 Z-0.125000
G01 X870.297788 Y242.743644 Z-0.125000
G01 X870.297788 Y287.184416 Z-0.125000
G01 X937.058866 Y287.184416 Z-0.125000
G01 X937.058866 Y242.743644 Z-0.125000
G01 X1003.819944 Y242.743644 Z-0.125000
G01 X1003.819944 Y287.184416 Z-0.125000
G01 X1003.819944 Y331.625074 Z-0.125000
G01 X937.058866 Y331.625074 Z-0.125000
G01 X937.058866 Y376.065846 Z-0.125000
G01 X1003.819944 Y376.065846 Z-0.125000
G01 X1003.819944 Y420.506533 Z-0.125000
G01 X1003.819944 Y464.947192 Z-0.125000
G01 X937.058866 Y464.947192 Z-0.125000
G01 X937.058866 Y420.506533 Z-0.125000
G01 X870.297788 Y420.506533 Z-0.125000
G01 X803.536709 Y420.506533 Z-0.125000
G01 X803.536709 Y464.947192 Z-0.125000
G01 X870.297788 Y464.947192 Z-0.125000
G01 X870.297788 Y509.387963 Z-0.125000
G01 X803.536709 Y509.387963 Z-0.125000
G01 X803.536709 Y553.828619 Z-0.125000
G01 X870.297788 Y553.828619 Z-0.125000
G01 X937.058866 Y553.828619 Z-0.125000
G01 X937.058866 Y509.387963 Z-0.125000
G01 X1003.819944 Y509.387963 Z-0.125000
G01 X1003.819944 Y553.828619 Z-0.125000
G01 X1003.819944 Y598.269385 Z-0.125000
G01 X937.058866 Y598.269385 Z-0.125000
G01 X937.058866 Y642.710055 Z-0.125000
G01 X1003.819944 Y642.710055 Z-0.125000
G01 X1003.819944 Y687.150821 Z-0.125000
G01 X1003.819944 Y731.591488 Z-0.125000
G01 X937.058866 Y731.591488 Z-0.125000
G01 X937.058866 Y687.150821 Z-0.125000
G01 X870.297788 Y687.150821 Z-0.125000
G01 X870.297788 Y731.591488 Z-0.125000
G01 X803.536709 Y731.591488 Z-0.125000
G01 X803.536709 Y687.150821 Z-0.125000
G01 X803.536709 Y642.710055 Z-0.125000
G01 X870.297788 Y642.710055 Z-0.125000
G01 X870.297788 Y598.269385 Z-0.125000
G01 X803.536709 Y598.269385 Z-0.125000
G01 X736.775659 Y598.269385 Z-0.125000
G01 X670.014581 Y598.269385 Z-0.125000
G01 X670.014581 Y642.710055 Z-0.125000
G01 X736.775659 Y642.710055 Z-0.125000
G01 X736.775659 Y687.150821 Z-0.125000
G01 X736.775659 Y731.591488 Z-0.125000
G01 X670.014581 Y731.591488 Z-0.125000
G01 X670.014581 Y687.150821 Z-0.125000
G01 X603.253503 Y687.150821 Z-0.125000
G01 X603.253503 Y731.591488 Z-0.125000
G01 X536.492453 Y731.591488 Z-0.125000
G01 X536.492453 Y687.150821 Z-0.125000
G01 X536.492453 Y642.710055 Z-0.125000
G01 X603.253503 Y642.710055 Z-0.125000
G01 X603.253503 Y598.269385 Z-0.125000
G01 X536.492453 Y598.269385 Z-0.125000
G01 X536.492453 Y553.828619 Z-0.125000
G01 X536.492453 Y509.387963 Z-0.125000
G01 X603.253503 Y509.387963 Z-0.125000
G01 X603.253503 Y553.828619 Z-0.125000
G01 X670.014581 Y553.828619 Z-0.125000
G01 X736.775659 Y553.828619 Z-0.125000
G01 X736.775659 Y509.387963 Z-0.125000
G01 X670.014581 Y509.387963 Z-0.125000
G01 X670.014581 Y464.947192 Z-0.125000
G01 X736.775659 Y464.947192 Z-0.125000
G01 X736.775659 Y420.506533 Z-0.125000
G01 X670.014581 Y420.506533 Z-0.125000
G01 X603.253503 Y420.506533 Z-0.125000
G01 X603.253503 Y464.947192 Z-0.125000
G01 X536.492453 Y464.947192 Z-0.125000
G01 X536.492453 Y420.506533 Z-0.125000
G01 X469.731375 Y420.506533 Z-0.125000
G01 X469.731375 Y464.947192 Z-0.125000
G01 X402.970297 Y464.947192 Z-0.125000
G01 X402.970297 Y420.506533 Z-0.125000
G01 X336.209247 Y420.506533 Z-0.125000
G01 X269.448177 Y420.506533 Z-0.125000
G01 X269.448177 Y464.947192 Z-0.125000
G01 X336.209247 Y464.947192 Z-0.125000
G01 X336.209247 Y509.387963 Z-0.125000
G01 X269.448177 Y509.387963 Z-0.125000
G01 X269.448177 Y553.828619 Z-0.125000
G01 X336.209247 Y553.828619 Z-0.125000
G01 X402.970297 Y553.828619 Z-0.125000
G01 X402.970297 Y509.387963 Z-0.125000
G01 X469.731375 Y509.387963 Z-0.125000
G01 X469.731375 Y553.828619 Z-0.125000
G01 X469.731375 Y598.269385 Z-0.125000
G01 X402.970297 Y598.269385 Z-0.125000
G01 X402.970297 Y642.710055 Z-0.125000
G01 X469.731375 Y642.710055 Z-0.125000
G01 X469.731375 Y687.150821 Z-0.125000
G01 X469.731375 Y731.591488 Z-0.125000
G01 X402.970297 Y731.591488 Z-0.125000
G01 X402.970297 Y687.150821 Z-0.125000
G01 X336.209247 Y687.150821 Z-0.125000
G01 X336.209247 Y731.591488 Z-0.125000
G01 X269.448177 Y731.591488 Z-0.125000
G01 X269.448177 Y687.150821 Z-0.125000
G01 X269.448177 Y642.710055 Z-0.125000
G01 X336.209247 Y642.710055 Z-0.125000
G01 X336.209247 Y598.269385 Z-0.125000
G01 X269.448177 Y598.269385 Z-0.125000
G01 X202.687110 Y598.269385 Z-0.125000
G01 X135.926029 Y598.269385 Z-0.125000
G01 X135.926029 Y642.710055 Z-0.125000
G01 X202.687110 Y642.710055 Z-0.125000
G01 X202.687110 Y687.150821 Z-0.125000
G01 X202.687110 Y731.591488 Z-0.125000
G01 X135.926029 Y731.591488 Z-0.125000
G01 X135.926029 Y687.150821 Z-0.125000
G01 X69.164962 Y687.150821 Z-0.125000
G01 X69.164962 Y731.591488 Z-0.125000
G01 X2.403897 Y731.591488 Z-0.125000
G01 X2.403897 Y687.150821 Z-0.125000
G01 X2.403897 Y642.710055 Z-0.125000
G01 X69.164962 Y642.710055 Z-0.125000
G01 X69.164962 Y598.269385 Z-0.125000
G01 X2.403897 Y598.269385 Z-0.125000
G01 X2.403897 Y553.828619 Z-0.125000
G01 X2.403897 Y509.387963 Z-0.125000
G01 X69.164962 Y509.387963 Z-0.125000
G01 X69.164962 Y553.828619 Z-0.125000
G01 X135.926029 Y553.828619 Z-0.125000
G01 X202.687110 Y553.828619 Z-0.125000
G01 X202.687110 Y509.387963 Z-0.125000
G01 X135.926029 Y509.387963 Z-0.125000
G01 X135.926029 Y464.947192 Z-0.125000
G01 X202.687110 Y464.947192 Z-0.125000
G01 X202.687110 Y420.506533 Z-0.125000
G01 X135.926029 Y420.506533 Z-0.125000
G01 X69.164962 Y420.506533 Z-0.125000
G01 X69.164962 Y464.947192 Z-0.125000
G01 X2.403897 Y464.947192 Z-0.125000
G01 X2.403897 Y420.506533 Z-0.125000
G01 X2.403897 Y376.065846 Z-0.125000
G01 X69.164962 Y376.065846 Z-0.125000
G01 X69.164962 Y331.625074 Z-0.125000
G01 X2.403897 Y331.625074 Z-0.125000
G01 X2.403897 Y287.184416 Z-0.125000
G01 X2.403897 Y242.743644 Z-0.125000
G01 X69.164962 Y242.743644 Z-0.125000
G01 X69.164962 Y287.184416 Z-0.125000
G01 X135.926029 Y287.184416 Z-0.125000
G01 X135.926029 Y242.743644 Z-0.125000
G01 X202.687110 Y242.743644 Z-0.125000
G01 X202.687110 Y287.184416 Z-0.125000
G01 X202.687110 Y331.625074 Z-0.125000
G01 X135.926029 Y331.625074 Z-0.125000
G01 X135.926029 Y376.065846 Z-0.125000
G01 X202.687110 Y376.065846 Z-0.125000
G01 X269.448177 Y376.065846 Z-0.125000
G01 X269.448177 Y331.625074 Z-0.125000
G01 X336.209247 Y331.625074 Z-0.125000
G01 X336.209247 Y376.065846 Z-0.125000
G01 X402.970297 Y376.065846 Z-0.125000
G01 X469.731375 Y376.065846 Z-0.125000
G01 X469.731375 Y331.625074 Z-0.125000
G01 X402.970297 Y331.625074 Z-0.125000
G01 X402.970297 Y287.184416 Z-0.125000
G01 X469.731375 Y287.184416 Z-0.125000
G01 X469.731375 Y242.743644 Z-0.125000
G01 X402.970297 Y242.743644 Z-0.125000
G01 X336.209247 Y242.743644 Z-0.125000
G01 X336.209247 Y287.184416 Z-0.125000
G01 X269.448177 Y287.184416 Z-0.125000
G01 X269.448177 Y242.743644 Z-0.125000
G01 X269.448177 Y198.302985 Z-0.125000
G01 X269.448177 Y153.862214 Z-0.125000
G01 X336.209247 Y153.862214 Z-0.125000
G01 X336.209247 Y198.302985 Z-0.125000
G01 X402.970297 Y198.302985 Z-0.125000
G01 X469.731375 Y198.302985 Z-0.125000
G01 X469.731375 Y153.862214 Z-0.125000
G01 X402.970297 Y153.862214 Z-0.125000
G01 X402.970297 Y109.421555 Z-0.125000
G01 X469.731375 Y109.421555 Z-0.125000
G01 X469.731375 Y64.980783 Z-0.125000
G01 X402.970297 Y64.980783 Z-0.125000
G01 X336.209247 Y64.980783 Z-0.125000
G01 X336.209247 Y109.421555 Z-0.125000
G01 X269.448177 Y109.421555 Z-0.125000
G01 X269.448177 Y64.980783 Z-0.125000
G01 X202.687110 Y64.980783 Z-0.125000
G01 X135.926029 Y64.980783 Z-0.125000
G01 X135.926029 Y109.421555 Z-0.125000
G01 X202.687110 Y109.421555 Z-0.125000
G01 X202.687110 Y153.862214 Z-0.125000
G01 X202.687110 Y198.302985 Z-0.125000
G01 X135.926029 Y198.302985 Z-0.125000
G01 X135.926029 Y153.862214 Z-0.125000
G01 X69.164962 Y153.862214 Z-0.125000
G01 X69.164962 Y198.302985 Z-0.125000
G01 X2.403897 Y198.302985 Z-0.125000
G01 X2.403897 Y153.862214 Z-0.125000
G01 X2.403897 Y109.421555 Z-0.125000
G01 X69.164962 Y109.421555 Z-0.125000
G01 X69.164962 Y64.980783 Z-0.125000
G01 X2.403897 Y64.980783 Z-0.125000
G00 Z5.000000

(End cutting path id: path9648)


(Footer)
M5
G00 X0.0000 Y0.0000
M2
(Using default footer. To add your own footer create file "footer" in the output dir.)
(end)
%