%
(Header)
(Generated by gcodetools from Inkscape.)
(Using default header. To add your own header create file "header" in the output dir.)
M3
(Header end.)
G21 (All units in mm)

(Start cutting path id: path4626-6)
(Change tool to Default tool)

G00 Z5.000000
G00 X574.507165 Y177.629712

G01 Z-0.125000 F100.0(Penetrate)
G01 X574.507165 Y161.418804 Z-0.125000 F400.000000
G00 Z5.000000

(Change tool to Default tool)

G00 Z5.000000
G00 X584.062234 Y152.849792

G01 Z-0.125000 F100.0(Penetrate)
G01 X584.062234 Y191.893540 Z-0.125000 F400.000000
G00 Z5.000000

(Change tool to Default tool)

G00 Z5.000000
G00 X593.617304 Y198.148404

G01 Z-0.125000 F100.0(Penetrate)
G01 X593.617304 Y149.210946 Z-0.125000 F400.000000
G00 Z5.000000

(Change tool to Default tool)

G00 Z5.000000
G00 X603.172373 Y147.897171

G01 Z-0.125000 F100.0(Penetrate)
G01 X603.172373 Y201.081553 Z-0.125000 F400.000000
G00 Z5.000000

(Change tool to Default tool)

G00 Z5.000000
G00 X612.727443 Y201.317450

G01 Z-0.125000 F100.0(Penetrate)
G01 X612.727443 Y148.403383 Z-0.125000 F400.000000
G00 Z5.000000

(Change tool to Default tool)

G00 Z5.000000
G00 X622.282512 Y153.270089

G01 Z-0.125000 F100.0(Penetrate)
G01 X622.282512 Y197.345523 Z-0.125000 F400.000000
G00 Z5.000000

(Change tool to Default tool)

G00 Z5.000000
G00 X631.837581 Y186.123646

G01 Z-0.125000 F100.0(Penetrate)
G01 X631.837581 Y168.998627 Z-0.125000 F400.000000
G00 Z5.000000

(End cutting path id: path4626-6)


(Start cutting path id: path4415-4-6)
(Change tool to Default tool)

G00 Z5.000000
G00 X608.205506 Y201.622183

G01 Z-0.125000 F100.0(Penetrate)
G03 X577.724407 Y185.388824 Z-0.125000 I1.564153 J-39.670581 F400.000000
G03 X574.271394 Y161.830778 Z-0.125000 I20.574552 J-15.047793
G03 X580.448426 Y154.755719 Z-0.125000 I14.899265 J6.774100
G03 X592.946881 Y149.338496 Z-0.125000 I23.807827 J37.802063
G03 X606.686804 Y147.651554 Z-0.125000 I13.137674 J50.206224
G03 X618.640239 Y150.169965 Z-0.125000 I-0.363885 J31.354357
G03 X630.883762 Y165.921536 Z-0.125000 I-21.819408 J29.594150
G03 X633.330800 Y181.500120 Z-0.125000 I-32.014853 J13.010277
G03 X627.895291 Y193.355797 Z-0.125000 I-21.692646 J-2.771639
G03 X608.205506 Y201.622183 Z-0.125000 I-18.609863 J-16.744175
G01 X608.205506 Y201.622183 Z-0.125000
G00 Z5.000000

(End cutting path id: path4415-4-6)


(Start cutting path id: path4550-7)
(Change tool to Default tool)

G00 Z5.000000
G00 X529.512343 Y468.456729

G01 Z-0.125000 F100.0(Penetrate)
G01 X529.512343 Y439.049641 Z-0.125000 F400.000000
G00 Z5.000000

(Change tool to Default tool)

G00 Z5.000000
G00 X539.067413 Y411.457858

G01 Z-0.125000 F100.0(Penetrate)
G01 X539.067413 Y496.322729 Z-0.125000 F400.000000
G00 Z5.000000

(Change tool to Default tool)

G00 Z5.000000
G00 X548.622482 Y510.119444

G01 Z-0.125000 F100.0(Penetrate)
G01 X548.622482 Y397.607999 Z-0.125000 F400.000000
G00 Z5.000000

(Change tool to Default tool)

G00 Z5.000000
G00 X558.177552 Y388.031245

G01 Z-0.125000 F100.0(Penetrate)
G01 X558.177552 Y519.490297 Z-0.125000 F400.000000
G00 Z5.000000

(Change tool to Default tool)

G00 Z5.000000
G00 X567.732621 Y526.184965

G01 Z-0.125000 F100.0(Penetrate)
G01 X567.732621 Y380.884203 Z-0.125000 F400.000000
G00 Z5.000000

(Change tool to Default tool)

G00 Z5.000000
G00 X577.287690 Y375.606390

G01 Z-0.125000 F100.0(Penetrate)
G01 X577.287690 Y531.091464 Z-0.125000 F400.000000
G00 Z5.000000

(Change tool to Default tool)

G00 Z5.000000
G00 X586.842760 Y534.425143

G01 Z-0.125000 F100.0(Penetrate)
G01 X586.842760 Y372.010805 Z-0.125000 F400.000000
G00 Z5.000000

(Change tool to Default tool)

G00 Z5.000000
G00 X596.397829 Y369.813349

G01 Z-0.125000 F100.0(Penetrate)
G01 X596.397829 Y536.629448 Z-0.125000 F400.000000
G00 Z5.000000

(Change tool to Default tool)

G00 Z5.000000
G00 X605.952898 Y537.798876

G01 Z-0.125000 F100.0(Penetrate)
G01 X605.952898 Y368.508158 Z-0.125000 F400.000000
G00 Z5.000000

(Change tool to Default tool)

G00 Z5.000000
G00 X615.507968 Y367.946895

G01 Z-0.125000 F100.0(Penetrate)
G01 X615.507968 Y537.891813 Z-0.125000 F400.000000
G00 Z5.000000

(Change tool to Default tool)

G00 Z5.000000
G00 X625.063037 Y537.037955

G01 Z-0.125000 F100.0(Penetrate)
G01 X625.063037 Y368.040005 Z-0.125000 F400.000000
G00 Z5.000000

(Change tool to Default tool)

G00 Z5.000000
G00 X634.618106 Y368.738333

G01 Z-0.125000 F100.0(Penetrate)
G01 X634.618106 Y535.243543 Z-0.125000 F400.000000
G00 Z5.000000

(Change tool to Default tool)

G00 Z5.000000
G00 X644.173176 Y532.315423

G01 Z-0.125000 F100.0(Penetrate)
G01 X644.173176 Y370.025145 Z-0.125000 F400.000000
G00 Z5.000000

(Change tool to Default tool)

G00 Z5.000000
G00 X653.728245 Y371.913274

G01 Z-0.125000 F100.0(Penetrate)
G01 X653.728245 Y528.383548 Z-0.125000 F400.000000
G00 Z5.000000

(Change tool to Default tool)

G00 Z5.000000
G00 X663.283315 Y523.268982

G01 Z-0.125000 F100.0(Penetrate)
G01 X663.283315 Y374.472421 Z-0.125000 F400.000000
G00 Z5.000000

(Change tool to Default tool)

G00 Z5.000000
G00 X672.838384 Y377.875196

G01 Z-0.125000 F100.0(Penetrate)
G01 X672.838384 Y516.901587 Z-0.125000 F400.000000
G00 Z5.000000

(Change tool to Default tool)

G00 Z5.000000
G00 X682.393453 Y508.929903

G01 Z-0.125000 F100.0(Penetrate)
G01 X682.393453 Y382.264733 Z-0.125000 F400.000000
G00 Z5.000000

(Change tool to Default tool)

G00 Z5.000000
G00 X691.948523 Y388.104156

G01 Z-0.125000 F100.0(Penetrate)
G01 X691.948523 Y499.025269 Z-0.125000 F400.000000
G00 Z5.000000

(Change tool to Default tool)

G00 Z5.000000
G00 X701.503592 Y486.280857

G01 Z-0.125000 F100.0(Penetrate)
G01 X701.503592 Y396.715388 Z-0.125000 F400.000000
G00 Z5.000000

(Change tool to Default tool)

G00 Z5.000000
G00 X711.058661 Y411.037301

G01 Z-0.125000 F100.0(Penetrate)
G01 X711.058661 Y467.739676 Z-0.125000 F400.000000
G00 Z5.000000

(End cutting path id: path4550-7)


(Start cutting path id: path4415-6)
(Change tool to Default tool)

G00 Z5.000000
G00 X572.777220 Y377.779225

G01 Z-0.125000 F100.0(Penetrate)
G03 X600.424159 Y368.849458 Z-0.125000 I36.022738 J64.265003 F400.000000
G03 X637.264263 Y368.985315 Z-0.125000 I17.845211 J155.946456
G03 X673.287723 Y377.709986 Z-0.125000 I-19.326052 J158.527018
G03 X696.599453 Y391.806202 Z-0.125000 I-25.005735 J67.677522
G03 X716.362062 Y436.780271 Z-0.125000 I-40.072307 J44.437766
G03 X701.934093 Y485.645838 Z-0.125000 I-92.781010 J-0.831600
G03 X662.780433 Y524.002581 Z-0.125000 I-101.323477 J-64.266680
G03 X605.701003 Y537.791420 Z-0.125000 I-50.238467 J-82.928399
G03 X529.547427 Y469.443141 Z-0.125000 I5.881478 J-83.152390
G03 X572.777220 Y377.779225 Z-0.125000 I85.919564 J-15.505113
G01 X572.777220 Y377.779225 Z-0.125000
G00 Z5.000000

(End cutting path id: path4415-6)


(Start cutting path id: path4451-7-8)
(Change tool to Default tool)

G00 Z5.000000
G00 X670.919129 Y180.296621

G01 Z-0.125000 F100.0(Penetrate)
G01 X674.714880 Y190.031593 Z-0.125000 F400.000000
G01 X674.461790 Y185.256004 Z-0.125000
G01 X670.919129 Y180.296621 Z-0.125000
G00 Z5.000000

(End cutting path id: path4451-7-8)


(Start cutting path id: path4451-77)
(Change tool to Default tool)

G00 Z5.000000
G00 X551.606889 Y203.901305

G01 Z-0.125000 F100.0(Penetrate)
G01 X555.402640 Y213.636277 Z-0.125000 F400.000000
G01 X556.920940 Y211.064819 Z-0.125000
G01 X551.606889 Y203.901305 Z-0.125000
G00 Z5.000000

(End cutting path id: path4451-77)


(Start cutting path id: path4390-2)
(Change tool to Default tool)

G00 Z5.000000
G00 X795.294720 Y218.595486

G01 Z-0.125000 F100.0(Penetrate)
G02 X806.414024 Y203.536105 Z-0.125000 I-7.007120 J-16.808542 F400.000000
G02 X803.330085 Y184.645021 Z-0.125000 I-37.333624 J-3.602613
G02 X790.215940 Y166.614018 Z-0.125000 I-49.067828 J21.903035
G02 X780.111595 Y165.696244 Z-0.125000 I-5.665409 J6.292614
G00 Z5.000000

(End cutting path id: path4390-2)


(Start cutting path id: path4388-4)
(Change tool to Default tool)

G00 Z5.000000
G00 X511.877866 Y284.719604

G01 Z-0.125000 F100.0(Penetrate)
G03 X495.894369 Y282.495626 Z-0.125000 I24.542254 J-234.930387 F400.000000
G03 X482.263854 Y276.141793 Z-0.125000 I4.947895 J-28.411735
G03 X474.741398 Y264.868430 Z-0.125000 I15.665978 J-18.600010
G03 X470.377572 Y231.820275 Z-0.125000 I91.411897 J-28.882623
G00 Z5.000000

(End cutting path id: path4388-4)


(Start cutting path id: path4386-7)
(Change tool to Default tool)

G00 Z5.000000
G00 X510.865626 Y146.593713

G01 Z-0.125000 F100.0(Penetrate)
G03 X499.647032 Y145.737265 Z-0.125000 I0.413393 J-79.319291 F400.000000
G03 X493.309052 Y143.872728 Z-0.125000 I3.497800 J-23.594191
G03 X487.625718 Y140.381885 Z-0.125000 I10.963704 J-24.221515
G03 X479.487375 Y133.368838 Z-0.125000 I96.979161 J-120.768819
G00 Z5.000000

(End cutting path id: path4386-7)


(Start cutting path id: path4384-6)
(Change tool to Default tool)

G00 Z5.000000
G00 X612.858466 Y127.103136

G01 Z-0.125000 F100.0(Penetrate)
G03 X637.145595 Y128.383286 Z-0.125000 I7.600031 J86.840465 F400.000000
G03 X650.076656 Y137.493522 Z-0.125000 I-3.703487 J18.989012
G00 Z5.000000

(End cutting path id: path4384-6)


(Start cutting path id: path4382-1)
(Change tool to Default tool)

G00 Z5.000000
G00 X522.675691 Y337.776198

G01 Z-0.125000 F100.0(Penetrate)
G03 X589.449594 Y323.425877 Z-0.125000 I80.005731 J209.748057 F400.000000
G03 X660.096938 Y327.385726 Z-0.125000 I18.178177 J307.871293
G00 Z5.000000

(End cutting path id: path4382-1)


(Start cutting path id: path4380-5)
(Change tool to Default tool)

G00 Z5.000000
G00 X552.736656 Y271.277645

G01 Z-0.125000 F100.0(Penetrate)
G02 X599.304862 Y285.422480 Z-0.125000 I53.114395 J-91.136091 F400.000000
G02 X654.371062 Y283.746107 Z-0.125000 I18.500609 J-297.541223
G02 X673.220230 Y278.762634 Z-0.125000 I-376.240235 J-1461.205610
G02 X693.020781 Y270.843097 Z-0.125000 I-24.218008 J-89.262834
G02 X709.814625 Y258.647534 Z-0.125000 I-37.505284 J-69.307208
G02 X731.670499 Y231.794093 Z-0.125000 I-93.823958 J-98.683732
G00 Z5.000000

(End cutting path id: path4380-5)


(Start cutting path id: path4378-0)
(Change tool to Default tool)

G00 Z5.000000
G00 X680.853296 Y14.894430

G01 Z-0.125000 F100.0(Penetrate)
G02 X649.591222 Y19.779570 Z-0.125000 I30.676080 J298.781366 F400.000000
G02 X627.433530 Y27.681843 Z-0.125000 I18.039810 J85.598810
G02 X611.474207 Y41.392193 Z-0.125000 I20.997712 J40.585842
G02 X604.269534 Y62.430551 Z-0.125000 I30.546234 J22.213499
G02 X610.351307 Y75.357966 Z-0.125000 I100.952978 J-39.599567
G02 X620.962599 Y89.150509 Z-0.125000 I50.899387 J-28.181272
G02 X634.908445 Y99.393671 Z-0.125000 I45.723959 J-47.637123
G02 X664.391344 Y111.784925 Z-0.125000 I73.968879 J-134.726056
G02 X696.704571 Y119.351220 Z-0.125000 I136.468651 J-510.031095
G03 X729.271624 Y126.636577 Z-0.125000 I-153.092159 J760.787090
G03 X760.702955 Y136.382873 Z-0.125000 I-66.647609 J270.490691
G03 X774.614683 Y146.073197 Z-0.125000 I-12.128056 J32.242626
G00 Z5.000000

(End cutting path id: path4378-0)


(Start cutting path id: path4376-6)
(Change tool to Default tool)

G00 Z5.000000
G00 X399.569253 Y237.508849

G01 Z-0.125000 F100.0(Penetrate)
G03 X399.076417 Y215.380852 Z-0.125000 I127.535574 J-13.909966 F400.000000
G03 X408.992148 Y181.698684 Z-0.125000 I79.498156 J5.102916
G03 X430.331214 Y157.301941 Z-0.125000 I67.862129 J37.826196
G03 X489.751908 Y127.890066 Z-0.125000 I109.440781 J146.373144
G02 X547.484663 Y115.166878 Z-0.125000 I-62.680456 J-421.764615
G02 X576.355743 Y102.433578 Z-0.125000 I-34.611267 J-117.573826
G02 X596.117275 Y82.202078 Z-0.125000 I-29.296558 J-48.383003
G02 X599.975128 Y61.391513 Z-0.125000 I-27.706452 J-15.899075
G02 X590.616937 Y43.404360 Z-0.125000 I-38.669365 J8.690569
G02 X571.140347 Y30.146568 Z-0.125000 I-37.456889 J34.091588
G02 X546.527479 Y24.698341 Z-0.125000 I-30.952083 J81.509319
G02 X501.919334 Y25.284815 Z-0.125000 I-18.899483 J259.251742
G00 Z5.000000

(End cutting path id: path4376-6)


(Start cutting path id: path4359-1-0)
(Change tool to Default tool)

G00 Z5.000000
G00 X503.832975 Y215.192277

G01 Z-0.125000 F100.0(Penetrate)
G02 X479.246749 Y211.912385 Z-0.125000 I-28.471334 J119.632760 F400.000000
G02 X464.643115 Y213.438568 Z-0.125000 I-1.714141 J54.230063
G02 X451.608498 Y219.415445 Z-0.125000 I9.015250 J36.862478
G02 X444.183883 Y227.384250 Z-0.125000 I15.870150 J22.229573
G02 X439.404297 Y249.019086 Z-0.125000 I28.996509 J17.751306
G02 X448.419575 Y276.320352 Z-0.125000 I70.337325 J-8.087292
G02 X467.268278 Y298.182491 Z-0.125000 I66.848476 J-38.577824
G02 X494.464592 Y309.893720 Z-0.125000 I35.212931 J-44.339132
G02 X521.148204 Y306.158574 Z-0.125000 I6.874826 J-48.067215
G02 X560.243477 Y275.997489 Z-0.125000 I-42.916923 J-96.048087
G00 Z5.000000

(End cutting path id: path4359-1-0)


(Start cutting path id: path4359-3)
(Change tool to Default tool)

G00 Z5.000000
G00 X731.670499 Y161.139299

G01 Z-0.125000 F100.0(Penetrate)
G03 X779.434418 Y146.826902 Z-0.125000 I57.593306 J105.346691 F400.000000
G03 X805.180047 Y151.370346 Z-0.125000 I4.216114 J51.325312
G03 X825.725246 Y169.332392 Z-0.125000 I-20.144612 J43.772586
G03 X833.330465 Y192.404021 Z-0.125000 I-41.974848 J26.625671
G03 X828.876472 Y215.792044 Z-0.125000 I-46.230844 J3.313960
G03 X810.471951 Y235.079384 Z-0.125000 I-38.893603 J-18.688643
G03 X785.043840 Y241.304319 Z-0.125000 I-24.669588 J-45.724442
G03 X730.954705 Y230.235492 Z-0.125000 I2.164917 J-148.270027
G00 Z5.000000

(End cutting path id: path4359-3)


(Start cutting path id: path4357-0)
(Change tool to Default tool)

G00 Z5.000000
G00 X506.683969 Y215.169390

G01 Z-0.125000 F100.0(Penetrate)
G03 X500.008229 Y190.674343 Z-0.125000 I92.211739 J-38.288067 F400.000000
G03 X500.192708 Y172.318641 Z-0.125000 I61.383298 J-8.561863
G03 X506.003137 Y154.872126 Z-0.125000 I56.013275 J8.963980
G03 X516.518175 Y140.297138 Z-0.125000 I56.715946 J29.836879
G03 X547.037463 Y119.797888 Z-0.125000 I62.496169 J60.076125
G03 X591.867845 Y108.600838 Z-0.125000 I64.249260 J161.895345
G03 X638.818815 Y108.769239 Z-0.125000 I22.748496 J202.771332
G03 X681.230077 Y119.798429 Z-0.125000 I-19.235931 J161.027178
G03 X715.683701 Y142.267920 Z-0.125000 I-41.841294 J101.806905
G03 X733.101968 Y173.607848 Z-0.125000 I-42.368663 J44.058244
G00 Z5.000000

(End cutting path id: path4357-0)


(Start cutting path id: path4355-8)
(Change tool to Default tool)

G00 Z5.000000
G00 X345.173318 Y380.376778

G01 Z-0.125000 F100.0(Penetrate)
G03 X278.339233 Y301.464791 Z-0.125000 I202.699073 J-239.433273 F400.000000
G03 X259.493156 Y243.506618 Z-0.125000 I118.508821 J-70.578286
G03 X268.970240 Y182.729784 Z-0.125000 I125.608514 J-11.540861
G03 X306.306341 Y125.932202 Z-0.125000 I174.261945 J73.881434
G03 X361.802730 Y81.268145 Z-0.125000 I197.153436 J188.158906
G03 X440.577703 Y43.227819 Z-0.125000 I235.418304 J386.925948
G03 X525.253240 Y19.924570 Z-0.125000 I179.749061 J487.651073
G03 X617.272072 Y10.967757 Z-0.125000 I97.393663 J523.423462
G03 X711.125349 Y18.718957 Z-0.125000 I5.146528 J509.758574
G03 X795.419876 Y41.497166 Z-0.125000 I-85.453582 J483.597121
G03 X873.681716 Y79.675884 Z-0.125000 I-149.363771 J405.481104
G03 X928.393820 Y124.530345 Z-0.125000 I-141.664398 J228.593221
G03 X965.182305 Y181.477911 Z-0.125000 I-139.334030 J130.367236
G03 X974.487684 Y241.575928 Z-0.125000 I-117.426926 J48.951414
G03 X956.107661 Y298.751563 Z-0.125000 I-135.076923 J-11.880544
G03 X891.995246 Y374.142547 Z-0.125000 I-251.142528 J-148.615288
G00 Z5.000000

(End cutting path id: path4355-8)


(Start cutting path id: path4353-8)
(Change tool to Default tool)

G00 Z5.000000
G00 X325.132754 Y471.812343

G01 Z-0.125000 F100.0(Penetrate)
G03 X332.001958 Y422.758872 Z-0.125000 I264.277751 J12.000439 F400.000000
G03 X343.236466 Y390.846703 Z-0.125000 I156.137422 J37.033736
G03 X361.402507 Y362.275599 Z-0.125000 I125.370722 J59.652339
G03 X380.980985 Y343.001474 Z-0.125000 I101.535960 J83.558403
G03 X431.033937 Y315.818280 Z-0.125000 I101.725066 J127.635032
G03 X471.142813 Y302.448801 Z-0.125000 I17287.191291 J51795.293732
G00 Z5.000000

(End cutting path id: path4353-8)


(Start cutting path id: path4351-3)
(Change tool to Default tool)

G00 Z5.000000
G00 X994.345447 Y753.911731

G01 Z-0.125000 F100.0(Penetrate)
G02 X1045.660731 Y733.857283 Z-0.125000 I-145.691747 J-448.475723 F400.000000
G02 X1078.201667 Y715.548574 Z-0.125000 I-95.827864 J-208.392031
G02 X1106.188227 Y691.657019 Z-0.125000 I-91.600454 J-135.638244
G02 X1122.464550 Y668.740975 Z-0.125000 I-76.894730 J-71.853383
G02 X1134.323855 Y616.434378 Z-0.125000 I-92.114963 J-48.382636
G02 X1122.462086 Y545.584166 Z-0.125000 I-280.828799 J10.598404
G00 Z5.000000

(End cutting path id: path4351-3)


(Start cutting path id: path4349-6)
(Change tool to Default tool)

G00 Z5.000000
G00 X169.102413 Y669.229951

G01 Z-0.125000 F100.0(Penetrate)
G03 X112.792430 Y622.288333 Z-0.125000 I145.180151 J-231.399278 F400.000000
G03 X86.909527 Y573.326183 Z-0.125000 I80.970430 J-74.125793
G03 X84.516020 Y545.279244 Z-0.125000 I94.071752 J-22.153619
G03 X91.276877 Y511.751073 Z-0.125000 I124.120927 J7.582879
G03 X106.158316 Y480.464350 Z-0.125000 I153.033307 J53.607328
G03 X136.178510 Y439.602061 Z-0.125000 I261.785141 J160.866457
G00 Z5.000000

(End cutting path id: path4349-6)


(Start cutting path id: path4347-1)
(Change tool to Default tool)

G00 Z5.000000
G00 X327.995692 Y416.743213

G01 Z-0.125000 F100.0(Penetrate)
G02 X254.101224 Y391.344750 Z-0.125000 I-169.315479 J372.413869 F400.000000
G02 X200.150642 Y384.557477 Z-0.125000 I-57.626469 J240.246037
G02 X146.396569 Y391.024386 Z-0.125000 I-3.001223 J201.693375
G02 X106.947259 Y407.329080 Z-0.125000 I39.153596 J150.608649
G02 X49.020099 Y468.192244 Z-0.125000 I76.627909 J130.929400
G02 X30.179184 Y544.330457 Z-0.125000 I147.840851 J76.984479
G02 X48.487653 Y619.376916 Z-0.125000 I159.639751 J0.810513
G02 X109.118839 Y680.919656 Z-0.125000 I131.842720 J-69.251967
G02 X150.834728 Y696.830546 Z-0.125000 I79.784343 J-146.540442
G02 X210.550120 Y703.176037 Z-0.125000 I55.247048 J-235.758361
G02 X270.589186 Y696.166071 Z-0.125000 I-5.713127 J-309.548650
G02 X355.193599 Y670.268990 Z-0.125000 I-113.283063 J-521.237504
G01 X333.721567 Y642.214906 Z-0.125000
G02 X347.503938 Y662.811391 Z-0.125000 I47.058386 J-16.580095
G02 X395.651853 Y697.515730 Z-0.125000 I187.860972 J-209.881760
G02 X449.263447 Y723.231178 Z-0.125000 I205.711436 J-360.124948
G02 X523.673181 Y746.236229 Z-0.125000 I188.955582 J-479.334463
G02 X674.659316 Y754.752955 Z-0.125000 I100.625335 J-441.291266
G02 X830.441967 Y685.854594 Z-0.125000 I-31.565905 J-281.937473
G01 X814.695810 Y703.518275 Z-0.125000
G02 X881.592152 Y751.157646 Z-0.125000 I273.741460 J-313.605887
G02 X935.094577 Y774.335657 Z-0.125000 I130.526684 J-227.958706
G02 X992.507699 Y783.977251 Z-0.125000 I65.235620 J-212.699997
G02 X1039.622470 Y779.584791 Z-0.125000 I6.510391 J-185.047092
G02 X1123.890610 Y736.286014 Z-0.125000 I-41.411609 J-184.246106
G02 X1172.699162 Y669.649612 Z-0.125000 I-131.596006 J-147.582294
G02 X1186.658337 Y591.128394 Z-0.125000 I-149.498527 J-67.078636
G02 X1157.192951 Y526.255333 Z-0.125000 I-101.843837 J7.129407
G02 X1126.946386 Y504.906202 Z-0.125000 I-76.076211 J75.681019
G02 X1075.992214 Y489.680592 Z-0.125000 I-75.543621 J159.940338
G02 X1021.957161 Y487.990600 Z-0.125000 I-34.796528 J247.877316
G02 X936.370900 Y501.944547 Z-0.125000 I39.399935 J511.106512
G03 X935.584166 Y527.808245 Z-0.125000 I-143.271125 J8.585730
G03 X927.782087 Y559.091754 Z-0.125000 I-129.663391 J-15.723265
G02 X936.901460 Y477.366101 Z-0.125000 I-216.514214 J-65.531401
G02 X922.333922 Y422.777686 Z-0.125000 I-149.869876 J10.756512
G02 X887.800500 Y374.850006 Z-0.125000 I-153.234762 J74.005479
G02 X842.018068 Y339.034726 Z-0.125000 I-187.875608 J192.990798
G02 X711.835174 Y286.676122 Z-0.125000 I-214.606961 J345.571677
G03 X678.706152 Y279.070390 Z-0.125000 I212.357423 J-1000.940280
G00 Z5.000000

(End cutting path id: path4347-1)


(Footer)
M5
G00 X0.0000 Y0.0000
M2
(Using default footer. To add your own footer create file "footer" in the output dir.)
(end)
%