%
(Header)
(Generated by gcodetools from Inkscape.)
(Using default header. To add your own header create file "header" in the output dir.)
M3
(Header end.)
G21 (All units in mm)

(Start cutting path id: path40291)
(Change tool to Default tool)

G00 Z5.000000
G00 X2648.138540 Y48.694487

G01 Z-0.125000 F100.0(Penetrate)
G02 X2644.504262 Y52.094185 Z-0.125000 I4.208577 J8.141340 F400.000000
G02 X2642.418883 Y58.155075 Z-0.125000 I13.009900 J7.865539
G03 X2642.112899 Y60.244442 Z-0.125000 I-39.685624 J-4.744806
G03 X2642.026876 Y60.414038 Z-0.125000 I-0.319517 J-0.055451
G03 X2641.872258 Y60.444278 Z-0.125000 I-0.098919 J-0.095376
G03 X2640.509932 Y59.741404 Z-0.125000 I5.273463 J-11.892827
G02 X2639.092333 Y59.068409 Z-0.125000 I-4.356264 J7.346537
G02 X2638.269737 Y58.920490 Z-0.125000 I-0.833727 J2.275216
G01 X2637.407322 Y58.916596 Z-0.125000
G01 X2637.407322 Y62.983105 Z-0.125000
G03 X2637.271369 Y66.913704 Z-0.125000 I-56.887669 J-0.000000
G03 X2637.125721 Y67.049613 Z-0.125000 I-0.145648 J-0.010088
G03 X2636.860990 Y66.988061 Z-0.125000 I-0.000000 J-0.600070
G03 X2635.479264 Y66.240217 Z-0.125000 I8.844469 J-17.991504
G02 X2634.080607 Y65.552749 Z-0.125000 I-5.074767 J8.558116
G02 X2633.433746 Y65.426915 Z-0.125000 I-0.657213 J1.652922
G02 X2633.012062 Y65.709235 Z-0.125000 I-0.002651 J0.452121
G02 X2632.545480 Y67.618926 Z-0.125000 I6.288730 J2.548329
G03 X2631.058279 Y75.517631 Z-0.125000 I-43.627812 J-4.125066
G03 X2629.381543 Y78.707810 Z-0.125000 I-8.472745 J-2.417486
G03 X2628.127510 Y79.858979 Z-0.125000 I-4.763963 J-3.931021
G03 X2626.899032 Y80.422316 Z-0.125000 I-2.212350 J-3.203363
G01 X2625.537817 Y80.777890 Z-0.125000
G01 X2625.310769 Y83.266726 Z-0.125000
G02 X2624.910329 Y93.188862 Z-0.125000 I97.692078 J8.911839
G02 X2625.782081 Y129.023223 Z-0.125000 I1278.014650 J-13.162819
G03 X2625.901707 Y135.855446 Z-0.125000 I-163.916390 J6.287196
G03 X2625.725834 Y145.939903 Z-0.125000 I-357.271842 J-1.187073
G02 X2625.575775 Y156.025062 Z-0.125000 I302.271097 J9.541230
G02 X2625.766191 Y168.387037 Z-0.125000 I454.431680 J-0.817333
G03 X2626.086950 Y180.749755 Z-0.125000 I-2015.749460 J58.485339
G03 X2626.121114 Y183.900641 Z-0.125000 I-130.924525 J2.995224
G01 X2626.117445 Y187.052089 Z-0.125000
G01 X2624.941397 Y186.869878 Z-0.125000
G03 X2623.788630 Y186.603404 Z-0.125000 I1.234731 J-7.968125
G03 X2621.859079 Y185.914344 Z-0.125000 I7.157996 J-23.090452
G02 X2618.807772 Y185.249125 Z-0.125000 I-3.454877 J8.516584
G02 X2618.277199 Y185.756890 Z-0.125000 I-0.022318 J0.507765
G03 X2618.150000 Y186.285537 Z-0.125000 I-1.162145 J0.000000
G03 X2617.885192 Y186.524288 Z-0.125000 I-0.444949 J-0.227279
G03 X2617.485833 Y186.561290 Z-0.125000 I-0.264883 J-0.685236
G03 X2613.729865 Y185.750579 Z-0.125000 I12.341631 J-66.283812
G02 X2609.930118 Y185.125457 Z-0.125000 I-5.898094 J23.990259
G02 X2602.819606 Y184.820552 Z-0.125000 I-7.166996 J84.074920
G02 X2595.679162 Y184.934603 Z-0.125000 I-0.175528 J212.590940
G02 X2592.627291 Y185.153583 Z-0.125000 I1.290047 J39.355124
G02 X2583.509860 Y187.361868 Z-0.125000 I4.079221 J36.767920
G02 X2579.102525 Y190.318016 Z-0.125000 I4.223316 J11.060096
G02 X2577.409725 Y192.955408 Z-0.125000 I6.266889 J5.884331
G02 X2576.237885 Y197.340585 Z-0.125000 I16.696820 J6.811015
G03 X2575.848400 Y199.599774 Z-0.125000 I-31.746528 J-4.309943
G03 X2575.433890 Y201.178232 Z-0.125000 I-15.885193 J-3.327863
G03 X2573.166824 Y205.232593 Z-0.125000 I-10.993629 J-3.486264
G03 X2570.595162 Y206.777947 Z-0.125000 I-3.640466 J-3.145728
G01 X2569.667779 Y206.989244 Z-0.125000
G01 X2569.667779 Y217.824151 Z-0.125000
G01 X2569.667779 Y228.659088 Z-0.125000
G01 X2571.425572 Y228.886878 Z-0.125000
G03 X2576.940374 Y230.960975 Z-0.125000 I-1.655057 J12.769301
G03 X2579.129279 Y234.051279 Z-0.125000 I-2.962011 J4.418401
G01 X2579.519762 Y235.565777 Z-0.125000
G01 X2583.179987 Y235.565777 Z-0.125000
G01 X2586.840211 Y235.565777 Z-0.125000
G01 X2587.229904 Y234.589816 Z-0.125000
G03 X2587.727956 Y233.773829 Z-0.125000 I2.653421 J1.059572
G03 X2588.079224 Y233.613855 Z-0.125000 I0.351267 J0.305666
G03 X2588.425383 Y233.775804 Z-0.125000 I0.000000 J0.450925
G03 X2588.893943 Y234.589816 Z-0.125000 I-2.090627 J1.745264
G02 X2589.353198 Y235.417112 Z-0.125000 I2.828723 J-1.029184
G02 X2589.658539 Y235.565777 Z-0.125000 I0.305341 J-0.239235
G02 X2590.048594 Y235.485361 Z-0.125000 I0.000000 J-0.986187
G02 X2592.177090 Y234.481191 Z-0.125000 I-13.619168 J-31.625890
G01 X2594.286109 Y233.396637 Z-0.125000
G01 X2599.774258 Y233.984362 Z-0.125000
G02 X2628.549101 Y236.503699 Z-0.125000 I79.460255 J-741.975745
G02 X2650.284529 Y237.423098 Z-0.125000 I28.750246 J-422.299346
G01 X2661.436851 Y237.607948 Z-0.125000
G01 X2661.991107 Y236.102363 Z-0.125000
G03 X2663.507788 Y233.803021 Z-0.125000 I5.660883 J2.084119
G03 X2664.807572 Y233.439645 Z-0.125000 I0.994879 J1.052316
G02 X2665.478906 Y233.564364 Z-0.125000 I2.525261 J-11.723718
G02 X2672.397854 Y234.627326 Z-0.125000 I195.130553 J-1247.078322
G01 X2679.320370 Y235.671150 Z-0.125000
G01 X2682.996851 Y234.642484 Z-0.125000
G03 X2686.679770 Y233.661274 Z-0.125000 I41.297746 J147.606436
G03 X2687.060315 Y233.613855 Z-0.125000 I0.380545 J1.503243
G03 X2687.347570 Y233.756295 Z-0.125000 I-0.000000 J0.360870
G03 X2687.802446 Y234.589816 Z-0.125000 I-2.519558 J1.915875
G02 X2688.272589 Y235.401524 Z-0.125000 I2.516646 J-0.915639
G02 X2688.626168 Y235.565777 Z-0.125000 I0.353579 J-0.298438
G02 X2690.590349 Y234.563808 Z-0.125000 I-0.000000 J-2.426197
G02 X2696.292537 Y224.992852 Z-0.125000 I-50.140125 J-36.356609
G02 X2700.298380 Y213.407143 Z-0.125000 I-48.430331 J-23.230517
G02 X2701.697234 Y200.655704 Z-0.125000 I-57.419298 J-12.751440
G01 X2701.697234 Y197.926716 Z-0.125000
G01 X2698.510550 Y196.371815 Z-0.125000
G02 X2690.222469 Y192.934210 Z-0.125000 I-32.387802 J66.377036
G02 X2681.469436 Y190.489265 Z-0.125000 I-24.724757 J71.625313
G02 X2677.676011 Y189.922455 Z-0.125000 I-6.315269 J29.288146
G02 X2668.171661 Y189.365998 Z-0.125000 I-15.538433 J183.952400
G03 X2658.662308 Y188.997648 Z-0.125000 I25.830091 J-789.762127
G03 X2658.521326 Y188.933972 Z-0.125000 I0.009338 J-0.208586
G03 X2658.472298 Y188.791465 Z-0.125000 I0.128447 J-0.123879
G03 X2659.247484 Y182.016251 Z-0.125000 I363.221700 J38.126076
G01 X2660.089522 Y175.218774 Z-0.125000
G01 X2659.540289 Y165.621810 Z-0.125000
G02 X2658.962599 Y156.026800 Z-0.125000 I-1615.472961 J92.448523
G02 X2658.718035 Y152.608978 Z-0.125000 I-205.301558 J12.972790
G03 X2658.588705 Y149.189399 Z-0.125000 I40.652676 J-3.249738
G03 X2658.782353 Y137.156241 Z-0.125000 I504.524892 J2.101136
G02 X2658.925117 Y106.116735 Z-0.125000 I-662.497208 J-18.567171
G02 X2657.621771 Y75.507955 Z-0.125000 I-645.330493 J12.146533
G02 X2655.926445 Y58.726821 Z-0.125000 I-244.666237 J16.241384
G02 X2654.051434 Y49.238301 Z-0.125000 I-79.898957 J10.859180
G01 X2653.690867 Y47.855689 Z-0.125000
G01 X2651.726064 Y47.855689 Z-0.125000
G02 X2649.814889 Y48.076142 Z-0.125000 I-0.000000 J8.394502
G02 X2648.138596 Y48.694495 Z-0.125000 I1.648260 J7.049569
G01 X2648.138540 Y48.694487 Z-0.125000
G00 Z5.000000

(Change tool to Default tool)

G00 Z5.000000
G00 X2495.969735 Y50.274669

G01 Z-0.125000 F100.0(Penetrate)
G02 X2496.020058 Y50.611960 Z-0.125000 I1.158986 J-0.000515 F400.000000
G02 X2496.595676 Y52.328840 Z-0.125000 I31.234822 J-9.517168
G01 X2497.221447 Y54.036776 Z-0.125000
G01 X2496.473615 Y54.036776 Z-0.125000
G03 X2495.933352 Y53.788304 Z-0.125000 I-0.000000 J-0.711596
G03 X2495.525828 Y52.931139 Z-0.125000 I1.376309 J-1.179799
G02 X2494.537248 Y50.710577 Z-0.125000 I-5.032771 J0.910221
G02 X2493.359547 Y50.132926 Z-0.125000 I-1.177702 J0.911710
G02 X2492.771087 Y50.324624 Z-0.125000 I0.000000 J0.999050
G02 X2491.805405 Y51.265661 Z-0.125000 I2.793653 J3.832821
G03 X2488.515187 Y54.186222 Z-0.125000 I-9.271241 J-7.131094
G03 X2477.807917 Y59.594555 Z-0.125000 I-44.465141 J-74.727728
G02 X2475.319859 Y60.932979 Z-0.125000 I5.791384 J13.747668
G02 X2473.003055 Y62.800363 Z-0.125000 I9.184705 J13.766055
G02 X2467.628788 Y69.780948 Z-0.125000 I21.005183 J21.730717
G02 X2463.714727 Y79.411796 Z-0.125000 I36.733322 J20.539524
G02 X2461.928052 Y90.731715 Z-0.125000 I52.478544 J14.083888
G02 X2462.703948 Y99.256362 Z-0.125000 I30.275176 J1.542049
G02 X2465.829617 Y108.704487 Z-0.125000 I55.686068 J-13.181217
G02 X2468.832037 Y113.489797 Z-0.125000 I16.936578 J-7.291870
G02 X2473.251579 Y116.726466 Z-0.125000 I9.294602 J-8.055720
G02 X2479.740321 Y118.199044 Z-0.125000 I7.192376 J-16.660125
G01 X2482.798001 Y118.317688 Z-0.125000
G01 X2482.798001 Y117.480182 Z-0.125000
G03 X2483.734367 Y114.101907 Z-0.125000 I6.562348 J-0.000000
G03 X2489.248020 Y106.738742 Z-0.125000 I38.735357 J23.259704
G02 X2490.210562 Y104.270993 Z-0.125000 I-2.673540 J-2.464404
G02 X2489.241812 Y99.967319 Z-0.125000 I-10.085131 J0.009280
G01 X2487.502166 Y96.290317 Z-0.125000
G01 X2487.505270 Y92.812213 Z-0.125000
G03 X2487.628385 Y89.350081 Z-0.125000 I48.740940 J0.000000
G03 X2487.839732 Y88.091095 Z-0.125000 I6.696037 J0.476833
G03 X2490.094315 Y84.882734 Z-0.125000 I5.508414 J1.474528
G03 X2497.304759 Y81.514442 Z-0.125000 I13.402589 J19.288907
G01 X2500.363427 Y80.678531 Z-0.125000
G01 X2503.576951 Y82.015533 Z-0.125000
G03 X2518.012928 Y90.715148 Z-0.125000 I-21.941026 J52.735729
G03 X2523.536751 Y98.503800 Z-0.125000 I-11.675078 J14.133245
G03 X2524.543785 Y102.558724 Z-0.125000 I-17.852870 J6.586244
G03 X2524.762611 Y107.637016 Z-0.125000 I-27.915691 J3.746760
G01 X2524.666204 Y109.673915 Z-0.125000
G01 X2520.118870 Y111.272574 Z-0.125000
G02 X2505.725784 Y117.206471 Z-0.125000 I48.751843 J138.673728
G02 X2494.402922 Y123.505773 Z-0.125000 I43.739403 J91.946590
G02 X2482.945528 Y132.221598 Z-0.125000 I49.347229 J76.758015
G02 X2473.992668 Y141.744949 Z-0.125000 I50.129851 J56.096802
G02 X2463.746633 Y160.294168 Z-0.125000 I51.310312 J40.446696
G02 X2458.901088 Y184.169088 Z-0.125000 I81.355985 J28.940814
G02 X2458.771451 Y190.182374 Z-0.125000 I80.860318 J4.751268
G02 X2459.050666 Y193.766051 Z-0.125000 I28.921830 J-0.450672
G02 X2466.861854 Y212.639393 Z-0.125000 I40.483293 J-5.701893
G02 X2490.307906 Y235.321779 Z-0.125000 I83.338355 J-62.685268
G01 X2493.901555 Y237.843014 Z-0.125000
G01 X2505.419467 Y237.843014 Z-0.125000
G02 X2519.331879 Y237.297963 Z-0.125000 I0.000000 J-177.829369
G02 X2524.474265 Y236.347679 Z-0.125000 I-1.962631 J-25.009583
G02 X2535.349283 Y230.823202 Z-0.125000 I-9.498108 J-32.163232
G02 X2544.672966 Y220.899854 Z-0.125000 I-25.387153 J-33.194814
G02 X2548.970826 Y213.249658 Z-0.125000 I-46.321488 J-31.055655
G02 X2552.766873 Y203.395026 Z-0.125000 I-73.317427 J-33.900636
G02 X2553.448071 Y200.232776 Z-0.125000 I-17.162424 J-5.351548
G02 X2553.546484 Y197.040631 Z-0.125000 I-17.390839 J-2.133745
G02 X2550.758544 Y185.348376 Z-0.125000 I-34.721682 J2.100642
G02 X2544.790483 Y176.768431 Z-0.125000 I-24.143231 J10.428001
G02 X2543.372041 Y175.514802 Z-0.125000 I-16.684227 J17.448418
G02 X2542.680025 Y175.045726 Z-0.125000 I-2.977848 J3.648149
G02 X2540.288439 Y174.107216 Z-0.125000 I-4.707142 J8.478643
G02 X2537.445763 Y173.758691 Z-0.125000 I-2.877470 J11.702404
G01 X2536.112940 Y173.754797 Z-0.125000
G01 X2536.112940 Y175.869381 Z-0.125000
G03 X2536.042485 Y177.913515 Z-0.125000 I-29.688861 J-0.000000
G03 X2535.967003 Y177.983967 Z-0.125000 I-0.075482 J-0.005209
G03 X2535.832274 Y177.946706 Z-0.125000 I0.000000 J-0.262206
G03 X2534.337565 Y177.008003 Z-0.125000 I21.467182 J-35.841869
G02 X2532.283887 Y176.239562 Z-0.125000 I-2.714612 J4.126393
G02 X2531.325943 Y176.601352 Z-0.125000 I-0.144137 J1.067468
G02 X2530.113418 Y178.409581 Z-0.125000 I6.666409 J5.780873
G02 X2520.072134 Y198.921157 Z-0.125000 I866.725653 J437.012458
G01 X2518.394013 Y202.453719 Z-0.125000
G01 X2513.219468 Y202.295322 Z-0.125000
G03 X2508.083572 Y201.919451 Z-0.125000 I1.856868 J-60.648667
G03 X2506.006461 Y201.458465 Z-0.125000 I1.193631 J-10.288274
G03 X2497.753345 Y195.137791 Z-0.125000 I5.031529 J-15.118357
G03 X2492.817454 Y181.542877 Z-0.125000 I25.715641 J-17.030042
G03 X2493.430498 Y172.937230 Z-0.125000 I23.592260 J-2.644008
G03 X2496.542393 Y167.185171 Z-0.125000 I13.203878 J3.425563
G03 X2505.404476 Y160.495291 Z-0.125000 I22.187457 J20.176981
G03 X2527.645483 Y151.758721 Z-0.125000 I61.712966 J124.426808
G02 X2534.696253 Y149.649937 Z-0.125000 I-427.789593 J-1443.166228
G02 X2535.760585 Y149.309966 Z-0.125000 I-10.014787 J-33.188922
G02 X2538.284978 Y147.932561 Z-0.125000 I-2.651864 J-7.862065
G02 X2545.120066 Y142.042124 Z-0.125000 I-74.792549 J-93.697872
G02 X2551.430348 Y135.765192 Z-0.125000 I-89.643601 J-96.430265
G02 X2554.258672 Y132.113737 Z-0.125000 I-17.706427 J-16.636048
G02 X2557.521153 Y126.061103 Z-0.125000 I-41.856563 J-26.467043
G02 X2559.364185 Y120.829725 Z-0.125000 I-29.358420 J-13.283410
G02 X2559.760495 Y118.254165 Z-0.125000 I-12.650881 J-3.264906
G02 X2560.057153 Y107.714678 Z-0.125000 I-213.627064 J-11.286944
G02 X2559.476796 Y94.897478 Z-0.125000 I-131.669506 J-0.459802
G02 X2558.196603 Y87.977501 Z-0.125000 I-39.439109 J3.717812
G02 X2545.636589 Y67.887574 Z-0.125000 I-40.330900 J11.243303
G02 X2516.669155 Y51.171390 Z-0.125000 I-55.335274 J62.433471
G01 X2513.689876 Y50.178902 Z-0.125000
G01 X2504.830413 Y50.053621 Z-0.125000
G02 X2496.140821 Y50.100591 Z-0.125000 I-3.143182 J222.323752
G02 X2495.971118 Y50.274643 Z-0.125000 I0.004342 J0.173990
G01 X2495.969735 Y50.274669 Z-0.125000
G00 Z5.000000

(Change tool to Default tool)

G00 Z5.000000
G00 X2381.768287 Y52.704489

G01 Z-0.125000 F100.0(Penetrate)
G02 X2381.057526 Y53.374444 Z-0.125000 I4.324620 J5.300028 F400.000000
G02 X2376.982165 Y57.909621 Z-0.125000 I196.138085 J180.350579
G03 X2372.910460 Y62.395946 Z-0.125000 I-139.053191 J-122.111204
G03 X2372.681493 Y62.495114 Z-0.125000 I-0.228967 J-0.214745
G03 X2372.356604 Y61.985001 Z-0.125000 I0.000000 J-0.358517
G03 X2373.807249 Y60.082439 Z-0.125000 I5.084542 J2.372490
G02 X2375.217956 Y58.038468 Z-0.125000 I-3.102833 J-3.650318
G02 X2375.843059 Y54.362096 Z-0.125000 I-10.175969 J-3.621577
G01 X2375.832335 Y52.247512 Z-0.125000
G01 X2374.387922 Y53.874114 Z-0.125000
G02 X2367.810908 Y61.829778 Z-0.125000 I109.296186 J97.052536
G02 X2353.140116 Y81.507511 Z-0.125000 I655.186313 J503.783888
G02 X2349.239343 Y87.072249 Z-0.125000 I191.051716 J138.073093
G02 X2347.888158 Y89.234499 Z-0.125000 I27.433530 J18.646450
G01 X2346.619343 Y91.449932 Z-0.125000
G01 X2347.442247 Y93.752944 Z-0.125000
G03 X2348.106294 Y96.041770 Z-0.125000 I-18.466486 J6.598347
G03 X2348.046682 Y96.436189 Z-0.125000 I-0.535892 J0.120720
G03 X2347.038787 Y97.992808 Z-0.125000 I-15.160790 J-8.711848
G03 X2341.416439 Y105.648664 Z-0.125000 I-666.031792 J-483.231555
G03 X2335.534197 Y113.460721 Z-0.125000 I-633.472411 J-470.864906
G03 X2335.308018 Y113.573989 Z-0.125000 I-0.228872 J-0.174566
G03 X2334.938429 Y113.526748 Z-0.125000 I-0.020502 J-1.308946
G03 X2327.953419 Y111.541515 Z-0.125000 I138.597011 J-500.932270
G01 X2320.975616 Y109.505595 Z-0.125000
G01 X2320.975616 Y104.742996 Z-0.125000
G03 X2321.160550 Y94.874868 Z-0.125000 I263.375069 J-0.000000
G03 X2322.071118 Y75.524961 Z-0.125000 I1013.873478 J38.014470
G01 X2322.521516 Y67.571648 Z-0.125000
G01 X2321.420822 Y63.813414 Z-0.125000
G03 X2320.400391 Y60.035964 Z-0.125000 I89.081954 J-26.090928
G03 X2319.785457 Y57.209758 Z-0.125000 I49.230178 J-12.191647
G01 X2319.250758 Y54.364275 Z-0.125000
G01 X2317.055493 Y54.329530 Z-0.125000
G02 X2309.875610 Y55.262878 Z-0.125000 I-0.396249 J25.034527
G02 X2308.371995 Y56.773634 Z-0.125000 I0.587915 J2.088768
G03 X2307.981429 Y58.092176 Z-0.125000 I-36.106000 J-9.977852
G03 X2307.910674 Y58.232209 Z-0.125000 I-0.465080 J-0.147100
G03 X2307.798991 Y58.257293 Z-0.125000 I-0.070122 J-0.051038
G03 X2306.534079 Y57.480590 Z-0.125000 I6.989052 J-12.800466
G02 X2304.583906 Y57.098829 Z-0.125000 I-1.416336 J2.063187
G02 X2303.209473 Y58.206476 Z-0.125000 I0.421240 J1.929261
G03 X2303.136434 Y58.234016 Z-0.125000 I-0.050403 J-0.023053
G03 X2301.573459 Y57.474505 Z-0.125000 I11.218455 J-25.074092
G02 X2299.094846 Y56.856779 Z-0.125000 I-2.502963 J4.761530
G02 X2296.761175 Y57.452717 Z-0.125000 I-0.021649 J4.782473
G03 X2294.655987 Y57.684575 Z-0.125000 I-1.330779 J-2.409891
G03 X2293.154403 Y56.395425 Z-0.125000 I0.676195 J-2.306709
G02 X2291.980619 Y54.741371 Z-0.125000 I-5.130098 J2.397016
G02 X2290.817360 Y54.435590 Z-0.125000 I-0.850830 J0.871208
G02 X2289.399464 Y55.118707 Z-0.125000 I1.071817 J4.037761
G02 X2285.067382 Y58.542118 Z-0.125000 I54.318486 J73.188850
G03 X2282.556600 Y60.648847 Z-0.125000 I-1130.878073 J-1345.220899
G03 X2282.464446 Y60.721932 Z-0.125000 I-1.415182 J-1.689799
G02 X2282.421159 Y60.815588 Z-0.125000 I0.065485 J0.087098
G02 X2282.858428 Y67.255672 Z-0.125000 I425.294131 J-25.641755
G03 X2283.804514 Y86.643677 Z-0.125000 I-363.779348 J27.468604
G03 X2283.686356 Y104.624229 Z-0.125000 I-312.971617 J6.933978
G03 X2283.246097 Y115.356210 Z-0.125000 I-940.477344 J-33.206206
G03 X2283.024968 Y118.775684 Z-0.125000 I-95.772235 J-4.476481
G02 X2282.774151 Y126.266309 Z-0.125000 I76.254563 J6.302831
G02 X2283.194132 Y129.673929 Z-0.125000 I16.056985 J-0.249295
G03 X2283.564249 Y131.639199 Z-0.125000 I-22.345940 J5.225870
G03 X2283.853149 Y134.265182 Z-0.125000 I-39.643053 J5.690255
G03 X2283.760598 Y136.798387 Z-0.125000 I-11.197607 J0.859186
G03 X2283.343992 Y137.642759 Z-0.125000 I-1.532072 J-0.230950
G02 X2282.969001 Y138.594669 Z-0.125000 I0.964487 J0.929761
G02 X2283.486570 Y146.265288 Z-0.125000 I75.636467 J-1.250740
G03 X2283.776722 Y150.179511 Z-0.125000 I-44.102200 J5.237055
G03 X2283.966405 Y162.368668 Z-0.125000 I-428.181942 J12.759236
G02 X2284.333156 Y179.007294 Z-0.125000 I401.698659 J-0.530944
G02 X2285.102434 Y188.926685 Z-0.125000 I143.494745 J-6.138916
G01 X2285.619860 Y193.525550 Z-0.125000
G01 X2284.798537 Y195.758422 Z-0.125000
G01 X2283.977242 Y197.991294 Z-0.125000
G01 X2284.600022 Y202.708444 Z-0.125000
G03 X2285.133223 Y207.433732 Z-0.125000 I-124.711051 J16.465112
G03 X2285.426538 Y211.526136 Z-0.125000 I-93.222427 J8.738245
G01 X2285.630302 Y215.626672 Z-0.125000
G01 X2290.528438 Y219.381103 Z-0.125000
G02 X2306.640110 Y230.904844 Z-0.125000 I182.104756 J-237.580898
G02 X2316.109540 Y236.427260 Z-0.125000 I50.833022 J-76.284754
G02 X2322.319592 Y238.526611 Z-0.125000 I10.439566 J-20.646502
G02 X2332.422352 Y239.460582 Z-0.125000 I10.131764 J-54.487480
G02 X2342.670082 Y238.959604 Z-0.125000 I0.055765 J-103.920655
G02 X2349.200435 Y237.807240 Z-0.125000 I-4.258609 J-43.212865
G02 X2362.899410 Y232.094920 Z-0.125000 I-12.851455 J-50.101889
G02 X2374.776570 Y222.509581 Z-0.125000 I-28.075667 J-46.939607
G02 X2381.582937 Y213.889727 Z-0.125000 I-48.142549 J-45.011213
G02 X2387.784841 Y202.867886 Z-0.125000 I-72.861173 J-48.254219
G02 X2391.168379 Y193.243948 Z-0.125000 I-45.305306 J-21.334975
G02 X2393.105887 Y180.745582 Z-0.125000 I-74.839984 J-18.001123
G02 X2391.489631 Y165.045537 Z-0.125000 I-45.431491 J-3.256227
G02 X2384.633689 Y150.914547 Z-0.125000 I-43.390695 J12.323246
G02 X2378.875156 Y144.107333 Z-0.125000 I-47.915546 J34.694635
G02 X2369.044439 Y135.079134 Z-0.125000 I-94.477296 J93.009019
G01 X2364.618743 Y131.407759 Z-0.125000
G01 X2369.412174 Y124.034429 Z-0.125000
G02 X2381.333771 Y103.550837 Z-0.125000 I-201.349535 J-130.897880
G02 X2387.257650 Y89.564936 Z-0.125000 I-87.593079 J-45.348507
G02 X2389.205238 Y81.586083 Z-0.125000 I-46.316010 J-15.532571
G02 X2390.151246 Y71.076566 Z-0.125000 I-79.664958 J-12.468333
G01 X2390.347899 Y62.983169 Z-0.125000
G01 X2388.263405 Y60.558034 Z-0.125000
G03 X2385.276111 Y56.427512 Z-0.125000 I23.077611 J-19.835794
G03 X2383.991097 Y53.467536 Z-0.125000 I10.443972 J-6.292961
G02 X2383.050809 Y52.475302 Z-0.125000 I-1.419297 J0.403346
G02 X2381.768230 Y52.704563 Z-0.125000 I-0.435158 J1.267819
G01 X2381.768287 Y52.704489 Z-0.125000
G00 Z5.000000

(Change tool to Default tool)

G00 Z5.000000
G00 X2323.697057 Y151.657147

G01 Z-0.125000 F100.0(Penetrate)
G03 X2332.125976 Y154.334651 Z-0.125000 I-3.772509 J26.482132 F400.000000
G03 X2342.928328 Y161.514432 Z-0.125000 I-26.244946 J51.203119
G03 X2345.213114 Y163.566536 Z-0.125000 I-30.684173 J36.461334
G03 X2350.062934 Y168.350430 Z-0.125000 I-162.190573 J169.275978
G01 X2354.845472 Y173.207111 Z-0.125000
G01 X2354.842367 Y175.676880 Z-0.125000
G03 X2354.169860 Y179.654453 Z-0.125000 I-12.162193 J-0.010683
G03 X2352.651674 Y181.986087 Z-0.125000 I-5.460633 J-1.895474
G03 X2345.951855 Y186.103292 Z-0.125000 I-13.529531 J-14.506430
G03 X2325.521652 Y191.935242 Z-0.125000 I-49.853408 J-135.943006
G03 X2318.209894 Y193.074964 Z-0.125000 I-15.042772 J-72.481484
G03 X2317.842215 Y192.741681 Z-0.125000 I-0.034769 J-0.331096
G03 X2317.862078 Y192.135952 Z-0.125000 I12.912521 J0.120227
G03 X2318.473349 Y181.562520 Z-0.125000 I3526.212898 J198.552943
G02 X2319.001871 Y170.985656 Z-0.125000 I-567.502601 J-33.659517
G02 X2319.302885 Y161.148641 Z-0.125000 I-490.540343 J-19.933719
G01 X2319.505238 Y151.307688 Z-0.125000
G01 X2320.373890 Y151.307688 Z-0.125000
G03 X2321.239341 Y151.353087 Z-0.125000 I-0.000000 J8.271760
G03 X2323.695702 Y151.657147 Z-0.125000 I-7.060855 J67.115469
G01 X2323.697057 Y151.657147 Z-0.125000
G00 Z5.000000

(Change tool to Default tool)

G00 Z5.000000
G00 X1723.351741 Y57.094857

G01 Z-0.125000 F100.0(Penetrate)
G02 X1715.706012 Y60.986101 Z-0.125000 I9.355407 J27.839010 F400.000000
G02 X1712.166286 Y65.035707 Z-0.125000 I6.682471 J9.412915
G02 X1711.428719 Y66.724710 Z-0.125000 I11.429389 J5.996619
G02 X1710.741572 Y69.059860 Z-0.125000 I21.222524 J7.513670
G03 X1709.961694 Y71.206070 Z-0.125000 I-9.563881 J-2.260471
G03 X1709.494658 Y71.545408 Z-0.125000 I-0.561444 J-0.281660
G03 X1709.129642 Y71.278180 Z-0.125000 I-0.048187 J-0.317087
G03 X1708.810607 Y67.198700 Z-0.125000 I25.922564 J-4.079480
G01 X1708.810607 Y62.748019 Z-0.125000
G01 X1707.674381 Y62.969140 Z-0.125000
G02 X1705.938438 Y63.766014 Z-0.125000 I0.773342 J3.973943
G02 X1704.762835 Y65.268704 Z-0.125000 I2.503552 J3.169810
G02 X1704.002454 Y67.405080 Z-0.125000 I12.380224 J5.609888
G02 X1702.999708 Y71.938851 Z-0.125000 I55.089917 J14.562152
G03 X1702.008702 Y75.432584 Z-0.125000 I-17.998252 J-3.217834
G03 X1701.430637 Y75.914891 Z-0.125000 I-0.730890 J-0.288431
G01 X1700.656784 Y76.068377 Z-0.125000
G01 X1700.656784 Y72.679769 Z-0.125000
G01 X1700.656784 Y69.291197 Z-0.125000
G01 X1699.214967 Y69.390353 Z-0.125000
G02 X1698.069922 Y69.867721 Z-0.125000 I0.132769 J1.930443
G02 X1697.254906 Y71.114000 Z-0.125000 I1.841141 J2.093666
G03 X1696.542666 Y72.590293 Z-0.125000 I-5.567721 J-1.776201
G03 X1695.729495 Y73.391246 Z-0.125000 I-2.354597 J-1.577250
G02 X1695.044295 Y74.526952 Z-0.125000 I0.824389 J1.271927
G02 X1695.200892 Y79.249135 Z-0.125000 I19.154889 J1.728470
G03 X1695.470620 Y82.193106 Z-0.125000 I-22.502533 J3.546032
G03 X1695.940569 Y107.226721 Z-0.125000 I-1633.425283 J43.185020
G02 X1697.014106 Y151.902860 Z-0.125000 I1730.066756 J-19.221386
G02 X1698.448790 Y175.095499 Z-0.125000 I467.442260 J-17.275026
G03 X1698.728691 Y181.799021 Z-0.125000 I-74.469024 J6.467007
G03 X1698.411227 Y186.969709 Z-0.125000 I-44.563987 J-0.141006
G02 X1697.466637 Y201.816023 Z-0.125000 I132.084900 J15.857045
G02 X1698.249880 Y208.202097 Z-0.125000 I24.884135 J0.189065
G02 X1702.601654 Y215.866565 Z-0.125000 I16.312919 J-4.194568
G02 X1710.849070 Y220.909777 Z-0.125000 I14.389657 J-14.266816
G02 X1717.390154 Y221.613794 Z-0.125000 I5.000420 J-15.720435
G02 X1723.644659 Y219.709505 Z-0.125000 I-1.521567 J-16.220873
G02 X1727.434523 Y216.334577 Z-0.125000 I-5.312598 J-9.781133
G02 X1729.554703 Y211.312034 Z-0.125000 I-10.504935 J-7.393248
G03 X1729.937702 Y209.385847 Z-0.125000 I90.615758 J17.016683
G03 X1729.978798 Y209.291887 Z-0.125000 I0.246067 J0.051658
G03 X1730.056350 Y209.268969 Z-0.125000 I0.053376 J0.037948
G03 X1731.821625 Y210.023859 Z-0.125000 I-13.625002 J34.302903
G02 X1733.621700 Y210.758628 Z-0.125000 I9.520281 J-20.750925
G02 X1734.096787 Y210.841391 Z-0.125000 I0.475088 J-1.322191
G02 X1734.732642 Y210.569149 Z-0.125000 I0.000000 J-0.878679
G02 X1758.142685 Y185.629029 Z-0.125000 I-1555.139079 J-1483.188226
G03 X1772.899094 Y169.732374 Z-0.125000 I3302.881989 J3051.173296
G03 X1773.099334 Y169.594390 Z-0.125000 I0.413348 J0.385559
G03 X1773.236477 Y169.660772 Z-0.125000 I0.038662 J0.094982
G03 X1773.533053 Y171.087743 Z-0.125000 I-9.013430 J2.617622
G03 X1774.650556 Y182.383136 Z-0.125000 I-197.061123 J25.199093
G03 X1774.981107 Y191.728794 Z-0.125000 I-134.491498 J9.435576
G02 X1775.286091 Y192.969758 Z-0.125000 I2.677209 J0.000000
G02 X1775.788715 Y193.274068 Z-0.125000 I0.502624 J-0.262934
G02 X1776.555395 Y193.131596 Z-0.125000 I-0.000000 J-2.134104
G02 X1777.987847 Y192.427486 Z-0.125000 I-3.211580 J-8.342831
G03 X1779.394049 Y191.743410 Z-0.125000 I4.353049 J7.160883
G03 X1779.798471 Y191.747370 Z-0.125000 I0.197094 J0.524694
G03 X1780.093463 Y192.027603 Z-0.125000 I-0.202296 J0.508330
G03 X1780.928771 Y194.211514 Z-0.125000 I-16.426827 J7.534683
G03 X1781.156424 Y196.745516 Z-0.125000 I-5.802192 J1.798492
G03 X1779.178062 Y208.564146 Z-0.125000 I-133.763618 J-16.316266
G02 X1776.846667 Y222.131023 Z-0.125000 I167.692793 J35.800874
G02 X1776.849249 Y226.372693 Z-0.125000 I16.142947 J2.111007
G02 X1778.910735 Y232.399883 Z-0.125000 I16.027055 J-2.115608
G02 X1782.013323 Y235.229487 Z-0.125000 I6.068723 J-3.538444
G03 X1783.848613 Y236.233810 Z-0.125000 I-6.820386 J14.642555
G03 X1786.053476 Y237.793600 Z-0.125000 I-14.426838 J22.731510
G02 X1788.305144 Y239.125620 Z-0.125000 I6.153844 J-7.833420
G02 X1789.973599 Y239.462591 Z-0.125000 I1.651868 J-3.879912
G02 X1791.746317 Y239.334860 Z-0.125000 I-0.051862 J-13.084915
G02 X1794.522456 Y238.822003 Z-0.125000 I-4.602187 J-32.682255
G02 X1801.383351 Y235.223716 Z-0.125000 I-3.399570 J-14.822012
G02 X1804.970408 Y229.270748 Z-0.125000 I-8.257854 J-9.033107
G02 X1806.488623 Y220.704130 Z-0.125000 I-53.349433 J-13.872673
G02 X1809.505493 Y182.375822 Z-0.125000 I-1071.560102 J-103.626748
G02 X1810.030471 Y150.566165 Z-0.125000 I-359.447788 J-21.841392
G02 X1807.415468 Y106.901401 Z-0.125000 I-680.530941 J18.845071
G02 X1805.190971 Y90.621638 Z-0.125000 I-186.606020 J17.206332
G02 X1803.560228 Y85.673537 Z-0.125000 I-18.537701 J3.366689
G02 X1802.792487 Y84.457576 Z-0.125000 I-6.091800 J2.995928
G02 X1801.914308 Y83.593015 Z-0.125000 I-3.909653 J3.092945
G03 X1797.759001 Y79.270820 Z-0.125000 I12.086304 J-15.778158
G03 X1796.141537 Y75.408658 Z-0.125000 I7.921076 J-5.587103
G02 X1795.760030 Y74.402203 Z-0.125000 I-2.903888 J0.525216
G02 X1795.410243 Y74.204353 Z-0.125000 I-0.351619 J0.213514
G02 X1794.901434 Y74.252178 Z-0.125000 I0.000000 J2.730552
G02 X1790.762579 Y75.088152 Z-0.125000 I33.155198 J174.812833
G01 X1786.628842 Y75.974293 Z-0.125000
G01 X1784.777295 Y75.056303 Z-0.125000
G02 X1782.390915 Y74.606049 Z-0.125000 I-1.994763 J4.023263
G02 X1781.476395 Y75.345285 Z-0.125000 I0.091821 J1.048894
G03 X1780.197013 Y77.530352 Z-0.125000 I-5.281261 J-1.625160
G03 X1778.843573 Y78.110512 Z-0.125000 I-1.353440 J-1.288624
G03 X1778.257851 Y77.519990 Z-0.125000 I0.000000 J-0.585741
G03 X1778.876451 Y74.083856 Z-0.125000 I10.320654 J0.084256
G01 X1779.634641 Y71.994254 Z-0.125000
G01 X1776.859183 Y71.766368 Z-0.125000
G02 X1774.107999 Y71.636041 Z-0.125000 I-3.259665 J39.707226
G02 X1773.789424 Y71.727199 Z-0.125000 I-0.007359 J0.576533
G02 X1773.583865 Y71.976043 Z-0.125000 I0.285232 J0.444941
G02 X1773.290991 Y72.974609 Z-0.125000 I5.102982 J2.038907
G03 X1772.164408 Y75.407294 Z-0.125000 I-5.465051 J-1.053677
G03 X1769.842462 Y77.266013 Z-0.125000 I-5.340060 J-4.291233
G03 X1767.389572 Y78.193858 Z-0.125000 I-6.117028 J-12.465023
G03 X1767.141905 Y78.004848 Z-0.125000 I-0.051711 J-0.189010
G03 X1767.157723 Y77.901676 Z-0.125000 I0.344390 J-0.000000
G03 X1767.925947 Y75.507946 Z-0.125000 I190.438350 J59.797600
G02 X1768.233544 Y72.556704 Z-0.125000 I-6.669769 J-2.186816
G02 X1767.533912 Y71.929679 Z-0.125000 I-0.699472 J0.076633
G02 X1764.561691 Y72.668441 Z-0.125000 I-0.000000 J6.348370
G02 X1761.332248 Y75.214929 Z-0.125000 I5.363840 J10.123420
G02 X1758.190916 Y80.648700 Z-0.125000 I11.939305 J10.527172
G02 X1754.311152 Y96.003156 Z-0.125000 I96.014276 J32.428285
G03 X1748.985799 Y119.225906 Z-0.125000 I-209.302922 J-35.774579
G03 X1743.298163 Y134.079415 Z-0.125000 I-90.901104 J-26.291726
G03 X1737.860408 Y143.810248 Z-0.125000 I-84.051383 J-40.584575
G03 X1736.643956 Y144.475951 Z-0.125000 I-1.216452 J-0.778571
G03 X1736.575928 Y144.409133 Z-0.125000 I0.000000 J-0.068039
G03 X1736.309720 Y125.851336 Z-0.125000 I2577.878970 J-46.259930
G02 X1735.991638 Y107.231905 Z-0.125000 I-1469.216497 J15.786710
G02 X1735.770563 Y102.834892 Z-0.125000 I-82.071635 J1.922371
G02 X1734.642556 Y91.641162 Z-0.125000 I-239.836310 J18.514927
G02 X1733.118577 Y81.526380 Z-0.125000 I-197.317564 J24.557335
G02 X1727.661947 Y57.464644 Z-0.125000 I-254.550855 J45.076496
G02 X1726.124715 Y56.328561 Z-0.125000 I-1.495113 J0.414982
G02 X1725.600031 Y56.407083 Z-0.125000 I0.060571 J2.196971
G02 X1723.351741 Y57.094857 Z-0.125000 I11.456948 J41.470725
G01 X1723.351741 Y57.094857 Z-0.125000
G00 Z5.000000

(Change tool to Default tool)

G00 Z5.000000
G00 X2939.214639 Y57.094857

G01 Z-0.125000 F100.0(Penetrate)
G02 X2931.568796 Y60.986144 Z-0.125000 I9.354479 J27.837420 F400.000000
G02 X2928.029044 Y65.035707 Z-0.125000 I6.683062 J9.413556
G02 X2927.291583 Y66.724677 Z-0.125000 I11.441973 J6.001435
G02 X2926.604386 Y69.059860 Z-0.125000 I21.216534 J7.512298
G03 X2925.824501 Y71.206106 Z-0.125000 I-9.564245 J-2.260557
G03 X2925.357528 Y71.545408 Z-0.125000 I-0.561384 J-0.281626
G03 X2924.992516 Y71.278193 Z-0.125000 I-0.048189 J-0.317083
G03 X2924.673421 Y67.198700 Z-0.125000 I25.917750 J-4.079493
G01 X2924.673421 Y62.748019 Z-0.125000
G01 X2923.537195 Y62.969140 Z-0.125000
G02 X2921.801262 Y63.766017 Z-0.125000 I0.773280 J3.973764
G02 X2920.625508 Y65.268704 Z-0.125000 I2.504512 J3.170934
G02 X2919.865273 Y67.405039 Z-0.125000 I12.389475 J5.612348
G02 X2918.862466 Y71.938851 Z-0.125000 I55.096294 J14.564233
G03 X2917.871594 Y75.432591 Z-0.125000 I-18.007227 J-3.219710
G03 X2917.293593 Y75.914891 Z-0.125000 I-0.730810 J-0.288326
G01 X2916.519457 Y76.068377 Z-0.125000
G01 X2916.519457 Y72.679769 Z-0.125000
G01 X2916.519457 Y69.291197 Z-0.125000
G01 X2915.077866 Y69.390353 Z-0.125000
G02 X2913.932767 Y69.867720 Z-0.125000 I0.132782 J1.930618
G02 X2913.117833 Y71.114000 Z-0.125000 I1.840475 J2.093056
G03 X2912.405506 Y72.590325 Z-0.125000 I-5.569756 J-1.777393
G03 X2911.592421 Y73.391246 Z-0.125000 I-2.354685 J-1.577271
G02 X2910.907190 Y74.526971 Z-0.125000 I0.824367 J1.271953
G02 X2911.063819 Y79.249135 Z-0.125000 I19.153030 J1.728393
G03 X2911.333500 Y82.193101 Z-0.125000 I-22.505525 J3.545943
G03 X2911.803524 Y107.226721 Z-0.125000 I-1635.581485 J43.230416
G02 X2912.876906 Y151.902855 Z-0.125000 I1729.972346 J-19.213109
G02 X2914.311633 Y175.095499 Z-0.125000 I467.356168 J-17.270548
G03 X2914.591505 Y181.799024 Z-0.125000 I-74.476071 J6.466984
G03 X2914.274097 Y186.969709 Z-0.125000 I-44.572318 J-0.141035
G02 X2913.329536 Y201.816035 Z-0.125000 I132.108511 J15.858290
G02 X2914.112666 Y208.202097 Z-0.125000 I24.885813 J0.189274
G02 X2918.464409 Y215.866550 Z-0.125000 I16.312518 J-4.194316
G02 X2926.711913 Y220.909777 Z-0.125000 I14.389772 J-14.267049
G02 X2933.253056 Y221.613776 Z-0.125000 I5.000434 J-15.720843
G02 X2939.507586 Y219.709505 Z-0.125000 I-1.521613 J-16.221257
G02 X2943.297348 Y216.334614 Z-0.125000 I-5.312781 J-9.781136
G02 X2945.417602 Y211.312034 Z-0.125000 I-10.505598 J-7.393694
G03 X2945.800548 Y209.385778 Z-0.125000 I90.899250 J17.069920
G03 X2945.841499 Y209.291887 Z-0.125000 I0.246922 J0.051820
G03 X2945.919236 Y209.269000 Z-0.125000 I0.053478 J0.038181
G03 X2947.684410 Y210.023859 Z-0.125000 I-13.639853 J34.336960
G02 X2949.484634 Y210.758640 Z-0.125000 I9.520249 J-20.752050
G02 X2949.959686 Y210.841391 Z-0.125000 I0.475052 J-1.322194
G02 X2950.595341 Y210.569237 Z-0.125000 I-0.000000 J-0.878408
G02 X2974.005584 Y185.629029 Z-0.125000 I-1554.359031 J-1482.463524
G03 X2988.761869 Y169.732425 Z-0.125000 I3304.020720 J3052.214610
G03 X2988.962233 Y169.594390 Z-0.125000 I0.413351 J0.385560
G03 X2989.099201 Y169.660629 Z-0.125000 I0.038651 J0.094807
G03 X2989.396009 Y171.087743 Z-0.125000 I-9.013232 J2.618973
G03 X2990.513367 Y182.383116 Z-0.125000 I-197.403871 J25.230493
G03 X2990.843809 Y191.728794 Z-0.125000 I-134.302435 J9.427307
G02 X2991.148879 Y192.969785 Z-0.125000 I2.676638 J0.000000
G02 X2991.651529 Y193.274068 Z-0.125000 I0.502649 J-0.263026
G02 X2992.418190 Y193.131584 Z-0.125000 I0.000000 J-2.133831
G02 X2993.850604 Y192.427486 Z-0.125000 I-3.213129 J-8.345869
G03 X2995.256796 Y191.743434 Z-0.125000 I4.353144 J7.161303
G03 X2995.661342 Y191.747370 Z-0.125000 I0.197185 J0.524944
G03 X2995.956389 Y192.027641 Z-0.125000 I-0.202257 J0.508356
G03 X2996.791642 Y194.211514 Z-0.125000 I-16.430823 J7.535866
G03 X2997.019260 Y196.745506 Z-0.125000 I-5.802903 J1.798469
G03 X2995.041017 Y208.564146 Z-0.125000 I-133.759147 J-16.314157
G02 X2992.709471 Y222.131024 Z-0.125000 I167.647444 J35.794970
G02 X2992.712120 Y226.372693 Z-0.125000 I16.141021 J2.110756
G02 X2994.773547 Y232.399854 Z-0.125000 I16.025823 J-2.115090
G02 X2997.876222 Y235.229487 Z-0.125000 I6.068790 J-3.538543
G03 X2999.711459 Y236.233822 Z-0.125000 I-6.816017 J14.633965
G03 X3001.916233 Y237.793600 Z-0.125000 I-14.438820 J22.747657
G02 X3004.167912 Y239.125638 Z-0.125000 I6.153545 J-7.832818
G02 X3005.836300 Y239.462591 Z-0.125000 I1.651800 J-3.879813
G02 X3007.609099 Y239.334853 Z-0.125000 I-0.051860 J-13.085348
G02 X3010.385158 Y238.822003 Z-0.125000 I-4.601970 J-32.680349
G02 X3017.246219 Y235.223693 Z-0.125000 I-3.399618 J-14.822512
G02 X3020.833306 Y229.270748 Z-0.125000 I-8.257603 J-9.033027
G02 X3022.351607 Y220.704115 Z-0.125000 I-53.346687 J-13.872722
G02 X3025.368335 Y182.375822 Z-0.125000 I-1071.024463 J-103.580644
G02 X3025.893383 Y150.566176 Z-0.125000 I-359.465384 J-21.842462
G02 X3023.278198 Y106.901401 Z-0.125000 I-680.351573 J18.837138
G02 X3021.053722 Y90.621623 Z-0.125000 I-186.623914 J17.208502
G02 X3019.423042 Y85.673537 Z-0.125000 I-18.538260 J3.366683
G02 X3018.655363 Y84.457582 Z-0.125000 I-6.085091 J2.991442
G02 X3017.777122 Y83.593015 Z-0.125000 I-3.911311 J3.094821
G03 X3013.621842 Y79.270801 Z-0.125000 I12.084186 J-15.775971
G03 X3012.004266 Y75.408658 Z-0.125000 I7.923246 J-5.588296
G02 X3011.622771 Y74.402193 Z-0.125000 I-2.904637 J0.525454
G02 X3011.273029 Y74.204353 Z-0.125000 I-0.351574 J0.213457
G02 X3010.764454 Y74.252154 Z-0.125000 I-0.000000 J2.729377
G02 X3006.625393 Y75.088152 Z-0.125000 I33.151134 J174.797023
G01 X3002.491684 Y75.974293 Z-0.125000
G01 X3000.640024 Y75.056303 Z-0.125000
G02 X2998.253671 Y74.606063 Z-0.125000 I-1.994728 J4.023244
G02 X2997.339153 Y75.345285 Z-0.125000 I0.091825 J1.048902
G03 X2996.059886 Y77.530327 Z-0.125000 I-5.279484 J-1.623951
G03 X2994.706302 Y78.110512 Z-0.125000 I-1.353584 J-1.288878
G03 X2994.120585 Y77.519963 Z-0.125000 I0.000000 J-0.585736
G03 X2994.739322 Y74.083856 Z-0.125000 I10.321409 J0.084805
G01 X2995.497371 Y71.994254 Z-0.125000
G01 X2992.721997 Y71.766368 Z-0.125000
G02 X2989.970623 Y71.636035 Z-0.125000 I-3.259872 J39.710484
G02 X2989.652266 Y71.727199 Z-0.125000 I-0.007349 J0.575792
G02 X2989.446638 Y71.976106 Z-0.125000 I0.284927 J0.444774
G02 X2989.153862 Y72.974609 Z-0.125000 I5.111944 J2.041077
G03 X2988.027240 Y75.407337 Z-0.125000 I-5.465024 J-1.053672
G03 X2985.705388 Y77.266013 Z-0.125000 I-5.340337 J-4.291567
G03 X2983.252454 Y78.193842 Z-0.125000 I-6.118292 J-12.468768
G03 X2983.004804 Y78.004848 Z-0.125000 I-0.051710 J-0.188994
G03 X2983.020620 Y77.901676 Z-0.125000 I0.344412 J0.000000
G03 X2983.788817 Y75.507946 Z-0.125000 I190.128629 J59.696054
G02 X2984.096389 Y72.556667 Z-0.125000 I-6.670814 J-2.186874
G02 X2983.396811 Y71.929679 Z-0.125000 I-0.699418 J0.076614
G02 X2980.424668 Y72.668430 Z-0.125000 I0.000000 J6.348138
G02 X2977.194977 Y75.214929 Z-0.125000 I5.365350 J10.126138
G02 X2974.053785 Y80.648630 Z-0.125000 I11.940537 J10.527562
G02 X2970.173853 Y96.003156 Z-0.125000 I96.019457 J32.430610
G03 X2964.848572 Y119.225908 Z-0.125000 I-209.300433 J-35.773374
G03 X2959.160977 Y134.079415 Z-0.125000 I-90.901170 J-26.291521
G03 X2953.723098 Y143.810311 Z-0.125000 I-84.042541 J-40.580306
G03 X2952.506742 Y144.475951 Z-0.125000 I-1.216357 J-0.778534
G03 X2952.438817 Y144.409235 Z-0.125000 I0.000000 J-0.067935
G03 X2952.172591 Y125.851336 Z-0.125000 I2577.219125 J-46.252942
G02 X2951.854433 Y107.231892 Z-0.125000 I-1468.288849 J15.776743
G02 X2951.633546 Y102.834892 Z-0.125000 I-82.225909 J1.926645
G02 X2950.505421 Y91.641156 Z-0.125000 I-240.062077 J18.540174
G02 X2948.981504 Y81.526380 Z-0.125000 I-197.272839 J24.549432
G02 X2943.524776 Y57.464703 Z-0.125000 I-254.595960 J45.087909
G02 X2941.987473 Y56.328561 Z-0.125000 I-1.495185 J0.414995
G02 X2941.463023 Y56.407047 Z-0.125000 I0.060588 J2.196324
G02 X2939.214639 Y57.094857 Z-0.125000 I11.446320 J41.435674
G01 X2939.214639 Y57.094857 Z-0.125000
G00 Z5.000000

(Change tool to Default tool)

G00 Z5.000000
G00 X2879.827463 Y57.649692

G01 Z-0.125000 F100.0(Penetrate)
G03 X2879.460128 Y60.522527 Z-0.125000 I-11.417528 J-0.000000 F400.000000
G03 X2878.195937 Y63.925030 Z-0.125000 I-17.353750 J-4.511639
G03 X2875.288155 Y68.341163 Z-0.125000 I-18.976227 J-9.329429
G03 X2873.854230 Y69.001530 Z-0.125000 I-1.433925 J-1.226634
G03 X2873.767083 Y68.894049 Z-0.125000 I0.000000 J-0.089071
G03 X2874.372390 Y66.549231 Z-0.125000 I26.671579 J5.634642
G02 X2874.966588 Y64.073532 Z-0.125000 I-19.796705 J-6.060610
G02 X2875.123101 Y62.279395 Z-0.125000 I-10.205015 J-1.794137
G01 X2875.123101 Y60.461861 Z-0.125000
G01 X2874.133912 Y60.667104 Z-0.125000
G02 X2872.898740 Y61.427931 Z-0.125000 I0.432591 J2.085333
G02 X2870.514694 Y65.223907 Z-0.125000 I15.930556 J12.651748
G02 X2866.651151 Y74.372424 Z-0.125000 I88.151069 J42.617474
G02 X2854.881841 Y108.202685 Z-0.125000 I1196.945770 J435.371357
G03 X2850.870455 Y120.233131 Z-0.125000 I-5290.443453 J-1757.341432
G03 X2850.827154 Y120.318378 Z-0.125000 I-0.309516 J-0.103595
G03 X2850.752126 Y120.367707 Z-0.125000 I-0.100690 J-0.071426
G03 X2846.561083 Y121.225079 Z-0.125000 I-58.393857 J-274.771223
G03 X2833.071106 Y123.370454 Z-0.125000 I-36.165315 J-183.920401
G03 X2818.673859 Y124.623641 Z-0.125000 I-25.382762 J-208.281930
G02 X2812.673643 Y125.147356 Z-0.125000 I4.545950 J86.717336
G02 X2812.244836 Y125.410265 Z-0.125000 I0.073548 J0.601105
G02 X2811.938239 Y125.881013 Z-0.125000 I14.871341 J10.020876
G02 X2811.575687 Y126.473806 Z-0.125000 I23.126075 J14.551185
G03 X2811.193599 Y126.860869 Z-0.125000 I-0.972752 J-0.578129
G03 X2810.983303 Y126.836408 Z-0.125000 I-0.089550 J-0.146332
G03 X2810.845431 Y126.554902 Z-0.125000 I0.335903 J-0.339029
G03 X2810.173325 Y120.167333 Z-0.125000 I199.405823 J-24.210810
G02 X2806.911104 Y100.936404 Z-0.125000 I-122.740695 J10.928851
G02 X2801.343156 Y85.186238 Z-0.125000 I-87.638968 J22.122580
G01 X2799.129123 Y80.387758 Z-0.125000
G01 X2797.375958 Y80.410533 Z-0.125000
G02 X2795.624414 Y80.465058 Z-0.125000 I0.613951 J47.882566
G02 X2792.119005 Y80.670335 Z-0.125000 I9.556656 J193.226371
G02 X2788.703540 Y81.224420 Z-0.125000 I1.253878 J18.532867
G02 X2786.003673 Y82.258583 Z-0.125000 I3.259899 J12.551874
G02 X2780.219270 Y86.525980 Z-0.125000 I10.489988 J20.273089
G02 X2769.949829 Y98.581944 Z-0.125000 I78.995911 J77.691647
G02 X2767.261313 Y102.618666 Z-0.125000 I42.064363 J30.929132
G02 X2767.134436 Y103.267149 Z-0.125000 I0.830715 J0.499184
G02 X2777.407984 Y160.494585 Z-0.125000 I1252.526766 J-195.319446
G02 X2787.973894 Y205.774424 Z-0.125000 I794.445725 J-161.508771
G02 X2793.267206 Y223.160243 Z-0.125000 I233.608138 J-61.625964
G02 X2798.021683 Y234.809207 Z-0.125000 I109.449940 J-37.876800
G02 X2804.876754 Y246.273435 Z-0.125000 I62.305907 J-29.474392
G02 X2809.270496 Y250.045343 Z-0.125000 I10.420271 J-7.693148
G02 X2811.002402 Y250.591902 Z-0.125000 I2.382241 J-4.531450
G02 X2815.192365 Y250.803765 Z-0.125000 I3.470603 J-27.099466
G02 X2819.367587 Y250.370814 Z-0.125000 I-0.718609 J-27.278668
G02 X2821.156003 Y249.716639 Z-0.125000 I-1.007247 J-5.525377
G02 X2824.293823 Y247.279145 Z-0.125000 I-7.116720 J-12.399877
G02 X2828.237241 Y242.427666 Z-0.125000 I-25.386704 J-24.663424
G03 X2830.229602 Y240.196195 Z-0.125000 I9.228677 J6.234622
G03 X2831.322494 Y239.790745 Z-0.125000 I1.098399 J1.285066
G02 X2835.876074 Y239.194354 Z-0.125000 I-0.059462 J-18.136000
G02 X2841.228212 Y237.185479 Z-0.125000 I-7.148178 J-27.178645
G02 X2847.404542 Y232.976626 Z-0.125000 I-12.154318 J-24.472185
G02 X2853.732914 Y225.873264 Z-0.125000 I-29.694947 J-32.825824
G02 X2859.134869 Y216.384366 Z-0.125000 I-43.400530 J-30.989674
G02 X2865.228390 Y199.780552 Z-0.125000 I-128.038567 J-56.409599
G03 X2867.150734 Y193.810088 Z-0.125000 I130.374174 J38.682598
G03 X2869.073103 Y188.719644 Z-0.125000 I96.882556 J33.678795
G02 X2877.184919 Y165.733265 Z-0.125000 I-233.364741 J-95.278137
G02 X2896.120999 Y98.371883 Z-0.125000 I-1990.048102 J-595.768291
G01 X2900.845964 Y80.407996 Z-0.125000
G01 X2900.383966 Y76.085621 Z-0.125000
G02 X2897.581369 Y64.544311 Z-0.125000 I-44.953987 J4.805323
G02 X2895.328519 Y63.049822 Z-0.125000 I-2.183990 J0.846968
G02 X2892.848977 Y64.228250 Z-0.125000 I0.100231 J3.408724
G02 X2891.267906 Y67.746674 Z-0.125000 I5.093071 J4.403124
G01 X2891.058497 Y69.326918 Z-0.125000
G01 X2889.598279 Y69.326918 Z-0.125000
G01 X2888.138061 Y69.326918 Z-0.125000
G01 X2887.617926 Y66.545915 Z-0.125000
G02 X2886.048348 Y61.728718 Z-0.125000 I-19.187245 J3.587437
G02 X2883.707737 Y58.349490 Z-0.125000 I-11.597136 J5.532496
G02 X2881.942938 Y56.925060 Z-0.125000 I-6.536603 J6.293066
G02 X2880.945346 Y56.641557 Z-0.125000 I-0.997592 J1.613418
G02 X2880.138130 Y56.952315 Z-0.125000 I-0.000000 J1.203780
G02 X2879.827463 Y57.651904 Z-0.125000 I0.632369 J0.699589
G01 X2879.827463 Y57.649692 Z-0.125000
G00 Z5.000000

(Change tool to Default tool)

G00 Z5.000000
G00 X2836.101928 Y177.740000

G01 Z-0.125000 F100.0(Penetrate)
G03 X2832.693576 Y199.519578 Z-0.125000 I-312.164519 J-37.695089 F400.000000
G03 X2831.438205 Y201.937492 Z-0.125000 I-4.699923 J-0.905330
G03 X2831.261436 Y201.968142 Z-0.125000 I-0.109280 J-0.105189
G03 X2829.957103 Y201.201519 Z-0.125000 I4.795074 J-9.651253
G01 X2828.639125 Y200.296573 Z-0.125000
G01 X2828.020494 Y201.177151 Z-0.125000
G03 X2827.332136 Y201.922817 Z-0.125000 I-3.124744 J-2.194036
G03 X2826.957928 Y202.057730 Z-0.125000 I-0.374209 J-0.451514
G03 X2826.450494 Y201.473771 Z-0.125000 I0.000000 J-0.512447
G03 X2827.297723 Y199.648568 Z-0.125000 I3.431447 J0.483584
G02 X2827.854817 Y198.266073 Z-0.125000 I-1.638418 J-1.463712
G02 X2827.376181 Y197.526694 Z-0.125000 I-0.766595 J-0.028358
G03 X2825.769480 Y196.343051 Z-0.125000 I1.512630 J-3.735583
G03 X2823.855741 Y193.223414 Z-0.125000 I10.489850 J-8.581799
G03 X2822.754565 Y189.574315 Z-0.125000 I14.343458 J-6.319072
G03 X2821.927599 Y182.070215 Z-0.125000 I60.595255 J-10.475333
G01 X2821.714239 Y177.658670 Z-0.125000
G01 X2827.642034 Y177.646957 Z-0.125000
G02 X2833.446257 Y177.299438 Z-0.125000 I-0.098186 J-50.284294
G02 X2834.510759 Y176.835283 Z-0.125000 I-0.235569 J-1.993012
G03 X2835.594500 Y176.733286 Z-0.125000 I0.614709 J0.722921
G03 X2836.101928 Y177.740000 Z-0.125000 I-0.503090 J0.884819
G01 X2836.101928 Y177.740000 Z-0.125000
G00 Z5.000000

(Change tool to Default tool)

G00 Z5.000000
G00 X1632.760382 Y59.145548

G01 Z-0.125000 F100.0(Penetrate)
G02 X1625.237995 Y59.953507 Z-0.125000 I7.489198 J105.149225 F400.000000
G02 X1617.490777 Y61.342341 Z-0.125000 I16.249378 J112.944808
G02 X1603.125446 Y65.774336 Z-0.125000 I18.115367 J84.213963
G02 X1592.489867 Y71.520651 Z-0.125000 I21.002359 J51.587854
G02 X1589.926827 Y73.534745 Z-0.125000 I14.952750 J21.666008
G02 X1585.833910 Y77.453137 Z-0.125000 I52.920546 J59.374426
G02 X1578.898881 Y87.215277 Z-0.125000 I28.000641 J27.236064
G02 X1572.080967 Y104.949476 Z-0.125000 I87.947652 J43.989154
G02 X1566.733251 Y127.451690 Z-0.125000 I301.696189 J83.585537
G02 X1562.813693 Y151.532712 Z-0.125000 I341.662290 J67.970305
G02 X1562.288774 Y157.860085 Z-0.125000 I72.329825 J9.185942
G02 X1562.505167 Y159.396007 Z-0.125000 I4.348123 J0.170605
G03 X1564.161609 Y170.113100 Z-0.125000 I-31.193151 J10.307794
G03 X1562.174516 Y185.936947 Z-0.125000 I-71.048137 J-0.885244
G02 X1562.242594 Y186.555915 Z-0.125000 I0.889976 J0.215341
G02 X1562.582468 Y186.767652 Z-0.125000 I0.339873 J-0.166909
G03 X1563.075785 Y187.220784 Z-0.125000 I0.000000 J0.495098
G03 X1562.798932 Y189.312246 Z-0.125000 I-4.893533 J0.416285
G01 X1562.020789 Y191.456762 Z-0.125000
G01 X1562.109548 Y203.995634 Z-0.125000
G01 X1562.198335 Y216.534505 Z-0.125000
G01 X1564.158086 Y220.601014 Z-0.125000
G02 X1566.220038 Y224.600634 Z-0.125000 I75.338002 J-36.308193
G02 X1566.887147 Y225.562156 Z-0.125000 I4.955210 J-2.725770
G01 X1567.656400 Y226.456789 Z-0.125000
G01 X1572.831029 Y226.456789 Z-0.125000
G01 X1578.005659 Y226.456789 Z-0.125000
G01 X1578.099046 Y224.423534 Z-0.125000
G03 X1578.445120 Y222.654876 Z-0.125000 I6.130873 J0.281445
G03 X1578.819616 Y222.390278 Z-0.125000 I0.374495 J0.132719
G03 X1579.194115 Y222.654875 Z-0.125000 I0.000000 J0.397323
G03 X1579.540214 Y224.423534 Z-0.125000 I-5.784887 J2.050205
G02 X1579.901583 Y226.176181 Z-0.125000 I5.700010 J-0.261679
G02 X1580.307378 Y226.456789 Z-0.125000 I0.405795 J-0.153111
G02 X1582.351296 Y225.589489 Z-0.125000 I0.000000 J-2.842043
G02 X1586.776307 Y219.761265 Z-0.125000 I-22.201726 J-21.450330
G03 X1587.862862 Y218.235836 Z-0.125000 I9.155106 J5.371448
G03 X1588.489678 Y217.756798 Z-0.125000 I1.431792 J1.223874
G02 X1588.980936 Y217.228760 Z-0.125000 I-0.415431 J-0.879033
G02 X1589.424003 Y215.343341 Z-0.125000 I-6.539362 J-2.531497
G02 X1589.863064 Y209.451093 Z-0.125000 I-164.548923 J-15.223846
G02 X1590.681444 Y193.111409 Z-0.125000 I-1265.147986 J-71.555827
G03 X1591.371047 Y184.942400 Z-0.125000 I100.826102 J4.397829
G03 X1591.756005 Y184.549094 Z-0.125000 I0.451256 J0.056631
G03 X1592.131062 Y184.828336 Z-0.125000 I0.048141 J0.326835
G03 X1592.466415 Y189.428905 Z-0.125000 I-31.813795 J4.631536
G02 X1592.578160 Y194.382434 Z-0.125000 I115.100665 J-0.118508
G02 X1592.703256 Y194.791040 Z-0.125000 I0.852732 J-0.037613
G02 X1592.933750 Y194.796601 Z-0.125000 I0.117047 J-0.071803
G02 X1596.618581 Y189.049582 Z-0.125000 I-99.475678 J-67.835892
G02 X1599.433048 Y182.196219 Z-0.125000 I-20.945306 J-12.606187
G02 X1599.849207 Y175.706744 Z-0.125000 I-18.304214 J-4.431899
G03 X1599.439592 Y171.636909 Z-0.125000 I221.670130 J-24.365871
G03 X1599.186973 Y168.460714 Z-0.125000 I134.801747 J-12.319634
G03 X1599.315076 Y165.413890 Z-0.125000 I13.905418 J-0.941453
G03 X1599.793581 Y164.491084 Z-0.125000 I1.600860 J0.244634
G02 X1600.175315 Y163.303657 Z-0.125000 I-0.911492 J-0.948100
G02 X1599.439420 Y162.577386 Z-0.125000 I-0.888637 J0.164453
G02 X1598.130070 Y163.013104 Z-0.125000 I-0.247265 J1.442141
G02 X1597.479359 Y164.645840 Z-0.125000 I1.723039 J1.632736
G03 X1597.152983 Y166.596627 Z-0.125000 I-5.993238 J0.000000
G03 X1596.695346 Y166.923083 Z-0.125000 I-0.457638 J-0.157539
G03 X1595.996060 Y166.838311 Z-0.125000 I-0.000000 J-2.926580
G03 X1595.911304 Y166.730170 Z-0.125000 I0.026610 J-0.108141
G03 X1596.310272 Y160.098254 Z-0.125000 I55.319624 J0.000000
G03 X1598.906218 Y141.929373 Z-0.125000 I418.992913 J50.595274
G02 X1598.808644 Y141.024288 Z-0.125000 I-1.677282 J-0.276980
G02 X1598.402084 Y140.661467 Z-0.125000 I-0.566014 J0.225052
G03 X1598.025853 Y140.254942 Z-0.125000 I0.136686 J-0.503860
G03 X1597.866709 Y137.840252 Z-0.125000 I9.789859 J-1.857807
G03 X1600.825443 Y129.139666 Z-0.125000 I17.083698 J0.956137
G03 X1609.732206 Y120.484455 Z-0.125000 I25.797385 J17.636734
G02 X1613.212591 Y117.967277 Z-0.125000 I-21.064931 J-32.790173
G02 X1617.032166 Y114.565665 Z-0.125000 I-34.805243 J-42.927089
G03 X1620.869620 Y111.210970 Z-0.125000 I32.109556 J32.858104
G03 X1623.282259 Y109.686116 Z-0.125000 I8.863896 J11.353470
G03 X1627.595466 Y108.015272 Z-0.125000 I10.939460 J21.837125
G03 X1632.059229 Y107.212116 Z-0.125000 I6.370843 J22.601849
G01 X1634.642043 Y107.001666 Z-0.125000
G01 X1637.324734 Y110.367400 Z-0.125000
G03 X1641.301030 Y115.762355 Z-0.125000 I-69.352233 J55.278166
G03 X1643.819147 Y119.914233 Z-0.125000 I-38.492420 J26.185246
G03 X1647.032780 Y126.815655 Z-0.125000 I-58.624293 J31.497199
G03 X1648.639108 Y132.032432 Z-0.125000 I-31.789972 J12.644329
G02 X1649.290521 Y133.401800 Z-0.125000 I3.314988 J-0.737329
G02 X1649.989964 Y133.740365 Z-0.125000 I0.699443 J-0.553209
G02 X1650.907161 Y133.570823 Z-0.125000 I0.000000 J-2.565726
G02 X1652.114731 Y132.927062 Z-0.125000 I-1.974283 J-5.157834
G03 X1653.296117 Y132.760027 Z-0.125000 I0.753672 J1.069177
G03 X1653.760228 Y133.496375 Z-0.125000 I-0.227627 J0.657906
G02 X1652.867464 Y143.288369 Z-0.125000 I222.120626 J25.188050
G02 X1652.448120 Y152.502069 Z-0.125000 I196.247269 J13.548218
G01 X1652.274807 Y160.365497 Z-0.125000
G01 X1651.141854 Y161.124698 Z-0.125000
G02 X1647.982264 Y165.977838 Z-0.125000 I4.107011 J6.128911
G02 X1645.297597 Y194.412690 Z-0.125000 I176.757715 J31.032683
G03 X1644.982417 Y202.179582 Z-0.125000 I-149.028556 J-2.157726
G03 X1644.695842 Y203.429900 Z-0.125000 I-4.050114 J-0.270291
G02 X1644.423084 Y204.681367 Z-0.125000 I3.521798 J1.423037
G02 X1644.207118 Y214.239138 Z-0.125000 I211.386181 J9.557771
G01 X1644.207118 Y223.838899 Z-0.125000
G01 X1645.721974 Y225.486422 Z-0.125000
G03 X1647.146989 Y227.200833 Z-0.125000 I-16.425863 J15.102590
G03 X1648.309246 Y228.936154 Z-0.125000 I-15.664706 J11.748548
G02 X1651.074935 Y232.979422 Z-0.125000 I33.357518 J-19.849780
G02 X1651.708557 Y233.288523 Z-0.125000 I0.633621 J-0.494876
G02 X1654.140394 Y232.412885 Z-0.125000 I0.000000 J-3.814691
G02 X1665.939443 Y221.513540 Z-0.125000 I-93.918364 J-113.507188
G02 X1668.583195 Y217.898973 Z-0.125000 I-11.598848 J-11.257707
G02 X1672.277562 Y209.702769 Z-0.125000 I-57.401685 J-30.804006
G02 X1678.426341 Y190.441515 Z-0.125000 I-208.865106 J-77.288175
G02 X1682.150034 Y173.121194 Z-0.125000 I-165.079188 J-44.550783
G02 X1683.517460 Y162.294551 Z-0.125000 I-157.068813 J-25.337784
G02 X1684.386278 Y148.705122 Z-0.125000 I-246.686951 J-22.594005
G02 X1684.000482 Y130.112496 Z-0.125000 I-162.811253 J-5.921995
G02 X1681.505890 Y111.781212 Z-0.125000 I-160.746911 J12.539689
G02 X1668.235037 Y74.187388 Z-0.125000 I-133.851654 J26.111204
G02 X1654.768749 Y61.173174 Z-0.125000 I-26.606714 J14.056811
G02 X1649.912924 Y59.640893 Z-0.125000 I-7.629523 J15.717857
G02 X1641.099259 Y58.975210 Z-0.125000 I-8.357883 J51.979194
G02 X1634.330044 Y59.073660 Z-0.125000 I4.966609 J574.263058
G02 X1632.760382 Y59.145548 Z-0.125000 I0.633920 J31.013979
G01 X1632.760382 Y59.145548 Z-0.125000
G00 Z5.000000

(Change tool to Default tool)

G00 Z5.000000
G00 X2167.854142 Y63.036092

G01 Z-0.125000 F100.0(Penetrate)
G02 X2167.755747 Y63.324859 Z-0.125000 I0.753732 J0.417975 F400.000000
G02 X2167.492249 Y65.423003 Z-0.125000 I40.917358 J6.204289
G03 X2166.517542 Y70.134433 Z-0.125000 I-22.922807 J-2.285759
G03 X2165.525414 Y71.592418 Z-0.125000 I-2.948944 J-0.940141
G03 X2164.787732 Y71.410805 Z-0.125000 I-0.300525 J-0.368295
G03 X2164.175883 Y68.432220 Z-0.125000 I7.003508 J-2.990766
G02 X2163.853579 Y65.741050 Z-0.125000 I-11.554918 J0.018973
G02 X2163.449669 Y65.423003 Z-0.125000 I-0.403910 J0.097453
G02 X2162.802373 Y65.615458 Z-0.125000 I-0.000000 J1.184773
G02 X2160.862397 Y67.110700 Z-0.125000 I8.515430 J13.054312
G03 X2158.992605 Y68.793947 Z-0.125000 I-356.685410 J-394.334952
G03 X2158.484590 Y69.241128 Z-0.125000 I-25.719336 J-28.705967
G03 X2157.957397 Y69.328140 Z-0.125000 I-0.334654 J-0.387017
G03 X2155.932765 Y68.204625 Z-0.125000 I3.615515 J-8.901343
G02 X2152.010500 Y65.810044 Z-0.125000 I-17.026102 J23.478756
G02 X2150.454662 Y65.430160 Z-0.125000 I-1.591622 J3.142635
G02 X2149.916598 Y65.687425 Z-0.125000 I-0.006712 J0.677271
G02 X2148.626765 Y67.742833 Z-0.125000 I8.792251 J6.949818
G02 X2146.064004 Y73.747352 Z-0.125000 I60.510350 J29.375303
G02 X2144.403479 Y79.140674 Z-0.125000 I47.123930 J17.461057
G02 X2143.986681 Y83.644474 Z-0.125000 I14.669183 J3.628727
G02 X2145.365151 Y95.719378 Z-0.125000 I108.916623 J-6.317784
G03 X2152.857977 Y143.373145 Z-0.125000 I-1769.439462 J302.633219
G03 X2155.722509 Y167.899047 Z-0.125000 I-465.587355 J66.809078
G03 X2156.340175 Y182.223694 Z-0.125000 I-152.214317 J13.738978
G03 X2155.566723 Y208.532523 Z-0.125000 I-514.955451 J-1.973365
G02 X2155.119205 Y224.749186 Z-0.125000 I296.126455 J16.286470
G02 X2155.561925 Y228.734035 Z-0.125000 I18.116446 J0.004264
G02 X2158.944180 Y236.344352 Z-0.125000 I20.792088 J-4.683887
G02 X2165.536477 Y242.859037 Z-0.125000 I21.562661 J-15.226783
G02 X2170.788867 Y245.488958 Z-0.125000 I12.039053 J-17.484083
G02 X2175.735085 Y246.300150 Z-0.125000 I4.941517 J-14.645445
G02 X2179.623476 Y246.053805 Z-0.125000 I-0.000000 J-30.811031
G02 X2180.686646 Y245.671404 Z-0.125000 I-0.328554 J-2.582598
G02 X2185.034116 Y239.656225 Z-0.125000 I-5.335016 J-8.434540
G02 X2193.982445 Y192.460765 Z-0.125000 I-405.620184 J-101.352223
G03 X2195.021038 Y185.007567 Z-0.125000 I436.004380 J56.957628
G03 X2195.114579 Y184.815729 Z-0.125000 I0.349677 J0.051781
G03 X2195.303462 Y184.730578 Z-0.125000 I0.198932 J0.189205
G03 X2204.730427 Y184.463536 Z-0.125000 I20.816145 J568.313103
G02 X2214.131385 Y183.945031 Z-0.125000 I-2.689046 J-134.238027
G02 X2216.700459 Y183.381259 Z-0.125000 I-0.943420 J-10.434541
G02 X2223.633685 Y179.833766 Z-0.125000 I-9.989556 J-28.072511
G02 X2231.988889 Y172.831919 Z-0.125000 I-33.155494 J-48.049966
G01 X2235.360202 Y169.422621 Z-0.125000
G01 X2235.360202 Y174.272601 Z-0.125000
G03 X2235.137324 Y186.861646 Z-0.125000 I-355.651144 J0.000000
G03 X2234.402114 Y201.407089 Z-0.125000 I-482.026559 J-17.073076
G03 X2232.802627 Y223.497909 Z-0.125000 I-1655.076056 J-108.732592
G03 X2232.340058 Y227.469414 Z-0.125000 I-53.884712 J-4.263370
G01 X2232.145099 Y228.734035 Z-0.125000
G01 X2233.706945 Y228.734035 Z-0.125000
G01 X2235.268791 Y228.734035 Z-0.125000
G01 X2235.477042 Y225.660762 Z-0.125000
G03 X2236.648832 Y212.394685 Z-0.125000 I324.972437 J22.019955
G03 X2238.829165 Y194.900672 Z-0.125000 I567.286371 J61.819780
G03 X2241.662562 Y178.503180 Z-0.125000 I260.187024 J36.515357
G03 X2242.619946 Y176.463083 Z-0.125000 I4.720467 J0.970545
G03 X2243.119274 Y176.593653 Z-0.125000 I0.220588 J0.176481
G03 X2243.419679 Y181.318527 Z-0.125000 I-23.455230 J3.863255
G03 X2242.880743 Y189.760296 Z-0.125000 I-153.751399 J-5.577652
G03 X2240.227040 Y216.209185 Z-0.125000 I-1512.730506 J-138.419579
G02 X2238.901207 Y229.229503 Z-0.125000 I894.519203 J97.664786
G02 X2238.601440 Y233.413384 Z-0.125000 I92.070923 J8.699378
G01 X2238.396603 Y237.604782 Z-0.125000
G01 X2241.062051 Y237.459657 Z-0.125000
G02 X2243.660051 Y237.057036 Z-0.125000 I-0.720404 J-13.231940
G02 X2246.051796 Y236.169044 Z-0.125000 I-3.125316 J-12.082819
G02 X2250.167894 Y233.401174 Z-0.125000 I-8.199181 J-16.637457
G02 X2254.314952 Y228.831890 Z-0.125000 I-19.058914 J-21.464335
G02 X2258.029222 Y222.681292 Z-0.125000 I-33.797279 J-24.606557
G02 X2261.966477 Y213.280387 Z-0.125000 I-75.486829 J-37.140079
G02 X2266.644687 Y196.221007 Z-0.125000 I-122.237847 J-42.692551
G02 X2271.428259 Y166.432990 Z-0.125000 I-369.193405 J-74.565801
G01 X2272.402293 Y158.297855 Z-0.125000
G01 X2271.278173 Y143.009892 Z-0.125000
G02 X2266.861051 Y93.529016 Z-0.125000 I-1584.577647 J116.516514
G02 X2264.824146 Y81.572608 Z-0.125000 I-94.192465 J9.895009
G02 X2264.111551 Y79.051220 Z-0.125000 I-29.909796 J7.091718
G02 X2263.163917 Y76.530138 Z-0.125000 I-30.848150 J10.156677
G03 X2262.179899 Y74.018564 Z-0.125000 I44.996646 J-19.077953
G03 X2261.244947 Y71.203823 Z-0.125000 I55.555549 J-20.016115
G02 X2260.251583 Y68.421347 Z-0.125000 I-29.893525 J9.103651
G02 X2259.453598 Y66.848265 Z-0.125000 I-10.302285 J4.237148
G01 X2258.527176 Y65.332890 Z-0.125000
G01 X2255.176492 Y65.508398 Z-0.125000
G02 X2245.497988 Y68.799077 Z-0.125000 I0.983194 J18.770245
G02 X2242.042971 Y74.554235 Z-0.125000 I4.597093 J6.674452
G03 X2241.578525 Y75.843401 Z-0.125000 I-2.959415 J-0.337938
G03 X2240.996688 Y76.158587 Z-0.125000 I-0.581837 J-0.379447
G03 X2240.164612 Y75.655291 Z-0.125000 I0.000000 J-0.939464
G03 X2238.821912 Y72.009740 Z-0.125000 I13.279634 J-6.961091
G02 X2237.933821 Y70.565539 Z-0.125000 I-2.563561 J0.581266
G02 X2237.116274 Y70.598823 Z-0.125000 I-0.390244 J0.471764
G02 X2235.334563 Y73.577719 Z-0.125000 I4.724925 J4.848309
G02 X2233.906617 Y81.770373 Z-0.125000 I37.347700 J10.730320
G03 X2233.396019 Y84.618749 Z-0.125000 I-12.915788 J-0.845322
G03 X2232.962160 Y84.942248 Z-0.125000 I-0.433859 J-0.129183
G03 X2232.552953 Y84.614550 Z-0.125000 I0.000000 J-0.419344
G03 X2232.225278 Y81.652116 Z-0.125000 I13.227508 J-2.962434
G01 X2232.225278 Y78.361952 Z-0.125000
G01 X2230.735624 Y78.591986 Z-0.125000
G02 X2229.263040 Y78.842780 Z-0.125000 I7.365064 J47.694085
G01 X2229.227485 Y78.872902 Z-0.125000
G02 X2229.213917 Y78.925020 Z-0.125000 I0.270320 J0.098199
G02 X2228.833729 Y81.298853 Z-0.125000 I563.665488 J91.492876
G03 X2227.758665 Y84.898198 Z-0.125000 I-13.932066 J-2.201048
G03 X2226.215779 Y87.101728 Z-0.125000 I-6.592955 J-2.974390
G03 X2224.164160 Y88.598180 Z-0.125000 I-6.232655 J-6.390304
G03 X2222.022126 Y89.324937 Z-0.125000 I-3.317480 J-6.257817
G02 X2219.884859 Y90.209189 Z-0.125000 I0.858218 J5.099392
G02 X2219.368306 Y91.210887 Z-0.125000 I0.711212 J1.000793
G02 X2219.584981 Y93.642970 Z-0.125000 I13.757863 J-0.000000
G02 X2222.827362 Y110.479931 Z-0.125000 I673.202932 J-120.911521
G03 X2225.239716 Y122.525730 Z-0.125000 I-1171.416008 J240.858265
G03 X2225.392452 Y123.638765 Z-0.125000 I-9.825987 J1.915364
G01 X2225.482679 Y124.760731 Z-0.125000
G01 X2223.487791 Y125.310164 Z-0.125000
G02 X2220.498755 Y127.206844 Z-0.125000 I1.607521 J5.836938
G02 X2219.398560 Y130.080507 Z-0.125000 I3.472934 J2.977067
G01 X2219.367205 Y131.463119 Z-0.125000
G01 X2209.657378 Y131.463119 Z-0.125000
G01 X2199.947607 Y131.463119 Z-0.125000
G01 X2199.620850 Y130.204292 Z-0.125000
G02 X2199.188425 Y128.996697 Z-0.125000 I-6.915292 J1.795060
G02 X2198.635669 Y128.077181 Z-0.125000 I-4.536475 J2.101149
G02 X2196.238164 Y125.878287 Z-0.125000 I-7.247783 J5.495949
G02 X2194.206050 Y125.285083 Z-0.125000 I-2.053772 J3.258258
G03 X2193.796914 Y124.923332 Z-0.125000 I0.002413 J-0.414968
G03 X2193.048797 Y116.335703 Z-0.125000 I102.534940 J-13.258793
G02 X2189.357869 Y87.736995 Z-0.125000 I-173.406887 J7.842240
G02 X2182.448728 Y66.968277 Z-0.125000 I-97.781051 J20.995281
G01 X2180.691951 Y63.145758 Z-0.125000
G01 X2175.019228 Y63.141214 Z-0.125000
G03 X2169.357932 Y63.053702 Z-0.125000 I0.204284 J-196.379449
G03 X2168.676312 Y62.950217 Z-0.125000 I0.085442 J-2.859311
G02 X2168.062635 Y62.898744 Z-0.125000 I-0.442279 J1.589023
G02 X2167.855045 Y63.036004 Z-0.125000 I0.027995 J0.267945
G01 X2167.854142 Y63.036092 Z-0.125000
G00 Z5.000000

(Change tool to Default tool)

G00 Z5.000000
G00 X2156.474547 Y79.310620

G01 Z-0.125000 F100.0(Penetrate)
G02 X2158.164925 Y81.892141 Z-0.125000 I4.466910 J-1.080739 F400.000000
G02 X2163.277175 Y84.467997 Z-0.125000 I9.555744 J-12.604079
G03 X2165.751331 Y85.236908 Z-0.125000 I-21.980519 J75.092584
G03 X2165.852283 Y85.315262 Z-0.125000 I-0.059522 J0.180901
G03 X2165.916428 Y85.435113 Z-0.125000 I-0.742494 J0.474475
G03 X2166.296134 Y86.324861 Z-0.125000 I-40.850390 J17.959088
G02 X2167.093207 Y86.840259 Z-0.125000 I0.771783 J-0.319533
G02 X2168.981507 Y86.243533 Z-0.125000 I-0.110083 J-3.634414
G03 X2170.476203 Y85.304843 Z-0.125000 I22.976397 J34.926424
G03 X2170.610974 Y85.267569 Z-0.125000 I0.134771 J0.225009
G03 X2170.685139 Y85.339287 Z-0.125000 I0.000000 J0.074208
G03 X2170.756882 Y89.615871 Z-0.125000 I-127.427070 J4.276584
G01 X2170.756882 Y93.964176 Z-0.125000
G01 X2167.699202 Y94.980151 Z-0.125000
G02 X2162.046853 Y97.501814 Z-0.125000 I9.889911 J29.764143
G02 X2160.153737 Y99.284991 Z-0.125000 I2.743998 J4.809681
G03 X2159.387920 Y100.343308 Z-0.125000 I-11.360731 J-7.414584
G03 X2159.196524 Y100.481977 Z-0.125000 I-0.346962 J-0.277470
G03 X2158.083066 Y100.296358 Z-0.125000 I-0.395726 J-1.058605
G03 X2154.605361 Y96.707311 Z-0.125000 I14.067643 J-17.110659
G03 X2153.306386 Y94.788794 Z-0.125000 I14.946336 J-11.518759
G03 X2151.465131 Y91.393456 Z-0.125000 I45.143311 J-26.677650
G01 X2149.745071 Y87.922414 Z-0.125000
G01 X2149.745071 Y83.179107 Z-0.125000
G01 X2149.745071 Y78.435832 Z-0.125000
G01 X2153.003976 Y78.435832 Z-0.125000
G01 X2156.262880 Y78.435832 Z-0.125000
G01 X2156.474547 Y79.310620 Z-0.125000
G01 X2156.474547 Y79.310620 Z-0.125000
G00 Z5.000000

(Change tool to Default tool)

G00 Z5.000000
G00 X2429.211423 Y64.039186

G01 Z-0.125000 F100.0(Penetrate)
G03 X2427.353563 Y66.543522 Z-0.125000 I-7.763319 J-3.817973 F400.000000
G03 X2422.664686 Y70.154272 Z-0.125000 I-21.271140 J-22.772613
G02 X2420.161025 Y72.185339 Z-0.125000 I7.139786 J11.359734
G02 X2419.767364 Y73.149370 Z-0.125000 I1.006049 J0.973210
G03 X2419.122845 Y73.772359 Z-0.125000 I-0.627252 J-0.004038
G03 X2416.672854 Y73.064136 Z-0.125000 I0.139767 J-5.075301
G02 X2415.122179 Y72.583285 Z-0.125000 I-1.781348 J3.003813
G02 X2414.744796 Y72.936512 Z-0.125000 I-0.023382 J0.353227
G03 X2414.217619 Y74.677476 Z-0.125000 I-3.138290 J-0.000000
G03 X2412.793343 Y75.863261 Z-0.125000 I-2.710201 J-1.807031
G03 X2411.926822 Y76.162028 Z-0.125000 I-2.453070 J-5.708720
G03 X2411.817362 Y76.121046 Z-0.125000 I-0.025811 J-0.097732
G03 X2411.735432 Y75.994029 Z-0.125000 I2.660756 J-1.806215
G03 X2411.192973 Y75.101295 Z-0.125000 I132.607381 J-81.188316
G02 X2410.574583 Y74.346280 Z-0.125000 I-2.921003 J1.761679
G02 X2410.215158 Y74.206665 Z-0.125000 I-0.359425 J0.392842
G02 X2409.839634 Y74.528278 Z-0.125000 I0.000000 J0.380043
G02 X2409.253458 Y80.387758 Z-0.125000 I53.263820 J8.287518
G03 X2407.135160 Y94.894636 Z-0.125000 I-73.404063 J-3.310382
G03 X2404.849295 Y98.008497 Z-0.125000 I-4.948755 J-1.236898
G02 X2403.915554 Y98.752407 Z-0.125000 I2.528586 J4.131794
G02 X2403.768497 Y99.112962 Z-0.125000 I0.368478 J0.360556
G02 X2404.448890 Y111.090958 Z-0.125000 I105.773630 J0.000000
G02 X2405.358452 Y113.062910 Z-0.125000 I3.443222 J-0.392441
G02 X2405.675562 Y113.152710 Z-0.125000 I0.232791 J-0.217253
G02 X2406.889480 Y112.642402 Z-0.125000 I-1.345427 J-4.899481
G03 X2410.348304 Y111.402626 Z-0.125000 I5.066635 J8.690560
G03 X2411.430125 Y111.907306 Z-0.125000 I0.169692 J1.048073
G03 X2411.564723 Y112.303610 Z-0.125000 I-0.862527 J0.513953
G03 X2412.096988 Y117.559170 Z-0.125000 I-158.849371 J18.742433
G03 X2412.452067 Y123.770906 Z-0.125000 I-113.506516 J9.604344
G03 X2413.485436 Y164.157858 Z-0.125000 I-4800.624558 J143.038941
G02 X2414.323130 Y182.853854 Z-0.125000 I399.808269 J-8.547071
G02 X2415.533382 Y194.150190 Z-0.125000 I147.040436 J-10.040421
G03 X2416.291355 Y199.479041 Z-0.125000 I-667.679173 J97.688662
G03 X2416.312851 Y199.791675 Z-0.125000 I-2.262628 J0.312634
G02 X2417.383794 Y200.859564 Z-0.125000 I1.067894 J0.000000
G02 X2429.034808 Y199.755403 Z-0.125000 I-0.182546 J-63.948564
G02 X2432.019499 Y198.590013 Z-0.125000 I-1.602206 J-8.508176
G02 X2435.225579 Y195.888151 Z-0.125000 I-7.854019 J-12.572852
G02 X2440.202355 Y186.372294 Z-0.125000 I-16.398853 J-14.635922
G02 X2443.899255 Y159.676629 Z-0.125000 I-134.631252 J-32.247974
G03 X2444.258951 Y152.285915 Z-0.125000 I434.368212 J17.435989
G03 X2444.336587 Y152.031591 Z-0.125000 I0.560399 J0.032057
G02 X2444.643940 Y151.002483 Z-0.125000 I-1.903195 J-1.128859
G02 X2445.477640 Y126.745969 Z-0.125000 I-1128.986994 J-50.946003
G03 X2445.971459 Y113.758443 Z-0.125000 I451.480957 J10.663342
G03 X2446.259000 Y111.846668 Z-0.125000 I9.978418 J0.523293
G02 X2446.599353 Y108.549768 Z-0.125000 I-11.257002 J-2.828126
G02 X2445.940653 Y103.971954 Z-0.125000 I-22.579737 J0.912691
G02 X2442.935569 Y94.791259 Z-0.125000 I-66.130416 J16.564067
G02 X2437.630112 Y83.594869 Z-0.125000 I-103.837490 J42.348632
G01 X2436.044418 Y80.676872 Z-0.125000
G01 X2436.841357 Y78.281762 Z-0.125000
G02 X2437.377454 Y75.844390 Z-0.125000 I-11.328819 J-3.769403
G02 X2437.638268 Y71.183458 Z-0.125000 I-41.516708 J-4.660932
G02 X2437.558702 Y66.488377 Z-0.125000 I-138.564271 J-0.000000
G02 X2437.447091 Y65.544997 Z-0.125000 I-5.666542 J0.192114
G02 X2436.351918 Y64.069657 Z-0.125000 I-2.126900 J0.434685
G02 X2432.719276 Y62.991196 Z-0.125000 I-4.388231 J8.123880
G01 X2429.842952 Y62.755046 Z-0.125000
G01 X2429.211423 Y64.039186 Z-0.125000
G01 X2429.211423 Y64.039186 Z-0.125000
G00 Z5.000000

(Change tool to Default tool)

G00 Z5.000000
G00 X2737.489221 Y64.039186

G01 Z-0.125000 F100.0(Penetrate)
G03 X2735.631361 Y66.543522 Z-0.125000 I-7.763319 J-3.817973 F400.000000
G03 X2730.942484 Y70.154272 Z-0.125000 I-21.271140 J-22.772613
G02 X2728.438823 Y72.185339 Z-0.125000 I7.139786 J11.359734
G02 X2728.045162 Y73.149370 Z-0.125000 I1.006049 J0.973210
G03 X2727.400636 Y73.772366 Z-0.125000 I-0.627259 J-0.004038
G03 X2724.950652 Y73.064136 Z-0.125000 I0.139763 J-5.075221
G02 X2723.399977 Y72.583285 Z-0.125000 I-1.781348 J3.003813
G02 X2723.022595 Y72.936512 Z-0.125000 I-0.023382 J0.353227
G03 X2722.495417 Y74.677476 Z-0.125000 I-3.138290 J-0.000000
G03 X2721.071141 Y75.863261 Z-0.125000 I-2.710201 J-1.807031
G03 X2720.204586 Y76.162034 Z-0.125000 I-2.452965 J-5.708476
G03 X2720.095160 Y76.121046 Z-0.125000 I-0.025798 J-0.097689
G03 X2720.013230 Y75.994029 Z-0.125000 I2.660756 J-1.806215
G03 X2719.470771 Y75.101295 Z-0.125000 I132.607381 J-81.188316
G02 X2718.852381 Y74.346280 Z-0.125000 I-2.921003 J1.761679
G02 X2718.492956 Y74.206665 Z-0.125000 I-0.359425 J0.392842
G02 X2718.117432 Y74.528278 Z-0.125000 I0.000000 J0.380043
G02 X2717.531256 Y80.387758 Z-0.125000 I53.263820 J8.287518
G03 X2715.412954 Y94.894622 Z-0.125000 I-73.403688 J-3.310365
G03 X2713.127065 Y98.008497 Z-0.125000 I-4.948761 J-1.236904
G02 X2712.193353 Y98.752402 Z-0.125000 I2.528799 J4.131946
G02 X2712.046295 Y99.112962 Z-0.125000 I0.368486 J0.360560
G02 X2712.726688 Y111.090958 Z-0.125000 I105.773630 J0.000000
G02 X2713.636250 Y113.062910 Z-0.125000 I3.443222 J-0.392441
G02 X2713.953362 Y113.152710 Z-0.125000 I0.232793 J-0.217254
G02 X2715.167249 Y112.642402 Z-0.125000 I-1.345339 J-4.899118
G03 X2718.626109 Y111.402630 Z-0.125000 I5.066724 J8.690880
G03 X2719.707923 Y111.907306 Z-0.125000 I0.169692 J1.048066
G03 X2719.842496 Y112.303598 Z-0.125000 I-0.862765 J0.513975
G03 X2720.374786 Y117.559170 Z-0.125000 I-158.806891 J18.738852
G03 X2720.729865 Y123.770906 Z-0.125000 I-113.506516 J9.604344
G03 X2721.763234 Y164.157858 Z-0.125000 I-4800.624558 J143.038941
G02 X2722.600928 Y182.853854 Z-0.125000 I399.808269 J-8.547071
G02 X2723.811180 Y194.150190 Z-0.125000 I147.040436 J-10.040421
G03 X2724.569153 Y199.479041 Z-0.125000 I-667.679173 J97.688662
G03 X2724.590649 Y199.791675 Z-0.125000 I-2.262628 J0.312634
G02 X2725.661592 Y200.859564 Z-0.125000 I1.067894 J0.000000
G02 X2737.312606 Y199.755403 Z-0.125000 I-0.182546 J-63.948564
G02 X2740.297297 Y198.590013 Z-0.125000 I-1.602206 J-8.508176
G02 X2743.503377 Y195.888151 Z-0.125000 I-7.854019 J-12.572852
G02 X2748.480153 Y186.372294 Z-0.125000 I-16.398853 J-14.635922
G02 X2752.177053 Y159.676629 Z-0.125000 I-134.631252 J-32.247974
G03 X2752.536749 Y152.285915 Z-0.125000 I434.368212 J17.435989
G03 X2752.614385 Y152.031591 Z-0.125000 I0.560399 J0.032057
G02 X2752.921738 Y151.002483 Z-0.125000 I-1.903195 J-1.128859
G02 X2753.755438 Y126.745969 Z-0.125000 I-1128.986994 J-50.946003
G03 X2754.249250 Y113.758439 Z-0.125000 I451.500632 J10.663807
G03 X2754.536770 Y111.846668 Z-0.125000 I9.979288 J0.523326
G02 X2754.877144 Y108.549765 Z-0.125000 I-11.256701 J-2.828171
G02 X2754.218451 Y103.971954 Z-0.125000 I-22.579427 J0.912618
G02 X2751.213367 Y94.791259 Z-0.125000 I-66.130416 J16.564067
G02 X2745.907910 Y83.594869 Z-0.125000 I-103.837490 J42.348632
G01 X2744.322216 Y80.676872 Z-0.125000
G01 X2745.119155 Y78.281762 Z-0.125000
G02 X2745.655252 Y75.844390 Z-0.125000 I-11.328819 J-3.769403
G02 X2745.916066 Y71.183458 Z-0.125000 I-41.516708 J-4.660932
G02 X2745.836500 Y66.488377 Z-0.125000 I-138.564271 J-0.000000
G02 X2745.724889 Y65.544997 Z-0.125000 I-5.666542 J0.192114
G02 X2744.629702 Y64.069658 Z-0.125000 I-2.126945 J0.434730
G02 X2740.997074 Y62.991196 Z-0.125000 I-4.388209 J8.123785
G01 X2738.120750 Y62.755046 Z-0.125000
G01 X2737.489221 Y64.039186 Z-0.125000
G01 X2737.489221 Y64.039186 Z-0.125000
G00 Z5.000000

(Change tool to Default tool)

G00 Z5.000000
G00 X1900.112204 Y66.254847

G01 Z-0.125000 F100.0(Penetrate)
G03 X1893.092489 Y67.113168 Z-0.125000 I-6.347584 J-22.778992 F400.000000
G03 X1887.196050 Y65.887592 Z-0.125000 I0.487445 J-17.142307
G01 X1885.726660 Y65.298210 Z-0.125000
G01 X1881.551070 Y66.905881 Z-0.125000
G02 X1872.367560 Y70.982397 Z-0.125000 I35.948257 J93.366128
G02 X1865.928800 Y74.802292 Z-0.125000 I25.053359 J49.566079
G02 X1860.830459 Y78.733533 Z-0.125000 I33.847799 J49.168059
G02 X1859.549759 Y80.294229 Z-0.125000 I3.830190 J4.448852
G02 X1859.660942 Y80.880045 Z-0.125000 I0.401990 J0.227164
G02 X1861.891413 Y82.192930 Z-0.125000 I5.479101 J-6.757363
G03 X1863.292540 Y82.894263 Z-0.125000 I-3.599525 J8.941405
G03 X1863.419929 Y83.120583 Z-0.125000 I-0.137347 J0.226320
G03 X1863.345840 Y83.411614 Z-0.125000 I-0.608648 J-0.000000
G03 X1862.142760 Y85.466440 Z-0.125000 I-33.600458 J-18.293119
G02 X1860.130706 Y89.637212 Z-0.125000 I17.647855 J11.084346
G02 X1859.171976 Y93.914237 Z-0.125000 I17.615389 J6.194601
G01 X1858.965587 Y95.913465 Z-0.125000
G01 X1855.939798 Y96.947821 Z-0.125000
G02 X1852.977821 Y98.132136 Z-0.125000 I10.124953 J29.618657
G02 X1846.300159 Y101.384481 Z-0.125000 I70.947623 J154.149913
G01 X1839.686281 Y104.786817 Z-0.125000
G01 X1837.283893 Y104.786817 Z-0.125000
G01 X1834.881476 Y104.786817 Z-0.125000
G01 X1834.881476 Y101.496131 Z-0.125000
G01 X1834.881476 Y98.205446 Z-0.125000
G01 X1833.078246 Y98.431904 Z-0.125000
G02 X1831.331160 Y98.820785 Z-0.125000 I1.187199 J9.452508
G02 X1829.983876 Y99.433696 Z-0.125000 I2.006549 J6.197970
G02 X1825.891066 Y103.422146 Z-0.125000 I6.406195 J10.667993
G02 X1822.839477 Y110.663378 Z-0.125000 I19.850259 J12.628880
G02 X1822.470585 Y115.467402 Z-0.125000 I15.247404 J3.586996
G02 X1830.656497 Y210.967550 Z-0.125000 I6180.266884 J-481.648203
G01 X1831.748217 Y222.642565 Z-0.125000
G01 X1831.119595 Y227.662753 Z-0.125000
G02 X1830.724077 Y236.243485 Z-0.125000 I54.336924 J6.804071
G02 X1831.494697 Y239.217496 Z-0.125000 I7.001089 J-0.227261
G02 X1833.997972 Y242.923688 Z-0.125000 I16.696915 J-8.579115
G02 X1836.953778 Y245.524522 Z-0.125000 I10.999109 J-9.520281
G02 X1841.231297 Y247.402770 Z-0.125000 I7.541057 J-11.364062
G02 X1849.801352 Y248.690804 Z-0.125000 I11.230949 J-45.571312
G01 X1852.333647 Y248.834562 Z-0.125000
G01 X1857.955175 Y243.346043 Z-0.125000
G03 X1863.632645 Y237.991307 Z-0.125000 I157.794626 J161.617844
G03 X1863.987590 Y237.850270 Z-0.125000 I0.364447 J0.400038
G03 X1864.383376 Y237.920570 Z-0.125000 I0.018056 J1.047621
G03 X1868.691727 Y239.668585 Z-0.125000 I-50.419084 J130.451850
G02 X1880.378237 Y244.482664 Z-0.125000 I218.862149 J-514.711105
G02 X1887.837908 Y247.303667 Z-0.125000 I82.482260 J-206.837113
G01 X1891.400851 Y248.578601 Z-0.125000
G01 X1898.814236 Y248.575355 Z-0.125000
G02 X1909.432886 Y247.977614 Z-0.125000 I-0.037768 J-95.287928
G02 X1914.496140 Y246.809059 Z-0.125000 I-2.537682 J-22.549189
G02 X1927.810639 Y238.618777 Z-0.125000 I-12.564851 J-35.343473
G02 X1944.736166 Y217.987687 Z-0.125000 I-75.418817 J-79.131103
G02 X1951.405480 Y206.694064 Z-0.125000 I-177.290362 J-112.312753
G02 X1957.325507 Y195.062007 Z-0.125000 I-182.166844 J-100.034619
G02 X1961.705890 Y183.645386 Z-0.125000 I-75.857849 J-35.654145
G02 X1963.492317 Y174.646924 Z-0.125000 I-45.165065 J-13.642989
G02 X1964.000729 Y163.027548 Z-0.125000 I-105.527954 J-10.438246
G02 X1963.153029 Y144.189123 Z-0.125000 I-278.748173 J3.104951
G02 X1961.374341 Y131.944604 Z-0.125000 I-94.292308 J7.445828
G02 X1957.976481 Y119.867395 Z-0.125000 I-95.122189 J20.245549
G02 X1954.258359 Y110.962644 Z-0.125000 I-80.260161 J28.283502
G02 X1949.738753 Y102.912099 Z-0.125000 I-70.072111 J34.044813
G02 X1936.446381 Y86.683073 Z-0.125000 I-76.654642 J49.225860
G02 X1919.085553 Y73.238908 Z-0.125000 I-69.420122 J71.712807
G02 X1905.273528 Y65.270733 Z-0.125000 I-163.456708 J267.380704
G02 X1904.162686 Y65.128758 Z-0.125000 I-0.738064 J1.358051
G02 X1904.032752 Y65.163000 Z-0.125000 I1.236084 J4.954086
G02 X1900.112204 Y66.253521 Z-0.125000 I1171.481306 J4219.201649
G01 X1900.112204 Y66.254847 Z-0.125000
G00 Z5.000000

(Change tool to Default tool)

G00 Z5.000000
G00 X1876.695154 Y103.590418

G01 Z-0.125000 F100.0(Penetrate)
G03 X1876.823254 Y104.304424 Z-0.125000 I-7.874511 J1.781262 F400.000000
G03 X1877.556016 Y110.045334 Z-0.125000 I-509.584560 J67.959948
G01 X1878.256690 Y115.791799 Z-0.125000
G01 X1880.481758 Y116.002119 Z-0.125000
G03 X1888.533227 Y116.900505 Z-0.125000 I-22.600346 J239.076170
G03 X1896.113680 Y118.013904 Z-0.125000 I-27.402228 J212.927098
G03 X1896.929411 Y118.750976 Z-0.125000 I-0.165697 J1.003309
G03 X1896.819292 Y120.615039 Z-0.125000 I-2.831195 J0.768032
G02 X1896.987733 Y121.997664 Z-0.125000 I1.337303 J0.538653
G02 X1898.421411 Y122.833890 Z-0.125000 I1.659692 J-1.198374
G03 X1902.303594 Y123.755757 Z-0.125000 I-1.802582 J16.226348
G03 X1905.945540 Y125.628686 Z-0.125000 I-5.988432 J16.122008
G03 X1912.956508 Y133.502003 Z-0.125000 I-11.980583 J17.726566
G03 X1918.943764 Y150.681998 Z-0.125000 I-56.559527 J29.344369
G03 X1919.962867 Y158.783713 Z-0.125000 I-59.895888 J11.649164
G03 X1919.735313 Y164.274224 Z-0.125000 I-27.587740 J1.606601
G03 X1916.072932 Y176.294382 Z-0.125000 I-40.361692 J-5.729648
G03 X1909.082610 Y186.299614 Z-0.125000 I-34.624021 J-16.746082
G03 X1897.833352 Y194.789871 Z-0.125000 I-32.777059 J-31.730775
G03 X1879.976975 Y201.878022 Z-0.125000 I-40.002404 J-74.737683
G03 X1869.907466 Y204.299771 Z-0.125000 I-47.817163 J-176.676196
G03 X1868.897608 Y204.213174 Z-0.125000 I-0.361544 J-1.715387
G03 X1868.616339 Y203.956233 Z-0.125000 I0.199266 J-0.500554
G03 X1867.690177 Y201.831599 Z-0.125000 I17.793832 J-9.020799
G01 X1866.869616 Y199.604031 Z-0.125000
G01 X1866.869616 Y187.574059 Z-0.125000
G02 X1866.576526 Y172.658230 Z-0.125000 I-379.692402 J0.000000
G02 X1865.150261 Y143.825311 Z-0.125000 I-1423.507404 J55.964239
G03 X1863.999331 Y117.188754 Z-0.125000 I812.543143 J-48.452070
G03 X1864.364950 Y114.534403 Z-0.125000 I8.218322 J-0.220337
G03 X1865.204313 Y112.320129 Z-0.125000 I18.324730 J5.680117
G03 X1865.486360 Y112.050579 Z-0.125000 I0.474613 J0.214281
G03 X1865.874167 Y112.047793 Z-0.125000 I0.197478 J0.495979
G03 X1867.268678 Y112.730726 Z-0.125000 I-3.050907 J7.994994
G02 X1868.721334 Y113.315984 Z-0.125000 I2.503128 J-4.117531
G02 X1871.028047 Y113.570476 Z-0.125000 I2.306713 J-10.326774
G02 X1872.661953 Y112.602277 Z-0.125000 I0.000000 J-1.862766
G02 X1874.406586 Y107.399661 Z-0.125000 I-13.639539 J-7.467680
G03 X1875.185750 Y103.104653 Z-0.125000 I64.945152 J9.563620
G03 X1875.401391 Y102.793933 Z-0.125000 I0.481542 J0.104004
G03 X1876.121342 Y102.787333 Z-0.125000 I0.365229 J0.569729
G03 X1876.695634 Y103.590418 Z-0.125000 I-0.667178 J1.083985
G01 X1876.695154 Y103.590418 Z-0.125000
G00 Z5.000000

(Change tool to Default tool)

G00 Z5.000000
G00 X2081.535092 Y70.173466

G01 Z-0.125000 F100.0(Penetrate)
G02 X2070.340314 Y74.237964 Z-0.125000 I6.546591 J35.480214 F400.000000
G02 X2059.415587 Y82.665003 Z-0.125000 I23.810217 J42.162193
G02 X2047.261153 Y99.842405 Z-0.125000 I48.889168 J47.481970
G02 X2034.947936 Y131.951101 Z-0.125000 I163.030998 J80.935328
G02 X2032.448514 Y143.902351 Z-0.125000 I89.972325 J25.053326
G02 X2030.868639 Y160.741990 Z-0.125000 I177.442766 J25.141395
G01 X2030.499041 Y168.712349 Z-0.125000
G01 X2031.500789 Y175.869406 Z-0.125000
G02 X2038.779967 Y216.600547 Z-0.125000 I542.345093 J-75.908027
G02 X2043.414828 Y230.523298 Z-0.125000 I67.295922 J-14.669857
G02 X2045.978728 Y234.868476 Z-0.125000 I21.898628 J-9.992413
G02 X2048.223048 Y237.007363 Z-0.125000 I7.301169 J-5.414153
G03 X2049.752117 Y238.225888 Z-0.125000 I-6.571920 J9.815419
G03 X2051.853922 Y240.428827 Z-0.125000 I-19.642008 J20.844401
G02 X2057.266032 Y245.022404 Z-0.125000 I17.094698 J-14.655778
G02 X2064.032404 Y247.820049 Z-0.125000 I12.428834 J-20.478940
G02 X2074.610206 Y249.084244 Z-0.125000 I10.544920 J-43.346207
G02 X2086.082426 Y247.803455 Z-0.125000 I-0.038599 J-52.365332
G02 X2097.802803 Y243.614465 Z-0.125000 I-11.268465 J-50.018762
G02 X2109.963958 Y235.824168 Z-0.125000 I-30.953237 J-61.707318
G02 X2118.192240 Y228.406135 Z-0.125000 I-58.534473 J-73.200554
G02 X2124.482993 Y221.088830 Z-0.125000 I-50.655374 J-49.911633
G02 X2130.820802 Y210.130106 Z-0.125000 I-43.104368 J-32.240798
G02 X2133.585111 Y199.942980 Z-0.125000 I-34.374231 J-14.796171
G02 X2133.537879 Y193.214415 Z-0.125000 I-25.658073 J-3.184336
G02 X2130.154220 Y175.151063 Z-0.125000 I-191.045149 J26.438317
G02 X2127.853909 Y166.877840 Z-0.125000 I-108.933391 J25.831755
G02 X2125.827161 Y161.621948 Z-0.125000 I-45.891390 J14.677667
G01 X2124.231335 Y158.110240 Z-0.125000
G01 X2122.535970 Y158.206079 Z-0.125000
G01 X2120.840605 Y158.301919 Z-0.125000
G01 X2118.399241 Y164.970994 Z-0.125000
G03 X2114.539369 Y174.813617 Z-0.125000 I-217.638382 J-79.670687
G03 X2112.151349 Y179.892450 Z-0.125000 I-60.244555 J-25.225592
G03 X2105.034810 Y190.031143 Z-0.125000 I-42.480870 J-22.251158
G03 X2100.194835 Y192.946955 Z-0.125000 I-7.358525 J-6.739602
G02 X2098.940020 Y193.538294 Z-0.125000 I0.950471 J3.643915
G02 X2097.889108 Y194.612696 Z-0.125000 I2.588628 J3.583200
G03 X2095.064628 Y197.051356 Z-0.125000 I-6.088958 J-4.197289
G03 X2085.612018 Y200.652308 Z-0.125000 I-23.988230 J-48.762671
G03 X2081.498866 Y201.556595 Z-0.125000 I-10.364971 J-37.338647
G03 X2077.603878 Y201.961464 Z-0.125000 I-5.405812 J-33.067830
G01 X2073.672635 Y202.138894 Z-0.125000
G01 X2072.047402 Y200.294197 Z-0.125000
G03 X2067.433397 Y190.984698 Z-0.125000 I15.043788 J-13.254206
G03 X2064.632747 Y163.344389 Z-0.125000 I140.542403 J-28.202481
G03 X2064.879056 Y155.072839 Z-0.125000 I122.834478 J-0.481685
G03 X2065.470100 Y150.168899 Z-0.125000 I43.657806 J2.774236
G03 X2075.655385 Y123.862471 Z-0.125000 I72.401106 J12.907182
G03 X2086.778386 Y116.361467 Z-0.125000 I14.071886 J8.869279
G03 X2090.395365 Y116.470086 Z-0.125000 I1.551491 J8.612328
G03 X2092.215058 Y117.681977 Z-0.125000 I-0.754004 J3.104271
G03 X2094.637047 Y122.063730 Z-0.125000 I-15.672269 J11.523003
G03 X2099.320991 Y135.686888 Z-0.125000 I-149.797648 J59.120550
G02 X2100.337383 Y137.886424 Z-0.125000 I7.963404 J-2.345237
G02 X2101.449257 Y138.940095 Z-0.125000 I2.776531 J-1.816422
G02 X2102.946942 Y139.454504 Z-0.125000 I2.052775 J-3.539153
G02 X2108.614568 Y139.921294 Z-0.125000 I7.158407 J-52.274507
G02 X2114.316984 Y139.990116 Z-0.125000 I4.976035 J-176.022916
G02 X2114.479231 Y139.897220 Z-0.125000 I-0.000782 J-0.189499
G02 X2115.647606 Y136.911911 Z-0.125000 I-8.590970 J-5.083582
G02 X2117.348387 Y126.553734 Z-0.125000 I-104.689937 J-22.508482
G03 X2117.586222 Y125.018896 Z-0.125000 I19.244401 J2.196223
G03 X2117.661851 Y124.956669 Z-0.125000 I0.075629 J0.014846
G03 X2117.777478 Y124.998201 Z-0.125000 I0.000000 J0.181722
G03 X2120.028454 Y126.908594 Z-0.125000 I-66.779856 J80.966616
G02 X2122.346980 Y128.638969 Z-0.125000 I12.422505 J-14.226417
G02 X2123.110998 Y128.860520 Z-0.125000 I0.764018 J-1.206581
G01 X2123.958116 Y128.860520 Z-0.125000
G01 X2124.112012 Y119.832866 Z-0.125000
G03 X2124.448533 Y110.818226 Z-0.125000 I222.526373 J3.793435
G03 X2124.942479 Y105.426265 Z-0.125000 I80.045999 J4.614230
G01 X2125.619022 Y100.047312 Z-0.125000
G01 X2124.017129 Y95.991963 Z-0.125000
G02 X2118.951717 Y85.897733 Z-0.125000 I-59.161109 J23.369731
G02 X2113.646817 Y79.227988 Z-0.125000 I-30.801716 J19.054147
G02 X2109.998790 Y76.114265 Z-0.125000 I-22.705456 J22.907762
G02 X2105.964530 Y73.601662 Z-0.125000 I-18.714835 J25.553696
G02 X2098.078831 Y70.713193 Z-0.125000 I-14.919854 J28.523665
G02 X2088.457636 Y69.681319 Z-0.125000 I-9.338566 J41.702843
G02 X2084.057367 Y69.852066 Z-0.125000 I0.449001 J68.355457
G02 X2081.535092 Y70.173430 Z-0.125000 I1.619230 J22.767691
G01 X2081.535092 Y70.173466 Z-0.125000
G00 Z5.000000

(Change tool to Default tool)

G00 Z5.000000
G00 X2435.902235 Y207.884484

G01 Z-0.125000 F100.0(Penetrate)
G02 X2431.632516 Y209.840487 Z-0.125000 I10.168389 J27.834522 F400.000000
G02 X2429.248959 Y211.596460 Z-0.125000 I5.737559 J10.283863
G02 X2426.950650 Y214.599098 Z-0.125000 I8.363921 J8.782911
G02 X2426.351411 Y216.941156 Z-0.125000 I4.358495 J2.362854
G03 X2426.108948 Y217.432923 Z-0.125000 I-0.626556 J-0.003265
G03 X2425.407519 Y217.673128 Z-0.125000 I-0.701429 J-0.904025
G01 X2424.466703 Y217.673128 Z-0.125000
G01 X2424.466703 Y215.354305 Z-0.125000
G01 X2424.466703 Y213.035483 Z-0.125000
G01 X2423.133852 Y213.256378 Z-0.125000
G02 X2421.846623 Y213.564126 Z-0.125000 I1.536639 J9.273313
G02 X2421.525129 Y213.763063 Z-0.125000 I0.230452 J0.731669
G02 X2421.343933 Y214.085031 Z-0.125000 I0.526588 J0.508321
G02 X2418.973833 Y223.279766 Z-0.125000 I887.602626 J233.697587
G02 X2416.716837 Y232.422956 Z-0.125000 I896.827108 J226.231926
G02 X2416.626457 Y233.182340 Z-0.125000 I3.145027 J0.759384
G02 X2417.021254 Y234.699855 Z-0.125000 I3.113903 J0.000000
G02 X2423.261219 Y245.070536 Z-0.125000 I161.988766 J-90.404885
G02 X2425.804237 Y248.076460 Z-0.125000 I12.960204 J-8.385698
G02 X2427.097437 Y248.578601 Z-0.125000 I1.293201 J-1.414168
G02 X2427.577056 Y248.254519 Z-0.125000 I0.000000 J-0.516942
G02 X2427.980454 Y246.382686 Z-0.125000 I-5.248539 J-2.110496
G03 X2428.350948 Y244.437015 Z-0.125000 I6.803115 J0.287336
G03 X2428.778833 Y244.082798 Z-0.125000 I0.505956 J0.175637
G03 X2429.163517 Y244.350526 Z-0.125000 I0.049867 J0.338579
G03 X2429.484445 Y247.417335 Z-0.125000 I-14.492864 J3.066809
G01 X2429.484445 Y250.855846 Z-0.125000
G01 X2430.886045 Y250.855846 Z-0.125000
G02 X2432.072263 Y250.469964 Z-0.125000 I0.000000 J-2.016184
G02 X2433.428303 Y249.006105 Z-0.125000 I-3.035576 J-4.172004
G03 X2435.948684 Y245.737388 Z-0.125000 I16.878515 J10.408326
G03 X2442.540638 Y239.439949 Z-0.125000 I70.049086 J66.726252
G02 X2446.073816 Y234.909584 Z-0.125000 I-9.822538 J-11.303407
G02 X2447.804929 Y229.059355 Z-0.125000 I-15.061124 J-7.637901
G02 X2448.386564 Y220.249655 Z-0.125000 I-109.413326 J-11.647759
G02 X2448.074366 Y218.617339 Z-0.125000 I-3.897557 J-0.100564
G02 X2446.945153 Y216.611283 Z-0.125000 I-9.734880 J4.158937
G02 X2443.360602 Y211.871138 Z-0.125000 I-93.547732 J67.016432
G02 X2439.423637 Y207.227432 Z-0.125000 I-79.520327 J63.427131
G02 X2438.768822 Y206.950718 Z-0.125000 I-0.622962 J0.561044
G02 X2438.431537 Y207.010794 Z-0.125000 I0.046578 J1.238351
G02 X2435.902235 Y207.884484 Z-0.125000 I23.477374 J72.064152
G01 X2435.902235 Y207.884484 Z-0.125000
G00 Z5.000000

(Change tool to Default tool)

G00 Z5.000000
G00 X2744.180033 Y207.884484

G01 Z-0.125000 F100.0(Penetrate)
G02 X2739.910314 Y209.840487 Z-0.125000 I10.168389 J27.834522 F400.000000
G02 X2737.526757 Y211.596460 Z-0.125000 I5.737559 J10.283863
G02 X2735.228448 Y214.599098 Z-0.125000 I8.363921 J8.782911
G02 X2734.629209 Y216.941156 Z-0.125000 I4.358495 J2.362854
G03 X2734.386746 Y217.432923 Z-0.125000 I-0.626556 J-0.003265
G03 X2733.685317 Y217.673128 Z-0.125000 I-0.701429 J-0.904025
G01 X2732.744501 Y217.673128 Z-0.125000
G01 X2732.744501 Y215.354305 Z-0.125000
G01 X2732.744501 Y213.035483 Z-0.125000
G01 X2731.411650 Y213.256378 Z-0.125000
G02 X2730.124421 Y213.564126 Z-0.125000 I1.536639 J9.273313
G02 X2729.802927 Y213.763063 Z-0.125000 I0.230452 J0.731669
G02 X2729.621731 Y214.085031 Z-0.125000 I0.526588 J0.508321
G02 X2727.251631 Y223.279766 Z-0.125000 I887.602626 J233.697587
G02 X2724.994635 Y232.422956 Z-0.125000 I896.827108 J226.231926
G02 X2724.904255 Y233.182340 Z-0.125000 I3.145027 J0.759384
G02 X2725.299052 Y234.699855 Z-0.125000 I3.113903 J0.000000
G02 X2731.539017 Y245.070536 Z-0.125000 I161.988766 J-90.404885
G02 X2734.082035 Y248.076460 Z-0.125000 I12.960204 J-8.385698
G02 X2735.375235 Y248.578601 Z-0.125000 I1.293201 J-1.414168
G02 X2735.854854 Y248.254519 Z-0.125000 I0.000000 J-0.516942
G02 X2736.258252 Y246.382686 Z-0.125000 I-5.248539 J-2.110496
G03 X2736.628738 Y244.437004 Z-0.125000 I6.803379 J0.287347
G03 X2737.056603 Y244.082798 Z-0.125000 I0.505936 J0.175624
G03 X2737.441304 Y244.350538 Z-0.125000 I0.049868 J0.338596
G03 X2737.762243 Y247.417335 Z-0.125000 I-14.492239 J3.066798
G01 X2737.762243 Y250.855846 Z-0.125000
G01 X2739.163843 Y250.855846 Z-0.125000
G02 X2740.350061 Y250.469964 Z-0.125000 I0.000000 J-2.016184
G02 X2741.706101 Y249.006105 Z-0.125000 I-3.035576 J-4.172004
G03 X2744.226482 Y245.737388 Z-0.125000 I16.878515 J10.408326
G03 X2750.818436 Y239.439949 Z-0.125000 I70.049086 J66.726252
G02 X2754.351614 Y234.909584 Z-0.125000 I-9.822538 J-11.303407
G02 X2756.082727 Y229.059355 Z-0.125000 I-15.061124 J-7.637901
G02 X2756.664362 Y220.249655 Z-0.125000 I-109.413326 J-11.647759
G02 X2756.352164 Y218.617339 Z-0.125000 I-3.897557 J-0.100564
G02 X2755.222952 Y216.611284 Z-0.125000 I-9.734875 J4.158935
G02 X2751.638397 Y211.871138 Z-0.125000 I-93.546412 J67.015496
G02 X2747.701428 Y207.227441 Z-0.125000 I-79.518762 J63.425990
G02 X2747.046592 Y206.950718 Z-0.125000 I-0.622983 J0.561065
G02 X2746.709354 Y207.010787 Z-0.125000 I0.046579 J1.238199
G02 X2744.180033 Y207.884484 Z-0.125000 I23.477951 J72.065792
G01 X2744.180033 Y207.884484 Z-0.125000
G00 Z5.000000

(Change tool to Default tool)

G00 Z5.000000
G00 X1912.029348 Y291.943092

G01 Z-0.125000 F100.0(Penetrate)
G02 X1891.798576 Y305.093058 Z-0.125000 I37.060839 J79.153988 F400.000000
G02 X1876.910320 Y322.426422 Z-0.125000 I51.378076 J59.191208
G02 X1873.799810 Y328.094723 Z-0.125000 I44.481084 J28.096837
G02 X1870.637310 Y335.737320 Z-0.125000 I77.874865 J36.700162
G02 X1865.197997 Y353.218846 Z-0.125000 I202.162378 J72.489069
G02 X1860.113752 Y375.453692 Z-0.125000 I322.228661 J85.379878
G01 X1858.952689 Y381.472137 Z-0.125000
G01 X1859.164921 Y388.303862 Z-0.125000
G02 X1862.640770 Y422.273811 Z-0.125000 I240.865588 J-7.482876
G02 X1868.738604 Y443.129960 Z-0.125000 I96.126301 J-16.785505
G02 X1879.026860 Y459.662044 Z-0.125000 I56.154044 J-23.478477
G02 X1891.448998 Y469.163888 Z-0.125000 I29.588289 J-25.811048
G02 X1899.466838 Y472.477766 Z-0.125000 I31.337072 J-64.462790
G02 X1908.579633 Y475.057902 Z-0.125000 I27.793178 J-80.780059
G02 X1911.901507 Y475.535473 Z-0.125000 I4.729467 J-21.105203
G02 X1920.042286 Y475.805480 Z-0.125000 I8.291644 J-127.136660
G01 X1928.211999 Y475.815076 Z-0.125000
G01 X1930.662196 Y474.559102 Z-0.125000
G02 X1936.154001 Y470.356449 Z-0.125000 I-8.833951 J-17.233268
G02 X1942.967395 Y461.030836 Z-0.125000 I-39.957924 J-36.345470
G01 X1944.481235 Y458.410431 Z-0.125000
G01 X1946.747451 Y458.410431 Z-0.125000
G02 X1952.725803 Y457.970846 Z-0.125000 I-0.000000 J-40.872591
G02 X1958.063490 Y456.737277 Z-0.125000 I-4.993382 J-33.771423
G02 X1964.972803 Y453.168794 Z-0.125000 I-6.983198 J-21.994061
G02 X1968.753842 Y448.676953 Z-0.125000 I-7.919451 J-10.503535
G02 X1970.370412 Y444.099654 Z-0.125000 I-16.023607 J-8.233189
G02 X1969.838055 Y443.445654 Z-0.125000 I-0.532357 J-0.110330
G02 X1969.567044 Y443.520551 Z-0.125000 I-0.000000 J0.527766
G02 X1968.478986 Y444.258962 Z-0.125000 I5.927612 J9.905259
G03 X1967.304909 Y444.661405 Z-0.125000 I-1.188142 J-1.552424
G03 X1966.910931 Y444.270251 Z-0.125000 I-0.002814 J-0.391154
G03 X1967.223224 Y443.326089 Z-0.125000 I1.583400 J0.000000
G03 X1971.148074 Y438.565834 Z-0.125000 I48.926685 J36.342109
G02 X1983.118585 Y420.290210 Z-0.125000 I-50.544736 J-46.164884
G02 X1989.942635 Y396.436773 Z-0.125000 I-80.624171 J-35.968002
G02 X1990.363664 Y392.850446 Z-0.125000 I-86.023213 J-11.916865
G02 X1990.852689 Y386.993166 Z-0.125000 I-228.984380 J-22.066976
G03 X1991.474477 Y381.196141 Z-0.125000 I80.068183 J5.656241
G03 X1991.825735 Y380.243511 Z-0.125000 I2.409473 J0.347358
G02 X1992.658199 Y377.547284 Z-0.125000 I-4.573099 J-2.888578
G02 X1992.343189 Y365.700007 Z-0.125000 I-95.343890 J-3.392702
G02 X1984.507949 Y340.351053 Z-0.125000 I-63.077129 J5.611442
G02 X1965.029299 Y316.964462 Z-0.125000 I-72.693682 J40.741279
G02 X1949.921096 Y305.940479 Z-0.125000 I-95.906092 J115.573080
G02 X1941.038180 Y301.652552 Z-0.125000 I-22.475255 J35.215045
G02 X1937.246791 Y300.707592 Z-0.125000 I-7.305001 J21.230862
G02 X1928.337023 Y299.640110 Z-0.125000 I-18.532814 J116.968066
G03 X1924.103631 Y299.290909 Z-0.125000 I179.499861 J-2201.928672
G03 X1922.143233 Y299.123220 Z-0.125000 I39.554506 J-473.961066
G01 X1920.183172 Y298.951431 Z-0.125000
G01 X1920.183172 Y297.838686 Z-0.125000
G01 X1920.183172 Y296.725968 Z-0.125000
G01 X1924.103295 Y296.725968 Z-0.125000
G02 X1927.823759 Y296.526294 Z-0.125000 I0.000000 J-34.761026
G02 X1928.023418 Y296.303989 Z-0.125000 I-0.023931 J-0.222305
G02 X1927.509195 Y295.084549 Z-0.125000 I-1.703017 J0.000000
G02 X1924.640307 Y293.005940 Z-0.125000 I-8.518554 J8.738159
G02 X1919.806319 Y291.096870 Z-0.125000 I-11.456382 J21.934240
G02 X1915.792640 Y290.548519 Z-0.125000 I-4.023332 J14.485634
G02 X1915.038724 Y290.683471 Z-0.125000 I-0.001276 J2.166241
G02 X1912.029348 Y291.942979 Z-0.125000 I13.648400 J36.835433
G01 X1912.029348 Y291.943092 Z-0.125000
G00 Z5.000000

(Change tool to Default tool)

G00 Z5.000000
G00 X1930.423464 Y336.929399

G01 Z-0.125000 F100.0(Penetrate)
G03 X1931.204009 Y337.294488 Z-0.125000 I-0.379183 J1.827609 F400.000000
G03 X1931.859326 Y338.068024 Z-0.125000 I-1.605027 J2.024081
G02 X1932.613120 Y338.502988 Z-0.125000 I0.737988 J-0.408290
G02 X1933.258753 Y338.041778 Z-0.125000 I-0.013138 J-0.700896
G03 X1933.733978 Y337.237307 Z-0.125000 I2.392086 J0.870478
G03 X1934.111544 Y337.065825 Z-0.125000 I0.377566 J0.329916
G03 X1934.669810 Y337.694345 Z-0.125000 I0.000000 J0.562193
G03 X1933.825173 Y339.476172 Z-0.125000 I-3.071637 J-0.364939
G02 X1933.450093 Y340.654862 Z-0.125000 I1.005013 J0.968836
G02 X1934.217180 Y342.054300 Z-0.125000 I2.297393 J-0.349336
G03 X1941.730507 Y349.299604 Z-0.125000 I-71.071727 J81.219158
G03 X1946.850970 Y355.475660 Z-0.125000 I-46.424672 J43.700574
G03 X1955.781980 Y372.476580 Z-0.125000 I-53.517692 J38.960489
G03 X1960.339443 Y393.834289 Z-0.125000 I-80.757650 J28.397759
G02 X1961.058935 Y398.244113 Z-0.125000 I28.071059 J-2.316375
G02 X1961.753800 Y399.585724 Z-0.125000 I3.127577 J-0.769123
G03 X1962.652804 Y400.857569 Z-0.125000 I-5.931962 J5.146663
G03 X1963.137817 Y402.025620 Z-0.125000 I-4.504468 J2.555127
G03 X1964.085923 Y407.190488 Z-0.125000 I-28.266244 J7.858238
G03 X1963.657304 Y407.660440 Z-0.125000 I-0.428619 J0.039516
G03 X1963.463885 Y407.609917 Z-0.125000 I0.000000 J-0.395493
G03 X1962.206795 Y406.847132 Z-0.125000 I10.459378 J-18.654607
G02 X1960.938261 Y406.122804 Z-0.125000 I-6.566390 J10.026899
G02 X1960.556387 Y406.033824 Z-0.125000 I-0.381874 J0.774958
G02 X1960.191655 Y406.151739 Z-0.125000 I0.000000 J0.623049
G02 X1958.025672 Y407.861157 Z-0.125000 I18.895073 J26.168677
G03 X1955.912539 Y409.581227 Z-0.125000 I-32.145731 J-37.333496
G03 X1955.804724 Y409.569081 Z-0.125000 I-0.047616 J-0.061919
G03 X1955.718291 Y409.441630 Z-0.125000 I0.624048 J-0.516240
G03 X1955.338860 Y408.717730 Z-0.125000 I19.998728 J-10.943693
G02 X1954.481644 Y407.964827 Z-0.125000 I-1.357121 J0.680705
G02 X1954.052971 Y408.269335 Z-0.125000 I-0.106183 J0.304508
G03 X1953.625227 Y409.653066 Z-0.125000 I-2.452026 J0.000000
G03 X1949.020921 Y415.630791 Z-0.125000 I-54.940116 J-37.555214
G03 X1946.000732 Y417.847403 Z-0.125000 I-6.361210 J-5.501460
G03 X1944.101928 Y417.760130 Z-0.125000 I-0.860086 J-1.986878
G02 X1941.763317 Y417.191766 Z-0.125000 I-2.229173 J4.076792
G02 X1940.904464 Y417.835455 Z-0.125000 I0.021766 J0.923857
G03 X1938.790855 Y420.744882 Z-0.125000 I-5.442864 J-1.731623
G03 X1931.762072 Y424.393735 Z-0.125000 I-16.146034 J-22.507896
G01 X1928.493826 Y425.532953 Z-0.125000
G01 X1928.337023 Y423.371780 Z-0.125000
G01 X1928.180221 Y421.210607 Z-0.125000
G01 X1925.044111 Y424.345503 Z-0.125000
G01 X1921.908029 Y427.480399 Z-0.125000
G01 X1919.712764 Y427.480399 Z-0.125000
G03 X1907.418583 Y424.212686 Z-0.125000 I-0.010890 J-24.720201
G03 X1900.110709 Y416.256732 Z-0.125000 I8.858503 J-15.471174
G03 X1898.931794 Y412.579546 Z-0.125000 I14.055789 J-6.533895
G03 X1897.112605 Y400.267968 Z-0.125000 I158.240516 J-29.672191
G01 X1896.010979 Y390.111213 Z-0.125000
G01 X1896.636412 Y385.465864 Z-0.125000
G02 X1897.747457 Y375.085975 Z-0.125000 I-190.267731 J-25.615328
G02 X1897.485280 Y374.802097 Z-0.125000 I-0.262177 J-0.020872
G02 X1897.292292 Y374.852523 Z-0.125000 I0.000000 J0.394510
G02 X1896.035279 Y375.615377 Z-0.125000 I10.485500 J18.694839
G03 X1894.781195 Y376.388152 Z-0.125000 I-14.660563 J-22.387652
G03 X1894.630263 Y376.428685 Z-0.125000 I-0.150932 J-0.260743
G03 X1894.115008 Y375.795288 Z-0.125000 I0.000000 J-0.526273
G03 X1896.625462 Y366.831718 Z-0.125000 I66.972671 J13.923894
G03 X1902.334939 Y354.344420 Z-0.125000 I73.889844 J26.235219
G03 X1908.090965 Y346.643939 Z-0.125000 I33.425946 J18.984010
G03 X1917.085823 Y340.213234 Z-0.125000 I21.886267 J21.107036
G03 X1929.160237 Y336.780696 Z-0.125000 I16.614477 J35.490703
G03 X1929.511246 Y336.780608 Z-0.125000 I0.175878 J1.493009
G03 X1930.423464 Y336.928439 Z-0.125000 I-1.226531 J10.456937
G01 X1930.423464 Y336.929399 Z-0.125000
G00 Z5.000000

(Change tool to Default tool)

G00 Z5.000000
G00 X1790.348982 Y300.184517

G01 Z-0.125000 F100.0(Penetrate)
G02 X1781.063466 Y311.893050 Z-0.125000 I238.984152 J199.063915 F400.000000
G02 X1780.418119 Y313.344116 Z-0.125000 I2.804218 J2.116188
G03 X1780.184903 Y314.232583 Z-0.125000 I-6.814490 J-1.313907
G03 X1780.100421 Y314.293398 Z-0.125000 I-0.084482 J-0.028271
G03 X1779.982215 Y314.250300 Z-0.125000 I-0.000000 J-0.183651
G03 X1777.779510 Y312.341465 Z-0.125000 I63.400880 J-75.386920
G02 X1775.542977 Y310.521336 Z-0.125000 I-21.010236 J23.532746
G02 X1775.143583 Y310.389559 Z-0.125000 I-0.399394 J0.539360
G02 X1774.216902 Y310.844782 Z-0.125000 I0.000000 J1.170816
G02 X1771.941659 Y314.536053 Z-0.125000 I16.344015 J12.621052
G02 X1771.160367 Y316.960228 Z-0.125000 I8.504727 J4.078993
G02 X1771.008237 Y319.773844 Z-0.125000 I11.365922 J2.025467
G02 X1771.871160 Y325.258998 Z-0.125000 I31.614891 J-2.163193
G02 X1772.846266 Y327.164030 Z-0.125000 I4.568069 J-1.136128
G01 X1773.783893 Y328.271809 Z-0.125000
G01 X1769.547624 Y341.208509 Z-0.125000
G03 X1750.756607 Y396.623360 Z-0.125000 I-2655.078387 J-869.436034
G03 X1733.787190 Y443.143648 Z-0.125000 I-1888.053127 J-662.358598
G02 X1729.643379 Y454.424518 Z-0.125000 I555.138301 J210.320875
G02 X1729.168059 Y456.122879 Z-0.125000 I12.046310 J4.287099
G02 X1729.295564 Y458.674775 Z-0.125000 I4.982858 J1.030164
G02 X1731.407831 Y463.269310 Z-0.125000 I19.018497 J-5.960651
G02 X1735.463501 Y468.560994 Z-0.125000 I29.560951 J-18.456184
G02 X1738.348127 Y470.723194 Z-0.125000 I7.456987 J-6.943171
G02 X1743.197031 Y471.470009 Z-0.125000 I3.579927 J-7.128834
G02 X1749.759218 Y468.884573 Z-0.125000 I-2.622726 J-16.277412
G02 X1763.128391 Y453.576168 Z-0.125000 I-21.853677 J-32.577309
G02 X1787.227351 Y392.461955 Z-0.125000 I-367.992634 J-180.417818
G03 X1789.853924 Y384.117312 Z-0.125000 I437.453166 J133.107782
G03 X1790.052339 Y383.777949 Z-0.125000 I0.877873 J0.285579
G03 X1790.348558 Y383.708676 Z-0.125000 I0.199014 J0.183033
G03 X1791.530026 Y384.347248 Z-0.125000 I-1.894564 J4.917512
G02 X1792.752835 Y385.157172 Z-0.125000 I11.184485 J-15.558083
G02 X1792.953132 Y385.213331 Z-0.125000 I0.200297 J-0.329107
G02 X1793.064449 Y385.106313 Z-0.125000 I0.000000 J-0.111404
G02 X1793.171459 Y379.671672 Z-0.125000 I-137.950161 J-5.434640
G01 X1793.171459 Y374.130013 Z-0.125000
G01 X1794.817915 Y374.347945 Z-0.125000
G03 X1796.453888 Y374.581403 Z-0.125000 I-10.684776 J80.723269
G01 X1796.485397 Y374.603159 Z-0.125000
G03 X1796.501392 Y374.642656 Z-0.125000 I-0.146720 J0.082404
G03 X1799.111644 Y384.562696 Z-0.125000 I-9340.522085 J2463.067264
G02 X1818.718479 Y454.222217 Z-0.125000 I1988.274646 J-522.044003
G02 X1826.423417 Y475.432156 Z-0.125000 I191.428729 J-57.535889
G02 X1830.423259 Y481.003085 Z-0.125000 I14.587874 J-6.252493
G02 X1834.296966 Y482.483027 Z-0.125000 I3.871037 J-4.322701
G02 X1837.279022 Y481.824088 Z-0.125000 I-0.000000 J-7.077180
G02 X1840.660936 Y479.527596 Z-0.125000 I-5.353426 J-11.522109
G02 X1844.147516 Y475.490837 Z-0.125000 I-18.313753 J-19.341803
G02 X1847.731844 Y469.455875 Z-0.125000 I-37.750490 J-26.502940
G01 X1849.390803 Y466.105615 Z-0.125000
G01 X1849.211592 Y459.736819 Z-0.125000
G02 X1848.678283 Y451.829534 Z-0.125000 I-101.036753 J2.842827
G02 X1847.086261 Y439.867217 Z-0.125000 I-233.009763 J24.923334
G02 X1843.148081 Y418.213998 Z-0.125000 I-497.372088 J79.274833
G02 X1834.842530 Y380.008194 Z-0.125000 I-1557.154196 J318.503729
G02 X1823.287311 Y331.207336 Z-0.125000 I-3977.729544 J916.090644
G02 X1817.762271 Y309.799913 Z-0.125000 I-770.889559 J187.542131
G02 X1816.955890 Y308.353935 Z-0.125000 I-3.329457 J0.908908
G02 X1815.272676 Y307.132489 Z-0.125000 I-3.981232 J3.715840
G03 X1807.674200 Y301.781775 Z-0.125000 I11.078559 J-23.803115
G03 X1806.029447 Y297.776766 Z-0.125000 I4.053765 J-4.005009
G02 X1805.799869 Y297.330074 Z-0.125000 I-0.549356 J0.000000
G02 X1804.853427 Y296.934869 Z-0.125000 I-1.333637 J1.862932
G02 X1803.524316 Y297.347147 Z-0.125000 I-0.259324 J1.512531
G02 X1802.893365 Y298.840659 Z-0.125000 I1.452156 J1.493512
G03 X1802.782097 Y300.840632 Z-0.125000 I-18.029802 J0.000000
G03 X1802.658161 Y300.948238 Z-0.125000 I-0.120344 J-0.013432
G03 X1802.447949 Y300.873706 Z-0.125000 I0.011152 J-0.365164
G03 X1798.816439 Y298.021961 Z-0.125000 I94.690962 J-124.320810
G02 X1795.177009 Y295.195480 Z-0.125000 I-71.925316 J88.856059
G02 X1794.896316 Y295.102231 Z-0.125000 I-0.281309 J0.377693
G02 X1794.637053 Y295.217922 Z-0.125000 I-0.000511 J0.347204
G02 X1790.348982 Y300.184517 Z-0.125000 I138.264785 J123.709791
G01 X1790.348982 Y300.184517 Z-0.125000
G00 Z5.000000

(Change tool to Default tool)

G00 Z5.000000
G00 X2031.954010 Y299.780572

G01 Z-0.125000 F100.0(Penetrate)
G02 X2024.297553 Y303.676263 Z-0.125000 I9.378007 J27.902924 F400.000000
G02 X2020.757690 Y307.725015 Z-0.125000 I6.676056 J9.408786
G02 X2020.020123 Y309.414016 Z-0.125000 I11.429790 J5.996792
G02 X2019.332975 Y311.749165 Z-0.125000 I21.221741 J7.513451
G03 X2018.553097 Y313.895363 Z-0.125000 I-9.563697 J-2.260431
G03 X2018.086061 Y314.234696 Z-0.125000 I-0.561436 J-0.281659
G03 X2017.721045 Y313.967478 Z-0.125000 I-0.048196 J-0.317077
G03 X2017.402011 Y309.887994 Z-0.125000 I25.922598 J-4.079484
G01 X2017.402011 Y305.437321 Z-0.125000
G01 X2016.265784 Y305.658443 Z-0.125000
G02 X2014.529848 Y306.455321 Z-0.125000 I0.773365 J3.973952
G02 X2013.354239 Y307.957989 Z-0.125000 I2.503669 J3.169941
G02 X2012.593855 Y310.094388 Z-0.125000 I12.380627 J5.610012
G02 X2011.591112 Y314.628142 Z-0.125000 I55.090559 J14.562297
G03 X2010.600123 Y318.121878 Z-0.125000 I-17.997889 J-3.217637
G03 X2010.022041 Y318.604202 Z-0.125000 I-0.730913 J-0.288437
G01 X2009.248187 Y318.757674 Z-0.125000
G01 X2009.248187 Y315.369060 Z-0.125000
G01 X2009.248187 Y311.980503 Z-0.125000
G01 X2007.806399 Y312.079647 Z-0.125000
G02 X2006.661330 Y312.557025 Z-0.125000 I0.132764 J1.930461
G02 X2005.846337 Y313.803291 Z-0.125000 I1.841097 J2.093596
G03 X2005.134086 Y315.279587 Z-0.125000 I-5.568367 J-1.776543
G03 X2004.320898 Y316.080542 Z-0.125000 I-2.354411 J-1.577087
G02 X2003.635702 Y317.216248 Z-0.125000 I0.824383 J1.271918
G02 X2003.792324 Y321.938432 Z-0.125000 I19.154776 J1.728378
G03 X2004.062032 Y324.882417 Z-0.125000 I-22.504820 J3.546090
