%
(Header)
(Generated by gcodetools from Inkscape.)
(Using default header. To add your own header create file "header" in the output dir.)
M3
(Header end.)
G21 (All units in mm)

(Start cutting path id: path5638-9)
(Change tool to Default tool)

G00 Z5.000000
G00 X1896.913611 Y44.360739

G01 Z-0.125000 F100.0(Penetrate)
G03 X1895.874948 Y58.558859 Z-0.125000 I-26674.160952 J-1944.252836 F400.000000
G03 X1894.964753 Y70.900070 Z-0.125000 I-18799.130151 J-1380.253495
G02 X1894.539018 Y83.243486 Z-0.125000 I156.152576 J11.564886
G02 X1895.108545 Y99.760369 Z-0.125000 I280.191009 J-1.393151
G03 X1894.838719 Y115.901701 Z-0.125000 I-99.976694 J6.401660
G03 X1893.070195 Y120.627863 Z-0.125000 I-9.742563 J-0.951683
G02 X1889.770913 Y131.163887 Z-0.125000 I14.500479 J10.325310
G02 X1893.280874 Y138.411730 Z-0.125000 I9.469627 J-0.112102
G02 X1896.658504 Y140.984997 Z-0.125000 I45.130412 J-55.734121
G02 X1898.568787 Y142.198192 Z-0.125000 I11.850577 J-16.549226
G03 X1900.501469 Y144.589547 Z-0.125000 I-2.019538 J3.608850
G03 X1904.813815 Y161.741838 Z-0.125000 I-160.990730 J49.593752
G03 X1907.662680 Y178.868233 Z-0.125000 I-294.212078 J57.740425
G03 X1909.968928 Y200.286779 Z-0.125000 I-372.997790 J50.996080
G02 X1911.395633 Y216.456231 Z-0.125000 I864.517542 J-68.132671
G02 X1912.188578 Y223.012244 Z-0.125000 I142.901038 J-13.957813
G03 X1911.561922 Y228.783295 Z-0.125000 I-11.542934 J1.666146
G03 X1908.802843 Y232.016092 Z-0.125000 I-5.851725 J-2.200454
G01 X1904.473243 Y234.480654 Z-0.125000
G01 X1904.542501 Y246.947539 Z-0.125000
G02 X1905.223032 Y259.306067 Z-0.125000 I125.439216 J-0.709399
G02 X1906.357246 Y264.262662 Z-0.125000 I21.018633 J-2.201610
G03 X1907.002388 Y269.097138 Z-0.125000 I-10.862001 J3.909774
G03 X1905.411011 Y276.036947 Z-0.125000 I-24.520351 J-1.970427
G02 X1903.749122 Y283.174889 Z-0.125000 I24.157870 J9.386985
G02 X1901.290172 Y323.347072 Z-0.125000 I778.574505 J67.818104
G02 X1900.929506 Y363.622451 Z-0.125000 I761.588277 J26.959326
G02 X1902.161730 Y373.214611 Z-0.125000 I43.926766 J-0.767678
G03 X1903.858928 Y388.568179 Z-0.125000 I-58.818391 J14.272428
G03 X1901.608208 Y404.196600 Z-0.125000 I-63.228997 J-1.129617
G03 X1896.043744 Y417.044791 Z-0.125000 I-48.198576 J-13.245415
G03 X1882.973695 Y434.643352 Z-0.125000 I-104.505217 J-63.960940
G02 X1874.213539 Y445.378832 Z-0.125000 I117.694460 J104.980617
G02 X1870.422596 Y451.484032 Z-0.125000 I34.013020 J25.349504
G03 X1866.690853 Y457.632443 Z-0.125000 I-42.991439 J-21.886725
G03 X1860.036169 Y466.028721 Z-0.125000 I-87.095248 J-62.194244
G02 X1852.690717 Y475.262354 Z-0.125000 I91.907374 J80.651781
G02 X1849.261976 Y481.605147 Z-0.125000 I22.896552 J16.475393
G02 X1847.467380 Y488.650881 Z-0.125000 I28.814239 J11.090594
G02 X1846.257769 Y501.825985 Z-0.125000 I164.691497 J21.763459
G03 X1843.875246 Y518.014557 Z-0.125000 I-86.689059 J-4.488694
G03 X1839.604042 Y528.954893 Z-0.125000 I-43.431624 J-10.652166
G02 X1833.496052 Y546.065571 Z-0.125000 I49.611301 J27.355242
G02 X1828.762024 Y587.924058 Z-0.125000 I299.543163 J55.074086
G01 X1827.850276 Y608.917186 Z-0.125000
G01 X1823.730933 Y609.741106 Z-0.125000
G03 X1819.576471 Y610.209953 Z-0.125000 I-4.828190 J-24.141853
G03 X1793.638932 Y610.564913 Z-0.125000 I-25.937540 J-947.474955
G02 X1767.704434 Y610.949938 Z-0.125000 I-0.000000 J873.639460
G02 X1763.137482 Y611.470677 Z-0.125000 I0.814684 J27.431662
G02 X1758.541056 Y613.494568 Z-0.125000 I2.283503 J11.417409
G02 X1749.138724 Y621.344891 Z-0.125000 I56.997856 J77.822073
G02 X1740.798616 Y630.198693 Z-0.125000 I74.726442 J78.745859
G02 X1736.622902 Y636.631889 Z-0.125000 I23.773110 J20.002656
G02 X1733.004261 Y653.267481 Z-0.125000 I32.507822 J15.782598
G02 X1737.402936 Y669.669245 Z-0.125000 I35.943275 J-0.848669
G02 X1746.956367 Y682.561222 Z-0.125000 I51.424232 J-28.121545
G02 X1759.701314 Y692.433911 Z-0.125000 I42.269064 J-41.403630
G02 X1767.035887 Y694.911840 Z-0.125000 I9.886815 J-17.170597
G02 X1791.561127 Y696.572389 Z-0.125000 I25.731292 J-198.093281
G03 X1816.483256 Y697.004735 Z-0.125000 I-6.689636 J1104.139825
G03 X1828.269179 Y697.624316 Z-0.125000 I-7.073217 J246.957494
G01 X1840.043434 Y698.525678 Z-0.125000
G01 X1833.255650 Y703.726977 Z-0.125000
G03 X1826.196197 Y708.396229 Z-0.125000 I-37.082771 J-48.394299
G03 X1821.356287 Y710.459642 Z-0.125000 I-11.601903 J-20.505334
G03 X1816.142792 Y711.263689 Z-0.125000 I-5.499915 J-18.357462
G03 X1765.116933 Y711.300325 Z-0.125000 I-26.800255 J-1792.935229
G03 X1714.067735 Y709.653801 Z-0.125000 I18.427224 J-1363.515408
G03 X1694.863157 Y707.716244 Z-0.125000 I9.921866 J-194.487277
G03 X1669.586645 Y703.082267 Z-0.125000 I61.634962 J-407.447959
G03 X1658.420383 Y699.598870 Z-0.125000 I13.741164 J-63.687020
G03 X1649.283537 Y693.706054 Z-0.125000 I11.573852 J-27.975105
G03 X1643.995367 Y686.671159 Z-0.125000 I17.502890 J-18.662040
G02 X1640.902533 Y682.127259 Z-0.125000 I-19.497170 J9.946343
G02 X1639.400595 Y681.417141 Z-0.125000 I-1.577773 J1.393675
G02 X1638.126721 Y682.128572 Z-0.125000 I-0.050663 J1.405484
G02 X1636.614155 Y686.405080 Z-0.125000 I11.257026 J6.387264
G02 X1636.043871 Y692.799753 Z-0.125000 I42.344410 J6.999090
G02 X1635.760468 Y732.706892 Z-0.125000 I2857.756699 J40.249070
G02 X1636.028886 Y772.412519 Z-0.125000 I2885.780831 J0.345250
G02 X1636.600326 Y780.059735 Z-0.125000 I62.944873 J-0.858611
G02 X1638.057340 Y785.341323 Z-0.125000 I20.474971 J-2.806594
G02 X1639.215835 Y786.301153 Z-0.125000 I1.508346 J-0.641487
G02 X1640.587359 Y785.862706 Z-0.125000 I0.306852 J-1.404507
G02 X1643.468035 Y781.560056 Z-0.125000 I-13.098319 J-11.885130
G03 X1654.539739 Y770.881293 Z-0.125000 I19.704032 J9.350138
G03 X1686.972195 Y762.809861 Z-0.125000 I40.752126 J94.553901
G03 X1702.905239 Y761.559201 Z-0.125000 I253.487911 J3127.247236
G03 X1741.687944 Y758.655070 Z-0.125000 I1409.609181 J18563.965745
G02 X1791.534177 Y754.415144 Z-0.125000 I-165.032920 J-2235.317539
G02 X1810.788098 Y751.614179 Z-0.125000 I-19.258557 J-199.960470
G02 X1827.953668 Y746.246226 Z-0.125000 I-15.679750 J-80.270395
G02 X1840.745348 Y739.305519 Z-0.125000 I-34.877772 J-79.537367
G02 X1858.139259 Y725.091566 Z-0.125000 I-59.326506 J-90.348703
G02 X1870.903982 Y708.914729 Z-0.125000 I-64.560182 J-64.067344
G03 X1877.561834 Y698.735491 Z-0.125000 I209.317717 J129.639813
G03 X1878.773636 Y697.507956 Z-0.125000 I4.076871 J2.812714
G03 X1883.780883 Y697.180181 Z-0.125000 I2.770088 J3.906748
G03 X1898.741282 Y708.057141 Z-0.125000 I-30.396563 J57.534974
G02 X1909.579118 Y717.948156 Z-0.125000 I162.288969 J-166.940976
G02 X1915.146793 Y721.645654 Z-0.125000 I17.860568 J-20.853722
G02 X1921.308338 Y723.530673 Z-0.125000 I8.661091 J-17.297828
G02 X1930.885744 Y724.152020 Z-0.125000 I9.577406 J-73.502110
G02 X1948.485276 Y721.371865 Z-0.125000 I0.000000 J-57.096233
G02 X1960.068340 Y714.696305 Z-0.125000 I-9.908334 J-30.579327
G02 X1967.018407 Y707.423899 Z-0.125000 I-44.432786 J-49.420577
G02 X1970.360847 Y701.671027 Z-0.125000 I-16.079604 J-13.189729
G02 X1971.839299 Y695.103714 Z-0.125000 I-21.865618 J-8.372520
G02 X1972.052343 Y683.399018 Z-0.125000 I-99.008955 J-7.656407
G02 X1968.094725 Y664.555697 Z-0.125000 I-58.132109 J2.372083
G02 X1960.349405 Y653.515353 Z-0.125000 I-26.576660 J10.407751
G02 X1944.870738 Y644.384991 Z-0.125000 I-31.787768 J36.204034
G02 X1930.565774 Y642.803859 Z-0.125000 I-10.450766 J29.049986
G02 X1916.555633 Y647.534476 Z-0.125000 I4.635380 J36.839539
G02 X1898.771733 Y661.263398 Z-0.125000 I43.080033 J74.186901
G03 X1888.022591 Y670.151937 Z-0.125000 I-50.666544 J-50.328495
G03 X1883.564923 Y671.514076 Z-0.125000 I-4.457668 J-6.612903
G01 X1878.540492 Y671.514076 Z-0.125000
G01 X1877.012315 Y662.291223 Z-0.125000
G02 X1872.892344 Y649.789512 Z-0.125000 I-42.296295 J7.009124
G02 X1860.562852 Y630.104935 Z-0.125000 I-118.870870 J60.751524
G03 X1856.861049 Y623.060366 Z-0.125000 I19.584262 J-14.786102
G03 X1856.159420 Y616.350020 Z-0.125000 I14.883465 J-4.948060
G03 X1858.062144 Y609.596093 Z-0.125000 I21.613200 J2.443915
G03 X1864.069209 Y599.095345 Z-0.125000 I66.107210 J30.848757
G02 X1870.739344 Y588.141706 Z-0.125000 I-94.940379 J-65.320902
G02 X1892.767004 Y545.460075 Z-0.125000 I-1425.127263 J-762.522152
G03 X1897.947923 Y535.077623 Z-0.125000 I4114.645287 J2046.753715
G03 X1899.460892 Y532.087822 Z-0.125000 I343.999677 J172.201078
G03 X1906.122797 Y521.836109 Z-0.125000 I52.726742 J26.973175
G03 X1918.382604 Y508.033750 Z-0.125000 I154.051000 J124.488256
G03 X1932.232483 Y495.464677 Z-0.125000 I109.923176 J107.209364
G03 X1936.120994 Y494.499750 Z-0.125000 I2.988571 J3.725971
G03 X1937.926993 Y495.606708 Z-0.125000 I-0.565902 J2.949988
G03 X1941.998854 Y501.637554 Z-0.125000 I-43.101026 J33.490656
G03 X1945.268262 Y508.114432 Z-0.125000 I-52.549820 J30.589776
G03 X1945.973852 Y511.425907 Z-0.125000 I-7.907031 J3.415695
G03 X1945.404979 Y513.925154 Z-0.125000 I-5.478821 J0.067289
G03 X1940.349332 Y522.782264 Z-0.125000 I-77.779306 J-38.525058
G02 X1936.416574 Y529.742549 Z-0.125000 I53.081745 J34.583894
G02 X1935.651669 Y533.419629 Z-0.125000 I6.937517 J3.361237
G02 X1936.688860 Y537.054234 Z-0.125000 I8.042613 J-0.329793
G02 X1941.222443 Y544.074864 Z-0.125000 I62.295095 J-35.253057
G02 X1951.325045 Y554.919733 Z-0.125000 I50.719050 J-37.119624
G02 X1966.390033 Y565.386720 Z-0.125000 I62.215874 J-73.471536
G02 X1983.400609 Y570.798066 Z-0.125000 I21.596810 J-38.447553
G02 X2000.265873 Y568.928976 Z-0.125000 I4.144118 J-39.630867
G02 X2022.811319 Y558.525829 Z-0.125000 I-36.979245 J-109.772064
G02 X2033.175242 Y549.215513 Z-0.125000 I-18.740377 J-31.284682
G02 X2040.393459 Y537.821051 Z-0.125000 I-65.699531 J-49.603190
G02 X2042.121443 Y531.788772 Z-0.125000 I-13.739230 J-7.199324
G02 X2040.716674 Y526.275240 Z-0.125000 I-8.889710 J-0.670753
G02 X2035.314712 Y520.859870 Z-0.125000 I-15.411266 J9.971133
G03 X2031.739174 Y518.019520 Z-0.125000 I13.184551 J-20.267882
G03 X2030.804183 Y516.129314 Z-0.125000 I2.157755 J-2.243684
G03 X2031.155208 Y513.935821 Z-0.125000 I4.100406 J-0.468646
G03 X2033.930863 Y508.752037 Z-0.125000 I44.222243 J20.343784
G02 X2036.063193 Y502.846926 Z-0.125000 I-13.097297 J-8.066966
G02 X2037.386844 Y484.406016 Z-0.125000 I-132.073684 J-18.747941
G03 X2037.884433 Y469.496746 Z-0.125000 I240.223905 J0.554403
G03 X2039.508202 Y464.196979 Z-0.125000 I11.983785 J0.773020
G03 X2043.381482 Y460.423283 Z-0.125000 I8.801623 J5.159296
G03 X2054.774527 Y454.743444 Z-0.125000 I73.804700 J133.776541
G02 X2073.632494 Y444.452700 Z-0.125000 I-55.790085 J-124.660446
G02 X2081.325514 Y437.413786 Z-0.125000 I-17.585505 J-26.943086
G02 X2092.734201 Y418.560846 Z-0.125000 I-70.658145 J-55.636545
G02 X2103.676978 Y387.546251 Z-0.125000 I-182.807519 J-81.937117
G02 X2109.097908 Y366.026477 Z-0.125000 I-1047.552554 J-275.325971
G02 X2110.688761 Y358.456870 Z-0.125000 I-128.001644 J-30.853208
G03 X2112.328704 Y350.910572 Z-0.125000 I104.856314 J18.835774
G03 X2114.087507 Y345.158728 Z-0.125000 I62.669653 J16.018344
G02 X2115.767718 Y339.384526 Z-0.125000 I-47.140425 J-16.848765
G02 X2119.586240 Y320.917562 Z-0.125000 I-479.828916 J-108.845275
G02 X2126.604558 Y268.250870 Z-0.125000 I-499.880757 J-93.414654
G02 X2126.036457 Y240.677803 Z-0.125000 I-136.571510 J-10.978538
G02 X2121.212446 Y220.475432 Z-0.125000 I-91.436378 J11.156445
G02 X2114.802291 Y209.649134 Z-0.125000 I-31.781889 J11.506929
G03 X2110.164189 Y202.807099 Z-0.125000 I24.673980 J-21.719146
G03 X2107.198039 Y194.666860 Z-0.125000 I32.205215 J-16.345498
G02 X2101.360350 Y179.089434 Z-0.125000 I-62.785097 J14.646351
G02 X2095.279710 Y172.210127 Z-0.125000 I-17.348509 J9.207398
G02 X2089.755084 Y170.191407 Z-0.125000 I-6.546462 J9.346713
G02 X2082.423835 Y170.615448 Z-0.125000 I-2.238070 J24.893053
G02 X2075.769283 Y173.234445 Z-0.125000 I4.313743 J20.724390
G02 X2073.087278 Y176.829512 Z-0.125000 I3.092759 J5.105225
G02 X2072.881078 Y182.281813 Z-0.125000 I12.204163 J3.191598
G02 X2077.580481 Y201.494831 Z-0.125000 I163.076605 J-29.706449
G03 X2079.705229 Y210.631959 Z-0.125000 I-63.094822 J19.487679
G03 X2080.371518 Y219.081170 Z-0.125000 I-53.239092 J8.449212
G03 X2079.409995 Y230.183099 Z-0.125000 I-64.573224 J0.000000
G03 X2073.029884 Y263.394241 Z-0.125000 I-979.374981 J-170.926897
G03 X2065.226072 Y297.334287 Z-0.125000 I-887.787934 J-186.261299
G03 X2063.441515 Y299.775674 Z-0.125000 I-3.896002 J-0.974910
G03 X2062.876258 Y299.572013 Z-0.125000 I-0.201704 J-0.326434
G03 X2062.851134 Y298.027533 Z-0.125000 I2.403110 J-0.811536
G02 X2067.093980 Y279.037479 Z-0.125000 I-127.066008 J-38.358677
G02 X2067.380773 Y267.319270 Z-0.125000 I-47.651836 J-7.028852
G03 X2065.453690 Y231.798468 Z-0.125000 I408.746400 J-39.988079
G03 X2066.895096 Y222.676202 Z-0.125000 I27.681193 J-0.301114
G02 X2068.197759 Y216.332921 Z-0.125000 I-25.271562 J-8.495193
G02 X2069.921224 Y185.305746 Z-0.125000 I-611.921800 J-49.551847
G03 X2073.554250 Y145.969479 Z-0.125000 I319.075551 J9.633334
G03 X2078.594732 Y129.435003 Z-0.125000 I60.395564 J9.375866
G01 X2082.377187 Y121.353823 Z-0.125000
G01 X2079.296618 Y116.000971 Z-0.125000
G03 X2076.974951 Y110.445446 Z-0.125000 I20.699356 J-11.913187
G03 X2076.215909 Y104.845590 Z-0.125000 I20.277016 J-5.599856
G03 X2076.617177 Y96.792313 Z-0.125000 I81.013589 J-0.000000
G03 X2079.221724 Y73.362971 Z-0.125000 I1052.795029 J105.175608
G03 X2082.349529 Y49.987333 Z-0.125000 I1048.431569 J128.389557
G03 X2083.890942 Y42.171118 Z-0.125000 I78.049513 J11.331825
G02 X2085.718836 Y34.070519 Z-0.125000 I-172.872199 J-43.265002
G02 X2085.912359 Y32.128353 Z-0.125000 I-9.648866 J-1.942166
G02 X2084.956905 Y31.117821 Z-0.125000 I-1.012119 J0.000000
G02 X2050.851356 Y30.162336 Z-0.125000 I-34.105550 J608.212455
G01 X2015.790466 Y30.162336 Z-0.125000
G01 X2013.942023 Y37.374553 Z-0.125000
G03 X2011.824440 Y44.501401 Z-0.125000 I-94.944254 J-24.332539
G03 X2006.548196 Y59.191601 Z-0.125000 I-409.249922 J-138.696685
G02 X2001.225974 Y73.872818 Z-0.125000 I483.635745 J183.632494
G02 X1997.194166 Y86.263288 Z-0.125000 I340.222851 J117.558337
G03 X1994.623282 Y94.271019 Z-0.125000 I-283.952095 J-86.746350
G03 X1993.785242 Y96.133464 Z-0.125000 I-9.890117 J-3.330460
G03 X1992.930232 Y96.349356 Z-0.125000 I-0.531794 J-0.305074
G03 X1992.028991 Y95.267165 Z-0.125000 I1.176301 J-1.895983
G03 X1991.065245 Y91.708759 Z-0.125000 I15.800671 J-6.189111
G03 X1989.094444 Y76.566838 Z-0.125000 I287.641445 J-45.137255
G02 X1984.602765 Y35.943032 Z-0.125000 I-2937.768237 J304.261968
G02 X1983.923456 Y32.586456 Z-0.125000 I-20.600652 J2.422162
G02 X1982.343729 Y31.329362 Z-0.125000 I-1.677255 J0.486594
G02 X1940.581376 Y30.162336 Z-0.125000 I-41.762354 J746.655438
G01 X1897.942423 Y30.162336 Z-0.125000
G01 X1896.907797 Y44.360739 Z-0.125000
G01 X1896.913611 Y44.360739 Z-0.125000
G00 Z5.000000

(Change tool to Default tool)

G00 Z5.000000
G00 X1981.104508 Y38.127297

G01 Z-0.125000 F100.0(Penetrate)
G03 X1981.805149 Y43.336780 Z-0.125000 I-117.077244 J18.397985 F400.000000
G03 X1984.245613 Y66.177758 Z-0.125000 I-2250.796832 J252.039142
G02 X1990.093648 Y99.043506 Z-0.125000 I222.419401 J-22.623497
G02 X1993.407110 Y101.934298 Z-0.125000 I3.757729 J-0.962794
G02 X1996.288515 Y101.147932 Z-0.125000 I0.459715 J-3.987717
G02 X1997.984953 Y98.471290 Z-0.125000 I-2.726004 J-3.603639
G03 X1998.994235 Y94.627138 Z-0.125000 I38.850089 J8.145524
G03 X2005.144959 Y75.874237 Z-0.125000 I932.015232 J295.304527
G02 X2015.792289 Y44.128846 Z-0.125000 I-4653.132571 J-1578.308071
G02 X2018.810751 Y34.664261 Z-0.125000 I-410.856855 J-136.244825
G03 X2019.957898 Y33.766794 Z-0.125000 I1.216079 J0.372520
G03 X2050.713349 Y32.932743 Z-0.125000 I30.755451 J566.633202
G01 X2082.085708 Y32.932743 Z-0.125000
G01 X2081.220217 Y36.049464 Z-0.125000
G02 X2078.601347 Y48.501131 Z-0.125000 I96.516139 J26.800784
G02 X2073.994820 Y85.967830 Z-0.125000 I872.587465 J126.301085
G01 X2071.639986 Y109.220768 Z-0.125000
G01 X2074.760432 Y115.882945 Z-0.125000
G01 X2077.880766 Y122.544970 Z-0.125000
G01 X2074.833979 Y128.517159 Z-0.125000
G02 X2070.440653 Y142.094259 Z-0.125000 I40.193095 J20.505180
G02 X2066.536307 Y181.917386 Z-0.125000 I350.572135 J54.473808
G03 X2064.373022 Y216.348395 Z-0.125000 I-803.777686 J-33.217528
G03 X2063.046291 Y223.272932 Z-0.125000 I-33.480349 J-2.825419
G02 X2060.929128 Y237.723411 Z-0.125000 I47.095252 J14.280335
G02 X2063.172331 Y259.831096 Z-0.125000 I113.944193 J-0.393942
G03 X2064.088955 Y270.671125 Z-0.125000 I-46.682635 J9.406214
G03 X2062.479730 Y282.824589 Z-0.125000 I-60.450707 J-1.820935
G02 X2060.007571 Y301.296851 Z-0.125000 I90.683822 J21.537849
G02 X2061.783657 Y303.974097 Z-0.125000 I2.768530 J0.091107
G02 X2064.430330 Y303.486600 Z-0.125000 I0.924475 J-2.409211
G02 X2068.718139 Y297.063734 Z-0.125000 I-10.356976 J-11.556834
G02 X2071.603468 Y287.179374 Z-0.125000 I-91.433909 J-32.053642
G02 X2078.454241 Y256.420582 Z-0.125000 I-1310.309191 J-307.981855
G02 X2083.415352 Y216.468627 Z-0.125000 I-235.048662 J-49.471621
G02 X2080.780402 Y197.772772 Z-0.125000 I-52.788152 J-2.093771
G03 X2077.076229 Y180.972700 Z-0.125000 I79.691435 J-26.379200
G03 X2078.383037 Y176.901535 Z-0.125000 I5.151531 J-0.591724
G03 X2081.190548 Y175.090885 Z-0.125000 I4.773942 J4.320331
G03 X2086.730436 Y174.224206 Z-0.125000 I5.539888 J17.272387
G03 X2092.068569 Y175.353156 Z-0.125000 I-0.000000 J13.184898
G03 X2095.333416 Y178.033528 Z-0.125000 I-3.199318 J7.225525
G03 X2100.875074 Y187.938758 Z-0.125000 I-45.249469 J31.818427
G03 X2103.984459 Y198.085276 Z-0.125000 I-44.401430 J19.156443
G02 X2106.281841 Y204.840783 Z-0.125000 I25.049835 J-4.750441
G02 X2110.113451 Y210.205028 Z-0.125000 I19.419172 J-9.820302
G03 X2118.786789 Y225.552210 Z-0.125000 I-24.752706 J24.113219
G03 X2123.307707 Y260.515937 Z-0.125000 I-133.691866 J35.060920
G03 X2122.369692 Y277.664910 Z-0.125000 I-155.162514 J0.113060
G03 X2118.530979 Y305.993286 Z-0.125000 I-575.913364 J-63.616416
G03 X2113.214058 Y334.287299 Z-0.125000 I-538.573081 J-86.560364
G03 X2109.354781 Y347.332657 Z-0.125000 I-88.170845 J-18.990512
G02 X2107.121768 Y354.409195 Z-0.125000 I60.369522 J22.940286
G02 X2106.695598 Y357.825905 Z-0.125000 I13.483240 J3.416710
G03 X2106.095910 Y362.920575 Z-0.125000 I-21.940792 J0.000000
G03 X2100.588126 Y384.344516 Z-0.125000 I-622.010199 J-148.489825
G03 X2094.476507 Y405.212443 Z-0.125000 I-656.285953 J-180.878476
G03 X2091.441544 Y413.172622 Z-0.125000 I-64.231454 J-19.930754
G03 X2087.223111 Y421.235824 Z-0.125000 I-76.211387 J-34.736500
G03 X2080.606158 Y431.398361 Z-0.125000 I-127.803687 J-75.979099
G03 X2072.706580 Y440.288959 Z-0.125000 I-44.764680 J-31.820022
G03 X2065.539640 Y445.041858 Z-0.125000 I-19.276692 J-21.287506
G02 X2038.540699 Y458.387270 Z-0.125000 I266.887862 J573.920902
G02 X2035.724555 Y460.672679 Z-0.125000 I4.261933 J8.129440
G02 X2034.765048 Y463.070606 Z-0.125000 I3.268385 J2.698745
G02 X2034.344319 Y480.070180 Z-0.125000 I183.291667 J13.041346
G03 X2033.262766 Y497.026449 Z-0.125000 I-99.768913 J2.148884
G03 X2030.432916 Y506.138011 Z-0.125000 I-31.116205 J-4.668781
G02 X2027.447108 Y513.511249 Z-0.125000 I52.195924 J25.428024
G02 X2027.169200 Y517.071394 Z-0.125000 I7.188788 J2.352083
G02 X2028.641295 Y520.218299 Z-0.125000 I6.267261 J-1.014002
G02 X2033.455714 Y524.821568 Z-0.125000 I27.053180 J-23.474839
G03 X2037.318228 Y528.906829 Z-0.125000 I-12.197842 J15.401344
G03 X2038.165255 Y532.261145 Z-0.125000 I-3.946444 J2.780654
G03 X2036.922539 Y535.966520 Z-0.125000 I-9.555031 J-1.143504
G03 X2031.031453 Y545.078311 Z-0.125000 I-102.223780 J-59.630901
G03 X2023.888467 Y552.617745 Z-0.125000 I-30.592940 J-21.830853
G03 X2013.218659 Y559.300389 Z-0.125000 I-34.456787 J-43.155980
G03 X2001.396880 Y564.285276 Z-0.125000 I-59.731837 J-125.145211
G03 X1991.704548 Y567.221559 Z-0.125000 I-29.867015 J-81.122792
G03 X1982.008170 Y568.392929 Z-0.125000 I-9.904145 J-41.266577
G03 X1978.110525 Y567.288051 Z-0.125000 I-0.035745 J-7.301147
G02 X1974.358362 Y565.067190 Z-0.125000 I-50.431507 J80.924376
G02 X1966.503176 Y560.771481 Z-0.125000 I-196.783438 J350.510612
G03 X1953.942718 Y552.014557 Z-0.125000 I30.170235 J-56.661039
G03 X1943.823149 Y540.540781 Z-0.125000 I42.658410 J-47.823082
G03 X1939.625477 Y532.837901 Z-0.125000 I34.739332 J-23.926342
G03 X1939.837071 Y530.974252 Z-0.125000 I1.780163 J-0.741721
G02 X1947.626065 Y519.461277 Z-0.125000 I-216.027813 J-154.542837
G02 X1949.679112 Y514.796882 Z-0.125000 I-13.997405 J-8.945025
G02 X1949.706854 Y510.076889 Z-0.125000 I-9.048654 J-2.413261
G02 X1947.303203 Y502.979597 Z-0.125000 I-46.798665 J11.893704
G02 X1940.502216 Y491.977646 Z-0.125000 I-39.931155 J17.080889
G02 X1936.344684 Y490.051589 Z-0.125000 I-4.157532 J3.524139
G02 X1931.707036 Y491.464584 Z-0.125000 I0.000000 J8.317207
G02 X1919.869704 Y500.595153 Z-0.125000 I63.649241 J94.756638
G02 X1909.311240 Y510.993822 Z-0.125000 I88.770473 J100.694285
G02 X1904.087869 Y518.488670 Z-0.125000 I26.246296 J23.859366
G03 X1901.627122 Y522.360418 Z-0.125000 I-23.520182 J-12.230742
G03 X1898.425136 Y525.894690 Z-0.125000 I-22.761656 J-17.404044
G02 X1895.498471 Y529.524937 Z-0.125000 I11.331446 J12.130133
G02 X1893.991651 Y533.331877 Z-0.125000 I10.989966 J6.551600
G03 X1892.658391 Y537.318918 Z-0.125000 I-19.316467 J-4.242958
G03 X1887.340012 Y547.866322 Z-0.125000 I-141.983916 J-64.978812
G02 X1881.675912 Y558.295608 Z-0.125000 I707.823955 J391.168777
G02 X1873.033292 Y574.676488 Z-0.125000 I1737.231808 J927.041105
G03 X1864.214314 Y590.947415 Z-0.125000 I-515.518067 J-268.889665
G03 X1860.457555 Y597.022423 Z-0.125000 I-75.503085 J-42.491698
G02 X1856.778376 Y603.120061 Z-0.125000 I56.518395 J38.260722
G02 X1854.132277 Y608.861391 Z-0.125000 I47.413553 J25.332683
G02 X1852.117307 Y616.038366 Z-0.125000 I34.992750 J13.695725
G02 X1852.300334 Y621.634582 Z-0.125000 I13.411951 J2.362457
G02 X1854.460707 Y627.143863 Z-0.125000 I21.519921 J-5.260460
G02 X1861.400995 Y638.596550 Z-0.125000 I157.544897 J-87.642420
G03 X1872.033245 Y658.182913 Z-0.125000 I-110.115611 J72.454075
G03 X1873.993949 Y667.358353 Z-0.125000 I-21.402257 J9.370670
G02 X1876.117112 Y671.780195 Z-0.125000 I5.766877 J-0.048344
G02 X1883.113452 Y674.791776 Z-0.125000 I8.786227 J-10.779132
G01 X1890.168612 Y675.707418 Z-0.125000
G01 X1901.137236 Y664.797497 Z-0.125000
G03 X1921.679856 Y649.814725 Z-0.125000 I58.996611 J59.315033
G03 X1935.826185 Y646.843818 Z-0.125000 I12.428063 J24.012536
G03 X1957.614719 Y657.053349 Z-0.125000 I-2.089411 J32.813709
G03 X1969.015236 Y681.903043 Z-0.125000 I-30.827515 J29.183021
G03 X1967.523963 Y696.434539 Z-0.125000 I-35.774745 J3.670938
G03 X1960.548146 Y708.630927 Z-0.125000 I-31.716544 J-10.047389
G03 X1949.746493 Y716.740309 Z-0.125000 I-25.984892 J-23.363173
G03 X1935.166152 Y720.875759 Z-0.125000 I-19.114632 J-39.621738
G03 X1925.979710 Y720.973860 Z-0.125000 I-5.121517 J-49.422058
G03 X1919.190593 Y719.210605 Z-0.125000 I1.674491 J-20.399160
G03 X1913.015119 Y715.401944 Z-0.125000 I11.905915 J-26.215473
G03 X1902.345570 Y705.970079 Z-0.125000 I99.547688 J-123.361454
G01 X1889.479595 Y693.523543 Z-0.125000
G01 X1882.076342 Y693.946735 Z-0.125000
G02 X1875.701253 Y695.985968 Z-0.125000 I0.764599 J13.374885
G02 X1871.210080 Y700.790765 Z-0.125000 I6.893754 J10.945183
G03 X1843.750888 Y732.787209 Z-0.125000 I-87.128196 J-46.992099
G03 X1808.183085 Y748.402077 Z-0.125000 I-50.643583 J-67.040884
G03 X1773.502421 Y753.078610 Z-0.125000 I-67.716791 J-371.248136
G03 X1697.366355 Y758.140889 Z-0.125000 I-157.093665 J-1787.600054
G02 X1658.115672 Y764.603137 Z-0.125000 I7.618558 J168.706304
G02 X1644.025706 Y773.549940 Z-0.125000 I8.251274 J28.562871
G01 X1639.880200 Y778.271433 Z-0.125000
G01 X1639.894029 Y733.550274 Z-0.125000
G03 X1639.986687 Y702.347531 Z-0.125000 I5871.176219 J1.833268
G03 X1640.239681 Y695.091037 Z-0.125000 I124.246463 J0.699123
G03 X1640.712589 Y691.662673 Z-0.125000 I23.676250 J1.519106
G03 X1641.015828 Y691.275526 Z-0.125000 I0.547910 J0.116827
G03 X1641.479714 Y691.378389 Z-0.125000 I0.167049 J0.344087
G03 X1642.513870 Y692.788975 Z-0.125000 I-13.638640 J11.083404
G02 X1652.709409 Y700.820651 Z-0.125000 I17.188110 J-11.331833
G02 X1693.230671 Y711.103786 Z-0.125000 I72.545373 J-200.889359
G02 X1716.856687 Y713.479563 Z-0.125000 I35.414228 J-233.515449
G02 X1769.401913 Y714.910343 Z-0.125000 I57.769992 J-1156.022234
G01 X1822.039857 Y715.148059 Z-0.125000
G01 X1828.273299 Y711.910405 Z-0.125000
G02 X1842.785598 Y699.609014 Z-0.125000 I-19.729728 J-37.986698
G02 X1841.319473 Y694.518122 Z-0.125000 I-2.655389 J-1.991835
G02 X1839.055366 Y694.071414 Z-0.125000 I-2.421234 J6.310755
G02 X1805.151679 Y693.677297 Z-0.125000 I-33.903687 J1458.078318
G01 X1771.174861 Y693.677297 Z-0.125000
G01 X1762.929400 Y689.282448 Z-0.125000
G03 X1739.801510 Y665.218163 Z-0.125000 I25.293081 J-47.454979
G03 X1739.387777 Y640.548879 Z-0.125000 I26.459696 J-12.781872
G03 X1748.952888 Y625.650781 Z-0.125000 I52.684062 J23.305429
G03 X1760.379212 Y616.856944 Z-0.125000 I28.596274 J25.336390
G03 X1764.046607 Y615.842661 Z-0.125000 I4.383765 J8.713263
G03 X1795.899588 Y614.241111 Z-0.125000 I50.327222 J683.390280
G02 X1827.864007 Y613.005644 Z-0.125000 I-36.960401 J-1370.366120
G02 X1830.183492 Y612.515294 Z-0.125000 I-0.378692 J-7.522389
G02 X1831.413612 Y610.955776 Z-0.125000 I-0.696095 J-1.813974
G02 X1832.428937 Y595.517106 Z-0.125000 I-116.869766 J-15.438670
G03 X1832.923372 Y579.409411 Z-0.125000 I262.625052 J0.000000
G03 X1834.517692 Y561.523927 Z-0.125000 I325.510271 J20.002319
G03 X1837.960656 Y544.078167 Z-0.125000 I112.758762 J13.190602
G03 X1843.056099 Y531.057779 Z-0.125000 I67.579199 J18.939448
G02 X1847.957041 Y518.091121 Z-0.125000 I-55.490098 J-28.382830
G02 X1849.278733 Y506.681703 Z-0.125000 I-41.463449 J-10.584479
G03 X1852.407863 Y487.351859 Z-0.125000 I54.746283 J-1.055823
G03 X1862.239308 Y470.072993 Z-0.125000 I53.203331 J18.835576
G02 X1870.933461 Y458.828710 Z-0.125000 I-151.050523 J-125.776561
G02 X1873.164046 Y454.835674 Z-0.125000 I-16.542539 J-11.860518
G03 X1875.440408 Y450.873011 Z-0.125000 I16.963829 J7.109753
G03 X1888.273039 Y434.794058 Z-0.125000 I297.524584 J224.294360
G02 X1897.811996 Y422.752696 Z-0.125000 I-187.953396 J-158.692387
G02 X1902.120875 Y415.601009 Z-0.125000 I-34.796774 J-25.838887
G02 X1904.870510 Y407.802442 Z-0.125000 I-34.993095 J-16.721955
G02 X1907.418289 Y394.729823 Z-0.125000 I-163.356539 J-38.621842
G02 X1907.950664 Y384.655724 Z-0.125000 I-49.939044 J-7.690192
G02 X1906.508630 Y375.473885 Z-0.125000 I-42.835141 J2.023223
G03 X1905.113122 Y366.217818 Z-0.125000 I39.473782 J-10.684570
G03 X1904.827404 Y327.371672 Z-0.125000 I703.827343 J-24.600855
G03 X1906.727411 Y288.595097 Z-0.125000 I675.444890 J13.661174
G03 X1908.500837 Y280.185642 Z-0.125000 I33.012683 J2.570149
G02 X1911.154796 Y268.217707 Z-0.125000 I-48.403148 J-17.011912
G02 X1910.185393 Y263.132616 Z-0.125000 I-9.104007 J-0.899393
G03 X1909.377561 Y260.686242 Z-0.125000 I7.356658 J-3.785851
G03 X1908.060062 Y250.178673 Z-0.125000 I137.978353 J-22.636901
G01 X1907.135446 Y239.557860 Z-0.125000
G01 X1911.558009 Y235.424547 Z-0.125000
G01 X1915.980403 Y231.291374 Z-0.125000
G01 X1914.380626 Y207.952245 Z-0.125000
G02 X1911.230827 Y177.727308 Z-0.125000 I-428.362772 J29.363924
G02 X1906.390887 Y150.939828 Z-0.125000 I-341.165931 J47.810604
G02 X1902.857887 Y141.720635 Z-0.125000 I-32.750672 J7.264227
G02 X1898.761715 Y137.416727 Z-0.125000 I-10.581685 J5.969756
G03 X1894.868933 Y134.225144 Z-0.125000 I10.894460 J-17.257810
G03 X1893.651993 Y131.658434 Z-0.125000 I3.294469 J-3.133833
G03 X1893.978002 Y128.654694 Z-0.125000 I6.487117 J-0.815487
G03 X1896.831286 Y122.060169 Z-0.125000 I50.508344 J17.939150
G02 X1898.882568 Y115.096686 Z-0.125000 I-17.180797 J-8.844937
G02 X1898.774866 Y102.193068 Z-0.125000 I-60.769707 J-5.945038
G03 X1897.985559 Y83.130553 Z-0.125000 I130.245425 J-14.940569
G03 X1900.441558 Y49.208809 Z-0.125000 I416.406961 J13.098867
G01 X1902.290396 Y32.932601 Z-0.125000
G01 X1941.291221 Y32.932601 Z-0.125000
G01 X1980.292216 Y32.932601 Z-0.125000
G01 X1981.108515 Y38.127155 Z-0.125000
G01 X1981.104508 Y38.127297 Z-0.125000
G00 Z5.000000

(Change tool to Default tool)

G00 Z5.000000
G00 X2082.434224 Y183.954325

G01 Z-0.125000 F100.0(Penetrate)
G02 X2081.626678 Y189.274123 Z-0.125000 I5.836621 J3.607191 F400.000000
G02 X2085.296889 Y195.061491 Z-0.125000 I10.779226 J-2.778463
G02 X2089.260671 Y195.494284 Z-0.125000 I2.309337 J-2.782556
G02 X2091.458985 Y191.890894 Z-0.125000 I-1.854111 J-3.603390
G02 X2087.526378 Y183.195442 Z-0.125000 I-11.579632 J0.000000
G02 X2082.434224 Y183.954325 Z-0.125000 I-2.225489 J2.530609
G01 X2082.434224 Y183.954325 Z-0.125000
G00 Z5.000000

(Change tool to Default tool)

G00 Z5.000000
G00 X2088.646189 Y192.924391

G01 Z-0.125000 F100.0(Penetrate)
G03 X2088.299819 Y193.135468 Z-0.125000 I-0.237500 J0.000000 F400.000000
G03 X2087.303376 Y192.231790 Z-0.125000 I1.197412 J-2.321533
G03 X2086.206130 Y190.081510 Z-0.125000 I9.961802 J-6.438404
G03 X2085.960534 Y188.768782 Z-0.125000 I3.385518 J-1.312728
G03 X2086.306915 Y188.557700 Z-0.125000 I0.237507 J0.000000
G03 X2087.303376 Y189.461384 Z-0.125000 I-1.197493 J2.321656
G03 X2088.400593 Y191.611658 Z-0.125000 I-9.962618 J6.438686
G03 X2088.646189 Y192.924391 Z-0.125000 I-3.385545 J1.312733
G01 X2088.646189 Y192.924391 Z-0.125000
G00 Z5.000000

(Change tool to Default tool)

G00 Z5.000000
G00 X1762.935778 Y638.636033

G01 Z-0.125000 F100.0(Penetrate)
G02 X1756.835505 Y646.664641 Z-0.125000 I16.971028 J19.226726 F400.000000
G02 X1754.853244 Y655.288330 Z-0.125000 I17.767247 J8.623689
G02 X1757.334286 Y664.965158 Z-0.125000 I20.111826 J-0.000000
G02 X1764.549694 Y672.954961 Z-0.125000 I20.475954 J-11.238427
G02 X1768.352976 Y674.217566 Z-0.125000 I4.070773 J-5.902665
G02 X1809.776201 Y674.643299 Z-0.125000 I28.582862 J-765.648504
G01 X1851.539841 Y673.943303 Z-0.125000
G01 X1852.364042 Y669.822210 Z-0.125000
G02 X1851.416413 Y664.793065 Z-0.125000 I-6.703610 J-1.340708
G02 X1843.669086 Y656.253219 Z-0.125000 I-29.219956 J18.724171
G03 X1836.430833 Y650.137574 Z-0.125000 I85.186757 J-108.165199
G03 X1828.204465 Y642.247236 Z-0.125000 I133.778276 J-147.709081
G01 X1820.196043 Y634.113422 Z-0.125000
G01 X1794.104372 Y634.134307 Z-0.125000
G01 X1768.012702 Y634.155191 Z-0.125000
G01 X1762.935778 Y638.636598 Z-0.125000
G01 X1762.935778 Y638.636033 Z-0.125000
G00 Z5.000000

(Change tool to Default tool)

G00 Z5.000000
G00 X1828.199216 Y647.962377

G01 Z-0.125000 F100.0(Penetrate)
G02 X1838.774535 Y657.669513 Z-0.125000 I176.260411 J-181.410578 F400.000000
G02 X1843.782822 Y661.472299 Z-0.125000 I31.799405 J-36.680606
G03 X1848.227168 Y665.353884 Z-0.125000 I-12.250611 J18.511873
G03 X1848.982025 Y667.337409 Z-0.125000 I-2.290188 J2.006960
G03 X1848.106047 Y668.970345 Z-0.125000 I-1.932268 J0.014871
G03 X1843.853462 Y670.625076 Z-0.125000 I-6.060820 J-9.284195
G03 X1838.628197 Y671.110425 Z-0.125000 I-6.016011 J-36.398088
G03 X1803.090638 Y671.498864 Z-0.125000 I-36.254983 J-1691.072632
G01 X1767.522341 Y671.514104 Z-0.125000
G01 X1763.321435 Y666.417650 Z-0.125000
G03 X1759.646946 Y661.065031 Z-0.125000 I28.568679 J-23.549499
G03 X1758.276487 Y657.478741 Z-0.125000 I11.277219 J-6.364455
G03 X1760.689195 Y646.331470 Z-0.125000 I13.380040 J-2.938771
G03 X1772.861506 Y637.991776 Z-0.125000 I18.355695 J13.738322
G03 X1776.381082 Y637.470343 Z-0.125000 I3.819140 J13.639528
G03 X1797.102645 Y637.479091 Z-0.125000 I10.158056 J480.190556
G01 X1817.880805 Y637.936376 Z-0.125000
G01 X1828.199780 Y647.962377 Z-0.125000
G01 X1828.199216 Y647.962377 Z-0.125000
G00 Z5.000000

(End cutting path id: path5638-9)


(Start cutting path id: path5638)
(Change tool to Default tool)

G00 Z5.000000
G00 X302.740146 Y39.405808

G01 Z-0.125000 F100.0(Penetrate)
G03 X301.701485 Y53.603920 Z-0.125000 I-26675.490592 J-1944.330217 F400.000000
G03 X300.791289 Y65.945165 Z-0.125000 I-18805.432782 J-1380.726897
G02 X300.365554 Y78.288583 Z-0.125000 I156.152482 J11.564888
G02 X300.935081 Y94.805441 Z-0.125000 I280.189835 J-1.393144
G03 X300.665253 Y110.946764 Z-0.125000 I-99.976554 J6.401648
G03 X298.896731 Y115.672921 Z-0.125000 I-9.742557 J-0.951684
G02 X295.597451 Y126.208975 Z-0.125000 I14.500580 J10.325338
G02 X299.107410 Y133.456788 Z-0.125000 I9.469567 J-0.112101
G02 X302.485041 Y136.030061 Z-0.125000 I45.129235 J-55.732454
G02 X304.395323 Y137.243256 Z-0.125000 I11.850560 J-16.549197
G03 X306.328004 Y139.634608 Z-0.125000 I-2.019529 J3.608844
G03 X310.640351 Y156.786908 Z-0.125000 I-160.990932 J49.593788
G03 X313.489217 Y173.913312 Z-0.125000 I-294.212489 J57.740482
G03 X315.795464 Y195.331854 Z-0.125000 I-372.998066 J50.996106
G02 X317.222169 Y211.501295 Z-0.125000 I864.525484 J-68.133405
G02 X318.015114 Y218.057313 Z-0.125000 I142.900973 J-13.957798
G03 X317.388458 Y223.828364 Z-0.125000 I-11.542938 J1.666147
G03 X314.629378 Y227.061173 Z-0.125000 I-5.851761 J-2.200467
G01 X310.299779 Y229.525735 Z-0.125000
G01 X310.369036 Y241.992617 Z-0.125000
G02 X311.049568 Y254.351125 Z-0.125000 I125.438768 J-0.709397
G02 X312.183782 Y259.307729 Z-0.125000 I21.018773 J-2.201629
G03 X312.828922 Y264.142202 Z-0.125000 I-10.861999 J3.909771
G03 X311.237547 Y271.082005 Z-0.125000 I-24.520344 J-1.970430
G02 X309.575657 Y278.219967 Z-0.125000 I24.158028 J9.387018
G02 X307.116708 Y318.392154 Z-0.125000 I778.575258 J67.818133
G02 X306.756042 Y358.667519 Z-0.125000 I761.587772 J26.959315
G02 X307.988266 Y368.259675 Z-0.125000 I43.926734 J-0.767677
G03 X309.685465 Y383.613247 Z-0.125000 I-58.818396 J14.272432
G03 X307.434744 Y399.241675 Z-0.125000 I-63.229023 J-1.129616
G03 X301.870279 Y412.089865 Z-0.125000 I-48.198530 J-13.245399
G03 X288.800231 Y429.688427 Z-0.125000 I-104.505490 J-63.961134
G02 X280.040071 Y440.423909 Z-0.125000 I117.696216 J104.982080
G02 X276.249120 Y446.529107 Z-0.125000 I34.013114 J25.349614
G03 X272.517373 Y452.677508 Z-0.125000 I-42.991069 J-21.886571
G03 X265.862685 Y461.073799 Z-0.125000 I-87.098980 J-62.197138
G02 X258.517238 Y470.307420 Z-0.125000 I91.906901 J80.651449
G02 X255.088495 Y476.650215 Z-0.125000 I22.896533 J16.475385
G02 X253.293899 Y483.695952 Z-0.125000 I28.814260 J11.090599
G02 X252.084288 Y496.871063 Z-0.125000 I164.691591 J21.763468
G03 X249.701775 Y513.059628 Z-0.125000 I-86.688730 J-4.488604
G03 X245.430578 Y523.999962 Z-0.125000 I-43.431716 J-10.652179
G02 X239.322577 Y541.110644 Z-0.125000 I49.611023 J27.355177
G02 X234.588545 Y582.969139 Z-0.125000 I299.544844 J55.074293
G01 X233.676801 Y603.962267 Z-0.125000
G01 X229.557468 Y604.786187 Z-0.125000
G03 X225.402962 Y605.255031 Z-0.125000 I-4.828197 J-24.142158
G03 X199.465465 Y605.609965 Z-0.125000 I-25.937498 J-947.538128
G02 X173.530975 Y605.995014 Z-0.125000 I-0.000000 J873.584845
G02 X168.963996 Y606.515758 Z-0.125000 I0.814755 J27.432340
G02 X164.367575 Y608.539633 Z-0.125000 I2.283429 J11.417296
G02 X154.965247 Y616.389951 Z-0.125000 I56.997381 J77.821516
G02 X146.625149 Y625.243754 Z-0.125000 I74.725998 J78.745339
G02 X142.449435 Y631.676969 Z-0.125000 I23.773099 J20.002606
G02 X138.830789 Y648.312540 Z-0.125000 I32.507896 J15.782625
G02 X143.229447 Y664.714326 Z-0.125000 I35.943301 J-0.848619
G02 X152.782885 Y677.606298 Z-0.125000 I51.424533 J-28.121806
G02 X165.527847 Y687.478992 Z-0.125000 I42.268893 J-41.403431
G02 X172.862412 Y689.956903 Z-0.125000 I9.886797 J-17.170673
G02 X197.387651 Y691.617442 Z-0.125000 I25.731301 J-198.094697
G03 X222.309795 Y692.049813 Z-0.125000 I-6.692527 J1104.241681
G03 X234.095689 Y692.669369 Z-0.125000 I-7.073802 J246.978010
G01 X245.869964 Y693.570730 Z-0.125000
G01 X239.082164 Y698.772058 Z-0.125000
G03 X232.022729 Y703.441306 Z-0.125000 I-37.082252 J-48.393439
G03 X227.182803 Y705.504723 Z-0.125000 I-11.601901 J-20.505338
G03 X221.969323 Y706.308770 Z-0.125000 I-5.499899 J-18.357348
G03 X170.943460 Y706.345406 Z-0.125000 I-26.800254 J-1792.935248
G03 X119.894260 Y704.698882 Z-0.125000 I18.427225 J-1363.515562
G03 X100.689679 Y702.761325 Z-0.125000 I9.921869 J-194.487353
G03 X75.413166 Y698.127347 Z-0.125000 I61.634910 J-407.447647
G03 X64.246909 Y694.643951 Z-0.125000 I13.741153 J-63.686961
G03 X55.110067 Y688.751136 Z-0.125000 I11.573848 J-27.975086
G03 X49.821897 Y681.716240 Z-0.125000 I17.502916 J-18.662059
G02 X46.729066 Y677.172341 Z-0.125000 I-19.497108 J9.946296
G02 X45.227125 Y676.462221 Z-0.125000 I-1.577776 J1.393678
G02 X43.953247 Y677.173654 Z-0.125000 I-0.050664 J1.405490
G02 X42.440674 Y681.450161 Z-0.125000 I11.257001 J6.387276
G02 X41.870395 Y687.844809 Z-0.125000 I42.344520 J6.999068
G02 X41.586987 Y727.751962 Z-0.125000 I2857.802350 J40.249793
G02 X41.855391 Y767.457601 Z-0.125000 I2885.830961 J0.345966
G02 X42.426817 Y775.104815 Z-0.125000 I62.946170 J-0.858599
G02 X43.883833 Y780.386402 Z-0.125000 I20.474929 J-2.806596
G02 X45.042332 Y781.346234 Z-0.125000 I1.508349 J-0.641490
G02 X46.413860 Y780.907786 Z-0.125000 I0.306853 J-1.404513
G02 X49.294542 Y776.605137 Z-0.125000 I-13.098302 J-11.885144
G03 X60.366232 Y765.926374 Z-0.125000 I19.703996 J9.350089
G03 X92.798692 Y757.854942 Z-0.125000 I40.752132 J94.553925
G03 X108.731737 Y756.604282 Z-0.125000 I253.487154 J3127.237995
G03 X147.514446 Y753.700151 Z-0.125000 I1409.619659 J18564.106089
G02 X197.360672 Y749.460224 Z-0.125000 I-165.032837 J-2235.316154
G02 X216.614589 Y746.659260 Z-0.125000 I-19.258556 J-199.960412
G02 X233.780156 Y741.291308 Z-0.125000 I-15.679757 J-80.270415
G02 X246.571845 Y734.350600 Z-0.125000 I-34.877845 J-79.537547
G02 X263.965750 Y720.136647 Z-0.125000 I-59.326350 J-90.348482
G02 X276.730476 Y703.959810 Z-0.125000 I-64.560494 J-64.067603
G03 X283.388331 Y693.780576 Z-0.125000 I209.301969 J129.629626
G03 X284.600138 Y692.553009 Z-0.125000 I4.077227 J2.812973
G03 X289.607377 Y692.225245 Z-0.125000 I2.770076 J3.906768
G03 X304.567784 Y703.102221 Z-0.125000 I-30.396407 J57.534723
G02 X315.405617 Y712.993223 Z-0.125000 I162.290566 J-166.942938
G02 X320.973295 Y716.690724 Z-0.125000 I17.860637 J-20.853812
G02 X327.134840 Y718.575749 Z-0.125000 I8.661115 J-17.297847
G02 X336.712246 Y719.197101 Z-0.125000 I9.577406 J-73.501527
G02 X354.311778 Y716.416946 Z-0.125000 I-0.000000 J-57.096233
G02 X365.894842 Y709.741386 Z-0.125000 I-9.908334 J-30.579327
G02 X372.844912 Y702.468965 Z-0.125000 I-44.433263 J-49.420965
G02 X376.187349 Y696.716097 Z-0.125000 I-16.079621 J-13.189736
G02 X377.665800 Y690.148791 Z-0.125000 I-21.865580 J-8.372512
G02 X377.878845 Y678.444099 Z-0.125000 I-99.008858 J-7.656407
G02 X373.921227 Y659.600778 Z-0.125000 I-58.132109 J2.372083
G02 X366.175907 Y648.560434 Z-0.125000 I-26.576660 J10.407751
G02 X350.697240 Y639.430072 Z-0.125000 I-31.787768 J36.204034
G02 X336.392276 Y637.848940 Z-0.125000 I-10.450766 J29.049986
G02 X322.382135 Y642.579556 Z-0.125000 I4.635380 J36.839539
G02 X304.598235 Y656.308478 Z-0.125000 I43.080033 J74.186901
G03 X293.849093 Y665.197018 Z-0.125000 I-50.666544 J-50.328495
G03 X289.391425 Y666.559157 Z-0.125000 I-4.457668 J-6.612903
G01 X284.366994 Y666.559157 Z-0.125000
G01 X282.838817 Y657.336304 Z-0.125000
G02 X278.718851 Y644.834598 Z-0.125000 I-42.296180 J7.009079
G02 X266.389337 Y625.149988 Z-0.125000 I-118.871209 J60.751717
G03 X262.687541 Y618.105439 Z-0.125000 I19.584168 J-14.786053
G03 X261.985913 Y611.395098 Z-0.125000 I14.883434 J-4.948052
G03 X263.888640 Y604.641176 Z-0.125000 I21.613172 J2.443921
G03 X269.895717 Y594.140426 Z-0.125000 I66.107092 J30.848751
G02 X276.565838 Y583.186754 Z-0.125000 I-94.945683 J-65.323843
G02 X298.593506 Y540.505145 Z-0.125000 I-1425.102107 J-762.509800
G03 X303.774425 Y530.122692 Z-0.125000 I4114.645275 J2046.753738
G03 X305.287394 Y527.132892 Z-0.125000 I343.999677 J172.201077
G03 X311.949300 Y516.881179 Z-0.125000 I52.726715 J26.973161
G03 X324.209106 Y503.078824 Z-0.125000 I154.050870 J124.488178
G03 X338.058985 Y490.509757 Z-0.125000 I109.923070 J107.209294
G03 X341.947496 Y489.544831 Z-0.125000 I2.988569 J3.725971
G03 X343.753494 Y490.651778 Z-0.125000 I-0.565874 J2.949957
G03 X347.825356 Y496.682622 Z-0.125000 I-43.100831 J33.490543
G03 X351.094764 Y503.159501 Z-0.125000 I-52.549743 J30.589734
G03 X351.800354 Y506.470976 Z-0.125000 I-7.907036 J3.415695
G03 X351.231481 Y508.970223 Z-0.125000 I-5.478821 J0.067289
G03 X346.175834 Y517.827333 Z-0.125000 I-77.779306 J-38.525058
G02 X342.243076 Y524.787618 Z-0.125000 I53.081745 J34.583894
G02 X341.478171 Y528.464699 Z-0.125000 I6.937517 J3.361237
G02 X342.515362 Y532.099303 Z-0.125000 I8.042613 J-0.329793
G02 X347.048945 Y539.119933 Z-0.125000 I62.295095 J-35.253057
G02 X357.151546 Y549.964803 Z-0.125000 I50.719050 J-37.119624
G02 X372.216535 Y560.431789 Z-0.125000 I62.215874 J-73.471536
G02 X389.227112 Y565.843140 Z-0.125000 I21.596795 J-38.447467
G02 X406.092374 Y563.974045 Z-0.125000 I4.144109 J-39.630850
G02 X428.637821 Y553.570899 Z-0.125000 I-36.979245 J-109.772064
G02 X439.001744 Y544.260583 Z-0.125000 I-18.740377 J-31.284682
G02 X446.219960 Y532.866121 Z-0.125000 I-65.699531 J-49.603190
G02 X447.947945 Y526.833841 Z-0.125000 I-13.739230 J-7.199324
G02 X446.543176 Y521.320309 Z-0.125000 I-8.889710 J-0.670753
G02 X441.141214 Y515.904940 Z-0.125000 I-15.411266 J9.971133
G03 X437.565676 Y513.064589 Z-0.125000 I13.184551 J-20.267882
G03 X436.630685 Y511.174384 Z-0.125000 I2.157755 J-2.243684
G03 X436.981710 Y508.980891 Z-0.125000 I4.100406 J-0.468646
G03 X439.757365 Y503.797107 Z-0.125000 I44.222243 J20.343784
G02 X441.889694 Y497.891999 Z-0.125000 I-13.097293 J-8.066964
G02 X443.213346 Y479.451091 Z-0.125000 I-132.073557 J-18.747939
G03 X443.710935 Y464.541819 Z-0.125000 I240.223888 J0.554403
G03 X445.334704 Y459.242052 Z-0.125000 I11.983788 J0.773021
G03 X449.207983 Y455.468354 Z-0.125000 I8.801635 J5.159302
G03 X460.601029 Y449.788503 Z-0.125000 I73.805188 J133.777219
G02 X479.458990 Y439.497774 Z-0.125000 I-55.789884 J-124.660207
G02 X487.152016 Y432.458847 Z-0.125000 I-17.585422 J-26.942982
G02 X498.560704 Y413.605917 Z-0.125000 I-70.657856 J-55.636392
G02 X509.503480 Y382.591323 Z-0.125000 I-182.807851 J-81.937234
G02 X514.924411 Y361.071536 Z-0.125000 I-1047.532327 J-275.320786
G02 X516.515263 Y353.501936 Z-0.125000 I-128.002930 J-30.853479
G03 X518.155204 Y345.955652 Z-0.125000 I104.856782 J18.835896
G03 X519.914008 Y340.203792 Z-0.125000 I62.670330 J16.018510
G02 X521.594218 Y334.429620 Z-0.125000 I-47.139334 J-16.848481
G02 X525.412742 Y315.962636 Z-0.125000 I-479.830619 J-108.845601
G02 X532.431061 Y263.295942 Z-0.125000 I-499.880597 J-93.414639
G02 X531.862959 Y235.722884 Z-0.125000 I-136.571433 J-10.978531
G02 X527.038946 Y215.520494 Z-0.125000 I-91.436502 J11.156452
G02 X520.628793 Y204.694204 Z-0.125000 I-31.781810 J11.506894
G03 X515.990693 Y197.852174 Z-0.125000 I24.673981 J-21.719147
G03 X513.024541 Y189.711924 Z-0.125000 I32.205163 J-16.345479
G02 X507.186855 Y174.134501 Z-0.125000 I-62.785244 J14.646403
G02 X501.106211 Y167.255191 Z-0.125000 I-17.348490 J9.207379
G02 X495.581587 Y165.236477 Z-0.125000 I-6.546454 J9.346726
G02 X488.250337 Y165.660522 Z-0.125000 I-2.238057 J24.893090
G02 X481.595785 Y168.279520 Z-0.125000 I4.313753 J20.724406
G02 X478.913780 Y171.874587 Z-0.125000 I3.092759 J5.105225
G02 X478.707578 Y177.326878 Z-0.125000 I12.204124 J3.191595
G02 X483.406983 Y196.539895 Z-0.125000 I163.076278 J-29.706384
G03 X485.531734 Y205.677036 Z-0.125000 I-63.094723 J19.487659
G03 X486.198020 Y214.126229 Z-0.125000 I-53.239063 J8.449193
G03 X485.236496 Y225.228164 Z-0.125000 I-64.573270 J-0.000000
G03 X478.856386 Y258.439306 Z-0.125000 I-979.374935 J-170.926874
G03 X471.052575 Y292.379353 Z-0.125000 I-887.788085 J-186.261317
G03 X469.268017 Y294.820746 Z-0.125000 I-3.896017 J-0.974913
G03 X468.702761 Y294.617086 Z-0.125000 I-0.201704 J-0.326432
G03 X468.677636 Y293.072612 Z-0.125000 I2.403095 J-0.811535
G02 X472.920481 Y274.082554 Z-0.125000 I-127.066014 J-38.358671
G02 X473.207275 Y262.364331 Z-0.125000 I-47.651931 J-7.028862
G03 X471.280192 Y226.843530 Z-0.125000 I408.746332 J-39.988077
G03 X472.721598 Y217.721263 Z-0.125000 I27.681196 J-0.301114
G02 X474.024261 Y211.377986 Z-0.125000 I-25.271528 J-8.495187
G02 X475.747726 Y180.350818 Z-0.125000 I-611.921472 J-49.551834
G03 X479.380754 Y141.014546 Z-0.125000 I319.075429 J9.633327
G03 X484.421234 Y124.480078 Z-0.125000 I60.395530 J9.375863
G01 X488.203689 Y116.398907 Z-0.125000
G01 X485.123120 Y111.046046 Z-0.125000
G03 X482.801450 Y105.490500 Z-0.125000 I20.699687 J-11.913314
G03 X482.042411 Y99.890679 Z-0.125000 I20.276844 J-5.599820
G03 X482.443679 Y91.837388 Z-0.125000 I81.013751 J0.000000
G03 X485.048226 Y68.408050 Z-0.125000 I1052.793255 J105.175405
G03 X488.176031 Y45.032413 Z-0.125000 I1048.429428 J128.389305
G03 X489.717444 Y37.216210 Z-0.125000 I78.049150 J11.331777
G02 X491.545340 Y29.115588 Z-0.125000 I-172.877702 J-43.266187
G02 X491.738861 Y27.173445 Z-0.125000 I-9.648737 J-1.942143
G02 X490.783401 Y26.162906 Z-0.125000 I-1.012126 J0.000000
G02 X456.677858 Y25.207417 Z-0.125000 I-34.105543 J608.209493
G01 X421.616967 Y25.207417 Z-0.125000
G01 X419.768525 Y32.419646 Z-0.125000
G03 X417.650942 Y39.546488 Z-0.125000 I-94.944767 J-24.332705
G03 X412.374698 Y54.236688 Z-0.125000 I-409.245842 J-138.695244
G02 X407.052477 Y68.917904 Z-0.125000 I483.627986 J183.629677
G02 X403.020668 Y81.308381 Z-0.125000 I340.225367 J117.559112
G03 X400.449783 Y89.316109 Z-0.125000 I-283.948616 J-86.745287
G03 X399.611744 Y91.178547 Z-0.125000 I-9.890022 J-3.330432
G03 X398.756735 Y91.394436 Z-0.125000 I-0.531791 J-0.305074
G03 X397.855493 Y90.312237 Z-0.125000 I1.176326 J-1.896000
G03 X396.891748 Y86.753836 Z-0.125000 I15.800668 J-6.189110
G03 X394.920946 Y71.611916 Z-0.125000 I287.639243 J-45.136986
G02 X390.429266 Y30.988101 Z-0.125000 I-2937.788187 J304.264122
G02 X389.749958 Y27.631534 Z-0.125000 I-20.600470 J2.422140
G02 X388.170227 Y26.374436 Z-0.125000 I-1.677259 J0.486593
G02 X346.407877 Y25.207417 Z-0.125000 I-41.762350 J746.659780
G01 X303.768925 Y25.207417 Z-0.125000
G01 X302.734299 Y39.405808 Z-0.125000
G01 X302.740146 Y39.405808 Z-0.125000
G00 Z5.000000

(Change tool to Default tool)

G00 Z5.000000
G00 X386.931043 Y33.172369

G01 Z-0.125000 F100.0(Penetrate)
G03 X387.631685 Y38.381855 Z-0.125000 I-117.076946 J18.397938 F400.000000
G03 X390.072148 Y61.222851 Z-0.125000 I-2250.823587 J252.041830
G02 X395.920183 Y94.088582 Z-0.125000 I222.419382 J-22.623512
G02 X399.233646 Y96.979388 Z-0.125000 I3.757748 J-0.962799
G02 X402.115053 Y96.193014 Z-0.125000 I0.459713 J-3.987703
G02 X403.811488 Y93.516366 Z-0.125000 I-2.726039 J-3.603655
G03 X404.820771 Y89.672217 Z-0.125000 I38.849955 J8.145496
G03 X410.971494 Y70.919312 Z-0.125000 I932.042788 J295.313526
G02 X421.618822 Y39.173948 Z-0.125000 I-4653.009655 J-1578.267725
G02 X424.637287 Y29.709347 Z-0.125000 I-410.847390 J-136.241726
G03 X425.784441 Y28.811873 Z-0.125000 I1.216085 J0.372519
G03 X456.539885 Y27.977835 Z-0.125000 I30.755444 J566.641374
G01 X487.912244 Y27.977835 Z-0.125000
G01 X487.046753 Y31.094556 Z-0.125000
G02 X484.427883 Y43.546211 Z-0.125000 I96.515685 J26.800700
G02 X479.821356 Y81.012914 Z-0.125000 I872.589872 J126.301378
G01 X477.466522 Y104.265863 Z-0.125000
G01 X480.586968 Y110.928026 Z-0.125000
G01 X483.707302 Y117.590048 Z-0.125000
G01 X480.660515 Y123.562240 Z-0.125000
G02 X476.267190 Y137.139319 Z-0.125000 I40.192938 J20.505136
G02 X472.362843 Y176.962458 Z-0.125000 I350.572171 J54.473818
G03 X470.199559 Y211.393478 Z-0.125000 I-803.779187 J-33.217598
G03 X468.872827 Y218.318011 Z-0.125000 I-33.480263 J-2.825410
G02 X466.755666 Y232.768483 Z-0.125000 I47.095263 J14.280329
G02 X468.998867 Y254.876169 Z-0.125000 I113.944312 J-0.393943
G03 X469.915492 Y265.716193 Z-0.125000 I-46.682570 J9.406212
G03 X468.306266 Y277.869667 Z-0.125000 I-60.450758 J-1.820935
G02 X465.834106 Y296.341918 Z-0.125000 I90.683631 J21.537831
G02 X467.610193 Y299.019175 Z-0.125000 I2.768546 J0.091108
G02 X470.256865 Y298.531677 Z-0.125000 I0.924473 J-2.409211
G02 X474.544675 Y292.108801 Z-0.125000 I-10.357016 J-11.556854
G02 X477.430004 Y282.224435 Z-0.125000 I-91.434099 J-32.053689
G02 X484.280777 Y251.465646 Z-0.125000 I-1310.312564 J-307.982603
G02 X489.241887 Y211.513713 Z-0.125000 I-235.048402 J-49.471589
G02 X486.606937 Y192.817838 Z-0.125000 I-52.788259 J-2.093776
G03 X482.902764 Y176.017760 Z-0.125000 I79.691476 J-26.379213
G03 X484.209573 Y171.946619 Z-0.125000 I5.151481 J-0.591718
G03 X487.017087 Y170.135962 Z-0.125000 I4.773928 J4.320292
G03 X492.556972 Y169.269287 Z-0.125000 I5.539885 J17.272437
G03 X497.895100 Y170.398231 Z-0.125000 I-0.000000 J13.184939
G03 X501.159952 Y173.078609 Z-0.125000 I-3.199286 J7.225487
G03 X506.701608 Y182.983821 Z-0.125000 I-45.249291 J31.818356
G03 X509.810995 Y193.130340 Z-0.125000 I-44.401333 J19.156422
G02 X512.108382 Y199.885854 Z-0.125000 I25.049704 J-4.750398
G02 X515.939987 Y205.250089 Z-0.125000 I19.419227 J-9.820359
G03 X524.613325 Y220.597286 Z-0.125000 I-24.752775 J24.113251
G03 X529.134242 Y255.561015 Z-0.125000 I-133.691901 J35.060921
G03 X528.196229 Y272.709974 Z-0.125000 I-155.162385 J0.113060
G03 X524.357515 Y301.038359 Z-0.125000 I-575.913924 J-63.616477
G03 X519.040594 Y329.332380 Z-0.125000 I-538.573536 J-86.560419
G03 X515.181317 Y342.377738 Z-0.125000 I-88.170769 J-18.990490
G02 X512.948307 Y349.454252 Z-0.125000 I60.369447 J22.940291
G02 X512.522134 Y352.870975 Z-0.125000 I13.483250 J3.416723
G03 X511.922445 Y357.965654 Z-0.125000 I-21.940829 J-0.000000
G03 X506.414662 Y379.389588 Z-0.125000 I-622.009454 J-148.489657
G03 X500.303043 Y400.257509 Z-0.125000 I-656.285573 J-180.878403
G03 X497.268080 Y408.217691 Z-0.125000 I-64.231630 J-19.930813
G03 X493.049645 Y416.280902 Z-0.125000 I-76.211260 J-34.736399
G03 X486.432693 Y426.443439 Z-0.125000 I-127.803436 J-75.978922
G03 X478.533116 Y435.334028 Z-0.125000 I-44.764694 J-31.820075
G03 X471.366175 Y440.086916 Z-0.125000 I-19.276584 J-21.287402
G02 X444.367234 Y453.432343 Z-0.125000 I266.894585 J573.933891
G02 X441.551091 Y455.717752 Z-0.125000 I4.261930 J8.129436
G02 X440.591583 Y458.115666 Z-0.125000 I3.268342 J2.698729
G02 X440.170855 Y475.115246 Z-0.125000 I183.291787 J13.041350
G03 X439.089302 Y492.071511 Z-0.125000 I-99.768886 J2.148884
G03 X436.259452 Y501.183080 Z-0.125000 I-31.116269 J-4.668790
G02 X433.273644 Y508.556318 Z-0.125000 I52.195924 J25.428024
G02 X432.995736 Y512.116464 Z-0.125000 I7.188788 J2.352083
G02 X434.467831 Y515.263368 Z-0.125000 I6.267261 J-1.014002
G02 X439.282250 Y519.866637 Z-0.125000 I27.053180 J-23.474839
G03 X443.144764 Y523.951899 Z-0.125000 I-12.197842 J15.401344
G03 X443.991791 Y527.306214 Z-0.125000 I-3.946444 J2.780654
G03 X442.749075 Y531.011590 Z-0.125000 I-9.555031 J-1.143504
G03 X436.857989 Y540.123380 Z-0.125000 I-102.223780 J-59.630901
G03 X429.715003 Y547.662815 Z-0.125000 I-30.592940 J-21.830853
G03 X419.045195 Y554.345458 Z-0.125000 I-34.456787 J-43.155980
G03 X407.223415 Y559.330352 Z-0.125000 I-59.732430 J-125.146454
G03 X397.531084 Y562.266637 Z-0.125000 I-29.866735 J-81.121807
G03 X387.834703 Y563.438000 Z-0.125000 I-9.904157 J-41.266945
G03 X383.937061 Y562.333129 Z-0.125000 I-0.035746 J-7.301174
G02 X380.184896 Y560.112259 Z-0.125000 I-50.428637 J80.919232
G02 X372.329712 Y555.816550 Z-0.125000 I-196.782526 J350.508905
G03 X359.769254 Y547.059627 Z-0.125000 I30.170235 J-56.661039
G03 X349.649685 Y535.585851 Z-0.125000 I42.658410 J-47.823082
G03 X345.452013 Y527.882971 Z-0.125000 I34.739332 J-23.926342
G03 X345.663607 Y526.019322 Z-0.125000 I1.780163 J-0.741721
G02 X353.452600 Y514.506347 Z-0.125000 I-216.027784 J-154.542816
G02 X355.505648 Y509.841951 Z-0.125000 I-13.997405 J-8.945025
G02 X355.533390 Y505.121958 Z-0.125000 I-9.048656 J-2.413261
G02 X353.129739 Y498.024664 Z-0.125000 I-46.798691 J11.893708
G02 X346.328754 Y487.022708 Z-0.125000 I-39.931385 J17.081013
G02 X342.171220 Y485.096648 Z-0.125000 I-4.157535 J3.524132
G02 X337.533572 Y486.509642 Z-0.125000 I0.000000 J8.317203
G02 X325.696240 Y495.640217 Z-0.125000 I63.649297 J94.756665
G02 X315.137775 Y506.038891 Z-0.125000 I88.770563 J100.694339
G02 X309.914405 Y513.533740 Z-0.125000 I26.246320 J23.859379
G03 X307.453658 Y517.405488 Z-0.125000 I-23.520182 J-12.230742
G03 X304.251672 Y520.939759 Z-0.125000 I-22.761656 J-17.404044
G02 X301.325007 Y524.570007 Z-0.125000 I11.331446 J12.130133
G02 X299.818187 Y528.376947 Z-0.125000 I10.989966 J6.551600
G03 X298.484926 Y532.363987 Z-0.125000 I-19.316467 J-4.242958
G03 X293.166548 Y542.911391 Z-0.125000 I-141.983916 J-64.978812
G02 X287.502447 Y553.340683 Z-0.125000 I707.813895 J391.163218
G02 X278.859825 Y569.721554 Z-0.125000 I1737.411229 J927.136368
G03 X270.040843 Y585.992460 Z-0.125000 I-515.562302 J-268.914125
G03 X266.284065 Y592.067475 Z-0.125000 I-75.498855 J-42.489249
G02 X262.604896 Y598.165111 Z-0.125000 I56.519368 J38.261234
G02 X259.958788 Y603.906444 Z-0.125000 I47.414511 J25.333196
G02 X257.943819 Y611.083419 Z-0.125000 I34.992720 J13.695713
G02 X258.126848 Y616.679635 Z-0.125000 I13.411934 J2.362452
G02 X260.287225 Y622.188914 Z-0.125000 I21.519898 J-5.260471
G02 X267.227531 Y633.641603 Z-0.125000 I157.544694 J-87.642514
G03 X277.859768 Y653.227966 Z-0.125000 I-110.114953 J72.453641
G03 X279.820468 Y662.403406 Z-0.125000 I-21.402314 J9.370670
G02 X281.943637 Y666.825243 Z-0.125000 I5.766896 J-0.048363
G02 X288.939988 Y669.836829 Z-0.125000 I8.786234 J-10.779134
G01 X295.995148 Y670.752471 Z-0.125000
G01 X306.963771 Y659.842550 Z-0.125000
G03 X327.506392 Y644.859777 Z-0.125000 I58.996611 J59.315033
G03 X341.652721 Y641.888870 Z-0.125000 I12.428063 J24.012536
G03 X363.441255 Y652.098402 Z-0.125000 I-2.089411 J32.813709
G03 X374.841772 Y676.948095 Z-0.125000 I-30.827515 J29.183021
G03 X373.350499 Y691.479591 Z-0.125000 I-35.774745 J3.670938
G03 X366.374682 Y703.675979 Z-0.125000 I-31.716544 J-10.047389
G03 X355.573029 Y711.785362 Z-0.125000 I-25.984892 J-23.363173
G03 X340.992688 Y715.920811 Z-0.125000 I-19.114632 J-39.621738
G03 X331.806246 Y716.018912 Z-0.125000 I-5.121517 J-49.422058
G03 X325.017128 Y714.255658 Z-0.125000 I1.674491 J-20.399160
G03 X318.841655 Y710.446997 Z-0.125000 I11.905915 J-26.215473
G03 X308.172106 Y701.015132 Z-0.125000 I99.547688 J-123.361454
G01 X295.306131 Y688.568595 Z-0.125000
G01 X287.902877 Y688.991788 Z-0.125000
G02 X281.527769 Y691.031025 Z-0.125000 I0.764599 J13.374924
G02 X277.036613 Y695.835818 Z-0.125000 I6.893698 J10.945098
G03 X249.577399 Y727.832266 Z-0.125000 I-87.128321 J-46.992237
G03 X214.009606 Y743.447130 Z-0.125000 I-50.643575 J-67.040880
G03 X179.328959 Y748.123660 Z-0.125000 I-67.716559 J-371.246538
G03 X103.192891 Y753.185970 Z-0.125000 I-157.097782 J-1787.650962
G02 X63.942204 Y759.648220 Z-0.125000 I7.618554 J168.706268
G02 X49.852233 Y768.595021 Z-0.125000 I8.251285 J28.562905
G01 X45.706719 Y773.316514 Z-0.125000
G01 X45.720576 Y728.595327 Z-0.125000
G03 X45.813248 Y697.392584 Z-0.125000 I5871.642200 J1.837155
G03 X46.066240 Y690.136089 Z-0.125000 I124.247935 J0.699158
G03 X46.539146 Y686.707725 Z-0.125000 I23.676406 J1.519104
G03 X46.842382 Y686.320578 Z-0.125000 I0.547909 J0.116826
G03 X47.306267 Y686.423441 Z-0.125000 I0.167049 J0.344085
G03 X48.340422 Y687.834027 Z-0.125000 I-13.638837 J11.083545
G02 X58.535955 Y695.865704 Z-0.125000 I17.188093 J-11.331806
G02 X99.057215 Y706.148839 Z-0.125000 I72.545381 J-200.889384
G02 X122.683245 Y708.524616 Z-0.125000 I35.414253 J-233.515735
G02 X175.228471 Y709.955395 Z-0.125000 I57.769995 J-1156.022569
G01 X227.866410 Y710.193111 Z-0.125000
G01 X234.099849 Y706.955458 Z-0.125000
G02 X248.612153 Y694.654070 Z-0.125000 I-19.729731 J-37.986721
G02 X247.146026 Y689.563175 Z-0.125000 I-2.655389 J-1.991837
G02 X244.881897 Y689.116466 Z-0.125000 I-2.421259 J6.310896
G02 X210.978221 Y688.722350 Z-0.125000 I-33.903676 J1458.076693
G01 X177.001400 Y688.722350 Z-0.125000
G01 X168.755944 Y684.327501 Z-0.125000
G03 X145.628059 Y660.263212 Z-0.125000 I25.293066 J-47.454951
G03 X145.214318 Y635.593932 Z-0.125000 I26.459736 J-12.781880
G03 X154.779426 Y620.695843 Z-0.125000 I52.684209 J23.305537
G03 X166.205773 Y611.901997 Z-0.125000 I28.596195 J25.336296
G03 X169.873158 Y610.887714 Z-0.125000 I4.383753 J8.713217
G03 X201.726132 Y609.286164 Z-0.125000 I50.327176 J683.388998
G02 X233.690534 Y608.050697 Z-0.125000 I-36.960426 J-1370.366598
G02 X236.010053 Y607.560347 Z-0.125000 I-0.378704 J-7.522621
G02 X237.240170 Y606.000829 Z-0.125000 I-0.696093 J-1.813969
G02 X238.255478 Y590.562159 Z-0.125000 I-116.871744 J-15.438670
G03 X238.749915 Y574.454476 Z-0.125000 I262.623863 J-0.000000
G03 X240.344233 Y556.568997 Z-0.125000 I325.513612 J20.002599
G03 X243.787214 Y539.123236 Z-0.125000 I112.759400 J13.190831
G03 X248.882661 Y526.102848 Z-0.125000 I67.579350 J18.939524
G02 X253.783597 Y513.136192 Z-0.125000 I-55.490314 J-28.382889
G02 X255.105297 Y501.726773 Z-0.125000 I-41.463628 J-10.584529
G03 X258.234421 Y482.396932 Z-0.125000 I54.746007 J-1.055882
G03 X268.065867 Y465.118055 Z-0.125000 I53.203598 J18.835705
G02 X276.760013 Y453.873778 Z-0.125000 I-151.048542 J-125.775017
G02 X278.990593 Y449.880758 Z-0.125000 I-16.542645 J-11.860583
G03 X281.266968 Y445.918069 Z-0.125000 I16.963618 J7.109605
G03 X294.099608 Y429.839139 Z-0.125000 I297.534023 J224.302422
G02 X303.638565 Y417.797775 Z-0.125000 I-187.953104 J-158.692114
G02 X307.947445 Y410.646083 Z-0.125000 I-34.796783 J-25.838884
G02 X310.697079 Y402.847510 Z-0.125000 I-34.993133 J-16.721961
G02 X313.244858 Y389.774878 Z-0.125000 I-163.356845 J-38.621879
G02 X313.777234 Y379.700789 Z-0.125000 I-49.938949 J-7.690188
G02 X312.335200 Y370.518952 Z-0.125000 I-42.835096 J2.023221
G03 X310.939692 Y361.262896 Z-0.125000 I39.473690 J-10.684556
G03 X310.653974 Y322.416740 Z-0.125000 I703.827552 J-24.600866
G03 X312.553980 Y283.640162 Z-0.125000 I675.445533 J13.661192
G03 X314.327406 Y275.230705 Z-0.125000 I33.012672 J2.570147
G02 X316.981363 Y263.262779 Z-0.125000 I-48.403185 J-17.011912
G02 X316.011963 Y258.177675 Z-0.125000 I-9.104057 J-0.899399
G03 X315.204131 Y255.731309 Z-0.125000 I7.356590 J-3.785833
G03 X313.886632 Y245.223754 Z-0.125000 I137.977964 J-22.636871
G01 X312.962015 Y234.602941 Z-0.125000
G01 X317.384579 Y230.469619 Z-0.125000
G01 X321.806973 Y226.336432 Z-0.125000
G01 X320.207196 Y202.997323 Z-0.125000
G02 X317.057397 Y172.772380 Z-0.125000 I-428.363367 J29.363968
G02 X312.217457 Y145.984892 Z-0.125000 I-341.165707 J47.810546
G02 X308.684457 Y136.765700 Z-0.125000 I-32.750644 J7.264219
G02 X304.588284 Y132.461791 Z-0.125000 I-10.581697 J5.969765
G03 X300.695504 Y129.270221 Z-0.125000 I10.894362 J-17.257741
G03 X299.478563 Y126.703512 Z-0.125000 I3.294457 J-3.133830
G03 X299.804571 Y123.699770 Z-0.125000 I6.487131 J-0.815488
G03 X302.657856 Y117.105227 Z-0.125000 I50.508649 J17.939221
G02 X304.709138 Y110.141757 Z-0.125000 I-17.180713 J-8.844917
G02 X304.601436 Y97.238143 Z-0.125000 I-60.769650 J-5.945034
G03 X303.812129 Y78.175640 Z-0.125000 I130.245296 J-14.940561
G03 X306.268127 Y44.253901 Z-0.125000 I416.406966 J13.098874
G01 X308.116965 Y27.977696 Z-0.125000
G01 X347.117791 Y27.977696 Z-0.125000
G01 X386.118785 Y27.977696 Z-0.125000
G01 X386.935085 Y33.172231 Z-0.125000
G01 X386.931043 Y33.172369 Z-0.125000
G00 Z5.000000

(Change tool to Default tool)

G00 Z5.000000
G00 X488.260760 Y178.999409

G01 Z-0.125000 F100.0(Penetrate)
G02 X487.453208 Y184.319168 Z-0.125000 I5.836536 J3.607173 F400.000000
G02 X491.123424 Y190.106569 Z-0.125000 I10.779334 J-2.778490
G02 X495.087201 Y190.539356 Z-0.125000 I2.309332 J-2.782573
G02 X497.285521 Y186.935963 Z-0.125000 I-1.854105 J-3.603393
G02 X493.352914 Y178.240521 Z-0.125000 I-11.579609 J-0.000000
G02 X488.260760 Y178.999409 Z-0.125000 I-2.225487 J2.530612
G01 X488.260760 Y178.999409 Z-0.125000
G00 Z5.000000

(Change tool to Default tool)

G00 Z5.000000
G00 X494.472725 Y187.969467

G01 Z-0.125000 F100.0(Penetrate)
G03 X494.126352 Y188.180544 Z-0.125000 I-0.237501 J-0.000000 F400.000000
G03 X493.129912 Y187.276862 Z-0.125000 I1.197446 J-2.321560
G03 X492.032667 Y185.126583 Z-0.125000 I9.961542 J-6.438269
G03 X491.787070 Y183.813840 Z-0.125000 I3.385583 J-1.312743
G03 X492.133444 Y183.602761 Z-0.125000 I0.237503 J0.000000
G03 X493.129912 Y184.506445 Z-0.125000 I-1.197480 J2.321659
G03 X494.227128 Y186.656721 Z-0.125000 I-9.962451 J6.438594
G03 X494.472725 Y187.969467 Z-0.125000 I-3.385601 J1.312746
G01 X494.472725 Y187.969467 Z-0.125000
G00 Z5.000000

(Change tool to Default tool)

G00 Z5.000000
G00 X168.762308 Y633.681086

G01 Z-0.125000 F100.0(Penetrate)
G02 X162.662024 Y641.709694 Z-0.125000 I16.971117 J19.226826 F400.000000
G02 X160.679755 Y650.333382 Z-0.125000 I17.767164 J8.623689
G02 X163.160795 Y660.010205 Z-0.125000 I20.111817 J-0.000000
G02 X170.376216 Y668.000042 Z-0.125000 I20.476117 J-11.238515
G02 X174.179490 Y669.262644 Z-0.125000 I4.070754 J-5.902622
G02 X215.602734 Y669.688352 Z-0.125000 I28.582582 J-765.666675
G01 X257.366368 Y668.988384 Z-0.125000
G01 X258.190567 Y664.867263 Z-0.125000
G02 X257.242939 Y659.838119 Z-0.125000 I-6.703575 J-1.340715
G02 X249.495611 Y651.298300 Z-0.125000 I-29.219859 J18.724174
G03 X242.257345 Y645.182616 Z-0.125000 I85.193350 J-108.172551
G03 X234.031001 Y637.292317 Z-0.125000 I133.781898 J-147.713110
G01 X226.022553 Y629.158503 Z-0.125000
G01 X199.930897 Y629.179387 Z-0.125000
G01 X173.839238 Y629.200272 Z-0.125000
G01 X168.762308 Y633.681707 Z-0.125000
G01 X168.762308 Y633.681086 Z-0.125000
G00 Z5.000000

(Change tool to Default tool)

G00 Z5.000000
G00 X234.025735 Y643.007430

G01 Z-0.125000 F100.0(Penetrate)
G02 X244.601062 Y652.714570 Z-0.125000 I176.254867 J-181.404602 F400.000000
G02 X249.609338 Y656.517351 Z-0.125000 I31.800129 J-36.681524
G03 X254.053689 Y660.398938 Z-0.125000 I-12.250577 J18.511851
G03 X254.808545 Y662.382462 Z-0.125000 I-2.290184 J2.006957
G03 X253.932565 Y664.015398 Z-0.125000 I-1.932271 J0.014870
G03 X249.679984 Y665.670128 Z-0.125000 I-6.060819 J-9.284195
G03 X244.454711 Y666.155477 Z-0.125000 I-6.016020 J-36.398179
G03 X208.917163 Y666.543917 Z-0.125000 I-36.254973 J-1691.072800
G01 X173.348874 Y666.559157 Z-0.125000
G01 X169.147951 Y661.462703 Z-0.125000
G03 X165.473463 Y656.110082 Z-0.125000 I28.568388 J-23.549289
G03 X164.103020 Y652.523794 Z-0.125000 I11.277007 J-6.364319
G03 X166.515715 Y641.376524 Z-0.125000 I13.380009 J-2.938789
G03 X178.688025 Y633.036829 Z-0.125000 I18.355685 J13.738303
G03 X182.207602 Y632.515396 Z-0.125000 I3.819141 J13.639530
G03 X202.929181 Y632.524144 Z-0.125000 I10.158062 J480.191276
G01 X223.707315 Y632.981429 Z-0.125000
G01 X234.026291 Y643.007430 Z-0.125000
G01 X234.025735 Y643.007430 Z-0.125000
G00 Z5.000000

(End cutting path id: path5638)


(Footer)
M5
G00 X0.0000 Y0.0000
M2
(Using default footer. To add your own footer create file "footer" in the output dir.)
(end)
%