%
(Header)
(Generated by gcodetools from Inkscape.)
(Using default header. To add your own header create file "header" in the output dir.)
M3
(Header end.)
G21 (All units in mm)

(Start cutting path id: rect15391)
(Change tool to Default tool)

G00 Z5.000000
G00 X2781.391738 Y32.321573

G01 Z-0.125000 F100.0(Penetrate)
G01 X745.508772 Y32.321573 Z-0.125000 F400.000000
G01 X754.745200 Y38.785910 Z-0.125000
G01 X763.720431 Y45.250261 Z-0.125000
G01 X772.443102 Y51.714479 Z-0.125000
G01 X780.921396 Y58.178827 Z-0.125000
G01 X789.163160 Y64.643178 Z-0.125000
G01 X797.175844 Y71.107526 Z-0.125000
G01 X804.966588 Y77.571744 Z-0.125000
G01 X812.542195 Y84.036120 Z-0.125000
G01 X819.909154 Y90.500429 Z-0.125000
G01 X827.073676 Y96.964751 Z-0.125000
G01 X834.041686 Y103.429074 Z-0.125000
G01 X840.818886 Y109.893385 Z-0.125000
G01 X847.410694 Y116.357708 Z-0.125000
G01 X853.822303 Y122.822031 Z-0.125000
G01 X860.058709 Y129.286342 Z-0.125000
G01 X866.124652 Y135.750665 Z-0.125000
G01 X872.024734 Y142.214987 Z-0.125000
G01 X877.763243 Y148.679310 Z-0.125000
G01 X883.344469 Y155.143621 Z-0.125000
G01 X888.772365 Y161.607944 Z-0.125000
G01 X894.050795 Y168.072266 Z-0.125000
G01 X899.183486 Y174.536575 Z-0.125000
G01 X904.173937 Y181.000900 Z-0.125000
G01 X909.025591 Y187.465223 Z-0.125000
G01 X913.741637 Y193.929531 Z-0.125000
G01 X918.325293 Y200.393854 Z-0.125000
G01 X922.779494 Y206.858177 Z-0.125000
G01 X927.107202 Y213.322502 Z-0.125000
G01 X931.311100 Y219.786811 Z-0.125000
G01 X935.393867 Y226.251133 Z-0.125000
G01 X939.358102 Y232.715456 Z-0.125000
G01 X943.206230 Y239.179767 Z-0.125000
G01 X946.940566 Y245.644090 Z-0.125000
G01 X950.563425 Y252.108412 Z-0.125000
G01 X954.076950 Y258.572724 Z-0.125000
G01 X957.483203 Y265.037046 Z-0.125000
G01 X960.784244 Y271.501369 Z-0.125000
G01 X963.981906 Y277.965692 Z-0.125000
G01 X967.078110 Y284.430000 Z-0.125000
G01 X970.074548 Y290.894326 Z-0.125000
G01 X972.972970 Y297.358648 Z-0.125000
G01 X975.774985 Y303.822958 Z-0.125000
G01 X978.482145 Y310.287281 Z-0.125000
G01 X981.095947 Y316.751604 Z-0.125000
G01 X983.617800 Y323.215914 Z-0.125000
G01 X986.049088 Y329.680236 Z-0.125000
G01 X988.391165 Y336.144558 Z-0.125000
G01 X990.645161 Y342.608884 Z-0.125000
G01 X992.812346 Y349.073192 Z-0.125000
G01 X994.893876 Y355.537515 Z-0.125000
G01 X996.890937 Y362.001838 Z-0.125000
G01 X998.804290 Y368.466149 Z-0.125000
G01 X1000.635235 Y374.930472 Z-0.125000
G01 X1002.384533 Y381.394794 Z-0.125000
G01 X1004.053144 Y387.859103 Z-0.125000
G01 X1005.641801 Y394.323428 Z-0.125000
G01 X1007.151408 Y400.787751 Z-0.125000
G01 X1008.582754 Y407.252073 Z-0.125000
G01 X1009.936631 Y413.716382 Z-0.125000
G01 X1011.213404 Y420.180704 Z-0.125000
G01 X1012.414119 Y426.645030 Z-0.125000
G01 X1013.539056 Y433.109338 Z-0.125000
G01 X1014.588810 Y439.573661 Z-0.125000
G01 X1015.563973 Y446.037984 Z-0.125000
G01 X1016.465108 Y452.502295 Z-0.125000
G01 X1017.292555 Y458.966618 Z-0.125000
G01 X1018.046653 Y465.430940 Z-0.125000
G01 X1018.727797 Y471.895263 Z-0.125000
G01 X1019.336493 Y478.359574 Z-0.125000
G01 X1019.872800 Y484.823897 Z-0.125000
G01 X1020.337028 Y491.288219 Z-0.125000
G01 X1020.729514 Y497.752531 Z-0.125000
G01 X1021.050457 Y504.216853 Z-0.125000
G01 X1021.299857 Y510.681176 Z-0.125000
G01 X1021.477911 Y517.145484 Z-0.125000
G01 X1021.584139 Y523.609807 Z-0.125000
G01 X1021.620433 Y530.074132 Z-0.125000
G01 X1021.584139 Y536.538455 Z-0.125000
G01 X1021.477911 Y543.002764 Z-0.125000
G01 X1021.299857 Y549.467086 Z-0.125000
G01 X1021.050457 Y555.931409 Z-0.125000
G01 X1020.729514 Y562.395720 Z-0.125000
G01 X1020.337028 Y568.860043 Z-0.125000
G01 X1019.872800 Y575.324365 Z-0.125000
G01 X1019.336493 Y581.788685 Z-0.125000
G01 X1018.727797 Y588.253013 Z-0.125000
G01 X1018.046653 Y594.717313 Z-0.125000
G01 X1017.292555 Y601.181642 Z-0.125000
G01 X1016.465108 Y607.645942 Z-0.125000
G01 X1015.564085 Y614.110270 Z-0.125000
G01 X1014.588810 Y620.574598 Z-0.125000
G01 X1013.539056 Y627.038898 Z-0.125000
G01 X1012.414119 Y633.503227 Z-0.125000
G01 X1011.213545 Y639.967555 Z-0.125000
G01 X1009.936631 Y646.431855 Z-0.125000
G01 X1008.582754 Y652.896183 Z-0.125000
G01 X1007.151408 Y659.360511 Z-0.125000
G01 X1005.641801 Y665.824840 Z-0.125000
G01 X1004.053144 Y672.289140 Z-0.125000
G01 X1002.384533 Y678.753468 Z-0.125000
G01 X1000.635235 Y685.217796 Z-0.125000
G01 X998.804403 Y691.682096 Z-0.125000
G01 X996.890937 Y698.146425 Z-0.125000
G01 X994.893876 Y704.610753 Z-0.125000
G01 X992.812346 Y711.075053 Z-0.125000
G01 X990.645161 Y717.539381 Z-0.125000
G01 X988.391165 Y724.003709 Z-0.125000
G01 X986.049088 Y730.468038 Z-0.125000
G01 X983.617800 Y736.932338 Z-0.125000
G01 X981.095975 Y743.396666 Z-0.125000
G01 X978.482174 Y749.860994 Z-0.125000
G01 X975.775013 Y756.325294 Z-0.125000
G01 X972.972998 Y762.789622 Z-0.125000
G01 X970.074576 Y769.253951 Z-0.125000
G01 X967.078138 Y775.718251 Z-0.125000
G01 X963.981934 Y782.182579 Z-0.125000
G01 X960.784244 Y788.646907 Z-0.125000
G01 X957.483232 Y795.111207 Z-0.125000
G01 X954.076979 Y801.575536 Z-0.125000
G01 X950.563453 Y808.039836 Z-0.125000
G01 X946.940595 Y814.504164 Z-0.125000
G01 X943.206258 Y820.968492 Z-0.125000
G01 X939.358130 Y827.432792 Z-0.125000
G01 X935.393896 Y833.897120 Z-0.125000
G01 X931.311128 Y840.361449 Z-0.125000
G01 X927.107202 Y846.825749 Z-0.125000
G01 X922.779550 Y853.290077 Z-0.125000
G01 X918.325321 Y859.754405 Z-0.125000
G01 X913.741666 Y866.218705 Z-0.125000
G01 X909.025619 Y872.683034 Z-0.125000
G01 X904.173965 Y879.147362 Z-0.125000
G01 X899.183514 Y885.611662 Z-0.125000
G01 X894.050852 Y892.075990 Z-0.125000
G01 X888.772393 Y898.540318 Z-0.125000
G01 X883.344498 Y905.004618 Z-0.125000
G01 X877.763299 Y911.468947 Z-0.125000
G01 X872.024762 Y917.933275 Z-0.125000
G01 X866.124709 Y924.397603 Z-0.125000
G01 X860.058765 Y930.861903 Z-0.125000
G01 X853.822360 Y937.326231 Z-0.125000
G01 X847.410750 Y943.790560 Z-0.125000
G01 X840.818942 Y950.254860 Z-0.125000
G01 X834.041743 Y956.719188 Z-0.125000
G01 X827.073732 Y963.183516 Z-0.125000
G01 X819.909211 Y969.647816 Z-0.125000
G01 X812.542251 Y976.112145 Z-0.125000
G01 X804.966645 Y982.576473 Z-0.125000
G01 X797.175900 Y989.040801 Z-0.125000
G01 X789.163216 Y995.505101 Z-0.125000
G01 X780.921452 Y1001.969429 Z-0.125000
G01 X772.443158 Y1008.433758 Z-0.125000
G01 X763.720488 Y1014.898058 Z-0.125000
G01 X754.745256 Y1021.362386 Z-0.125000
G01 X745.508829 Y1027.826714 Z-0.125000
G01 X2781.391738 Y1027.826714 Z-0.125000
G01 X2772.155226 Y1021.362386 Z-0.125000
G01 X2763.180108 Y1014.898058 Z-0.125000
G01 X2754.457352 Y1008.433758 Z-0.125000
G01 X2745.979115 Y1001.969429 Z-0.125000
G01 X2737.737323 Y995.505101 Z-0.125000
G01 X2729.724610 Y989.040801 Z-0.125000
G01 X2721.933866 Y982.576473 Z-0.125000
G01 X2714.358203 Y976.112145 Z-0.125000
G01 X2706.991272 Y969.647816 Z-0.125000
G01 X2699.826722 Y963.183516 Z-0.125000
G01 X2692.858740 Y956.719188 Z-0.125000
G01 X2686.081625 Y950.254860 Z-0.125000
G01 X2679.489760 Y943.790560 Z-0.125000
G01 X2673.078151 Y937.326231 Z-0.125000
G01 X2666.841717 Y930.861903 Z-0.125000
G01 X2660.775802 Y924.397603 Z-0.125000
G01 X2654.875721 Y917.933275 Z-0.125000
G01 X2649.137211 Y911.468947 Z-0.125000
G01 X2643.556013 Y905.004618 Z-0.125000
G01 X2638.128089 Y898.540318 Z-0.125000
G01 X2632.849687 Y892.075990 Z-0.125000
G01 X2627.716940 Y885.611662 Z-0.125000
G01 X2622.726573 Y879.147362 Z-0.125000
G01 X2617.874835 Y872.683034 Z-0.125000
G01 X2613.158760 Y866.218705 Z-0.125000
G01 X2608.575133 Y859.754405 Z-0.125000
G01 X2604.120904 Y853.290077 Z-0.125000
G01 X2599.793280 Y846.825749 Z-0.125000
G01 X2595.589411 Y840.361449 Z-0.125000
G01 X2591.506558 Y833.897120 Z-0.125000
G01 X2587.542380 Y827.432792 Z-0.125000
G01 X2583.694280 Y820.968492 Z-0.125000
G01 X2579.959831 Y814.504164 Z-0.125000
G01 X2576.337086 Y808.039836 Z-0.125000
G01 X2572.823532 Y801.575536 Z-0.125000
G01 X2569.417279 Y795.111207 Z-0.125000
G01 X2566.116238 Y788.646907 Z-0.125000
G01 X2562.918604 Y782.182579 Z-0.125000
G01 X2559.822429 Y775.718251 Z-0.125000
G01 X2556.825850 Y769.253951 Z-0.125000
G01 X2553.927512 Y762.789622 Z-0.125000
G01 X2551.125469 Y756.325294 Z-0.125000
G01 X2548.418365 Y749.860994 Z-0.125000
G01 X2545.804564 Y743.396666 Z-0.125000
G01 X2543.282626 Y736.932338 Z-0.125000
G01 X2540.851366 Y730.468038 Z-0.125000
G01 X2538.509289 Y724.003709 Z-0.125000
G01 X2536.255293 Y717.539381 Z-0.125000
G01 X2534.088108 Y711.075053 Z-0.125000
G01 X2532.006578 Y704.610753 Z-0.125000
G01 X2530.009517 Y698.146425 Z-0.125000
G01 X2528.096164 Y691.682096 Z-0.125000
G01 X2526.265219 Y685.217796 Z-0.125000
G01 X2524.515921 Y678.753468 Z-0.125000
G01 X2522.847451 Y672.289140 Z-0.125000
G01 X2521.258653 Y665.824840 Z-0.125000
G01 X2519.749046 Y659.360511 Z-0.125000
G01 X2518.317700 Y652.896183 Z-0.125000
G01 X2516.963823 Y646.431855 Z-0.125000
G01 X2515.687050 Y639.967555 Z-0.125000
G01 X2514.486448 Y633.503227 Z-0.125000
G01 X2513.361398 Y627.038898 Z-0.125000
G01 X2512.311644 Y620.574598 Z-0.125000
G01 X2511.336481 Y614.110270 Z-0.125000
G01 X2510.435346 Y607.645942 Z-0.125000
G01 X2509.607899 Y601.181642 Z-0.125000
G01 X2508.853801 Y594.717313 Z-0.125000
G01 X2508.172657 Y588.253013 Z-0.125000
G01 X2507.564073 Y581.788685 Z-0.125000
G01 X2507.027654 Y575.324365 Z-0.125000
G01 X2506.563426 Y568.860043 Z-0.125000
G01 X2506.170940 Y562.395720 Z-0.125000
G01 X2505.849997 Y555.931409 Z-0.125000
G01 X2505.600597 Y549.467086 Z-0.125000
G01 X2505.422543 Y543.002764 Z-0.125000
G01 X2505.316315 Y536.538455 Z-0.125000
G01 X2505.281319 Y530.074132 Z-0.125000
G01 X2505.316315 Y523.609807 Z-0.125000
G01 X2505.422543 Y517.145484 Z-0.125000
G01 X2505.600597 Y510.681176 Z-0.125000
G01 X2505.849997 Y504.216853 Z-0.125000
G01 X2506.170940 Y497.752531 Z-0.125000
G01 X2506.563426 Y491.288219 Z-0.125000
G01 X2507.027654 Y484.823897 Z-0.125000
G01 X2507.564073 Y478.359574 Z-0.125000
G01 X2508.172657 Y471.895263 Z-0.125000
G01 X2508.853801 Y465.430940 Z-0.125000
G01 X2509.607899 Y458.966618 Z-0.125000
G01 X2510.435346 Y452.502295 Z-0.125000
G01 X2511.336481 Y446.037984 Z-0.125000
G01 X2512.311644 Y439.573661 Z-0.125000
G01 X2513.361539 Y433.109338 Z-0.125000
G01 X2514.486448 Y426.645030 Z-0.125000
G01 X2515.687050 Y420.180704 Z-0.125000
G01 X2516.963964 Y413.716382 Z-0.125000
G01 X2518.317700 Y407.252073 Z-0.125000
G01 X2519.749046 Y400.787751 Z-0.125000
G01 X2521.258653 Y394.323428 Z-0.125000
G01 X2522.847451 Y387.859103 Z-0.125000
G01 X2524.515921 Y381.394794 Z-0.125000
G01 X2526.265219 Y374.930472 Z-0.125000
G01 X2528.096164 Y368.466149 Z-0.125000
G01 X2530.009517 Y362.001838 Z-0.125000
G01 X2532.006578 Y355.537515 Z-0.125000
G01 X2534.088108 Y349.073192 Z-0.125000
G01 X2536.255293 Y342.608884 Z-0.125000
G01 X2538.509402 Y336.144558 Z-0.125000
G01 X2540.851366 Y329.680236 Z-0.125000
G01 X2543.282739 Y323.215914 Z-0.125000
G01 X2545.804564 Y316.751604 Z-0.125000
G01 X2548.418365 Y310.287281 Z-0.125000
G01 X2551.125469 Y303.822958 Z-0.125000
G01 X2553.927512 Y297.358648 Z-0.125000
G01 X2556.825850 Y290.894326 Z-0.125000
G01 X2559.822429 Y284.430000 Z-0.125000
G01 X2562.918604 Y277.965692 Z-0.125000
G01 X2566.116238 Y271.501369 Z-0.125000
G01 X2569.417279 Y265.037046 Z-0.125000
G01 X2572.823532 Y258.572724 Z-0.125000
G01 X2576.337086 Y252.108412 Z-0.125000
G01 X2579.959972 Y245.644090 Z-0.125000
G01 X2583.694280 Y239.179767 Z-0.125000
G01 X2587.542380 Y232.715456 Z-0.125000
G01 X2591.506558 Y226.251133 Z-0.125000
G01 X2595.589411 Y219.786811 Z-0.125000
G01 X2599.793280 Y213.322502 Z-0.125000
G01 X2604.121045 Y206.858177 Z-0.125000
G01 X2608.575246 Y200.393854 Z-0.125000
G01 X2613.158901 Y193.929531 Z-0.125000
G01 X2617.874976 Y187.465223 Z-0.125000
G01 X2622.726573 Y181.000900 Z-0.125000
G01 X2627.717053 Y174.536575 Z-0.125000
G01 X2632.849687 Y168.072266 Z-0.125000
G01 X2638.128089 Y161.607944 Z-0.125000
G01 X2643.556013 Y155.143621 Z-0.125000
G01 X2649.137211 Y148.679310 Z-0.125000
G01 X2654.875721 Y142.214987 Z-0.125000
G01 X2660.775802 Y135.750665 Z-0.125000
G01 X2666.841858 Y129.286342 Z-0.125000
G01 X2673.078151 Y122.822031 Z-0.125000
G01 X2679.489760 Y116.357708 Z-0.125000
G01 X2686.081625 Y109.893385 Z-0.125000
G01 X2692.858881 Y103.429074 Z-0.125000
G01 X2699.826863 Y96.964751 Z-0.125000
G01 X2706.991413 Y90.500429 Z-0.125000
G01 X2714.358344 Y84.036120 Z-0.125000
G01 X2721.933866 Y77.571744 Z-0.125000
G01 X2729.724610 Y71.107526 Z-0.125000
G01 X2737.737323 Y64.643178 Z-0.125000
G01 X2745.979115 Y58.178827 Z-0.125000
G01 X2754.457494 Y51.714479 Z-0.125000
G01 X2763.180108 Y45.250261 Z-0.125000
G01 X2772.155367 Y38.785910 Z-0.125000
G01 X2781.391738 Y32.321573 Z-0.125000
G00 Z5.000000

(Change tool to Default tool)

G00 Z5.000000
G00 X1162.635307 Y123.268701

G01 Z-0.125000 F100.0(Penetrate)
G01 X1165.039446 Y117.934393 Z-0.125000 F400.000000
G01 X1180.993609 Y115.267241 Z-0.125000
G01 X1198.701163 Y115.267241 Z-0.125000
G01 X1218.006913 Y117.934393 Z-0.125000
G01 X1227.000375 Y123.268701 Z-0.125000
G01 X1224.220091 Y128.603006 Z-0.125000
G01 X1214.125595 Y131.270158 Z-0.125000
G01 X1188.307483 Y136.604463 Z-0.125000
G01 X1178.367757 Y139.271618 Z-0.125000
G00 Z5.000000

(Change tool to Default tool)

G00 Z5.000000
G00 X1182.537562 Y136.604463

G01 Z-0.125000 F100.0(Penetrate)
G01 X1179.949669 Y141.938771 Z-0.125000 F400.000000
G01 X1181.513575 Y144.605923 Z-0.125000
G01 X1190.281119 Y149.940228 Z-0.125000
G00 Z5.000000

(Change tool to Default tool)

G00 Z5.000000
G00 X1183.059645 Y147.273076

G01 Z-0.125000 F100.0(Penetrate)
G01 X1201.667149 Y149.940228 Z-0.125000 F400.000000
G01 X1218.746194 Y149.940228 Z-0.125000
G01 X1234.432077 Y147.273076 Z-0.125000
G00 Z5.000000

(Change tool to Default tool)

G00 Z5.000000
G00 X1230.132224 Y149.940228

G01 Z-0.125000 F100.0(Penetrate)
G01 X1233.022828 Y144.605923 Z-0.125000 F400.000000
G01 X1238.746097 Y144.605923 Z-0.125000
G00 Z5.000000

(Change tool to Default tool)

G00 Z5.000000
G00 X1162.635307 Y123.268701

G01 Z-0.125000 F100.0(Penetrate)
G01 X1168.486677 Y123.268701 Z-0.125000 F400.000000
G01 X1170.924739 Y117.934393 Z-0.125000
G00 Z5.000000

(Change tool to Default tool)

G00 Z5.000000
G00 X1166.772911 Y120.601549

G01 Z-0.125000 F100.0(Penetrate)
G01 X1182.695268 Y117.934393 Z-0.125000 F400.000000
G01 X1200.351090 Y117.934393 Z-0.125000
G01 X1219.586934 Y120.601549 Z-0.125000
G00 Z5.000000

(Change tool to Default tool)

G00 Z5.000000
G00 X1212.121648 Y117.934393

G01 Z-0.125000 F100.0(Penetrate)
G01 X1221.149006 Y123.268701 Z-0.125000 F400.000000
G01 X1218.401854 Y128.603006 Z-0.125000
G00 Z5.000000

(Change tool to Default tool)

G00 Z5.000000
G00 X1222.693326 Y125.935853

G01 Z-0.125000 F100.0(Penetrate)
G01 X1212.583617 Y128.603006 Z-0.125000 F400.000000
G01 X1186.720801 Y133.937311 Z-0.125000
G01 X1176.767642 Y136.604463 Z-0.125000
G01 X1174.211047 Y141.938771 Z-0.125000
G01 X1175.790306 Y144.605923 Z-0.125000
G01 X1184.588104 Y149.940228 Z-0.125000
G01 X1203.133576 Y152.607380 Z-0.125000
G01 X1220.168029 Y152.607380 Z-0.125000
G01 X1235.825239 Y149.940228 Z-0.125000
G01 X1238.746097 Y144.605923 Z-0.125000
G00 Z5.000000

(Change tool to Default tool)

G00 Z5.000000
G00 X1264.983338 Y96.597171

G01 Z-0.125000 F100.0(Penetrate)
G01 X1268.560364 Y102.820527 Z-0.125000 F400.000000
G01 X1272.043014 Y109.043882 Z-0.125000
G01 X1275.433886 Y115.267238 Z-0.125000
G01 X1278.735463 Y121.490594 Z-0.125000
G01 X1281.950143 Y127.713949 Z-0.125000
G01 X1285.080185 Y133.937305 Z-0.125000
G01 X1288.127790 Y140.160661 Z-0.125000
G01 X1291.095074 Y146.384016 Z-0.125000
G01 X1293.984042 Y152.607372 Z-0.125000
G01 X1288.305900 Y152.607372 Z-0.125000
G00 Z5.000000

(Change tool to Default tool)

G00 Z5.000000
G00 X1264.983338 Y96.597171

G01 Z-0.125000 F100.0(Penetrate)
G01 X1258.954422 Y96.597171 Z-0.125000 F400.000000
G01 X1262.574712 Y102.820527 Z-0.125000
G01 X1266.099470 Y109.043882 Z-0.125000
G01 X1269.531349 Y115.267238 Z-0.125000
G01 X1272.872860 Y121.490594 Z-0.125000
G01 X1276.126431 Y127.713949 Z-0.125000
G01 X1279.294319 Y133.937305 Z-0.125000
G01 X1282.378810 Y140.160661 Z-0.125000
G01 X1285.381965 Y146.384016 Z-0.125000
G01 X1288.305872 Y152.607372 Z-0.125000
G00 Z5.000000

(Change tool to Default tool)

G00 Z5.000000
G00 X1293.141411 Y115.267241

G01 Z-0.125000 F100.0(Penetrate)
G01 X1251.823796 Y115.267241 Z-0.125000 F400.000000
G01 X1253.318529 Y117.934393 Z-0.125000
G00 Z5.000000

(Change tool to Default tool)

G00 Z5.000000
G00 X1293.141411 Y115.267241

G01 Z-0.125000 F100.0(Penetrate)
G01 X1294.515438 Y117.934393 Z-0.125000 F400.000000
G01 X1253.318529 Y117.934393 Z-0.125000
G00 Z5.000000

(Change tool to Default tool)

G00 Z5.000000
G00 X1326.473662 Y123.268701

G01 Z-0.125000 F100.0(Penetrate)
G01 X1335.712348 Y117.934393 Z-0.125000 F400.000000
G01 X1346.264072 Y115.267241 Z-0.125000
G01 X1363.971626 Y115.267241 Z-0.125000
G01 X1376.909257 Y117.934393 Z-0.125000
G01 X1390.838730 Y123.268701 Z-0.125000
G01 X1395.339046 Y127.269430 Z-0.125000
G01 X1399.787884 Y131.270158 Z-0.125000
G01 X1401.794823 Y136.604463 Z-0.125000
G01 X1400.396976 Y140.605194 Z-0.125000
G01 X1398.997154 Y144.605923 Z-0.125000
G01 X1389.536641 Y149.940228 Z-0.125000
G01 X1379.156367 Y152.607380 Z-0.125000
G01 X1362.121885 Y152.607380 Z-0.125000
G01 X1349.685509 Y149.940228 Z-0.125000
G01 X1336.041362 Y144.605923 Z-0.125000
G00 Z5.000000

(Change tool to Default tool)

G00 Z5.000000
G00 X1326.473662 Y123.268701

G01 Z-0.125000 F100.0(Penetrate)
G01 X1333.552755 Y125.935853 Z-0.125000 F400.000000
G01 X1336.951416 Y120.601549 Z-0.125000
G01 X1347.482905 Y117.934393 Z-0.125000
G01 X1365.138728 Y117.934393 Z-0.125000
G01 X1378.028974 Y120.601549 Z-0.125000
G01 X1384.987360 Y123.268701 Z-0.125000
G01 X1389.512596 Y127.269430 Z-0.125000
G01 X1393.985931 Y131.270158 Z-0.125000
G01 X1396.024902 Y136.604463 Z-0.125000
G01 X1394.650593 Y140.605194 Z-0.125000
G01 X1393.273885 Y144.605923 Z-0.125000
G01 X1388.549315 Y147.273076 Z-0.125000
G01 X1378.150583 Y149.940228 Z-0.125000
G01 X1361.071539 Y149.940228 Z-0.125000
G01 X1348.592998 Y147.273076 Z-0.125000
G01 X1340.631396 Y141.938771 Z-0.125000
G01 X1336.041362 Y144.605923 Z-0.125000
G00 Z5.000000

(Change tool to Default tool)

G00 Z5.000000
G00 X1440.704349 Y115.267241

G01 Z-0.125000 F100.0(Penetrate)
G01 X1442.887818 Y121.490597 Z-0.125000 F400.000000
G01 X1445.013826 Y127.713952 Z-0.125000
G01 X1447.083870 Y133.937308 Z-0.125000
G01 X1449.099360 Y140.160663 Z-0.125000
G01 X1451.061764 Y146.384019 Z-0.125000
G01 X1452.972352 Y152.607375 Z-0.125000
G01 X1447.294210 Y152.607375 Z-0.125000
G00 Z5.000000

(Change tool to Default tool)

G00 Z5.000000
G00 X1440.704349 Y115.267241

G01 Z-0.125000 F100.0(Penetrate)
G01 X1434.801841 Y115.267241 Z-0.125000 F400.000000
G01 X1437.025244 Y121.490597 Z-0.125000
G01 X1439.190114 Y127.713952 Z-0.125000
G01 X1441.298003 Y133.937308 Z-0.125000
G01 X1443.350380 Y140.160663 Z-0.125000
G01 X1445.348683 Y146.384019 Z-0.125000
G01 X1447.294210 Y152.607375 Z-0.125000
G00 Z5.000000

(Change tool to Default tool)

G00 Z5.000000
G00 X1443.501058 Y123.268701

G01 Z-0.125000 F100.0(Penetrate)
G01 X1453.417811 Y117.934393 Z-0.125000 F400.000000
G01 X1464.314411 Y115.267241 Z-0.125000
G01 X1482.021965 Y115.267241 Z-0.125000
G01 X1494.614720 Y117.934393 Z-0.125000
G01 X1507.866098 Y123.268701 Z-0.125000
G01 X1511.867981 Y127.269430 Z-0.125000
G01 X1515.826825 Y131.270158 Z-0.125000
G01 X1517.193373 Y136.604463 Z-0.125000
G01 X1515.324752 Y140.605194 Z-0.125000
G01 X1513.462198 Y144.605923 Z-0.125000
G01 X1503.396912 Y149.940228 Z-0.125000
G01 X1492.719429 Y152.607380 Z-0.125000
G01 X1475.684975 Y152.607380 Z-0.125000
G01 X1463.545807 Y149.940228 Z-0.125000
G01 X1450.506407 Y144.605923 Z-0.125000
G00 Z5.000000

(Change tool to Default tool)

G00 Z5.000000
G00 X1443.501058 Y123.268701

G01 Z-0.125000 F100.0(Penetrate)
G01 X1465.188341 Y117.934393 Z-0.125000 F400.000000
G01 X1482.844163 Y117.934393 Z-0.125000
G01 X1495.393456 Y120.601549 Z-0.125000
G01 X1502.014757 Y123.268701 Z-0.125000
G01 X1506.041531 Y127.269430 Z-0.125000
G01 X1510.024872 Y131.270158 Z-0.125000
G01 X1511.423453 Y136.604463 Z-0.125000
G01 X1509.578369 Y140.605194 Z-0.125000
G01 X1507.738929 Y144.605923 Z-0.125000
G01 X1502.710265 Y147.273076 Z-0.125000
G01 X1492.010882 Y149.940228 Z-0.125000
G01 X1474.931837 Y149.940228 Z-0.125000
G01 X1450.506407 Y144.605923 Z-0.125000
G00 Z5.000000

(Change tool to Default tool)

G00 Z5.000000
G00 X1608.631511 Y96.597171

G01 Z-0.125000 F100.0(Penetrate)
G01 X1609.742479 Y102.820527 Z-0.125000 F400.000000
G01 X1610.824180 Y109.043882 Z-0.125000
G01 X1611.877349 Y115.267238 Z-0.125000
G01 X1612.902775 Y121.490594 Z-0.125000
G01 X1613.901221 Y127.713949 Z-0.125000
G01 X1614.873364 Y133.937305 Z-0.125000
G01 X1615.819937 Y140.160661 Z-0.125000
G01 X1616.741534 Y146.384016 Z-0.125000
G01 X1617.638831 Y152.607372 Z-0.125000
G00 Z5.000000

(Change tool to Default tool)

G00 Z5.000000
G00 X1603.101056 Y99.264324

G01 Z-0.125000 F100.0(Penetrate)
G01 X1604.188487 Y105.191332 Z-0.125000 F400.000000
G01 X1605.248598 Y111.118337 Z-0.125000
G01 X1606.282124 Y117.045343 Z-0.125000
G01 X1607.289686 Y122.972348 Z-0.125000
G01 X1608.271988 Y128.899353 Z-0.125000
G01 X1609.229625 Y134.826359 Z-0.125000
G01 X1610.163244 Y140.753364 Z-0.125000
G01 X1611.073411 Y146.680369 Z-0.125000
G01 X1611.960661 Y152.607375 Z-0.125000
G01 X1617.638831 Y152.607375 Z-0.125000
G00 Z5.000000

(Change tool to Default tool)

G00 Z5.000000
G00 X1608.631511 Y96.597171

G01 Z-0.125000 F100.0(Penetrate)
G01 X1536.284521 Y96.597171 Z-0.125000 F400.000000
G00 Z5.000000

(Change tool to Default tool)

G00 Z5.000000
G00 X1603.101056 Y99.264324

G01 Z-0.125000 F100.0(Penetrate)
G01 X1536.988496 Y99.264324 Z-0.125000 F400.000000
G01 X1536.284521 Y96.597171 Z-0.125000
G00 Z5.000000

(Change tool to Default tool)

G00 Z5.000000
G00 X1607.339385 Y123.268701

G01 Z-0.125000 F100.0(Penetrate)
G01 X1572.231166 Y123.268701 Z-0.125000 F400.000000
G01 X1572.775714 Y125.935853 Z-0.125000
G00 Z5.000000

(Change tool to Default tool)

G00 Z5.000000
G00 X1607.783941 Y125.935853

G01 Z-0.125000 F100.0(Penetrate)
G01 X1572.775714 Y125.935853 Z-0.125000 F400.000000
G00 Z5.000000

(Change tool to Default tool)

G00 Z5.000000
G00 X1824.367936 Y115.267241

G01 Z-0.125000 F100.0(Penetrate)
G01 X1823.955807 Y121.490597 Z-0.125000 F400.000000
G01 X1823.554544 Y127.713952 Z-0.125000
G01 X1823.163807 Y133.937308 Z-0.125000
G01 X1822.783400 Y140.160663 Z-0.125000
G01 X1822.412983 Y146.384019 Z-0.125000
G01 X1822.052359 Y152.607375 Z-0.125000
G01 X1816.374218 Y152.607375 Z-0.125000
G00 Z5.000000

(Change tool to Default tool)

G00 Z5.000000
G00 X1824.367936 Y115.267241

G01 Z-0.125000 F100.0(Penetrate)
G01 X1818.465428 Y115.267241 Z-0.125000 F400.000000
G01 X1818.093233 Y121.490597 Z-0.125000
G01 X1817.730832 Y127.713952 Z-0.125000
G01 X1817.377969 Y133.937308 Z-0.125000
G01 X1817.034420 Y140.160663 Z-0.125000
G01 X1816.699902 Y146.384019 Z-0.125000
G01 X1816.374218 Y152.607375 Z-0.125000
G00 Z5.000000

(Change tool to Default tool)

G00 Z5.000000
G00 X1817.833391 Y125.935853

G01 Z-0.125000 F100.0(Penetrate)
G01 X1809.277373 Y121.935125 Z-0.125000 F400.000000
G01 X1800.648880 Y117.934393 Z-0.125000
G01 X1788.952829 Y115.267241 Z-0.125000
G01 X1771.245275 Y115.267241 Z-0.125000
G01 X1759.451971 Y117.934393 Z-0.125000
G01 X1756.539409 Y121.935125 Z-0.125000
G01 X1753.651627 Y125.935853 Z-0.125000
G01 X1753.706632 Y131.270158 Z-0.125000
G01 X1753.760395 Y136.604463 Z-0.125000
G01 X1753.812945 Y141.938771 Z-0.125000
G01 X1753.864338 Y147.273076 Z-0.125000
G01 X1753.914517 Y152.607380 Z-0.125000
G00 Z5.000000

(Change tool to Default tool)

G00 Z5.000000
G00 X1817.833391 Y125.935853

G01 Z-0.125000 F100.0(Penetrate)
G01 X1800.541128 Y120.601549 Z-0.125000 F400.000000
G01 X1788.878322 Y117.934393 Z-0.125000
G01 X1777.107793 Y117.934393 Z-0.125000
G01 X1765.331788 Y120.601549 Z-0.125000
G01 X1759.486317 Y125.935853 Z-0.125000
G01 X1759.508613 Y131.270158 Z-0.125000
G01 X1759.530344 Y136.604463 Z-0.125000
G01 X1759.551510 Y141.938771 Z-0.125000
G01 X1759.572395 Y147.273076 Z-0.125000
G01 X1759.592715 Y152.607380 Z-0.125000
G01 X1753.914545 Y152.607380 Z-0.125000
G00 Z5.000000

(Change tool to Default tool)

G00 Z5.000000
G00 X1912.905761 Y115.267241

G01 Z-0.125000 F100.0(Penetrate)
G01 X1924.239665 Y117.934393 Z-0.125000 F400.000000
G01 X1935.016151 Y123.268701 Z-0.125000
G01 X1937.198603 Y127.269430 Z-0.125000
G01 X1939.368977 Y131.270158 Z-0.125000
G01 X1938.398133 Y136.604463 Z-0.125000
G01 X1934.811257 Y140.605194 Z-0.125000
G01 X1931.259660 Y144.605923 Z-0.125000
G01 X1918.987057 Y149.940228 Z-0.125000
G01 X1907.224741 Y152.607380 Z-0.125000
G01 X1890.190287 Y152.607380 Z-0.125000
G01 X1879.135953 Y149.940228 Z-0.125000
G01 X1868.303897 Y144.605923 Z-0.125000
G01 X1865.854575 Y140.605194 Z-0.125000
G01 X1863.389082 Y136.604463 Z-0.125000
G01 X1863.943677 Y131.270158 Z-0.125000
G01 X1867.281237 Y127.269430 Z-0.125000
G01 X1870.651083 Y123.268701 Z-0.125000
G01 X1883.042755 Y117.934393 Z-0.125000
G01 X1895.198207 Y115.267241 Z-0.125000
G01 X1912.905733 Y115.267241 Z-0.125000
G00 Z5.000000

(Change tool to Default tool)

G00 Z5.000000
G00 X1912.469107 Y117.934393

G01 Z-0.125000 F100.0(Penetrate)
G01 X1923.773885 Y120.601549 Z-0.125000 F400.000000
G01 X1929.164781 Y123.268701 Z-0.125000
G01 X1931.372154 Y127.269430 Z-0.125000
G01 X1933.567053 Y131.270158 Z-0.125000
G01 X1932.628212 Y136.604463 Z-0.125000
G01 X1929.064874 Y140.605194 Z-0.125000
G01 X1925.536419 Y144.605923 Z-0.125000
G01 X1919.397747 Y147.273076 Z-0.125000
G01 X1907.601028 Y149.940228 Z-0.125000
G01 X1890.521983 Y149.940228 Z-0.125000
G01 X1879.441402 Y147.273076 Z-0.125000
G01 X1874.027138 Y144.605923 Z-0.125000
G01 X1871.600958 Y140.605194 Z-0.125000
G01 X1869.159002 Y136.604463 Z-0.125000
G01 X1869.745629 Y131.270158 Z-0.125000
G01 X1873.107686 Y127.269430 Z-0.125000
G01 X1876.502453 Y123.268701 Z-0.125000
G01 X1882.696299 Y120.601549 Z-0.125000
G01 X1894.813285 Y117.934393 Z-0.125000
G01 X1912.469107 Y117.934393 Z-0.125000
G00 Z5.000000

(Change tool to Default tool)

G00 Z5.000000
G00 X1994.482151 Y96.597171

G01 Z-0.125000 F100.0(Penetrate)
G01 X1999.776415 Y99.264324 Z-0.125000 F400.000000
G01 X1999.050144 Y101.931479 Z-0.125000
G01 X1992.358655 Y104.598631 Z-0.125000
G01 X1986.385139 Y104.598631 Z-0.125000
G01 X1981.074846 Y101.931479 Z-0.125000
G01 X1981.745716 Y99.264324 Z-0.125000
G01 X1988.453207 Y96.597171 Z-0.125000
G01 X1994.482123 Y96.597171 Z-0.125000
G00 Z5.000000

(Change tool to Default tool)

G00 Z5.000000
G00 X1993.766182 Y99.264324

G01 Z-0.125000 F100.0(Penetrate)
G01 X1993.058368 Y101.931479 Z-0.125000 F400.000000
G01 X1987.066621 Y101.931479 Z-0.125000
G01 X1987.755949 Y99.264324 Z-0.125000
G01 X1993.766182 Y99.264324 Z-0.125000
G00 Z5.000000

(Change tool to Default tool)

G00 Z5.000000
G00 X1989.638456 Y115.267241

G01 Z-0.125000 F100.0(Penetrate)
G01 X1988.108247 Y121.490597 Z-0.125000 F400.000000
G01 X1986.618283 Y127.713952 Z-0.125000
G01 X1985.167548 Y133.937308 Z-0.125000
G01 X1983.755026 Y140.160663 Z-0.125000
G01 X1982.379729 Y146.384019 Z-0.125000
G01 X1981.040754 Y152.607375 Z-0.125000
G01 X1975.362583 Y152.607375 Z-0.125000
G00 Z5.000000

(Change tool to Default tool)

G00 Z5.000000
G00 X1989.638456 Y115.267241

G01 Z-0.125000 F100.0(Penetrate)
G01 X1983.735948 Y115.267241 Z-0.125000 F400.000000
G01 X1982.245645 Y121.490597 Z-0.125000
G01 X1980.794571 Y127.713952 Z-0.125000
G01 X1979.381710 Y133.937308 Z-0.125000
G01 X1978.006046 Y140.160663 Z-0.125000
G01 X1976.666648 Y146.384019 Z-0.125000
G01 X1975.362583 Y152.607375 Z-0.125000
G00 Z5.000000

(Change tool to Default tool)

G00 Z5.000000
G00 X2054.771281 Y96.597171

G01 Z-0.125000 F100.0(Penetrate)
G01 X2052.680748 Y102.820527 Z-0.125000 F400.000000
G01 X2050.645390 Y109.043882 Z-0.125000
G01 X2048.663625 Y115.267238 Z-0.125000
G01 X2046.734072 Y121.490594 Z-0.125000
G01 X2044.855319 Y127.713949 Z-0.125000
G01 X2043.026011 Y133.937305 Z-0.125000
G01 X2041.244878 Y140.160661 Z-0.125000
G01 X2039.510679 Y146.384016 Z-0.125000
G01 X2037.822285 Y152.607372 Z-0.125000
G01 X2032.144114 Y152.607372 Z-0.125000
G00 Z5.000000

(Change tool to Default tool)

G00 Z5.000000
G00 X2054.771281 Y96.597171

G01 Z-0.125000 F100.0(Penetrate)
G01 X2048.742365 Y96.597171 Z-0.125000 F400.000000
G01 X2046.695097 Y102.820527 Z-0.125000
G01 X2044.701846 Y109.043882 Z-0.125000
G01 X2042.761117 Y115.267238 Z-0.125000
G01 X2040.871498 Y121.490594 Z-0.125000
G01 X2039.031607 Y127.713949 Z-0.125000
G01 X2037.240173 Y133.937305 Z-0.125000
G01 X2035.495899 Y140.160661 Z-0.125000
G01 X2033.797598 Y146.384016 Z-0.125000
G01 X2032.144143 Y152.607372 Z-0.125000
G00 Z5.000000

(Change tool to Default tool)

G00 Z5.000000
G00 X2066.371179 Y115.267241

G01 Z-0.125000 F100.0(Penetrate)
G01 X2025.053563 Y115.267241 Z-0.125000 F400.000000
G01 X2024.289277 Y117.934393 Z-0.125000
G00 Z5.000000

(Change tool to Default tool)

G00 Z5.000000
G00 X2066.371179 Y115.267241

G01 Z-0.125000 F100.0(Penetrate)
G01 X2065.486187 Y117.934393 Z-0.125000 F400.000000
G01 X2024.289277 Y117.934393 Z-0.125000
G00 Z5.000000

(Change tool to Default tool)

G00 Z5.000000
G00 X2115.060439 Y96.597171

G01 Z-0.125000 F100.0(Penetrate)
G01 X2119.981040 Y99.264324 Z-0.125000 F400.000000
G01 X2118.885369 Y101.931479 Z-0.125000
G01 X2111.828685 Y104.598631 Z-0.125000
G01 X2105.855169 Y104.598631 Z-0.125000
G01 X2100.910071 Y101.931479 Z-0.125000
G01 X2101.950342 Y99.264324 Z-0.125000
G01 X2109.031524 Y96.597171 Z-0.125000
G01 X2115.060439 Y96.597171 Z-0.125000
G00 Z5.000000

(Change tool to Default tool)

G00 Z5.000000
G00 X2113.970808 Y99.264324

G01 Z-0.125000 F100.0(Penetrate)
G01 X2112.893622 Y101.931479 Z-0.125000 F400.000000
G01 X2106.901790 Y101.931479 Z-0.125000
G01 X2107.960518 Y99.264324 Z-0.125000
G01 X2113.970751 Y99.264324 Z-0.125000
G00 Z5.000000

(Change tool to Default tool)

G00 Z5.000000
G00 X2107.688738 Y115.267241

G01 Z-0.125000 F100.0(Penetrate)
G01 X2105.359869 Y121.490597 Z-0.125000 F400.000000
G01 X2103.092298 Y127.713952 Z-0.125000
G01 X2100.884417 Y133.937308 Z-0.125000
G01 X2098.734674 Y140.160663 Z-0.125000
G01 X2096.641601 Y146.384019 Z-0.125000
G01 X2094.603759 Y152.607375 Z-0.125000
G01 X2088.925617 Y152.607375 Z-0.125000
G00 Z5.000000

(Change tool to Default tool)

G00 Z5.000000
G00 X2107.688738 Y115.267241

G01 Z-0.125000 F100.0(Penetrate)
G01 X2101.786230 Y115.267241 Z-0.125000 F400.000000
G01 X2099.497295 Y121.490597 Z-0.125000
G01 X2097.268586 Y127.713952 Z-0.125000
G01 X2095.098551 Y133.937308 Z-0.125000
G01 X2092.985694 Y140.160663 Z-0.125000
G01 X2090.928492 Y146.384019 Z-0.125000
G01 X2088.925617 Y152.607375 Z-0.125000
G00 Z5.000000

(Change tool to Default tool)

G00 Z5.000000
G00 X2190.323998 Y115.267241

G01 Z-0.125000 F100.0(Penetrate)
G01 X2187.436047 Y121.490597 Z-0.125000 F400.000000
G01 X2184.624125 Y127.713952 Z-0.125000
G01 X2181.886259 Y133.937308 Z-0.125000
G01 X2179.220473 Y140.160663 Z-0.125000
G01 X2176.624932 Y146.384019 Z-0.125000
G01 X2174.097914 Y152.607375 Z-0.125000
G01 X2168.419772 Y152.607375 Z-0.125000
G00 Z5.000000

(Change tool to Default tool)

G00 Z5.000000
G00 X2190.323998 Y115.267241

G01 Z-0.125000 F100.0(Penetrate)
G01 X2184.421462 Y115.267241 Z-0.125000 F400.000000
G01 X2181.573472 Y121.490597 Z-0.125000
G01 X2178.800442 Y127.713952 Z-0.125000
G01 X2176.100393 Y133.937308 Z-0.125000
G01 X2173.471493 Y140.160663 Z-0.125000
G01 X2170.911851 Y146.384019 Z-0.125000
G01 X2168.419772 Y152.607375 Z-0.125000
G00 Z5.000000

(Change tool to Default tool)

G00 Z5.000000
G00 X2177.248727 Y131.270158

G01 Z-0.125000 F100.0(Penetrate)
G01 X2176.082839 Y127.269430 Z-0.125000 F400.000000
G01 X2174.922228 Y123.268701 Z-0.125000
G01 X2165.535771 Y117.934393 Z-0.125000
G01 X2154.908891 Y115.267241 Z-0.125000
G01 X2137.201337 Y115.267241 Z-0.125000
G00 Z5.000000

(Change tool to Default tool)

G00 Z5.000000
G00 X2177.248727 Y131.270158

G01 Z-0.125000 F100.0(Penetrate)
G01 X2173.750498 Y125.935853 Z-0.125000 F400.000000
G01 X2164.371012 Y120.601549 Z-0.125000
G01 X2153.765214 Y117.934393 Z-0.125000
G01 X2136.109420 Y117.934393 Z-0.125000
G01 X2137.201337 Y115.267241 Z-0.125000
G00 Z5.000000

(Change tool to Default tool)

G00 Z5.000000
G00 X2259.754362 Y96.597171

G01 Z-0.125000 F100.0(Penetrate)
G01 X2256.192859 Y102.820527 Z-0.125000 F400.000000
G01 X2252.725308 Y109.043882 Z-0.125000
G01 X2249.349168 Y115.267238 Z-0.125000
G01 X2246.061900 Y121.490594 Z-0.125000
G01 X2242.861161 Y127.713949 Z-0.125000
G01 X2239.744694 Y133.937305 Z-0.125000
G01 X2236.710325 Y140.160661 Z-0.125000
G01 X2233.755910 Y146.384016 Z-0.125000
G01 X2230.879473 Y152.607372 Z-0.125000
G01 X2225.201331 Y152.607372 Z-0.125000
G00 Z5.000000

(Change tool to Default tool)

G00 Z5.000000
G00 X2259.754362 Y96.597171

G01 Z-0.125000 F100.0(Penetrate)
G01 X2253.725447 Y96.597171 Z-0.125000 F400.000000
G01 X2250.207208 Y102.820527 Z-0.125000
G01 X2246.781792 Y109.043882 Z-0.125000
G01 X2243.446631 Y115.267238 Z-0.125000
G01 X2240.199326 Y121.490594 Z-0.125000
G01 X2237.037477 Y127.713949 Z-0.125000
G01 X2233.958856 Y133.937305 Z-0.125000
G01 X2230.961317 Y140.160661 Z-0.125000
G01 X2228.042801 Y146.384016 Z-0.125000
G01 X2225.201331 Y152.607372 Z-0.125000
G00 Z5.000000

(Change tool to Default tool)

G00 Z5.000000
G00 X2267.056693 Y115.267241

G01 Z-0.125000 F100.0(Penetrate)
G01 X2225.739077 Y115.267241 Z-0.125000 F400.000000
G01 X2224.388503 Y117.934393 Z-0.125000
G00 Z5.000000

(Change tool to Default tool)

G00 Z5.000000
G00 X2267.056693 Y115.267241

G01 Z-0.125000 F100.0(Penetrate)
G01 X2265.585412 Y117.934393 Z-0.125000 F400.000000
G01 X2224.388503 Y117.934393 Z-0.125000
G00 Z5.000000

(Change tool to Default tool)

G00 Z5.000000
G00 X2373.302015 Y115.267241

G01 Z-0.125000 F100.0(Penetrate)
G01 X2369.758856 Y120.601549 Z-0.125000 F400.000000
G01 X2366.295792 Y125.935853 Z-0.125000
G01 X2362.911044 Y131.270158 Z-0.125000
G01 X2359.602807 Y136.604463 Z-0.125000
G01 X2356.369415 Y141.938771 Z-0.125000
G01 X2351.134673 Y145.939499 Z-0.125000
G01 X2345.963092 Y149.940228 Z-0.125000
G01 X2333.086223 Y152.607380 Z-0.125000
G01 X2316.051769 Y152.607380 Z-0.125000
G01 X2306.111987 Y149.940228 Z-0.125000
G01 X2299.694028 Y145.939499 Z-0.125000
G01 X2293.244432 Y141.938771 Z-0.125000
G00 Z5.000000

(Change tool to Default tool)

G00 Z5.000000
G00 X2373.302015 Y115.267241

G01 Z-0.125000 F100.0(Penetrate)
G01 X2367.399478 Y115.267241 Z-0.125000 F400.000000
G01 X2363.890638 Y120.601549 Z-0.125000
G01 X2360.461102 Y125.935853 Z-0.125000
G01 X2357.109092 Y131.270158 Z-0.125000
G01 X2353.832887 Y136.604463 Z-0.125000
G01 X2350.630793 Y141.938771 Z-0.125000
G01 X2341.793146 Y147.273076 Z-0.125000
G01 X2328.884047 Y149.940228 Z-0.125000
G01 X2317.498017 Y149.940228 Z-0.125000
G01 X2307.544858 Y147.273076 Z-0.125000
G01 X2293.244460 Y141.938771 Z-0.125000
G00 Z5.000000

(Change tool to Default tool)

G00 Z5.000000
G00 X2308.374309 Y115.267241

G01 Z-0.125000 F100.0(Penetrate)
G01 X2304.687753 Y121.490597 Z-0.125000 F400.000000
G01 X2301.098197 Y127.713952 Z-0.125000
G01 X2297.603157 Y133.937308 Z-0.125000
G01 X2294.200178 Y140.160663 Z-0.125000
G01 X2290.886860 Y146.384019 Z-0.125000
G01 X2287.661004 Y152.607375 Z-0.125000
G01 X2281.982862 Y152.607375 Z-0.125000
G00 Z5.000000

(Change tool to Default tool)

G00 Z5.000000
G00 X2308.374309 Y115.267241

G01 Z-0.125000 F100.0(Penetrate)
G01 X2302.471801 Y115.267241 Z-0.125000 F400.000000
G01 X2298.825151 Y121.490597 Z-0.125000
G01 X2295.274513 Y127.713952 Z-0.125000
G01 X2291.817319 Y133.937308 Z-0.125000
G01 X2288.451170 Y140.160663 Z-0.125000
G01 X2285.173780 Y146.384019 Z-0.125000
G01 X2281.982862 Y152.607375 Z-0.125000
G00 Z5.000000

(Change tool to Default tool)

G00 Z5.000000
G00 X2518.997714 Y96.597171

G01 Z-0.125000 F100.0(Penetrate)
G01 X2513.575858 Y102.820527 Z-0.125000 F400.000000
G01 X2508.297061 Y109.043882 Z-0.125000
G01 X2503.157371 Y115.267238 Z-0.125000
G01 X2498.153035 Y121.490594 Z-0.125000
G01 X2493.280412 Y127.713949 Z-0.125000
G01 X2488.536058 Y133.937305 Z-0.125000
G01 X2483.916645 Y140.160661 Z-0.125000
G01 X2479.419011 Y146.384016 Z-0.125000
G01 X2475.040079 Y152.607372 Z-0.125000
G00 Z5.000000

(Change tool to Default tool)

G00 Z5.000000
G00 X2506.079726 Y104.598631

G01 Z-0.125000 F100.0(Penetrate)
G01 X2501.066076 Y110.599726 Z-0.125000 F400.000000
G01 X2496.179878 Y116.600817 Z-0.125000
G01 X2491.417801 Y122.601911 Z-0.125000
G01 X2486.776629 Y128.603006 Z-0.125000
G01 X2482.253368 Y134.604100 Z-0.125000
G01 X2477.845001 Y140.605194 Z-0.125000
G01 X2473.548788 Y146.606286 Z-0.125000
G01 X2469.361937 Y152.607380 Z-0.125000
G01 X2475.040079 Y152.607380 Z-0.125000
G00 Z5.000000

(Change tool to Default tool)

G00 Z5.000000
G00 X2506.079726 Y104.598631

G01 Z-0.125000 F100.0(Penetrate)
G01 X2491.424688 Y110.599726 Z-0.125000 F400.000000
G01 X2477.024807 Y116.600817 Z-0.125000
G01 X2462.871898 Y122.601911 Z-0.125000
G01 X2448.958117 Y128.603006 Z-0.125000
G01 X2435.275842 Y134.604100 Z-0.125000
G01 X2421.817709 Y140.605194 Z-0.125000
G01 X2408.576689 Y146.606286 Z-0.125000
G01 X2395.545924 Y152.607380 Z-0.125000
G00 Z5.000000

(Change tool to Default tool)

G00 Z5.000000
G00 X2518.997714 Y96.597171

G01 Z-0.125000 F100.0(Penetrate)
G01 X2504.037848 Y102.598266 Z-0.125000 F400.000000
G01 X2489.343355 Y108.599360 Z-0.125000
G01 X2474.905572 Y114.600454 Z-0.125000
G01 X2460.716341 Y120.601549 Z-0.125000
G01 X2446.767621 Y126.602640 Z-0.125000
G01 X2433.051818 Y132.603734 Z-0.125000
G01 X2419.561511 Y138.604829 Z-0.125000
G01 X2406.289560 Y144.605923 Z-0.125000
G00 Z5.000000

(Change tool to Default tool)

G00 Z5.000000
G00 X2440.621809 Y96.597171

G01 Z-0.125000 F100.0(Penetrate)
G01 X2435.933731 Y102.598266 Z-0.125000 F400.000000
G01 X2431.364948 Y108.599360 Z-0.125000
G01 X2426.912356 Y114.600454 Z-0.125000
G01 X2422.572879 Y120.601549 Z-0.125000
G01 X2418.343610 Y126.602640 Z-0.125000
G01 X2414.221726 Y132.603734 Z-0.125000
G01 X2410.204575 Y138.604829 Z-0.125000
G01 X2406.289532 Y144.605923 Z-0.125000
G00 Z5.000000

(Change tool to Default tool)

G00 Z5.000000
G00 X2440.621809 Y96.597171

G01 Z-0.125000 F100.0(Penetrate)
G01 X2434.592893 Y96.597171 Z-0.125000 F400.000000
G01 X2429.776742 Y102.820527 Z-0.125000
G01 X2425.087648 Y109.043882 Z-0.125000
G01 X2420.522139 Y115.267238 Z-0.125000
G01 X2416.076829 Y121.490594 Z-0.125000
G01 X2411.748556 Y127.713949 Z-0.125000
G01 X2407.534216 Y133.937305 Z-0.125000
G01 X2403.430874 Y140.160661 Z-0.125000
G01 X2399.435680 Y146.384016 Z-0.125000
G01 X2395.545924 Y152.607372 Z-0.125000
G00 Z5.000000

(Change tool to Default tool)

G00 Z5.000000
G00 X1392.803561 Y170.918009

G01 Z-0.125000 F100.0(Penetrate)
G01 X1388.372475 Y174.059097 Z-0.125000 F400.000000
G01 X1384.491270 Y178.770730 Z-0.125000
G01 X1381.149533 Y185.052903 Z-0.125000
G01 X1381.094387 Y188.979263 Z-0.125000
G01 X1381.026174 Y192.905621 Z-0.125000
G01 X1383.039124 Y199.187797 Z-0.125000
G01 X1385.608052 Y203.114155 Z-0.125000
G01 X1388.147149 Y207.040515 Z-0.125000
G01 X1395.336139 Y213.322688 Z-0.125000
G01 X1401.982500 Y218.034321 Z-0.125000
G01 X1408.136074 Y221.175409 Z-0.125000
G00 Z5.000000

(Change tool to Default tool)

G00 Z5.000000
G00 X1417.442860 Y188.193991

G01 Z-0.125000 F100.0(Penetrate)
G01 X1419.294858 Y194.476165 Z-0.125000 F400.000000
G01 X1421.096226 Y200.758341 Z-0.125000
G01 X1422.848177 Y207.040515 Z-0.125000
G01 X1424.551699 Y213.322688 Z-0.125000
G01 X1428.444390 Y218.034321 Z-0.125000
G01 X1431.493801 Y219.604865 Z-0.125000
G01 X1437.173777 Y221.175409 Z-0.125000
G01 X1445.093159 Y221.175409 Z-0.125000
G01 X1449.994653 Y219.604865 Z-0.125000
G00 Z5.000000

(Change tool to Default tool)

G00 Z5.000000
G00 X1418.836642 Y192.905621

G01 Z-0.125000 F100.0(Penetrate)
G01 X1423.326685 Y189.764535 Z-0.125000 F400.000000
G01 X1428.289563 Y188.193991 Z-0.125000
G01 X1436.424562 Y188.193991 Z-0.125000
G01 X1442.282705 Y189.764535 Z-0.125000
G01 X1448.544878 Y192.905621 Z-0.125000
G01 X1452.482386 Y197.617253 Z-0.125000
G01 X1453.292702 Y200.758341 Z-0.125000
G01 X1451.814535 Y205.469971 Z-0.125000
G01 X1447.271971 Y208.611059 Z-0.125000
G01 X1442.344032 Y210.181603 Z-0.125000
G01 X1434.356268 Y210.181603 Z-0.125000
G01 X1428.610421 Y208.611059 Z-0.125000
G01 X1422.414768 Y205.469971 Z-0.125000
G00 Z5.000000

(Change tool to Default tool)

G00 Z5.000000
G00 X1485.266025 Y177.200185

G01 Z-0.125000 F100.0(Penetrate)
G01 X1493.859466 Y178.770730 Z-0.125000 F400.000000
G01 X1500.427482 Y183.482359 Z-0.125000
G01 X1502.683426 Y187.408719 Z-0.125000
G01 X1504.914900 Y191.335077 Z-0.125000
G01 X1505.944786 Y196.046709 Z-0.125000
G01 X1505.444434 Y199.973069 Z-0.125000
G01 X1504.938240 Y203.899427 Z-0.125000
G01 X1500.590691 Y208.611059 Z-0.125000
G01 X1492.933184 Y210.181603 Z-0.125000
G01 X1487.608018 Y210.181603 Z-0.125000
G01 X1479.263214 Y208.611059 Z-0.125000
G01 X1472.824709 Y203.899427 Z-0.125000
G01 X1470.542265 Y199.973069 Z-0.125000
G01 X1468.234534 Y196.046709 Z-0.125000
G01 X1467.053801 Y191.335077 Z-0.125000
G01 X1467.407764 Y187.408719 Z-0.125000
G01 X1467.753628 Y183.482359 Z-0.125000
G01 X1471.985832 Y178.770730 Z-0.125000
G01 X1479.789926 Y177.200185 Z-0.125000
G01 X1485.266025 Y177.200185 Z-0.125000
G00 Z5.000000

(Change tool to Default tool)

G00 Z5.000000
G00 X1523.598745 Y177.200185

G01 Z-0.125000 F100.0(Penetrate)
G01 X1550.979268 Y177.200185 Z-0.125000 F400.000000
G01 X1552.777532 Y181.911815 Z-0.125000
G01 X1554.550198 Y186.623447 Z-0.125000
G01 X1556.297802 Y191.335077 Z-0.125000
G01 X1553.310903 Y189.764535 Z-0.125000
G01 X1544.891396 Y188.193991 Z-0.125000
G01 X1536.756397 Y188.193991 Z-0.125000
G01 X1528.938870 Y189.764535 Z-0.125000
G01 X1524.165786 Y192.905621 Z-0.125000
G01 X1522.423657 Y197.617253 Z-0.125000
G01 X1523.051714 Y200.758341 Z-0.125000
G01 X1526.650301 Y205.469971 Z-0.125000
G01 X1532.581935 Y208.611059 Z-0.125000
G01 X1540.859739 Y210.181603 Z-0.125000
G01 X1548.847503 Y210.181603 Z-0.125000
G01 X1556.575368 Y208.611059 Z-0.125000
G01 X1558.982949 Y207.040515 Z-0.125000
G01 X1561.136898 Y203.899427 Z-0.125000
G00 Z5.000000

(Change tool to Default tool)

G00 Z5.000000
G00 X1571.794314 Y170.918009

G01 Z-0.125000 F100.0(Penetrate)
G01 X1577.834378 Y174.059097 Z-0.125000 F400.000000
G01 X1584.088225 Y178.770730 Z-0.125000
G01 X1590.518630 Y185.052903 Z-0.125000
G01 X1592.461504 Y188.979263 Z-0.125000
G01 X1594.385244 Y192.905621 Z-0.125000
G01 X1595.275147 Y199.187797 Z-0.125000
G01 X1594.479986 Y203.114155 Z-0.125000
G01 X1593.683950 Y207.040515 Z-0.125000
G01 X1589.221141 Y213.322688 Z-0.125000
G01 X1584.569583 Y218.034321 Z-0.125000
G01 X1579.722529 Y221.175409 Z-0.125000
G00 Z5.000000

(Change tool to Default tool)

G00 Z5.000000
G00 X1658.781582 Y188.193991

G01 Z-0.125000 F100.0(Penetrate)
G01 X1659.341793 Y194.476165 Z-0.125000 F400.000000
G01 X1659.886736 Y200.758341 Z-0.125000
G01 X1660.416693 Y207.040515 Z-0.125000
G01 X1660.932031 Y213.322688 Z-0.125000
G01 X1663.955280 Y218.034321 Z-0.125000
G01 X1666.718969 Y219.604865 Z-0.125000
G01 X1672.115227 Y221.175409 Z-0.125000
G01 X1680.034609 Y221.175409 Z-0.125000
G01 X1685.219821 Y219.604865 Z-0.125000
G00 Z5.000000

(Change tool to Default tool)

G00 Z5.000000
G00 X1659.203194 Y192.905621

G01 Z-0.125000 F100.0(Penetrate)
G01 X1664.339102 Y189.764535 Z-0.125000 F400.000000
G01 X1669.628257 Y188.193991 Z-0.125000
G01 X1677.763256 Y188.193991 Z-0.125000
G01 X1683.295122 Y189.764535 Z-0.125000
G01 X1688.911429 Y192.905621 Z-0.125000
G01 X1691.896747 Y197.617253 Z-0.125000
G01 X1692.083212 Y200.758341 Z-0.125000
G01 X1689.685367 Y205.469971 Z-0.125000
G01 X1684.540315 Y208.611059 Z-0.125000
G01 X1679.314265 Y210.181603 Z-0.125000
G01 X1671.326529 Y210.181603 Z-0.125000
G01 X1665.878765 Y208.611059 Z-0.125000
G01 X1660.285601 Y205.469971 Z-0.125000
G00 Z5.000000

(Change tool to Default tool)

G00 Z5.000000
G00 X1710.303309 Y188.193991

G01 Z-0.125000 F100.0(Penetrate)
G01 X1710.587789 Y194.476165 Z-0.125000 F400.000000
G01 X1710.864480 Y200.758341 Z-0.125000
G01 X1711.133579 Y207.040515 Z-0.125000
G01 X1711.395227 Y213.322688 Z-0.125000
G01 X1714.232887 Y218.034321 Z-0.125000
G01 X1716.935588 Y219.604865 Z-0.125000
G01 X1722.271281 Y221.175409 Z-0.125000
G01 X1730.190634 Y221.175409 Z-0.125000
G01 X1735.436440 Y219.604865 Z-0.125000
G00 Z5.000000

(Change tool to Default tool)

G00 Z5.000000
G00 X1710.517403 Y192.905621

G01 Z-0.125000 F100.0(Penetrate)
G01 X1715.791177 Y189.764535 Z-0.125000 F400.000000
G01 X1721.150012 Y188.193991 Z-0.125000
G01 X1729.285011 Y188.193991 Z-0.125000
G01 X1734.747225 Y189.764535 Z-0.125000
G01 X1740.225638 Y192.905621 Z-0.125000
G01 X1743.007672 Y197.617253 Z-0.125000
G01 X1743.060955 Y200.758341 Z-0.125000
G01 X1740.466769 Y205.469971 Z-0.125000
G01 X1735.193108 Y208.611059 Z-0.125000
G01 X1729.903445 Y210.181603 Z-0.125000
G01 X1721.915681 Y210.181603 Z-0.125000
G01 X1716.531558 Y208.611059 Z-0.125000
G01 X1711.067002 Y205.469971 Z-0.125000
G00 Z5.000000

(Change tool to Default tool)

G00 Z5.000000
G00 X1791.428567 Y197.617253

G01 Z-0.125000 F100.0(Penetrate)
G01 X1759.147961 Y197.617253 Z-0.125000 F400.000000
G01 X1759.136672 Y194.476165 Z-0.125000
G01 X1761.829495 Y191.335077 Z-0.125000
G01 X1764.535329 Y189.764535 Z-0.125000
G01 X1769.960148 Y188.193991 Z-0.125000
G01 X1778.095147 Y188.193991 Z-0.125000
G01 X1783.491349 Y189.764535 Z-0.125000
G01 X1788.839150 Y192.905621 Z-0.125000
G01 X1791.428624 Y197.617253 Z-0.125000
G01 X1791.355726 Y200.758341 Z-0.125000
G01 X1788.575526 Y205.469971 Z-0.125000
G01 X1783.180030 Y208.611059 Z-0.125000
G01 X1777.830056 Y210.181603 Z-0.125000
G01 X1769.842292 Y210.181603 Z-0.125000
G01 X1764.518480 Y208.611059 Z-0.125000
G01 X1759.175760 Y205.469971 Z-0.125000
G00 Z5.000000

(Change tool to Default tool)

G00 Z5.000000
G00 X1881.622613 Y183.482359

G01 Z-0.125000 F100.0(Penetrate)
G01 X1876.332978 Y181.911815 Z-0.125000 F400.000000
G01 X1868.593316 Y177.200185 Z-0.125000
G01 X1868.080716 Y182.697087 Z-0.125000
G01 X1867.580279 Y188.193991 Z-0.125000
G01 X1867.091753 Y193.690893 Z-0.125000
G01 X1866.614938 Y199.187797 Z-0.125000
G01 X1866.149554 Y204.684699 Z-0.125000
G01 X1865.695430 Y210.181603 Z-0.125000
G00 Z5.000000

(Change tool to Default tool)

G00 Z5.000000
G00 X1979.732061 Y197.617253

G01 Z-0.125000 F100.0(Penetrate)
G01 X1947.451455 Y197.617253 Z-0.125000 F400.000000
G01 X1947.937639 Y194.476165 Z-0.125000
G01 X1951.134963 Y191.335077 Z-0.125000
G01 X1954.095643 Y189.764535 Z-0.125000
G01 X1959.777087 Y188.193991 Z-0.125000
G01 X1967.912114 Y188.193991 Z-0.125000
G01 X1973.051691 Y189.764535 Z-0.125000
G01 X1977.891492 Y192.905621 Z-0.125000
G01 X1979.732061 Y197.617253 Z-0.125000
G01 X1979.168463 Y200.758341 Z-0.125000
G01 X1975.664956 Y205.469971 Z-0.125000
G01 X1969.795581 Y208.611059 Z-0.125000
G01 X1964.211165 Y210.181603 Z-0.125000
G01 X1956.223345 Y210.181603 Z-0.125000
G01 X1951.133975 Y208.611059 Z-0.125000
G01 X1946.265134 Y205.469971 Z-0.125000
G00 Z5.000000

(Change tool to Default tool)

G00 Z5.000000
G00 X1997.740435 Y188.193991

G01 Z-0.125000 F100.0(Penetrate)
G01 X2004.063370 Y193.690893 Z-0.125000 F400.000000
G01 X2010.344339 Y199.187797 Z-0.125000
G01 X2016.585260 Y204.684699 Z-0.125000
G01 X2022.788024 Y210.181603 Z-0.125000
G00 Z5.000000

(Change tool to Default tool)

G00 Z5.000000
G00 X2027.568812 Y188.193991

G01 Z-0.125000 F100.0(Penetrate)
G01 X1997.740435 Y188.193991 Z-0.125000 F400.000000
G00 Z5.000000

(Change tool to Default tool)

G00 Z5.000000
G00 X2022.788024 Y210.181603

G01 Z-0.125000 F100.0(Penetrate)
G01 X1993.499566 Y210.181603 Z-0.125000 F400.000000
G00 Z5.000000

(Change tool to Default tool)

G00 Z5.000000
G00 X2052.042729 Y177.200185

G01 Z-0.125000 F100.0(Penetrate)
G01 X2048.903091 Y178.770730 Z-0.125000 F400.000000
G01 X2046.566630 Y177.200185 Z-0.125000
G01 X2049.709033 Y175.629641 Z-0.125000
G01 X2052.042729 Y177.200185 Z-0.125000
G00 Z5.000000

(Change tool to Default tool)

G00 Z5.000000
G00 X2046.550487 Y188.193991

G01 Z-0.125000 F100.0(Penetrate)
G01 X2045.222349 Y193.690893 Z-0.125000 F400.000000
G01 X2043.925989 Y199.187797 Z-0.125000
G01 X2042.660787 Y204.684699 Z-0.125000
G01 X2041.426121 Y210.181603 Z-0.125000
G00 Z5.000000

(Change tool to Default tool)

G00 Z5.000000
G00 X2067.194224 Y181.911815

G01 Z-0.125000 F100.0(Penetrate)
G01 X2073.510922 Y178.770730 Z-0.125000 F400.000000
G01 X2082.161315 Y177.200185 Z-0.125000
G01 X2093.113513 Y177.200185 Z-0.125000
G01 X2100.852978 Y178.770730 Z-0.125000
G01 X2105.366501 Y181.911815 Z-0.125000
G01 X2104.424613 Y185.052903 Z-0.125000
G01 X2100.783918 Y188.193991 Z-0.125000
G01 X2097.619840 Y189.764535 Z-0.125000
G01 X2091.761810 Y191.335077 Z-0.125000
G01 X2074.703960 Y194.476165 Z-0.125000
G01 X2068.905224 Y196.046709 Z-0.125000
G01 X2065.813564 Y197.617253 Z-0.125000
G01 X2062.342626 Y200.758341 Z-0.125000
G01 X2061.191470 Y205.469971 Z-0.125000
G01 X2065.769227 Y208.611059 Z-0.125000
G01 X2073.377177 Y210.181603 Z-0.125000
G01 X2084.027538 Y210.181603 Z-0.125000
G01 X2092.428588 Y208.611059 Z-0.125000
G01 X2098.609367 Y205.469971 Z-0.125000
G00 Z5.000000

(Change tool to Default tool)

G00 Z5.000000
G00 X2165.864024 Y188.193991

G01 Z-0.125000 F100.0(Penetrate)
G01 X2163.710132 Y194.476165 Z-0.125000 F400.000000
G01 X2161.615084 Y200.758341 Z-0.125000
G01 X2159.577552 Y207.040515 Z-0.125000
G01 X2157.596296 Y213.322688 Z-0.125000
G01 X2158.792777 Y218.034321 Z-0.125000
G01 X2160.956123 Y219.604865 Z-0.125000
G01 X2165.756243 Y221.175409 Z-0.125000
G01 X2173.675625 Y221.175409 Z-0.125000
G01 X2179.456975 Y219.604865 Z-0.125000
G00 Z5.000000

(Change tool to Default tool)

G00 Z5.000000
G00 X2164.243024 Y192.905621

G01 Z-0.125000 F100.0(Penetrate)
G01 X2170.735970 Y189.764535 Z-0.125000 F400.000000
G01 X2176.710699 Y188.193991 Z-0.125000
G01 X2184.845726 Y188.193991 Z-0.125000
G01 X2189.691990 Y189.764535 Z-0.125000
G01 X2193.951259 Y192.905621 Z-0.125000
G01 X2194.935933 Y197.617253 Z-0.125000
G01 X2193.811559 Y200.758341 Z-0.125000
G01 X2189.481367 Y205.469971 Z-0.125000
G01 X2183.070436 Y208.611059 Z-0.125000
G01 X2177.218078 Y210.181603 Z-0.125000
G01 X2169.230314 Y210.181603 Z-0.125000
G01 X2164.408886 Y208.611059 Z-0.125000
G01 X2160.081601 Y205.469971 Z-0.125000
G00 Z5.000000

(Change tool to Default tool)

G00 Z5.000000
G00 X2247.214128 Y188.193991

G01 Z-0.125000 F100.0(Penetrate)
G01 X2244.944610 Y193.690893 Z-0.125000 F400.000000
G01 X2242.729363 Y199.187797 Z-0.125000
G01 X2240.567343 Y204.684699 Z-0.125000
G01 X2238.457591 Y210.181603 Z-0.125000
G00 Z5.000000

(Change tool to Default tool)

G00 Z5.000000
G00 X2244.624824 Y194.476165

G01 Z-0.125000 F100.0(Penetrate)
G01 X2238.436086 Y189.764535 Z-0.125000 F400.000000
G01 X2233.655778 Y188.193991 Z-0.125000
G01 X2225.520779 Y188.193991 Z-0.125000
G01 X2219.480066 Y189.764535 Z-0.125000
G01 X2214.956100 Y194.476165 Z-0.125000
G01 X2212.982153 Y199.711311 Z-0.125000
G01 X2211.053418 Y204.946454 Z-0.125000
G01 X2209.169133 Y210.181600 Z-0.125000
G00 Z5.000000

(Change tool to Default tool)

G00 Z5.000000
G00 X2276.562982 Y177.200185

G01 Z-0.125000 F100.0(Penetrate)
G01 X2273.107905 Y178.770730 Z-0.125000 F400.000000
G01 X2271.086883 Y177.200185 Z-0.125000
G01 X2274.546871 Y175.629641 Z-0.125000
G01 X2276.562982 Y177.200185 Z-0.125000
G00 Z5.000000

(Change tool to Default tool)

G00 Z5.000000
G00 X2268.907507 Y188.193991

G01 Z-0.125000 F100.0(Penetrate)
G01 X2266.536191 Y193.690893 Z-0.125000 F400.000000
G01 X2264.221602 Y199.187797 Z-0.125000
G01 X2261.962667 Y204.684699 Z-0.125000
G01 X2259.758285 Y210.181603 Z-0.125000
G00 Z5.000000

(Change tool to Default tool)

G00 Z5.000000
G00 X2317.717586 Y188.193991

G01 Z-0.125000 F100.0(Penetrate)
G01 X2311.068854 Y193.690893 Z-0.125000 F400.000000
G01 X2304.519577 Y199.187797 Z-0.125000
G01 X2298.067243 Y204.684699 Z-0.125000
G01 X2291.709312 Y210.181603 Z-0.125000
G00 Z5.000000

(Change tool to Default tool)

G00 Z5.000000
G00 X2285.177533 Y188.193991

G01 Z-0.125000 F100.0(Penetrate)
G01 X2286.778298 Y193.690893 Z-0.125000 F400.000000
G01 X2288.400398 Y199.187797 Z-0.125000
G01 X2290.044004 Y204.684699 Z-0.125000
G01 X2291.709312 Y210.181603 Z-0.125000
G00 Z5.000000

(Change tool to Default tool)

G00 Z5.000000
G00 X2347.545963 Y188.193991

G01 Z-0.125000 F100.0(Penetrate)
G01 X2344.805727 Y193.690893 Z-0.125000 F400.000000
G01 X2342.131022 Y199.187797 Z-0.125000
G01 X2339.520636 Y204.684699 Z-0.125000
G01 X2336.973298 Y210.181603 Z-0.125000
G00 Z5.000000

(Change tool to Default tool)

G00 Z5.000000
G00 X2342.888619 Y197.617253

G01 Z-0.125000 F100.0(Penetrate)
G01 X2342.492379 Y192.905621 Z-0.125000 F400.000000
G01 X2338.632257 Y189.764535 Z-0.125000
G01 X2333.987613 Y188.193991 Z-0.125000
G01 X2325.852585 Y188.193991 Z-0.125000
G00 Z5.000000

(Change tool to Default tool)

G00 Z5.000000
G00 X2393.999544 Y197.617253

G01 Z-0.125000 F100.0(Penetrate)
G01 X2361.718966 Y197.617253 Z-0.125000 F400.000000
G01 X2363.299721 Y194.476165 Z-0.125000
G01 X2367.606912 Y191.335077 Z-0.125000
G01 X2371.128311 Y189.764535 Z-0.125000
G01 X2377.374341 Y188.193991 Z-0.125000
G01 X2385.509340 Y188.193991 Z-0.125000
G01 X2390.084331 Y189.764535 Z-0.125000
G01 X2393.806589 Y192.905621 Z-0.125000
G01 X2393.999544 Y197.617253 Z-0.125000
G01 X2392.356446 Y200.758341 Z-0.125000
G01 X2387.261601 Y205.469971 Z-0.125000
G01 X2380.349725 Y208.611059 Z-0.125000
G01 X2374.249520 Y210.181603 Z-0.125000
G01 X2366.261756 Y210.181603 Z-0.125000
G01 X2361.688176 Y208.611059 Z-0.125000
G01 X2357.861835 Y205.469971 Z-0.125000
G00 Z5.000000

(Change tool to Default tool)

G00 Z5.000000
G00 X2418.924395 Y181.911815

G01 Z-0.125000 F100.0(Penetrate)
G01 X2426.223395 Y178.770730 Z-0.125000 F400.000000
G01 X2435.369964 Y177.200185 Z-0.125000
G01 X2446.322190 Y177.200185 Z-0.125000
G01 X2453.565423 Y178.770730 Z-0.125000
G01 X2457.096644 Y181.911815 Z-0.125000
G01 X2455.185858 Y185.052903 Z-0.125000
G01 X2450.589446 Y188.193991 Z-0.125000
G01 X2446.952448 Y189.764535 Z-0.125000
G01 X2440.624744 Y191.335077 Z-0.125000
G01 X2422.637197 Y194.476165 Z-0.125000
G01 X2416.378412 Y196.046709 Z-0.125000
G01 X2412.829890 Y197.617253 Z-0.125000
G01 X2408.454684 Y200.758341 Z-0.125000
G01 X2405.970564 Y205.469971 Z-0.125000
G01 X2409.675041 Y208.611059 Z-0.125000
G01 X2416.850908 Y210.181603 Z-0.125000
G01 X2427.501269 Y210.181603 Z-0.125000
G01 X2436.334402 Y208.611059 Z-0.125000
G01 X2443.388433 Y205.469971 Z-0.125000
G00 Z5.000000

(Change tool to Default tool)

G00 Z5.000000
G00 X2426.487696 Y238.974036

G01 Z-0.125000 F100.0(Penetrate)
G01 X1085.034553 Y239.154229 Z-0.125000 F400.000000
G00 Z5.000000

(Change tool to Default tool)

G00 Z5.000000
G00 X2421.381478 Y250.016968

G01 Z-0.125000 F100.0(Penetrate)
G01 X1090.255552 Y250.197147 Z-0.125000 F400.000000
G00 Z5.000000

(Change tool to Default tool)

G00 Z5.000000
G00 X1849.377905 Y272.353739

G01 Z-0.125000 F100.0(Penetrate)
G01 X1851.157994 Y272.353739 Z-0.125000 F400.000000
G01 X1850.861802 Y277.840591 Z-0.125000
G01 X1850.573596 Y283.327443 Z-0.125000
G01 X1850.293265 Y288.814295 Z-0.125000
G01 X1851.888018 Y292.106406 Z-0.125000
G01 X1853.590834 Y293.203777 Z-0.125000
G01 X1857.048762 Y294.301147 Z-0.125000
G01 X1860.562795 Y294.301147 Z-0.125000
G01 X1864.139482 Y293.203777 Z-0.125000
G01 X1865.961678 Y292.106406 Z-0.125000
G01 X1869.480115 Y292.106406 Z-0.125000
G00 Z5.000000

(Change tool to Default tool)

G00 Z5.000000
G00 X1849.377905 Y272.353739

G01 Z-0.125000 F100.0(Penetrate)
G01 X1849.087725 Y277.840591 Z-0.125000 F400.000000
G01 X1848.805361 Y283.327443 Z-0.125000
G01 X1848.530731 Y288.814295 Z-0.125000
G01 X1850.128814 Y292.106406 Z-0.125000
G01 X1853.534757 Y294.301147 Z-0.125000
G01 X1856.990822 Y295.398517 Z-0.125000
G01 X1862.258612 Y295.398517 Z-0.125000
G01 X1865.833832 Y294.301147 Z-0.125000
G01 X1869.480115 Y292.106406 Z-0.125000
G00 Z5.000000

(Change tool to Default tool)

G00 Z5.000000
G00 X1850.979319 Y275.645851

G01 Z-0.125000 F100.0(Penetrate)
G01 X1854.655884 Y273.451110 Z-0.125000 F400.000000
G01 X1858.278376 Y272.353739 Z-0.125000
G01 X1863.618670 Y272.353739 Z-0.125000
G01 X1867.108037 Y273.451110 Z-0.125000
G01 X1870.520499 Y275.645851 Z-0.125000
G01 X1872.078365 Y278.937962 Z-0.125000
G01 X1871.934601 Y281.132702 Z-0.125000
G01 X1869.954841 Y284.424813 Z-0.125000
G01 X1866.287702 Y286.619554 Z-0.125000
G01 X1862.694420 Y287.716925 Z-0.125000
G01 X1857.403402 Y287.716925 Z-0.125000
G01 X1853.934073 Y286.619554 Z-0.125000
G01 X1850.516898 Y284.424813 Z-0.125000
G00 Z5.000000

(Change tool to Default tool)

G00 Z5.000000
G00 X1850.979319 Y275.645851

G01 Z-0.125000 F100.0(Penetrate)
G01 X1858.213634 Y273.451110 Z-0.125000 F400.000000
G01 X1863.550287 Y273.451110 Z-0.125000
G01 X1867.037594 Y274.548480 Z-0.125000
G01 X1868.744023 Y275.645851 Z-0.125000
G01 X1870.305445 Y278.937962 Z-0.125000
G01 X1870.164052 Y281.132702 Z-0.125000
G01 X1868.187763 Y284.424813 Z-0.125000
G01 X1866.353996 Y285.522184 Z-0.125000
G01 X1862.758089 Y286.619554 Z-0.125000
G01 X1857.463657 Y286.619554 Z-0.125000
G01 X1850.516898 Y284.424813 Z-0.125000
G00 Z5.000000

(Change tool to Default tool)

G00 Z5.000000
G00 X1906.340990 Y272.353739

G01 Z-0.125000 F100.0(Penetrate)
G01 X1905.890196 Y277.474802 Z-0.125000 F400.000000
G01 X1905.450776 Y282.595864 Z-0.125000
G01 X1905.022532 Y287.716926 Z-0.125000
G01 X1903.258869 Y287.716926 Z-0.125000
G00 Z5.000000

(Change tool to Default tool)

G00 Z5.000000
G00 X1906.340990 Y272.353739

G01 Z-0.125000 F100.0(Penetrate)
G01 X1904.560902 Y272.353739 Z-0.125000 F400.000000
G01 X1904.115724 Y277.474802 Z-0.125000
G01 X1903.681751 Y282.595864 Z-0.125000
G01 X1903.258869 Y287.716926 Z-0.125000
G00 Z5.000000

(Change tool to Default tool)

G00 Z5.000000
G00 X1904.178632 Y276.743221

G01 Z-0.125000 F100.0(Penetrate)
G01 X1899.127926 Y273.451110 Z-0.125000 F400.000000
G01 X1895.660431 Y272.353739 Z-0.125000
G01 X1890.320137 Y272.353739 Z-0.125000
G01 X1886.675745 Y273.451110 Z-0.125000
G01 X1884.650603 Y276.743221 Z-0.125000
G01 X1884.249058 Y282.230073 Z-0.125000
G01 X1883.858490 Y287.716925 Z-0.125000
G00 Z5.000000

(Change tool to Default tool)

G00 Z5.000000
G00 X1904.178632 Y276.743221

G01 Z-0.125000 F100.0(Penetrate)
G01 X1899.035724 Y274.548480 Z-0.125000 F400.000000
G01 X1895.570148 Y273.451110 Z-0.125000
G01 X1892.012398 Y273.451110 Z-0.125000
G01 X1888.369671 Y274.548480 Z-0.125000
G01 X1886.425894 Y276.743221 Z-0.125000
G01 X1886.018450 Y282.230073 Z-0.125000
G01 X1885.622153 Y287.716925 Z-0.125000
G01 X1883.858490 Y287.716925 Z-0.125000
G00 Z5.000000

(Change tool to Default tool)

G00 Z5.000000
G00 X1923.137982 Y264.672147

G01 Z-0.125000 F100.0(Penetrate)
G01 X1924.812830 Y265.769517 Z-0.125000 F400.000000
G01 X1924.699517 Y266.866888 Z-0.125000
G01 X1922.801799 Y267.964258 Z-0.125000
G01 X1921.016771 Y267.964258 Z-0.125000
G01 X1919.340710 Y266.866888 Z-0.125000
G01 X1919.450241 Y265.769517 Z-0.125000
G01 X1921.349173 Y264.672147 Z-0.125000
G01 X1923.137982 Y264.672147 Z-0.125000
G00 Z5.000000

(Change tool to Default tool)

G00 Z5.000000
G00 X1923.025319 Y265.769517

G01 Z-0.125000 F100.0(Penetrate)
G01 X1922.913248 Y266.866888 Z-0.125000 F400.000000
G01 X1921.126979 Y266.866888 Z-0.125000
G01 X1921.237780 Y265.769517 Z-0.125000
G01 X1923.025319 Y265.769517 Z-0.125000
G00 Z5.000000

(Change tool to Default tool)

G00 Z5.000000
G00 X1922.361871 Y272.353739

G01 Z-0.125000 F100.0(Penetrate)
G01 X1921.860531 Y277.474802 Z-0.125000 F400.000000
G01 X1921.371835 Y282.595864 Z-0.125000
G01 X1920.895585 Y287.716926 Z-0.125000
G01 X1919.131922 Y287.716926 Z-0.125000
G00 Z5.000000

(Change tool to Default tool)

G00 Z5.000000
G00 X1922.361871 Y272.353739

G01 Z-0.125000 F100.0(Penetrate)
G01 X1920.581782 Y272.353739 Z-0.125000 F400.000000
G01 X1920.086059 Y277.474802 Z-0.125000
G01 X1919.602810 Y282.595864 Z-0.125000
G01 X1919.131922 Y287.716926 Z-0.125000
G00 Z5.000000

(Change tool to Default tool)

G00 Z5.000000
G00 X1954.403632 Y272.353739

G01 Z-0.125000 F100.0(Penetrate)
G01 X1950.252228 Y277.474802 Z-0.125000 F400.000000
G01 X1946.137908 Y282.595864 Z-0.125000
G01 X1942.059656 Y287.716926 Z-0.125000
G00 Z5.000000

(Change tool to Default tool)

G00 Z5.000000
G00 X1954.403632 Y272.353739

G01 Z-0.125000 F100.0(Penetrate)
G01 X1952.623516 Y272.353739 Z-0.125000 F400.000000
G01 X1949.152267 Y276.743221 Z-0.125000
G01 X1945.707773 Y281.132702 Z-0.125000
G01 X1942.289469 Y285.522184 Z-0.125000
G00 Z5.000000

(Change tool to Default tool)

G00 Z5.000000
G00 X1933.042458 Y272.353739

G01 Z-0.125000 F100.0(Penetrate)
G01 X1934.822546 Y272.353739 Z-0.125000 F400.000000
G01 X1937.317080 Y276.743221 Z-0.125000
G01 X1939.805942 Y281.132702 Z-0.125000
G01 X1942.289469 Y285.522184 Z-0.125000
G00 Z5.000000

(Change tool to Default tool)

G00 Z5.000000
G00 X1933.042458 Y272.353739

G01 Z-0.125000 F100.0(Penetrate)
G01 X1936.056394 Y277.474802 Z-0.125000 F400.000000
G01 X1939.061891 Y282.595864 Z-0.125000
G01 X1942.059656 Y287.716926 Z-0.125000
G00 Z5.000000

(Change tool to Default tool)

G00 Z5.000000
G00 X1975.764778 Y272.353739

G01 Z-0.125000 F100.0(Penetrate)
G01 X1975.094952 Y277.474802 Z-0.125000 F400.000000
G01 X1974.442031 Y282.595864 Z-0.125000
G01 X1973.805733 Y287.716926 Z-0.125000
G01 X1972.042070 Y287.716926 Z-0.125000
G00 Z5.000000

(Change tool to Default tool)

G00 Z5.000000
G00 X1975.764778 Y272.353739

G01 Z-0.125000 F100.0(Penetrate)
G01 X1973.984690 Y272.353739 Z-0.125000 F400.000000
G01 X1973.320480 Y277.474802 Z-0.125000
G01 X1972.673006 Y282.595864 Z-0.125000
G01 X1972.042070 Y287.716926 Z-0.125000
G00 Z5.000000

(Change tool to Default tool)

G00 Z5.000000
G00 X1973.133790 Y278.937962

G01 Z-0.125000 F100.0(Penetrate)
G01 X1971.779293 Y275.645851 Z-0.125000 F400.000000
G01 X1968.504301 Y273.451110 Z-0.125000
G01 X1965.084191 Y272.353739 Z-0.125000
G01 X1959.743898 Y272.353739 Z-0.125000
G00 Z5.000000

(Change tool to Default tool)

G00 Z5.000000
G00 X1973.133790 Y278.937962

G01 Z-0.125000 F100.0(Penetrate)
G01 X1971.639056 Y276.743221 Z-0.125000 F400.000000
G01 X1968.364940 Y274.548480 Z-0.125000
G01 X1964.946523 Y273.451110 Z-0.125000
G01 X1959.609870 Y273.451110 Z-0.125000
G01 X1959.743898 Y272.353739 Z-0.125000
G00 Z5.000000

(Change tool to Default tool)

G00 Z5.000000
G00 X2006.657472 Y280.035332

G01 Z-0.125000 F100.0(Penetrate)
G01 X1987.168475 Y280.035332 Z-0.125000 F400.000000
G01 X1987.616531 Y276.743221 Z-0.125000
G01 X1989.697017 Y274.548480 Z-0.125000
G01 X1991.629760 Y273.451110 Z-0.125000
G01 X1995.345836 Y272.353739 Z-0.125000
G01 X2000.686130 Y272.353739 Z-0.125000
G01 X2004.081912 Y273.451110 Z-0.125000
G01 X2007.308700 Y275.645851 Z-0.125000
G01 X2008.591851 Y278.937962 Z-0.125000
G01 X2008.267437 Y281.132702 Z-0.125000
G01 X2006.020412 Y284.424813 Z-0.125000
G01 X2002.177533 Y286.619554 Z-0.125000
G01 X1998.497129 Y287.716925 Z-0.125000
G01 X1993.206112 Y287.716925 Z-0.125000
G01 X1989.823932 Y286.619554 Z-0.125000
G01 X1986.582469 Y284.424813 Z-0.125000
G00 Z5.000000

(Change tool to Default tool)

G00 Z5.000000
G00 X2006.818931 Y278.937962

G01 Z-0.125000 F100.0(Penetrate)
G01 X1989.089929 Y278.937962 Z-0.125000 F400.000000
G01 X1989.391822 Y276.743221 Z-0.125000
G01 X1991.474678 Y274.548480 Z-0.125000
G01 X1995.187509 Y273.451110 Z-0.125000
G01 X2000.524162 Y273.451110 Z-0.125000
G01 X2003.918393 Y274.548480 Z-0.125000
G01 X2005.532224 Y275.645851 Z-0.125000
G01 X2006.818931 Y278.937962 Z-0.125000
G01 X2006.496888 Y281.132702 Z-0.125000
G01 X2004.253334 Y284.424813 Z-0.125000
G01 X2002.331457 Y285.522184 Z-0.125000
G01 X1998.647949 Y286.619554 Z-0.125000
G01 X1993.353545 Y286.619554 Z-0.125000
G01 X1989.969870 Y285.522184 Z-0.125000
G01 X1988.495992 Y283.327443 Z-0.125000
G01 X1986.582469 Y284.424813 Z-0.125000
G00 Z5.000000

(Change tool to Default tool)

G00 Z5.000000
G00 X2020.978133 Y267.964258

G01 Z-0.125000 F100.0(Penetrate)
G01 X2024.914428 Y265.769517 Z-0.125000 F400.000000
G01 X2030.465400 Y264.672147 Z-0.125000
G01 X2037.620552 Y264.672147 Z-0.125000
G01 X2042.789734 Y265.769517 Z-0.125000
G01 X2045.968488 Y267.964258 Z-0.125000
G01 X2045.576425 Y270.158999 Z-0.125000
G01 X2043.408450 Y272.353739 Z-0.125000
G01 X2041.438426 Y273.451110 Z-0.125000
G01 X2037.694184 Y274.548480 Z-0.125000
G01 X2028.447850 Y276.743221 Z-0.125000
G01 X2024.722150 Y277.840591 Z-0.125000
G01 X2022.775070 Y278.937962 Z-0.125000
G01 X2020.661339 Y281.132702 Z-0.125000
G01 X2020.157092 Y284.424813 Z-0.125000
G01 X2021.756813 Y285.522184 Z-0.125000
G01 X2026.884790 Y286.619554 Z-0.125000
G01 X2033.944015 Y286.619554 Z-0.125000
G01 X2037.650298 Y285.522184 Z-0.125000
G01 X2039.595035 Y284.424813 Z-0.125000
G01 X2043.129219 Y284.424813 Z-0.125000
G00 Z5.000000

(Change tool to Default tool)

G00 Z5.000000
G00 X2020.978133 Y267.964258

G01 Z-0.125000 F100.0(Penetrate)
G01 X2024.548188 Y267.964258 Z-0.125000 F400.000000
G01 X2026.517111 Y266.866888 Z-0.125000
G01 X2030.277017 Y265.769517 Z-0.125000
G01 X2037.427145 Y265.769517 Z-0.125000
G01 X2042.593562 Y266.866888 Z-0.125000
G01 X2044.183461 Y267.964258 Z-0.125000
G01 X2043.793881 Y270.158999 Z-0.125000
G01 X2041.628362 Y272.353739 Z-0.125000
G01 X2037.880676 Y273.451110 Z-0.125000
G01 X2028.626356 Y275.645851 Z-0.125000
G01 X2024.897297 Y276.743221 Z-0.125000
G01 X2021.002179 Y278.937962 Z-0.125000
G01 X2018.890790 Y281.132702 Z-0.125000
G01 X2018.390014 Y284.424813 Z-0.125000
G01 X2021.590386 Y286.619554 Z-0.125000
G01 X2026.715880 Y287.716925 Z-0.125000
G01 X2033.770589 Y287.716925 Z-0.125000
G01 X2039.238419 Y286.619554 Z-0.125000
G01 X2043.129219 Y284.424813 Z-0.125000
G00 Z5.000000

(Change tool to Default tool)

G00 Z5.000000
G00 X2096.811358 Y272.353739

G01 Z-0.125000 F100.0(Penetrate)
G01 X2095.759657 Y277.474802 Z-0.125000 F400.000000
G01 X2094.734484 Y282.595864 Z-0.125000
G01 X2093.735418 Y287.716926 Z-0.125000
G01 X2091.971755 Y287.716926 Z-0.125000
G00 Z5.000000

(Change tool to Default tool)

G00 Z5.000000
G00 X2096.811358 Y272.353739

G01 Z-0.125000 F100.0(Penetrate)
G01 X2095.031269 Y272.353739 Z-0.125000 F400.000000
G01 X2093.985184 Y277.474802 Z-0.125000
G01 X2092.965459 Y282.595864 Z-0.125000
G01 X2091.971755 Y287.716926 Z-0.125000
G00 Z5.000000

(Change tool to Default tool)

G00 Z5.000000
G00 X2093.691165 Y278.937962

G01 Z-0.125000 F100.0(Penetrate)
G01 X2092.579266 Y275.645851 Z-0.125000 F400.000000
G01 X2089.468218 Y273.451110 Z-0.125000
G01 X2086.130799 Y272.353739 Z-0.125000
G01 X2080.790505 Y272.353739 Z-0.125000
G00 Z5.000000

(Change tool to Default tool)

G00 Z5.000000
G00 X2093.691165 Y278.937962

G01 Z-0.125000 F100.0(Penetrate)
G01 X2092.357722 Y276.743221 Z-0.125000 F400.000000
G01 X2089.246673 Y274.548480 Z-0.125000
G01 X2085.910468 Y273.451110 Z-0.125000
G01 X2080.573815 Y273.451110 Z-0.125000
G01 X2080.790505 Y272.353739 Z-0.125000
G00 Z5.000000

(Change tool to Default tool)

G00 Z5.000000
G00 X2127.134866 Y280.035332

G01 Z-0.125000 F100.0(Penetrate)
G01 X2107.645869 Y280.035332 Z-0.125000 F400.000000
G01 X2108.335197 Y276.743221 Z-0.125000
G01 X2110.578751 Y274.548480 Z-0.125000
G01 X2112.593676 Y273.451110 Z-0.125000
G01 X2116.392444 Y272.353739 Z-0.125000
G01 X2121.732709 Y272.353739 Z-0.125000
G01 X2125.045857 Y273.451110 Z-0.125000
G01 X2128.108673 Y275.645851 Z-0.125000
G01 X2129.149227 Y278.937962 Z-0.125000
G01 X2128.665272 Y281.132702 Z-0.125000
G01 X2126.182225 Y284.424813 Z-0.125000
G01 X2122.184180 Y286.619554 Z-0.125000
G01 X2118.426814 Y287.716925 Z-0.125000
G01 X2113.135797 Y287.716925 Z-0.125000
G01 X2109.830551 Y286.619554 Z-0.125000
G01 X2106.744282 Y284.424813 Z-0.125000
G00 Z5.000000

(Change tool to Default tool)

G00 Z5.000000
G00 X2127.376307 Y278.937962

G01 Z-0.125000 F100.0(Penetrate)
G01 X2109.647276 Y278.937962 Z-0.125000 F400.000000
G01 X2110.110487 Y276.743221 Z-0.125000
G01 X2112.356412 Y274.548480 Z-0.125000
G01 X2116.151454 Y273.451110 Z-0.125000
G01 X2121.488107 Y273.451110 Z-0.125000
G01 X2124.800126 Y274.548480 Z-0.125000
G01 X2126.332197 Y275.645851 Z-0.125000
G01 X2127.376307 Y278.937962 Z-0.125000
G01 X2126.894723 Y281.132702 Z-0.125000
G01 X2124.415147 Y284.424813 Z-0.125000
G01 X2122.415461 Y285.522184 Z-0.125000
G01 X2118.654568 Y286.619554 Z-0.125000
G01 X2113.360163 Y286.619554 Z-0.125000
G01 X2110.053874 Y285.522184 Z-0.125000
G01 X2108.736037 Y283.327443 Z-0.125000
G01 X2106.744282 Y284.424813 Z-0.125000
G00 Z5.000000

(Change tool to Default tool)

G00 Z5.000000
G00 X2166.413482 Y264.672147

G01 Z-0.125000 F100.0(Penetrate)
G01 X2164.937771 Y270.433341 Z-0.125000 F400.000000
G01 X2163.503207 Y276.194536 Z-0.125000
G01 X2162.109142 Y281.955730 Z-0.125000
G01 X2160.754955 Y287.716925 Z-0.125000
G00 Z5.000000

(Change tool to Default tool)

G00 Z5.000000
G00 X2164.341661 Y265.769517

G01 Z-0.125000 F100.0(Penetrate)
G01 X2162.949007 Y271.256369 Z-0.125000 F400.000000
G01 X2161.593437 Y276.743221 Z-0.125000
G01 X2160.274359 Y282.230073 Z-0.125000
G01 X2158.991264 Y287.716925 Z-0.125000
G01 X2160.754955 Y287.716925 Z-0.125000
G00 Z5.000000

(Change tool to Default tool)

G00 Z5.000000
G00 X2166.413482 Y264.672147

G01 Z-0.125000 F100.0(Penetrate)
G01 X2150.314370 Y264.672147 Z-0.125000 F400.000000
G01 X2146.466382 Y265.769517 Z-0.125000
G01 X2144.411127 Y266.866888 Z-0.125000
G01 X2142.096200 Y269.061628 Z-0.125000
G01 X2141.313795 Y272.353739 Z-0.125000
G01 X2142.576852 Y274.548480 Z-0.125000
G01 X2144.096901 Y275.645851 Z-0.125000
G01 X2147.391253 Y276.743221 Z-0.125000
G01 X2161.593437 Y276.743221 Z-0.125000
G00 Z5.000000

(Change tool to Default tool)

G00 Z5.000000
G00 X2164.341661 Y265.769517

G01 Z-0.125000 F100.0(Penetrate)
G01 X2150.041433 Y265.769517 Z-0.125000 F400.000000
G01 X2146.197396 Y266.866888 Z-0.125000
G01 X2143.879985 Y269.061628 Z-0.125000
G01 X2143.093883 Y272.353739 Z-0.125000
G01 X2144.354542 Y274.548480 Z-0.125000
G01 X2147.649853 Y275.645851 Z-0.125000
G01 X2161.861605 Y275.645851 Z-0.125000
G00 Z5.000000

(Change tool to Default tool)

G00 Z5.000000
G00 X2212.922040 Y264.672147

G01 Z-0.125000 F100.0(Penetrate)
G01 X2211.276007 Y270.433341 Z-0.125000 F400.000000
G01 X2209.675863 Y276.194536 Z-0.125000
G01 X2208.120904 Y281.955730 Z-0.125000
G01 X2206.610422 Y287.716925 Z-0.125000
G01 X2204.846731 Y287.716925 Z-0.125000
G00 Z5.000000

(Change tool to Default tool)

G00 Z5.000000
G00 X2212.922040 Y264.672147

G01 Z-0.125000 F100.0(Penetrate)
G01 X2211.133259 Y264.672147 Z-0.125000 F400.000000
G01 X2209.493774 Y270.433341 Z-0.125000
G01 X2207.900008 Y276.194536 Z-0.125000
G01 X2206.351229 Y281.955730 Z-0.125000
G01 X2204.846731 Y287.716925 Z-0.125000
G00 Z5.000000

(Change tool to Default tool)

G00 Z5.000000
G00 X2216.077849 Y272.353739

G01 Z-0.125000 F100.0(Penetrate)
G01 X2203.617173 Y272.353739 Z-0.125000 F400.000000
G01 X2203.316635 Y273.451110 Z-0.125000
G00 Z5.000000

(Change tool to Default tool)

G00 Z5.000000
G00 X2216.077849 Y272.353739

G01 Z-0.125000 F100.0(Penetrate)
G01 X2215.768815 Y273.451110 Z-0.125000 F400.000000
G01 X2203.316635 Y273.451110 Z-0.125000
G00 Z5.000000

(Change tool to Default tool)

G00 Z5.000000
G00 X2248.119610 Y272.353739

G01 Z-0.125000 F100.0(Penetrate)
G01 X2246.590558 Y277.474802 Z-0.125000 F400.000000
G01 X2245.100030 Y282.595864 Z-0.125000
G01 X2243.647517 Y287.716926 Z-0.125000
G01 X2241.883854 Y287.716926 Z-0.125000
G00 Z5.000000

(Change tool to Default tool)

G00 Z5.000000
G00 X2248.119610 Y272.353739

G01 Z-0.125000 F100.0(Penetrate)
G01 X2246.339494 Y272.353739 Z-0.125000 F400.000000
G01 X2244.816058 Y277.474802 Z-0.125000
G01 X2243.331033 Y282.595864 Z-0.125000
G01 X2241.883854 Y287.716926 Z-0.125000
G00 Z5.000000

(Change tool to Default tool)

G00 Z5.000000
G00 X2245.031337 Y276.743221

G01 Z-0.125000 F100.0(Penetrate)
G01 X2240.673149 Y273.451110 Z-0.125000 F400.000000
G01 X2237.439023 Y272.353739 Z-0.125000
G01 X2232.098729 Y272.353739 Z-0.125000
G01 X2228.220968 Y273.451110 Z-0.125000
G01 X2225.503309 Y276.743221 Z-0.125000
G01 X2223.972507 Y282.230073 Z-0.125000
G01 X2222.483446 Y287.716925 Z-0.125000
G00 Z5.000000

(Change tool to Default tool)

G00 Z5.000000
G00 X2245.031337 Y276.743221

G01 Z-0.125000 F100.0(Penetrate)
G01 X2240.348847 Y274.548480 Z-0.125000 F400.000000
G01 X2237.115399 Y273.451110 Z-0.125000
G01 X2233.557621 Y273.451110 Z-0.125000
G01 X2229.682823 Y274.548480 Z-0.125000
G01 X2227.278600 Y276.743221 Z-0.125000
G01 X2225.741900 Y282.230073 Z-0.125000
G01 X2224.247138 Y287.716925 Z-0.125000
G01 X2222.483446 Y287.716925 Z-0.125000
G00 Z5.000000

(Change tool to Default tool)

G00 Z5.000000
G00 X2283.721549 Y272.353739

G01 Z-0.125000 F100.0(Penetrate)
G01 X2281.964518 Y277.840591 Z-0.125000 F400.000000
G01 X2280.254928 Y283.327443 Z-0.125000
G01 X2277.486865 Y286.619554 Z-0.125000
G01 X2273.629931 Y287.716925 Z-0.125000
G01 X2268.338913 Y287.716925 Z-0.125000
G01 X2265.133236 Y286.619554 Z-0.125000
G01 X2260.804342 Y283.327443 Z-0.125000
G00 Z5.000000

(Change tool to Default tool)

G00 Z5.000000
G00 X2283.721549 Y272.353739

G01 Z-0.125000 F100.0(Penetrate)
G01 X2281.941432 Y272.353739 Z-0.125000 F400.000000
G01 X2280.190441 Y277.840591 Z-0.125000
G01 X2278.486693 Y283.327443 Z-0.125000
G01 X2276.052357 Y285.522184 Z-0.125000
G01 X2272.192460 Y286.619554 Z-0.125000
G01 X2268.662848 Y286.619554 Z-0.125000
G01 X2265.456691 Y285.522184 Z-0.125000
G01 X2260.804342 Y283.327443 Z-0.125000
G00 Z5.000000

(Change tool to Default tool)

G00 Z5.000000
G00 X2264.140463 Y272.353739

G01 Z-0.125000 F100.0(Penetrate)
G01 X2262.560893 Y277.474802 Z-0.125000 F400.000000
G01 X2261.021089 Y282.595864 Z-0.125000
G01 X2259.520570 Y287.716926 Z-0.125000
G01 X2257.756878 Y287.716926 Z-0.125000
G00 Z5.000000

(Change tool to Default tool)

G00 Z5.000000
G00 X2264.140463 Y272.353739

G01 Z-0.125000 F100.0(Penetrate)
G01 X2262.360374 Y272.353739 Z-0.125000 F400.000000
G01 X2260.786393 Y277.474802 Z-0.125000
G01 X2259.252092 Y282.595864 Z-0.125000
G01 X2257.756878 Y287.716926 Z-0.125000
G00 Z5.000000

(Change tool to Default tool)

G00 Z5.000000
G00 X2310.422988 Y272.353739

G01 Z-0.125000 F100.0(Penetrate)
G01 X2313.607302 Y273.451110 Z-0.125000 F400.000000
G01 X2316.414538 Y275.645851 Z-0.125000
G01 X2317.076885 Y278.937962 Z-0.125000
G01 X2316.344236 Y281.132702 Z-0.125000
G01 X2313.493284 Y284.424813 Z-0.125000
G01 X2309.253318 Y286.619554 Z-0.125000
G01 X2305.376037 Y287.716925 Z-0.125000
G01 X2300.085019 Y287.716925 Z-0.125000
G01 X2296.899690 Y286.619554 Z-0.125000
G01 X2294.055341 Y284.424813 Z-0.125000
G01 X2293.327010 Y281.132702 Z-0.125000
G01 X2294.029151 Y278.937962 Z-0.125000
G01 X2296.873358 Y275.645851 Z-0.125000
G01 X2301.155121 Y273.451110 Z-0.125000
G01 X2305.082695 Y272.353739 Z-0.125000
G01 X2310.422988 Y272.353739 Z-0.125000
G00 Z5.000000

(Change tool to Default tool)

G00 Z5.000000
G00 X2310.049524 Y273.451110

G01 Z-0.125000 F100.0(Penetrate)
G01 X2313.233414 Y274.548480 Z-0.125000 F400.000000
G01 X2314.638062 Y275.645851 Z-0.125000
G01 X2315.303965 Y278.937962 Z-0.125000
G01 X2314.573687 Y281.132702 Z-0.125000
G01 X2311.726178 Y284.424813 Z-0.125000
G01 X2309.605221 Y285.522184 Z-0.125000
G01 X2305.723706 Y286.619554 Z-0.125000
G01 X2300.429302 Y286.619554 Z-0.125000
G01 X2297.243634 Y285.522184 Z-0.125000
G01 X2295.822419 Y284.424813 Z-0.125000
G01 X2295.097588 Y281.132702 Z-0.125000
G01 X2295.802043 Y278.937962 Z-0.125000
G01 X2298.649834 Y275.645851 Z-0.125000
G01 X2300.789728 Y274.548480 Z-0.125000
G01 X2304.712899 Y273.451110 Z-0.125000
G01 X2310.049524 Y273.451110 Z-0.125000
G00 Z5.000000

(Change tool to Default tool)

G00 Z5.000000
G00 X2372.726395 Y272.353739

G01 Z-0.125000 F100.0(Penetrate)
G01 X2370.804207 Y277.474802 Z-0.125000 F400.000000
G01 X2368.930506 Y282.595864 Z-0.125000
G01 X2367.104528 Y287.716926 Z-0.125000
G01 X2365.340865 Y287.716926 Z-0.125000
G00 Z5.000000

(Change tool to Default tool)

G00 Z5.000000
G00 X2372.726395 Y272.353739

G01 Z-0.125000 F100.0(Penetrate)
G01 X2370.946278 Y272.353739 Z-0.125000 F400.000000
G01 X2369.029735 Y277.474802 Z-0.125000
G01 X2367.161480 Y282.595864 Z-0.125000
G01 X2365.340865 Y287.716926 Z-0.125000
G00 Z5.000000

(Change tool to Default tool)

G00 Z5.000000
G00 X2369.300556 Y276.743221

G01 Z-0.125000 F100.0(Penetrate)
G01 X2365.194843 Y273.451110 Z-0.125000 F400.000000
G01 X2362.045808 Y272.353739 Z-0.125000
G01 X2356.705514 Y272.353739 Z-0.125000
G01 X2352.742691 Y273.451110 Z-0.125000
G01 X2349.772527 Y276.743221 Z-0.125000
G01 X2347.830020 Y282.230073 Z-0.125000
G01 X2345.940486 Y287.716925 Z-0.125000
G00 Z5.000000

(Change tool to Default tool)

G00 Z5.000000
G00 X2369.300556 Y276.743221

G01 Z-0.125000 F100.0(Penetrate)
G01 X2364.785931 Y274.548480 Z-0.125000 F400.000000
G01 X2361.637093 Y273.451110 Z-0.125000
G01 X2358.079315 Y273.451110 Z-0.125000
G01 X2354.119907 Y274.548480 Z-0.125000
G01 X2351.547818 Y276.743221 Z-0.125000
G01 X2349.599412 Y282.230073 Z-0.125000
G01 X2347.704149 Y287.716925 Z-0.125000
G01 X2345.940486 Y287.716925 Z-0.125000
G00 Z5.000000

(Change tool to Default tool)

G00 Z5.000000
G00 X2349.772527 Y276.743221

G01 Z-0.125000 F100.0(Penetrate)
G01 X2345.627163 Y273.451110 Z-0.125000 F400.000000
G01 X2342.464722 Y272.353739 Z-0.125000
G01 X2337.124456 Y272.353739 Z-0.125000
G01 X2333.174982 Y273.451110 Z-0.125000
G01 X2330.244528 Y276.743221 Z-0.125000
G01 X2328.366706 Y282.230073 Z-0.125000
G01 X2326.540079 Y287.716925 Z-0.125000
G00 Z5.000000

(Change tool to Default tool)

G00 Z5.000000
G00 X2349.772527 Y276.743221

G01 Z-0.125000 F100.0(Penetrate)
G01 X2345.231544 Y274.548480 Z-0.125000 F400.000000
G01 X2342.069385 Y273.451110 Z-0.125000
G01 X2338.511635 Y273.451110 Z-0.125000
G01 X2334.565491 Y274.548480 Z-0.125000
G01 X2332.019790 Y276.743221 Z-0.125000
G01 X2330.136098 Y282.230073 Z-0.125000
G01 X2328.303770 Y287.716925 Z-0.125000
G01 X2326.540079 Y287.716925 Z-0.125000
G00 Z5.000000

(Change tool to Default tool)

G00 Z5.000000
G00 X2400.745050 Y264.672147

G01 Z-0.125000 F100.0(Penetrate)
G01 X2401.975652 Y270.433341 Z-0.125000 F400.000000
G01 X2403.245878 Y276.194536 Z-0.125000
G01 X2404.555756 Y281.955730 Z-0.125000
G01 X2405.905314 Y287.716925 Z-0.125000
G00 Z5.000000

(Change tool to Default tool)

G00 Z5.000000
G00 X2399.403366 Y267.964258

G01 Z-0.125000 F100.0(Penetrate)
G01 X2400.545039 Y272.902425 Z-0.125000 F400.000000
G01 X2401.715274 Y277.840591 Z-0.125000
G01 X2402.914126 Y282.778758 Z-0.125000
G01 X2404.141651 Y287.716925 Z-0.125000
G01 X2405.905314 Y287.716925 Z-0.125000
G00 Z5.000000

(Change tool to Default tool)

G00 Z5.000000
G00 X2399.403366 Y267.964258

G01 Z-0.125000 F100.0(Penetrate)
G01 X2394.316818 Y272.902425 Z-0.125000 F400.000000
G01 X2389.296677 Y277.840591 Z-0.125000
G01 X2384.341589 Y282.778758 Z-0.125000
G01 X2379.450255 Y287.716925 Z-0.125000
G01 X2377.686563 Y287.716925 Z-0.125000
G00 Z5.000000

(Change tool to Default tool)

G00 Z5.000000
G00 X2400.745050 Y264.672147

G01 Z-0.125000 F100.0(Penetrate)
G01 X2394.846690 Y270.433341 Z-0.125000 F400.000000
G01 X2389.038896 Y276.194536 Z-0.125000
G01 X2383.319549 Y281.955730 Z-0.125000
G01 X2377.686563 Y287.716925 Z-0.125000
G00 Z5.000000

(Change tool to Default tool)

G00 Z5.000000
G00 X2403.101521 Y281.132702

G01 Z-0.125000 F100.0(Penetrate)
G01 X2385.395943 Y281.132702 Z-0.125000 F400.000000
G00 Z5.000000

(Change tool to Default tool)

G00 Z5.000000
G00 X2404.450600 Y282.230073

G01 Z-0.125000 F100.0(Penetrate)
G01 X2383.217893 Y282.230073 Z-0.125000 F400.000000
G00 Z5.000000

(Change tool to Default tool)

G00 Z5.000000
G00 X2403.717161 Y307.574226

G01 Z-0.125000 F100.0(Penetrate)
G01 X1118.282843 Y307.754418 Z-0.125000 F400.000000
G00 Z5.000000

(Change tool to Default tool)

G00 Z5.000000
G00 X2099.258055 Y336.797578

G01 Z-0.125000 F100.0(Penetrate)
G01 X2102.152357 Y333.617699 Z-0.125000 F400.000000
G01 X2109.614397 Y332.027757 Z-0.125000
G01 X2116.824836 Y332.027757 Z-0.125000
G01 X2123.767701 Y333.617699 Z-0.125000
G01 X2125.638100 Y336.797578 Z-0.125000
G01 X2122.721983 Y339.977458 Z-0.125000
G01 X2117.680647 Y341.567399 Z-0.125000
G01 X2105.235748 Y344.747279 Z-0.125000
G01 X2100.223312 Y346.337217 Z-0.125000
G00 Z5.000000

(Change tool to Default tool)

G00 Z5.000000
G00 X2102.846087 Y344.747279

G01 Z-0.125000 F100.0(Penetrate)
G01 X2099.992482 Y347.927158 Z-0.125000 F400.000000
G01 X2099.763938 Y349.517097 Z-0.125000
G01 X2101.695185 Y352.696977 Z-0.125000
G00 Z5.000000

(Change tool to Default tool)

G00 Z5.000000
G00 X2099.537653 Y351.107038

G01 Z-0.125000 F100.0(Penetrate)
G01 X2106.458334 Y352.696977 Z-0.125000 F400.000000
G01 X2113.603044 Y352.696977 Z-0.125000
G01 X2120.986118 Y351.107038 Z-0.125000
G00 Z5.000000

(Change tool to Default tool)

G00 Z5.000000
G00 X2118.366193 Y352.696977

G01 Z-0.125000 F100.0(Penetrate)
G01 X2121.226854 Y349.517097 Z-0.125000 F400.000000
G01 X2123.611603 Y349.517097 Z-0.125000
G00 Z5.000000

(Change tool to Default tool)

G00 Z5.000000
G00 X2099.258055 Y336.797578

G01 Z-0.125000 F100.0(Penetrate)
G01 X2101.656238 Y336.797578 Z-0.125000 F400.000000
G01 X2104.554068 Y333.617699 Z-0.125000
G00 Z5.000000

(Change tool to Default tool)

G00 Z5.000000
G00 X2101.903155 Y335.207637

G01 Z-0.125000 F100.0(Penetrate)
G01 X2109.357462 Y333.617699 Z-0.125000 F400.000000
G01 X2116.562595 Y333.617699 Z-0.125000
G01 X2123.502553 Y335.207637 Z-0.125000
G00 Z5.000000

(Change tool to Default tool)

G00 Z5.000000
G00 X2121.365989 Y333.617699

G01 Z-0.125000 F100.0(Penetrate)
G01 X2123.239889 Y336.797578 Z-0.125000 F400.000000
G01 X2120.327271 Y339.977458 Z-0.125000
G00 Z5.000000

(Change tool to Default tool)

G00 Z5.000000
G00 X2122.979708 Y338.387517

G01 Z-0.125000 F100.0(Penetrate)
G01 X2117.932530 Y339.977458 Z-0.125000 F400.000000
G01 X2105.474479 Y343.157338 Z-0.125000
G01 X2100.456399 Y344.747279 Z-0.125000
G01 X2097.606124 Y347.927158 Z-0.125000
G01 X2097.379189 Y349.517097 Z-0.125000
G01 X2099.313625 Y352.696977 Z-0.125000
G01 X2106.231823 Y354.286918 Z-0.125000
G01 X2113.371819 Y354.286918 Z-0.125000
G01 X2120.747782 Y352.696977 Z-0.125000
G01 X2123.611603 Y349.517097 Z-0.125000
G00 Z5.000000

(Change tool to Default tool)

G00 Z5.000000
G00 X2165.258093 Y343.157338

G01 Z-0.125000 F100.0(Penetrate)
G01 X2138.953316 Y343.157338 Z-0.125000 F400.000000
G01 X2139.754856 Y338.387517 Z-0.125000
G01 X2142.702046 Y335.207637 Z-0.125000
G01 X2145.383016 Y333.617699 Z-0.125000
G01 X2150.473656 Y332.027757 Z-0.125000
G01 X2157.684123 Y332.027757 Z-0.125000
G01 X2162.194937 Y333.617699 Z-0.125000
G01 X2166.407217 Y336.797578 Z-0.125000
G01 X2167.934293 Y341.567399 Z-0.125000
G01 X2167.367337 Y344.747279 Z-0.125000
G01 X2164.152628 Y349.517097 Z-0.125000
G01 X2158.852947 Y352.696977 Z-0.125000
G01 X2153.831846 Y354.286918 Z-0.125000
G01 X2146.691822 Y354.286918 Z-0.125000
G01 X2142.181939 Y352.696977 Z-0.125000
G01 X2137.920214 Y349.517097 Z-0.125000
G00 Z5.000000

(Change tool to Default tool)

G00 Z5.000000
G00 X2165.541275 Y341.567399

G01 Z-0.125000 F100.0(Penetrate)
G01 X2141.610947 Y341.567399 Z-0.125000 F400.000000
G01 X2142.151318 Y338.387517 Z-0.125000
G01 X2145.101979 Y335.207637 Z-0.125000
G01 X2150.186410 Y333.617699 Z-0.125000
G01 X2157.391515 Y333.617699 Z-0.125000
G01 X2161.901511 Y335.207637 Z-0.125000
G01 X2164.009034 Y336.797578 Z-0.125000
G01 X2165.541275 Y341.567399 Z-0.125000
G01 X2164.977677 Y344.747279 Z-0.125000
G01 X2161.767879 Y349.517097 Z-0.125000
G01 X2159.116711 Y351.107038 Z-0.125000
G01 X2154.089797 Y352.696977 Z-0.125000
G01 X2146.945088 Y352.696977 Z-0.125000
G01 X2142.434556 Y351.107038 Z-0.125000
G01 X2140.561080 Y347.927158 Z-0.125000
G01 X2137.920214 Y349.517097 Z-0.125000
G00 Z5.000000

(Change tool to Default tool)

G00 Z5.000000
G00 X2191.222876 Y320.898178

G01 Z-0.125000 F100.0(Penetrate)
G01 X2193.300822 Y322.488119 Z-0.125000 F400.000000
G01 X2192.965344 Y324.078058 Z-0.125000
G01 X2190.222088 Y325.667998 Z-0.125000
G01 X2187.811289 Y325.667998 Z-0.125000
G01 X2185.727360 Y324.078058 Z-0.125000
G01 X2186.057193 Y322.488119 Z-0.125000
G01 X2188.806433 Y320.898178 Z-0.125000
G01 X2191.222876 Y320.898178 Z-0.125000
G00 Z5.000000

(Change tool to Default tool)

G00 Z5.000000
G00 X2190.886270 Y322.488119

G01 Z-0.125000 F100.0(Penetrate)
G01 X2190.552683 Y324.078058 Z-0.125000 F400.000000
G01 X2188.140022 Y324.078058 Z-0.125000
G01 X2188.471746 Y322.488119 Z-0.125000
G01 X2190.886270 Y322.488119 Z-0.125000
G00 Z5.000000

(Change tool to Default tool)

G00 Z5.000000
G00 X2188.929425 Y332.027757

G01 Z-0.125000 F100.0(Penetrate)
G01 X2187.837000 Y337.592548 Z-0.125000 F400.000000
G01 X2186.780218 Y343.157338 Z-0.125000
G01 X2185.758630 Y348.722128 Z-0.125000
G01 X2184.771840 Y354.286918 Z-0.125000
G01 X2182.391832 Y354.286918 Z-0.125000
G00 Z5.000000

(Change tool to Default tool)

G00 Z5.000000
G00 X2188.929425 Y332.027757

G01 Z-0.125000 F100.0(Penetrate)
G01 X2186.525936 Y332.027757 Z-0.125000 F400.000000
G01 X2185.439691 Y337.592548 Z-0.125000
G01 X2184.388865 Y343.157338 Z-0.125000
G01 X2183.373034 Y348.722128 Z-0.125000
G01 X2182.391832 Y354.286918 Z-0.125000
G00 Z5.000000

(Change tool to Default tool)

G00 Z5.000000
G00 X2222.578217 Y332.027757

G01 Z-0.125000 F100.0(Penetrate)
G01 X2221.399431 Y337.592548 Z-0.125000 F400.000000
G01 X2220.259056 Y343.157338 Z-0.125000
G01 X2219.156667 Y348.722128 Z-0.125000
G01 X2218.091843 Y354.286918 Z-0.125000
G01 X2215.711835 Y354.286918 Z-0.125000
G00 Z5.000000

(Change tool to Default tool)

G00 Z5.000000
G00 X2222.578217 Y332.027757

G01 Z-0.125000 F100.0(Penetrate)
G01 X2220.174756 Y332.027757 Z-0.125000 F400.000000
G01 X2219.002094 Y337.592548 Z-0.125000
G01 X2217.867702 Y343.157338 Z-0.125000
G01 X2216.771099 Y348.722128 Z-0.125000
G01 X2215.711835 Y354.286918 Z-0.125000
G00 Z5.000000

(Change tool to Default tool)

G00 Z5.000000
G00 X2218.187940 Y341.567399

G01 Z-0.125000 F100.0(Penetrate)
G01 X2216.769096 Y336.797578 Z-0.125000 F400.000000
G01 X2212.630674 Y333.617699 Z-0.125000
G01 X2208.157310 Y332.027757 Z-0.125000
G01 X2200.946843 Y332.027757 Z-0.125000
G00 Z5.000000

(Change tool to Default tool)

G00 Z5.000000
G00 X2218.187940 Y341.567399

G01 Z-0.125000 F100.0(Penetrate)
G01 X2216.441266 Y338.387517 Z-0.125000 F400.000000
G01 X2212.300135 Y335.207637 Z-0.125000
G01 X2207.827251 Y333.617699 Z-0.125000
G01 X2200.622146 Y333.617699 Z-0.125000
G01 X2200.946843 Y332.027757 Z-0.125000
G00 Z5.000000

(Change tool to Default tool)

G00 Z5.000000
G00 X2258.630525 Y332.027757

G01 Z-0.125000 F100.0(Penetrate)
G01 X2263.066410 Y333.617699 Z-0.125000 F400.000000
G01 X2267.130946 Y336.797578 Z-0.125000
G01 X2268.441586 Y341.567399 Z-0.125000
G01 X2267.733744 Y344.747279 Z-0.125000
G01 X2264.312816 Y349.517097 Z-0.125000
G01 X2258.878994 Y352.696977 Z-0.125000
G01 X2253.791854 Y354.286918 Z-0.125000
G01 X2246.651829 Y354.286918 Z-0.125000
G01 X2242.207986 Y352.696977 Z-0.125000
G01 X2238.080373 Y349.517097 Z-0.125000
G01 X2236.667964 Y344.747279 Z-0.125000
G01 X2237.332174 Y341.567399 Z-0.125000
G01 X2240.750929 Y336.797578 Z-0.125000
G01 X2246.254488 Y333.617699 Z-0.125000
G01 X2251.420058 Y332.027757 Z-0.125000
G01 X2258.630525 Y332.027757 Z-0.125000
G00 Z5.000000

(Change tool to Default tool)

G00 Z5.000000
G00 X2258.263016 Y333.617699

G01 Z-0.125000 F100.0(Penetrate)
G01 X2262.698787 Y335.207637 Z-0.125000 F400.000000
G01 X2264.732763 Y336.797578 Z-0.125000
G01 X2266.048539 Y341.567399 Z-0.125000
G01 X2265.344056 Y344.747279 Z-0.125000
G01 X2261.928038 Y349.517097 Z-0.125000
G01 X2259.209476 Y351.107038 Z-0.125000
G01 X2254.115873 Y352.696977 Z-0.125000
G01 X2246.971135 Y352.696977 Z-0.125000
G01 X2242.527349 Y351.107038 Z-0.125000
G01 X2240.465151 Y349.517097 Z-0.125000
G01 X2239.057624 Y344.747279 Z-0.125000
G01 X2239.725221 Y341.567399 Z-0.125000
G01 X2243.149112 Y336.797578 Z-0.125000
G01 X2245.899227 Y335.207637 Z-0.125000
G01 X2251.057910 Y333.617699 Z-0.125000
G01 X2258.263016 Y333.617699 Z-0.125000
G00 Z5.000000

(Change tool to Default tool)

G00 Z5.000000
G00 X2292.713431 Y320.898178

G01 Z-0.125000 F100.0(Penetrate)
G01 X2291.272037 Y326.462967 Z-0.125000 F400.000000
G01 X2289.875828 Y332.027757 Z-0.125000
G01 X2288.524237 Y337.592548 Z-0.125000
G01 X2287.216702 Y343.157338 Z-0.125000
G01 X2285.952741 Y348.722128 Z-0.125000
G01 X2284.731848 Y354.286918 Z-0.125000
G01 X2282.351840 Y354.286918 Z-0.125000
G00 Z5.000000

(Change tool to Default tool)

G00 Z5.000000
G00 X2292.713431 Y320.898178

G01 Z-0.125000 F100.0(Penetrate)
G01 X2290.296988 Y320.898178 Z-0.125000 F400.000000
G01 X2288.862198 Y326.462967 Z-0.125000
G01 X2287.472367 Y332.027757 Z-0.125000
G01 X2286.126929 Y337.592548 Z-0.125000
G01 X2284.825376 Y343.157338 Z-0.125000
G01 X2283.567173 Y348.722128 Z-0.125000
G01 X2282.351840 Y354.286918 Z-0.125000
G00 Z5.000000

(Change tool to Default tool)

G00 Z5.000000
G00 X2311.507201 Y332.027757

G01 Z-0.125000 F100.0(Penetrate)
G01 X2310.100070 Y337.592548 Z-0.125000 F400.000000
G01 X2308.738827 Y343.157338 Z-0.125000
G01 X2307.422910 Y348.722128 Z-0.125000
G01 X2306.151837 Y354.286918 Z-0.125000
G01 X2303.771857 Y354.286918 Z-0.125000
G00 Z5.000000

(Change tool to Default tool)

G00 Z5.000000
G00 X2311.507201 Y332.027757

G01 Z-0.125000 F100.0(Penetrate)
G01 X2309.103712 Y332.027757 Z-0.125000 F400.000000
G01 X2307.702761 Y337.592548 Z-0.125000
G01 X2306.347474 Y343.157338 Z-0.125000
G01 X2305.037342 Y348.722128 Z-0.125000
G01 X2303.771857 Y354.286918 Z-0.125000
G00 Z5.000000

(Change tool to Default tool)

G00 Z5.000000
G00 X2310.298274 Y336.797578

G01 Z-0.125000 F100.0(Penetrate)
G01 X2315.903857 Y333.617699 Z-0.125000 F400.000000
G01 X2321.121158 Y332.027757 Z-0.125000
G01 X2328.331625 Y332.027757 Z-0.125000
G01 X2332.715778 Y333.617699 Z-0.125000
G01 X2336.678291 Y336.797578 Z-0.125000
G01 X2337.839466 Y341.567399 Z-0.125000
G01 X2337.034343 Y344.747279 Z-0.125000
G01 X2333.471033 Y349.517097 Z-0.125000
G01 X2327.944614 Y352.696977 Z-0.125000
G01 X2322.811838 Y354.286918 Z-0.125000
G01 X2315.671842 Y354.286918 Z-0.125000
G01 X2311.273606 Y352.696977 Z-0.125000
G01 X2307.238590 Y349.517097 Z-0.125000
G00 Z5.000000

(Change tool to Default tool)

G00 Z5.000000
G00 X2310.298274 Y336.797578

G01 Z-0.125000 F100.0(Penetrate)
G01 X2320.707279 Y333.617699 Z-0.125000 F400.000000
G01 X2327.912384 Y333.617699 Z-0.125000
G01 X2332.296904 Y335.207637 Z-0.125000
G01 X2334.280108 Y336.797578 Z-0.125000
G01 X2335.446448 Y341.567399 Z-0.125000
G01 X2334.644682 Y344.747279 Z-0.125000
G01 X2331.086255 Y349.517097 Z-0.125000
G01 X2328.321155 Y351.107038 Z-0.125000
G01 X2323.181465 Y352.696977 Z-0.125000
G01 X2316.036755 Y352.696977 Z-0.125000
G01 X2307.238590 Y349.517097 Z-0.125000
G00 Z5.000000

(Change tool to Default tool)

G00 Z5.000000
G00 X2355.659965 Y328.847878

G01 Z-0.125000 F100.0(Penetrate)
G01 X2358.977234 Y325.667998 Z-0.125000 F400.000000
G01 X2364.733156 Y322.488119 Z-0.125000
G01 X2370.039554 Y320.898178 Z-0.125000
G01 X2379.705299 Y320.898178 Z-0.125000
G01 X2384.049461 Y322.488119 Z-0.125000
G01 X2387.906705 Y325.667998 Z-0.125000
G01 X2389.359415 Y328.847878 Z-0.125000
G01 X2390.356619 Y333.617699 Z-0.125000
G01 X2389.211475 Y337.592548 Z-0.125000
G01 X2388.093113 Y341.567399 Z-0.125000
G01 X2384.398118 Y346.337217 Z-0.125000
G01 X2381.166363 Y349.517097 Z-0.125000
G01 X2375.576077 Y352.696977 Z-0.125000
G01 X2370.411862 Y354.286918 Z-0.125000
G01 X2360.891857 Y354.286918 Z-0.125000
G01 X2356.523509 Y352.696977 Z-0.125000
G01 X2352.549171 Y349.517097 Z-0.125000
G01 X2350.965791 Y346.337217 Z-0.125000
G00 Z5.000000

(Change tool to Default tool)

G00 Z5.000000
G00 X2355.659965 Y328.847878

G01 Z-0.125000 F100.0(Penetrate)
G01 X2358.067067 Y328.847878 Z-0.125000 F400.000000
G01 X2361.388032 Y325.667998 Z-0.125000
G01 X2364.263877 Y324.078058 Z-0.125000
G01 X2369.562232 Y322.488119 Z-0.125000
G01 X2379.220385 Y322.488119 Z-0.125000
G01 X2383.565139 Y324.078058 Z-0.125000
G01 X2386.952314 Y328.847878 Z-0.125000
G01 X2387.954937 Y333.617699 Z-0.125000
G01 X2386.814166 Y337.592548 Z-0.125000
G01 X2385.700066 Y341.567399 Z-0.125000
G01 X2382.010095 Y346.337217 Z-0.125000
G01 X2375.984396 Y351.107038 Z-0.125000
G01 X2370.812928 Y352.696977 Z-0.125000
G01 X2361.286630 Y352.696977 Z-0.125000
G01 X2356.919100 Y351.107038 Z-0.125000
G01 X2354.933920 Y349.517097 Z-0.125000
G01 X2353.353815 Y346.337217 Z-0.125000
G01 X2350.965791 Y346.337217 Z-0.125000
G00 Z5.000000

(Change tool to Default tool)

G00 Z5.000000
G00 X1140.089731 Y322.894045

G01 Z-0.125000 F100.0(Penetrate)
G01 X1147.621537 Y324.390459 Z-0.125000 F400.000000
G01 X1153.660500 Y328.879701 Z-0.125000
G01 X1155.911222 Y332.620737 Z-0.125000
G01 X1158.134569 Y336.361774 Z-0.125000
G01 X1159.362856 Y340.851015 Z-0.125000
G01 X1159.193184 Y344.592051 Z-0.125000
G01 X1159.004688 Y348.333084 Z-0.125000
G01 X1155.494351 Y352.822328 Z-0.125000
G01 X1148.892045 Y354.318741 Z-0.125000
G01 X1144.238736 Y354.318741 Z-0.125000
G01 X1136.869519 Y352.822328 Z-0.125000
G01 X1131.014396 Y348.333084 Z-0.125000
G01 X1128.821219 Y344.592051 Z-0.125000
G01 X1126.600440 Y340.851015 Z-0.125000
G01 X1125.305520 Y336.361774 Z-0.125000
G01 X1125.374269 Y332.620737 Z-0.125000
G01 X1125.422727 Y328.879701 Z-0.125000
G01 X1128.755517 Y324.390459 Z-0.125000
G01 X1135.369762 Y322.894045 Z-0.125000
G01 X1140.089731 Y322.894045 Z-0.125000
G00 Z5.000000

(Change tool to Default tool)

G00 Z5.000000
G00 X1177.849428 Y322.894045

G01 Z-0.125000 F100.0(Penetrate)
G01 X1185.221326 Y328.131493 Z-0.125000 F400.000000
G01 X1192.519988 Y333.368945 Z-0.125000
G01 X1199.747248 Y338.606394 Z-0.125000
G01 X1206.904911 Y343.843843 Z-0.125000
G01 X1171.848847 Y343.843843 Z-0.125000
G00 Z5.000000

(Change tool to Default tool)

G00 Z5.000000
G00 X1177.849428 Y322.894045

G01 Z-0.125000 F100.0(Penetrate)
G01 X1179.628416 Y329.178984 Z-0.125000 F400.000000
G01 X1181.343960 Y335.463923 Z-0.125000
G01 X1182.996964 Y341.748862 Z-0.125000
G01 X1184.588217 Y348.033802 Z-0.125000
G01 X1186.118567 Y354.318741 Z-0.125000
G00 Z5.000000

(Change tool to Default tool)

G00 Z5.000000
G00 X1262.808788 Y322.894045

G01 Z-0.125000 F100.0(Penetrate)
G01 X1264.347435 Y329.253804 Z-0.125000 F400.000000
G01 X1265.830597 Y335.613566 Z-0.125000
G01 X1267.259009 Y341.973325 Z-0.125000
G01 X1268.633403 Y348.333084 Z-0.125000
G01 X1267.243317 Y352.822328 Z-0.125000
G01 X1262.898280 Y354.318741 Z-0.125000
G01 X1258.244944 Y354.318741 Z-0.125000
G00 Z5.000000

(Change tool to Default tool)

G00 Z5.000000
G00 X1272.357946 Y333.368945

G01 Z-0.125000 F100.0(Penetrate)
G01 X1255.920703 Y333.368945 Z-0.125000 F400.000000
G00 Z5.000000

(Change tool to Default tool)

G00 Z5.000000
G00 X1286.446987 Y333.368945

G01 Z-0.125000 F100.0(Penetrate)
G01 X1287.592386 Y338.606394 Z-0.125000 F400.000000
G01 X1288.702451 Y343.843843 Z-0.125000
G01 X1289.777576 Y349.081292 Z-0.125000
G01 X1290.818158 Y354.318741 Z-0.125000
G00 Z5.000000

(Change tool to Default tool)

G00 Z5.000000
G00 X1287.430927 Y337.858186

G01 Z-0.125000 F100.0(Penetrate)
G01 X1291.470966 Y334.865358 Z-0.125000 F400.000000
G01 X1295.839710 Y333.368945 Z-0.125000
G01 X1302.884230 Y333.368945 Z-0.125000
G01 X1307.896808 Y334.865358 Z-0.125000
G01 X1313.207581 Y337.858186 Z-0.125000
G01 X1316.452261 Y342.347428 Z-0.125000
G01 X1317.039707 Y345.340256 Z-0.125000
G01 X1315.569753 Y349.829500 Z-0.125000
G01 X1311.477305 Y352.822328 Z-0.125000
G01 X1307.104751 Y354.318741 Z-0.125000
G01 X1300.124803 Y354.318741 Z-0.125000
G01 X1295.180580 Y352.822328 Z-0.125000
G01 X1289.928340 Y349.829500 Z-0.125000
G00 Z5.000000

(Change tool to Default tool)

G00 Z5.000000
G00 X1352.488117 Y322.894045

G01 Z-0.125000 F100.0(Penetrate)
G01 X1353.736555 Y329.178984 Z-0.125000 F400.000000
G01 X1354.940487 Y335.463923 Z-0.125000
G01 X1356.100533 Y341.748862 Z-0.125000
G01 X1357.217258 Y348.033802 Z-0.125000
G01 X1358.291226 Y354.318741 Z-0.125000
G00 Z5.000000

(Change tool to Default tool)

G00 Z5.000000
G00 X1352.488117 Y322.894045

G01 Z-0.125000 F100.0(Penetrate)
G01 X1321.808359 Y322.894045 Z-0.125000 F400.000000
G00 Z5.000000

(Change tool to Default tool)

G00 Z5.000000
G00 X1355.387555 Y337.858186

G01 Z-0.125000 F100.0(Penetrate)
G01 X1336.640915 Y337.858186 Z-0.125000 F400.000000
G00 Z5.000000

(Change tool to Default tool)

G00 Z5.000000
G00 X1462.560174 Y333.368945

G01 Z-0.125000 F100.0(Penetrate)
G01 X1463.282663 Y338.606394 Z-0.125000 F400.000000
G01 X1463.982885 Y343.843843 Z-0.125000
G01 X1464.661093 Y349.081292 Z-0.125000
G01 X1465.317457 Y354.318741 Z-0.125000
G00 Z5.000000

(Change tool to Default tool)

G00 Z5.000000
G00 X1463.384066 Y339.354602

G01 Z-0.125000 F100.0(Penetrate)
G01 X1455.729239 Y334.865358 Z-0.125000 F400.000000
G01 X1450.819278 Y333.368945 Z-0.125000
G01 X1443.774758 Y333.368945 Z-0.125000
G01 X1439.303426 Y334.865358 Z-0.125000
G01 X1437.624853 Y339.354602 Z-0.125000
G01 X1438.346269 Y344.342648 Z-0.125000
G01 X1439.045983 Y349.330695 Z-0.125000
G01 X1439.724219 Y354.318741 Z-0.125000
G00 Z5.000000

(Change tool to Default tool)

G00 Z5.000000
G00 X1437.624853 Y339.354602

G01 Z-0.125000 F100.0(Penetrate)
G01 X1429.917223 Y334.865358 Z-0.125000 F400.000000
G01 X1424.989369 Y333.368945 Z-0.125000
G01 X1417.944820 Y333.368945 Z-0.125000
G01 X1413.491410 Y334.865358 Z-0.125000
G01 X1411.865640 Y339.354602 Z-0.125000
G01 X1412.644094 Y344.342648 Z-0.125000
G01 X1413.399123 Y349.330695 Z-0.125000
G01 X1414.131010 Y354.318741 Z-0.125000
G00 Z5.000000

(Change tool to Default tool)

G00 Z5.000000
G00 X1497.782806 Y333.368945

G01 Z-0.125000 F100.0(Penetrate)
G01 X1502.660171 Y334.865358 Z-0.125000 F400.000000
G01 X1507.704131 Y337.858186 Z-0.125000
G01 X1510.557426 Y342.347428 Z-0.125000
G01 X1510.889771 Y345.340256 Z-0.125000
G01 X1509.045900 Y349.829500 Z-0.125000
G01 X1504.709894 Y352.822328 Z-0.125000
G01 X1500.217311 Y354.318741 Z-0.125000
G01 X1493.237363 Y354.318741 Z-0.125000
G01 X1488.413169 Y352.822328 Z-0.125000
G01 X1483.404487 Y349.829500 Z-0.125000
G01 X1480.527711 Y345.340256 Z-0.125000
G01 X1480.155404 Y342.347428 Z-0.125000
G01 X1481.927477 Y337.858186 Z-0.125000
G01 X1486.234357 Y334.865358 Z-0.125000
G01 X1490.738285 Y333.368945 Z-0.125000
G01 X1497.782806 Y333.368945 Z-0.125000
G00 Z5.000000

(Change tool to Default tool)

G00 Z5.000000
G00 X1537.701785 Y333.368945

G01 Z-0.125000 F100.0(Penetrate)
G01 X1538.243849 Y338.606394 Z-0.125000 F400.000000
G01 X1538.769206 Y343.843843 Z-0.125000
G01 X1539.278024 Y349.081292 Z-0.125000
G01 X1539.770502 Y354.318741 Z-0.125000
G00 Z5.000000

(Change tool to Default tool)

G00 Z5.000000
G00 X1538.620813 Y342.347428

G01 Z-0.125000 F100.0(Penetrate)
G01 X1535.824104 Y337.858186 Z-0.125000 F400.000000
G01 X1530.818752 Y334.865358 Z-0.125000
G01 X1525.960917 Y333.368945 Z-0.125000
G01 X1518.916368 Y333.368945 Z-0.125000
G00 Z5.000000

(Change tool to Default tool)

G00 Z5.000000
G00 X1550.726623 Y322.894045

G01 Z-0.125000 F100.0(Penetrate)
G01 X1555.446592 Y322.894045 Z-0.125000 F400.000000
G01 X1560.315603 Y324.390459 Z-0.125000
G01 X1563.108333 Y328.879701 Z-0.125000
G01 X1563.704866 Y335.239460 Z-0.125000
G01 X1564.279414 Y341.599223 Z-0.125000
G01 X1564.832287 Y347.958982 Z-0.125000
G01 X1565.363740 Y354.318741 Z-0.125000
G00 Z5.000000

(Change tool to Default tool)

G00 Z5.000000
G00 X1570.576243 Y333.368945

G01 Z-0.125000 F100.0(Penetrate)
G01 X1554.139028 Y333.368945 Z-0.125000 F400.000000
G00 Z5.000000

(Change tool to Default tool)

G00 Z5.000000
G00 X1620.184052 Y337.858186

G01 Z-0.125000 F100.0(Penetrate)
G01 X1622.334077 Y334.865358 Z-0.125000 F400.000000
G01 X1629.280639 Y333.368945 Z-0.125000
G01 X1636.325160 Y333.368945 Z-0.125000
G01 X1643.452992 Y334.865358 Z-0.125000
G01 X1645.960706 Y337.858186 Z-0.125000
G01 X1643.778874 Y340.851015 Z-0.125000
G01 X1639.181305 Y342.347428 Z-0.125000
G01 X1627.577964 Y343.843843 Z-0.125000
G01 X1622.995804 Y345.340256 Z-0.125000
G01 X1620.844734 Y348.333084 Z-0.125000
G01 X1620.935695 Y349.829500 Z-0.125000
G01 X1623.443183 Y352.822328 Z-0.125000
G01 X1630.510140 Y354.318741 Z-0.125000
G01 X1637.490116 Y354.318741 Z-0.125000
G01 X1644.396122 Y352.822328 Z-0.125000
