%
(Header)
(Generated by gcodetools from Inkscape.)
(Using default header. To add your own header create file "header" in the output dir.)
M3
(Header end.)
G21 (All units in mm)

(Start cutting path id: path5276)
(Change tool to Default tool)

G00 Z5.000000
G00 X1870.504130 Y16.702630

G01 Z-0.125000 F100.0(Penetrate)
G02 X1835.800211 Y19.817117 Z-0.125000 I20.198200 J419.968948 F400.000000
G02 X1826.953967 Y22.438656 Z-0.125000 I3.849087 J29.224900
G02 X1812.930989 Y33.798318 Z-0.125000 I16.654786 J34.894754
G02 X1786.490694 Y75.179780 Z-0.125000 I227.228544 J174.323152
G01 X1782.030906 Y83.699731 Z-0.125000
G01 X1779.845687 Y83.699731 Z-0.125000
G02 X1763.095028 Y84.308466 Z-0.125000 I0.000000 J230.769392
G02 X1743.419829 Y86.351265 Z-0.125000 I23.308461 J320.267431
G02 X1719.014214 Y90.504029 Z-0.125000 I48.300880 J357.653947
G02 X1698.504868 Y95.587693 Z-0.125000 I53.056247 J257.961077
G01 X1697.205093 Y95.969483 Z-0.125000
G01 X1697.205093 Y83.334168 Z-0.125000
G02 X1695.691467 Y58.300677 Z-0.125000 I-207.768194 J-0.000000
G02 X1692.395977 Y44.719846 Z-0.125000 I-59.283624 J7.195361
G02 X1685.473007 Y33.519346 Z-0.125000 I-31.333515 J11.627305
G02 X1676.449512 Y27.395635 Z-0.125000 I-18.035975 J16.866553
G02 X1670.642272 Y25.605202 Z-0.125000 I-14.925941 J38.098986
G02 X1656.416927 Y22.817229 Z-0.125000 I-51.770766 J226.469282
G02 X1610.302338 Y18.542124 Z-0.125000 I-53.560535 J326.894003
G02 X1566.075278 Y20.786329 Z-0.125000 I-6.807316 J302.765090
G02 X1541.893993 Y25.522272 Z-0.125000 I21.921897 J176.032862
G02 X1536.156336 Y28.839992 Z-0.125000 I3.333245 J12.384710
G02 X1533.349975 Y37.689446 Z-0.125000 I7.131158 J7.131158
G02 X1540.266843 Y52.903264 Z-0.125000 I32.581329 J-5.633634
G02 X1554.202651 Y66.872677 Z-0.125000 I75.212576 J-61.095794
G02 X1586.002256 Y90.203429 Z-0.125000 I241.619050 J-295.987934
G02 X1611.928930 Y106.655398 Z-0.125000 I529.358801 J-805.562125
G02 X1618.999989 Y110.411500 Z-0.125000 I34.172045 J-55.796802
G03 X1620.229951 Y111.124364 Z-0.125000 I-3.855131 J8.069082
G03 X1620.372859 Y111.396879 Z-0.125000 I-0.188380 J0.272515
G03 X1620.209218 Y111.632944 Z-0.125000 I-0.252092 J0.000000
G03 X1612.720488 Y114.262055 Z-0.125000 I-66.728187 J-178.087834
G02 X1588.672951 Y123.163904 Z-0.125000 I105.963498 J323.182829
G02 X1564.101275 Y134.375864 Z-0.125000 I144.082361 J348.296171
G02 X1535.973379 Y150.048403 Z-0.125000 I162.444771 J324.620859
G02 X1514.922479 Y164.491085 Z-0.125000 I137.905561 J223.566643
G02 X1495.865423 Y181.494195 Z-0.125000 I98.462113 J129.537277
G02 X1490.900224 Y190.017922 Z-0.125000 I15.218676 J14.573121
G02 X1496.264589 Y201.727719 Z-0.125000 I9.350064 J2.800281
G02 X1551.063003 Y216.931114 Z-0.125000 I77.691340 J-173.668944
G02 X1577.901755 Y218.765057 Z-0.125000 I30.893853 J-254.812367
G02 X1592.411720 Y217.589115 Z-0.125000 I1.191442 J-75.406062
G01 X1594.775670 Y217.166713 Z-0.125000
G01 X1595.181816 Y226.546142 Z-0.125000
G02 X1601.857568 Y276.135381 Z-0.125000 I265.231798 J-10.461797
G02 X1620.437855 Y335.279423 Z-0.125000 I396.720877 J-92.140563
G03 X1624.294563 Y345.067532 Z-0.125000 I-909.639293 J364.069694
G03 X1624.264054 Y345.147887 Z-0.125000 I-0.059894 J0.023229
G03 X1621.349081 Y346.076289 Z-0.125000 I-234.153346 J-730.148436
G03 X1618.195768 Y347.068268 Z-0.125000 I-319.539156 J-1010.246158
G02 X1591.518236 Y361.708784 Z-0.125000 I22.951640 J73.447607
G02 X1573.069620 Y385.154609 Z-0.125000 I47.683166 J56.501209
G02 X1567.001758 Y402.515807 Z-0.125000 I64.727184 J32.363592
G02 X1565.758428 Y419.629182 Z-0.125000 I61.768069 J13.089460
G02 X1571.223423 Y441.499310 Z-0.125000 I62.353161 J-3.963186
G02 X1583.662690 Y459.071319 Z-0.125000 I51.966649 J-23.598419
G01 X1588.650516 Y463.856876 Z-0.125000
G01 X1583.776426 Y469.334527 Z-0.125000
G02 X1574.719606 Y480.298932 Z-0.125000 I142.723249 J127.115038
G02 X1565.157322 Y493.662055 Z-0.125000 I203.343083 J155.609548
G02 X1539.061079 Y547.176624 Z-0.125000 I183.533159 J122.619648
G02 X1526.529990 Y610.834883 Z-0.125000 I248.956752 J82.069479
G03 X1525.537059 Y615.869319 Z-0.125000 I-19.804514 J-1.290866
G03 X1521.217213 Y626.713115 Z-0.125000 I-101.123884 J-34.002405
G02 X1499.121697 Y682.742167 Z-0.125000 I471.532655 J218.324065
G02 X1495.628124 Y704.553487 Z-0.125000 I66.340188 J21.811319
G02 X1497.120229 Y710.417537 Z-0.125000 I12.269060 J0.000000
G02 X1502.923032 Y717.962979 Z-0.125000 I26.694254 J-14.525110
G02 X1517.935446 Y729.550387 Z-0.125000 I64.890950 J-68.552821
G02 X1542.647024 Y742.690159 Z-0.125000 I108.799745 J-174.809393
G02 X1566.598423 Y751.460574 Z-0.125000 I74.922678 J-167.518644
G02 X1579.097266 Y753.231235 Z-0.125000 I12.498842 J-43.228447
G03 X1581.530749 Y753.932506 Z-0.125000 I-0.000000 J4.572855
G03 X1587.968159 Y758.811279 Z-0.125000 I-24.628399 J39.182896
G02 X1657.686621 Y803.735575 Z-0.125000 I170.862538 J-188.602734
G02 X1742.006319 Y825.528928 Z-0.125000 I111.534049 J-257.515971
G02 X1767.110666 Y826.676668 Z-0.125000 I23.696240 J-243.178653
G02 X1791.974103 Y825.244605 Z-0.125000 I-1.386821 J-240.633108
G02 X1858.724901 Y808.663777 Z-0.125000 I-28.140337 J-255.939347
G02 X1912.965762 Y777.280915 Z-0.125000 I-78.788187 J-198.739571
G03 X1918.461192 Y773.851043 Z-0.125000 I17.746390 J22.316335
G03 X1925.459739 Y771.335311 Z-0.125000 I16.157270 J33.955578
G02 X1961.366300 Y758.360994 Z-0.125000 I-46.203341 J-184.041295
G02 X1989.846877 Y740.433445 Z-0.125000 I-63.844608 J-133.013241
G02 X1993.155724 Y737.480089 Z-0.125000 I-26.375299 J-32.880300
G02 X1994.257898 Y736.048366 Z-0.125000 I-4.783178 J-4.822301
G02 X1995.388164 Y732.327055 Z-0.125000 I-7.215706 J-4.223913
G02 X1995.338357 Y718.060462 Z-0.125000 I-111.962822 J-6.742508
G02 X1992.193668 Y693.967109 Z-0.125000 I-191.590671 J12.754711
G02 X1987.531526 Y678.169107 Z-0.125000 I-86.237366 J16.862551
G01 X1985.411303 Y672.858765 Z-0.125000
G01 X1987.450444 Y664.377810 Z-0.125000
G02 X1991.360894 Y641.782274 Z-0.125000 I-170.160059 J-41.084550
G02 X1992.251354 Y619.213482 Z-0.125000 I-169.291691 J-17.981429
G02 X1991.188296 Y601.400038 Z-0.125000 I-262.380618 J6.719728
G02 X1988.920793 Y583.477311 Z-0.125000 I-279.006982 J26.193901
G02 X1968.303344 Y519.905482 Z-0.125000 I-212.878054 J33.910840
G02 X1934.363117 Y475.891876 Z-0.125000 I-132.879444 J67.374400
G03 X1927.871072 Y469.945279 Z-0.125000 I192.401112 J-216.566035
G03 X1927.766821 Y469.653805 Z-0.125000 I0.234397 J-0.248216
G03 X1927.899304 Y469.380515 Z-0.125000 I0.348120 J0.000000
G03 X1931.836692 Y466.419821 Z-0.125000 I65.550403 J83.076140
G02 X1943.597074 Y455.361224 Z-0.125000 I-35.117226 J-49.128439
G02 X1950.277092 Y443.721083 Z-0.125000 I-32.475781 J-26.373954
G02 X1952.829317 Y432.692102 Z-0.125000 I-40.023199 J-15.071596
G02 X1952.332347 Y422.097103 Z-0.125000 I-37.425865 J-3.553655
G02 X1947.543321 Y409.444822 Z-0.125000 I-38.687683 J7.411220
G02 X1936.142161 Y394.737888 Z-0.125000 I-64.206644 J38.001802
G02 X1926.535898 Y386.432089 Z-0.125000 I-61.053530 J60.904795
G02 X1910.959246 Y376.013996 Z-0.125000 I-112.447615 J151.272684
G03 X1908.711195 Y374.398842 Z-0.125000 I8.740005 J-14.536827
G03 X1907.449898 Y373.031866 Z-0.125000 I4.995931 J-5.875088
G01 X1906.353238 Y371.494066 Z-0.125000
G01 X1910.252505 Y370.240632 Z-0.125000
G02 X1930.314828 Y356.976865 Z-0.125000 I-13.620429 J-42.406475
G02 X1939.326587 Y336.644983 Z-0.125000 I-28.823955 J-24.938821
G02 X1938.751661 Y321.987009 Z-0.125000 I-45.714514 J-5.547212
G02 X1933.867591 Y309.617238 Z-0.125000 I-37.041215 J7.476225
G01 X1931.861076 Y306.367026 Z-0.125000
G01 X1933.575124 Y300.609072 Z-0.125000
G02 X1936.916499 Y287.077639 Z-0.125000 I-139.007032 J-41.503877
G02 X1939.651538 Y269.721796 Z-0.125000 I-228.500135 J-44.901854
G02 X1941.024837 Y247.962016 Z-0.125000 I-194.384735 J-23.191202
G02 X1939.976489 Y226.396649 Z-0.125000 I-193.262426 J-1.413173
G02 X1924.549867 Y165.023997 Z-0.125000 I-224.047449 J23.691394
G02 X1898.554648 Y124.816912 Z-0.125000 I-119.381482 J48.677172
G02 X1884.986424 Y112.992947 Z-0.125000 I-69.840338 J66.446232
G02 X1866.889174 Y102.054815 Z-0.125000 I-77.546021 J107.860570
G03 X1860.258083 Y98.609136 Z-0.125000 I109.788341 J-219.387371
G03 X1860.244138 Y98.472371 Z-0.125000 I0.039417 J-0.073113
G03 X1860.417762 Y98.343718 Z-0.125000 I0.411708 J0.374138
G03 X1870.544770 Y93.569014 Z-0.125000 I1433.648237 J3027.598897
G02 X1880.596410 Y88.696709 Z-0.125000 I-180.559388 J-385.301361
G02 X1892.786957 Y82.425977 Z-0.125000 I-289.277351 J-577.351219
G02 X1949.432882 Y44.784586 Z-0.125000 I-157.307610 J-298.173161
G02 X1956.288510 Y30.283530 Z-0.125000 I-11.908536 J-14.501055
G02 X1952.267569 Y23.300830 Z-0.125000 I-8.073492 J-0.000000
G02 X1933.802595 Y17.236341 Z-0.125000 I-23.562311 J40.598769
G02 X1911.120889 Y15.909250 Z-0.125000 I-24.590126 J225.783712
G02 X1870.544770 Y16.716459 Z-0.125000 I-6.027150 J717.258912
G01 X1870.504130 Y16.702630 Z-0.125000
G00 Z5.000000

(Change tool to Default tool)

G00 Z5.000000
G00 X1901.974674 Y20.878136

G01 Z-0.125000 F100.0(Penetrate)
G03 X1899.191194 Y27.556276 Z-0.125000 I-35.315117 J-10.800353 F400.000000
G03 X1891.170360 Y40.887184 Z-0.125000 I-140.979654 J-75.745093
G03 X1884.355088 Y50.060155 Z-0.125000 I-98.422230 J-66.006809
G03 X1876.052506 Y59.309691 Z-0.125000 I-108.534322 J-89.071689
G02 X1869.745567 Y66.472347 Z-0.125000 I62.563714 J61.447321
G02 X1869.699909 Y67.362507 Z-0.125000 I0.605562 J0.477311
G02 X1871.121082 Y67.877183 Z-0.125000 I1.040400 J-0.653375
G02 X1875.045170 Y65.620857 Z-0.125000 I-3.417911 J-10.484710
G02 X1890.020581 Y49.025045 Z-0.125000 I-68.764595 J-77.104996
G02 X1903.436895 Y26.345260 Z-0.125000 I-116.829099 J-84.418832
G01 X1906.613193 Y19.637657 Z-0.125000
G01 X1911.812235 Y19.637657 Z-0.125000
G03 X1925.869285 Y20.082010 Z-0.125000 I-0.000000 J222.568649
G03 X1938.961053 Y21.412637 Z-0.125000 I-10.912415 J172.433946
G03 X1950.317016 Y25.589769 Z-0.125000 I-3.969902 J28.317329
G03 X1952.771005 Y30.179560 Z-0.125000 I-2.836157 J4.467310
G03 X1952.423783 Y32.518857 Z-0.125000 I-8.053757 J-0.000000
G03 X1951.121952 Y35.773402 Z-0.125000 I-19.569788 J-5.940354
G03 X1945.735826 Y43.135337 Z-0.125000 I-24.558516 J-12.316197
G03 X1930.569429 Y55.805168 Z-0.125000 I-90.305426 J-92.687567
G03 X1907.110175 Y70.662851 Z-0.125000 I-147.410548 J-206.801958
G03 X1867.636554 Y90.997913 Z-0.125000 I-317.109611 J-567.080827
G01 X1855.800578 Y96.587691 Z-0.125000
G01 X1849.626684 Y94.481269 Z-0.125000
G02 X1825.402427 Y88.168275 Z-0.125000 I-54.920171 J161.106790
G02 X1791.511032 Y83.825630 Z-0.125000 I-57.196003 J311.954954
G01 X1786.165772 Y83.427584 Z-0.125000
G01 X1791.925363 Y72.620872 Z-0.125000
G03 X1803.875617 Y51.614251 Z-0.125000 I393.527388 J209.967561
G03 X1811.104959 Y40.935077 Z-0.125000 I108.686291 J65.789391
G03 X1824.225660 Y28.268232 Z-0.125000 I46.446688 J34.982052
G03 X1837.018999 Y22.811528 Z-0.125000 I19.377684 J27.705864
G03 X1857.741466 Y19.965627 Z-0.125000 I34.195451 J172.126237
G03 X1860.552833 Y21.000790 Z-0.125000 I0.276081 J3.585433
G03 X1860.880790 Y23.250051 Z-0.125000 I-1.328921 J1.342305
G03 X1845.337471 Y48.817346 Z-0.125000 I-289.160245 J-158.283045
G02 X1840.596846 Y56.095601 Z-0.125000 I237.227646 J159.699096
G02 X1840.471480 Y56.529830 Z-0.125000 I0.689340 J0.434230
G02 X1841.226590 Y57.819727 Z-0.125000 I1.479271 J0.000000
G02 X1843.014161 Y57.952230 Z-0.125000 I1.035405 J-1.844292
G02 X1846.344732 Y55.197287 Z-0.125000 I-2.430121 J-6.328587
G02 X1862.502452 Y26.526419 Z-0.125000 I-332.593744 J-206.324480
G01 X1865.597555 Y20.461379 Z-0.125000
G01 X1872.819340 Y20.144556 Z-0.125000
G03 X1880.044388 Y19.904387 Z-0.125000 I16.011619 J372.884743
G03 X1891.194744 Y19.714026 Z-0.125000 I20.277676 J861.098843
G01 X1902.356464 Y19.600290 Z-0.125000
G01 X1901.974674 Y20.878136 Z-0.125000
G00 Z5.000000

(Change tool to Default tool)

G00 Z5.000000
G00 X1617.521511 Y25.210388

G01 Z-0.125000 F100.0(Penetrate)
G02 X1624.581992 Y40.152999 Z-0.125000 I121.066735 J-48.065451 F400.000000
G02 X1633.467998 Y54.056209 Z-0.125000 I113.244399 J-62.587006
G02 X1638.970471 Y60.869236 Z-0.125000 I74.234636 J-54.326338
G02 X1645.365891 Y67.592218 Z-0.125000 I103.704573 J-92.248396
G02 X1652.483283 Y73.901835 Z-0.125000 I64.620828 J-65.724674
G02 X1654.101717 Y74.342258 Z-0.125000 I1.318671 J-1.651894
G02 X1654.684462 Y73.044889 Z-0.125000 I-0.119400 J-0.833193
G02 X1647.082991 Y63.716704 Z-0.125000 I-50.459736 J33.357992
G03 X1638.876838 Y54.790066 Z-0.125000 I104.848439 J-104.621161
G03 X1633.719825 Y47.931874 Z-0.125000 I56.806697 J-48.083759
G03 X1626.841545 Y36.403822 Z-0.125000 I113.871955 J-75.758387
G03 X1621.282687 Y24.554024 Z-0.125000 I115.075929 J-61.212017
G01 X1620.364731 Y22.308664 Z-0.125000
G01 X1626.579264 Y22.714867 Z-0.125000
G03 X1650.043545 Y25.124415 Z-0.125000 I-20.748348 J317.501088
G03 X1668.610338 Y28.605211 Z-0.125000 I-28.593512 J203.778281
G03 X1679.670661 Y33.252297 Z-0.125000 I-8.288698 J35.213203
G03 X1686.197749 Y39.740148 Z-0.125000 I-11.377853 J17.973870
G03 X1691.013017 Y52.271226 Z-0.125000 I-27.979939 J17.942451
G03 X1693.736357 Y85.431672 Z-0.125000 I-201.403045 J33.232507
G01 X1693.736357 Y96.695754 Z-0.125000
G01 X1686.953202 Y98.925648 Z-0.125000
G02 X1663.598310 Y108.225401 Z-0.125000 I63.960953 J194.604010
G02 X1645.840084 Y118.302687 Z-0.125000 I57.455388 J121.933517
G03 X1643.071274 Y118.591635 Z-0.125000 I-1.656929 J-2.466958
G03 X1625.864367 Y110.246569 Z-0.125000 I52.588460 J-130.345722
G03 X1582.668628 Y83.747244 Z-0.125000 I413.549308 J-722.569750
G03 X1559.196694 Y66.527542 Z-0.125000 I152.938883 J-233.075835
G03 X1539.646100 Y46.500873 Z-0.125000 I79.056291 J-96.733213
G03 X1536.359451 Y37.095105 Z-0.125000 I12.316069 J-9.580701
G03 X1539.422249 Y31.658512 Z-0.125000 I6.356487 J0.000000
G03 X1554.962299 Y25.872482 Z-0.125000 I22.954141 J37.888295
G03 X1564.636542 Y24.293375 Z-0.125000 I124.116143 J729.961750
G03 X1565.547241 Y24.214454 Z-0.125000 I1.028511 J6.574495
G03 X1566.266558 Y24.619050 Z-0.125000 I0.000000 J0.841724
G03 X1570.063897 Y31.563803 Z-0.125000 I-74.057036 J45.004384
G02 X1580.180085 Y48.558970 Z-0.125000 I108.714855 J-53.202977
G02 X1594.970629 Y66.542031 Z-0.125000 I136.400139 J-97.111217
G02 X1600.485646 Y71.731487 Z-0.125000 I46.947310 J-44.367323
G02 X1601.534441 Y72.029503 Z-0.125000 I0.858526 J-1.026875
G02 X1602.236625 Y70.718784 Z-0.125000 I-0.130960 J-0.913606
G02 X1597.821977 Y64.238222 Z-0.125000 I-23.189755 J11.053241
G03 X1583.480032 Y46.873958 Z-0.125000 I134.573013 J-125.755013
G03 X1574.353138 Y31.996789 Z-0.125000 I89.504813 J-65.147879
G03 X1571.405412 Y26.041095 Z-0.125000 I247.870255 J-126.388860
G03 X1571.033669 Y24.649574 Z-0.125000 I3.499399 J-1.680277
G03 X1571.578809 Y23.822586 Z-0.125000 I0.808375 J-0.060298
G03 X1573.703265 Y23.332256 Z-0.125000 I3.413397 J9.941768
G03 X1583.775432 Y22.475495 Z-0.125000 I16.257883 J131.496151
G03 X1602.834187 Y21.970731 Z-0.125000 I22.006900 J470.871493
G01 X1616.197381 Y21.889508 Z-0.125000
G01 X1617.521511 Y25.210388 Z-0.125000
G00 Z5.000000

(Change tool to Default tool)

G00 Z5.000000
G00 X1793.679995 Y87.738754

G01 Z-0.125000 F100.0(Penetrate)
G03 X1845.583087 Y97.025350 Z-0.125000 I-15.776896 J237.864946 F400.000000
G03 X1879.919289 Y113.275830 Z-0.125000 I-35.115563 J118.597204
G03 X1914.354983 Y152.077354 Z-0.125000 I-59.185014 J87.207004
G03 X1936.158417 Y222.052995 Z-0.125000 I-186.830134 J96.598309
G03 X1937.732408 Y246.771000 Z-0.125000 I-194.392093 J24.787602
G03 X1936.158417 Y271.154808 Z-0.125000 I-188.622605 J0.066989
G03 X1933.480662 Y287.501193 Z-0.125000 I-243.594527 J-31.511509
G03 X1930.610069 Y299.067207 Z-0.125000 I-123.917483 J-24.616093
G01 X1929.350907 Y303.295517 Z-0.125000
G01 X1926.921961 Y301.059922 Z-0.125000
G02 X1915.947630 Y293.264615 Z-0.125000 I-35.902828 J38.921901
G02 X1901.113557 Y287.283244 Z-0.125000 I-35.289394 J66.134030
G03 X1895.653987 Y285.691568 Z-0.125000 I113.154326 J-398.287264
G03 X1895.459573 Y285.593551 Z-0.125000 I0.177680 J-0.594238
G03 X1895.441772 Y285.434402 Z-0.125000 I0.090717 J-0.090717
G03 X1898.424685 Y280.906291 Z-0.125000 I115.326408 J72.725212
G02 X1906.817633 Y265.655698 Z-0.125000 I-72.596941 J-49.887464
G02 X1912.185925 Y248.734708 Z-0.125000 I-84.338669 J-36.069040
G02 X1913.072943 Y242.809112 Z-0.125000 I-48.233540 J-10.249390
G02 X1913.485671 Y233.894673 Z-0.125000 I-107.052121 J-9.423169
G02 X1912.894492 Y225.074923 Z-0.125000 I-66.086106 J-0.000000
G02 X1911.755367 Y221.186234 Z-0.125000 I-13.339165 J1.796293
G02 X1897.261628 Y201.906352 Z-0.125000 I-54.638576 J25.986987
G02 X1868.042700 Y182.424028 Z-0.125000 I-85.045340 J95.896175
G03 X1865.430223 Y181.012653 Z-0.125000 I14.479183 J-29.924764
G03 X1865.296960 Y180.777402 Z-0.125000 I0.141016 J-0.235251
G03 X1865.429867 Y180.532876 Z-0.125000 I0.291398 J0.000000
G03 X1867.928965 Y179.063354 Z-0.125000 I18.124556 J27.963212
G02 X1873.686577 Y171.271152 Z-0.125000 I-5.254715 J-9.905913
G02 X1871.040296 Y162.868286 Z-0.125000 I-9.111127 J-1.748794
G02 X1864.785862 Y159.038455 Z-0.125000 I-11.664519 J12.027214
G02 X1845.369983 Y154.111974 Z-0.125000 I-40.315863 J118.166416
G02 X1827.567177 Y152.313322 Z-0.125000 I-22.167996 J130.411526
G02 X1810.999352 Y152.976312 Z-0.125000 I-3.750981 J113.607403
G02 X1786.732967 Y157.377210 Z-0.125000 I20.866384 J184.158858
G02 X1778.058487 Y161.242770 Z-0.125000 I6.708962 J26.720924
G02 X1774.223184 Y168.801652 Z-0.125000 I4.866451 J7.221628
G02 X1778.708388 Y178.073093 Z-0.125000 I12.855063 J-0.498224
G02 X1781.257190 Y179.927590 Z-0.125000 I13.145380 J-15.388107
G02 X1783.639375 Y181.101535 Z-0.125000 I7.472020 J-12.158367
G03 X1785.993526 Y182.169196 Z-0.125000 I-7.625242 J19.942596
G03 X1786.149516 Y182.428120 Z-0.125000 I-0.136896 J0.258925
G03 X1785.980259 Y182.671533 Z-0.125000 I-0.259658 J-0.000000
G03 X1780.804255 Y184.415106 Z-0.125000 I-30.989774 J-83.442277
G02 X1753.913627 Y195.710310 Z-0.125000 I40.962689 J135.177392
G02 X1736.994109 Y208.409555 Z-0.125000 I35.712190 J65.201002
G02 X1730.489865 Y216.657467 Z-0.125000 I31.980051 J31.907794
G02 X1727.723144 Y223.750312 Z-0.125000 I18.182684 J11.178589
G02 X1727.593929 Y231.381387 Z-0.125000 I21.430144 J4.179503
G02 X1730.479037 Y241.815070 Z-0.125000 I48.235850 J-7.722378
G02 X1745.469622 Y266.025871 Z-0.125000 I76.394534 J-30.554895
G02 X1784.825385 Y302.746369 Z-0.125000 I219.322646 J-195.612130
G01 X1788.984636 Y305.970588 Z-0.125000
G01 X1784.013037 Y309.936488 Z-0.125000
G03 X1779.038867 Y313.897692 Z-0.125000 I-8265.419650 J-10373.964354
G03 X1777.701052 Y314.951944 Z-0.125000 I-108.939013 J-136.864412
G03 X1776.287176 Y315.113328 Z-0.125000 I-0.838799 J-1.074529
G03 X1758.293985 Y305.921030 Z-0.125000 I115.835710 J-248.945435
G02 X1734.525915 Y293.226548 Z-0.125000 I-357.838863 J641.389176
G02 X1726.628482 Y289.747919 Z-0.125000 I-34.268911 J67.095762
G02 X1713.807209 Y286.332076 Z-0.125000 I-23.949844 J64.125018
G02 X1700.657603 Y285.468442 Z-0.125000 I-10.979770 J66.637763
G02 X1692.345671 Y286.120094 Z-0.125000 I2.948304 J90.942018
G02 X1688.236748 Y287.023289 Z-0.125000 I2.824285 J22.646569
G02 X1672.252405 Y296.026053 Z-0.125000 I13.674299 J42.970046
G02 X1660.771136 Y311.014492 Z-0.125000 I31.354230 J35.909195
G02 X1655.107865 Y337.158452 Z-0.125000 I50.244230 J24.569206
G02 X1662.249613 Y363.634572 Z-0.125000 I58.785992 J-1.655833
G02 X1677.364226 Y382.680746 Z-0.125000 I62.541291 J-34.110958
G02 X1702.680346 Y399.701358 Z-0.125000 I74.580463 J-83.591844
G02 X1723.408392 Y407.875001 Z-0.125000 I61.519637 J-125.641864
G02 X1745.434444 Y412.733111 Z-0.125000 I41.774775 J-137.040811
G03 X1752.922624 Y413.827900 Z-0.125000 I-83.133933 J594.778998
G03 X1753.135555 Y413.915086 Z-0.125000 I-0.073890 J0.484071
G03 X1753.184605 Y414.086482 Z-0.125000 I-0.129951 J0.129905
G03 X1752.323178 Y417.123896 Z-0.125000 I-31.669097 J-7.340660
G03 X1744.561968 Y430.632890 Z-0.125000 I-35.597580 J-11.467595
G03 X1730.641513 Y441.296229 Z-0.125000 I-35.321946 J-31.693132
G03 X1717.669893 Y445.930777 Z-0.125000 I-25.003863 J-49.512846
G03 X1702.152336 Y447.626079 Z-0.125000 I-15.444794 J-69.504521
G03 X1669.771271 Y438.819326 Z-0.125000 I0.000000 J-63.933456
G03 X1649.828759 Y416.926481 Z-0.125000 I25.304907 J-43.079994
G03 X1647.778591 Y412.031776 Z-0.125000 I57.487766 J-26.955711
G03 X1646.579337 Y408.157950 Z-0.125000 I34.819583 J-12.901943
G02 X1644.547823 Y404.467589 Z-0.125000 I-8.060910 J2.033120
G02 X1643.053732 Y404.447941 Z-0.125000 I-0.756620 J0.718231
G02 X1642.659083 Y405.459303 Z-0.125000 I0.894403 J0.931690
G02 X1643.297460 Y409.292822 Z-0.125000 I18.811520 J-1.162675
G02 X1644.525557 Y413.241755 Z-0.125000 I163.081736 J-48.552146
G02 X1645.490778 Y415.985778 Z-0.125000 I56.310312 J-18.265589
G03 X1646.366481 Y418.677605 Z-0.125000 I-27.300172 J10.369629
G03 X1646.303126 Y418.914285 Z-0.125000 I-0.234775 J0.063975
G03 X1646.002523 Y419.110360 Z-0.125000 I-3.133723 J-4.475858
G03 X1639.398136 Y423.080873 Z-0.125000 I-522.330494 J-861.344931
G02 X1617.481592 Y437.880334 Z-0.125000 I120.638846 J202.282097
G02 X1596.514074 Y455.694360 Z-0.125000 I153.812423 J202.287395
G01 X1590.884503 Y461.024184 Z-0.125000
G01 X1588.593677 Y459.210200 Z-0.125000
G03 X1582.558303 Y453.395633 Z-0.125000 I26.917826 J-33.979593
G03 X1576.773956 Y445.373409 Z-0.125000 I45.612732 J-38.985100
G03 X1569.337848 Y408.166682 Z-0.125000 I48.053530 J-28.950393
G03 X1588.089995 Y369.342149 Z-0.125000 I71.634939 J10.658601
G03 X1601.295115 Y358.435090 Z-0.125000 I48.723361 J45.541909
G03 X1617.797694 Y350.645858 Z-0.125000 I40.382238 J64.179296
G03 X1623.263919 Y348.961831 Z-0.125000 I42.011606 J126.652976
G03 X1625.107860 Y349.190742 Z-0.125000 I0.651957 J2.289488
G03 X1626.453717 Y350.648665 Z-0.125000 I-1.676051 J2.897382
G03 X1629.609315 Y357.477753 Z-0.125000 I-290.598932 J138.424133
G02 X1634.542282 Y366.728943 Z-0.125000 I70.269402 J-31.528624
G02 X1635.645089 Y367.138248 Z-0.125000 I0.816505 J-0.509623
G02 X1636.292154 Y366.081062 Z-0.125000 I-0.284029 J-0.900460
G02 X1634.459050 Y360.096803 Z-0.125000 I-23.717215 J3.992194
G03 X1610.736271 Y297.318614 Z-0.125000 I453.269479 J-207.153906
G03 X1599.755396 Y245.448766 Z-0.125000 I297.841285 J-90.150413
G03 X1598.189925 Y218.919867 Z-0.125000 I203.916645 J-25.343769
G03 X1599.999067 Y195.852218 Z-0.125000 I159.713035 J0.921155
G03 X1610.328947 Y162.041790 Z-0.125000 I122.751785 J19.020330
G03 X1627.212881 Y137.951027 Z-0.125000 I77.786188 J36.554293
G03 X1667.927796 Y110.381460 Z-0.125000 I91.096467 J90.683045
G03 X1738.968112 Y90.335848 Z-0.125000 I113.556774 J266.533770
G03 X1768.008956 Y87.499199 Z-0.125000 I42.932512 J289.456965
G03 X1793.606899 Y87.738754 Z-0.125000 I10.694290 J225.017797
G01 X1793.679995 Y87.738754 Z-0.125000
G00 Z5.000000

(Change tool to Default tool)

G00 Z5.000000
G00 X1632.314415 Y118.461070

G01 Z-0.125000 F100.0(Penetrate)
G03 X1638.300530 Y122.648199 Z-0.125000 I-18.823381 J33.283361 F400.000000
G03 X1638.244609 Y123.516348 Z-0.125000 I-0.352308 J0.413182
G02 X1629.330515 Y130.489714 Z-0.125000 I35.461760 J54.515124
G02 X1618.398855 Y142.045281 Z-0.125000 I87.354015 J93.586107
G02 X1606.057945 Y161.495878 Z-0.125000 I68.335150 J56.997214
G02 X1598.138799 Y185.569479 Z-0.125000 I97.763999 J45.499340
G02 X1595.543148 Y201.353363 Z-0.125000 I217.736494 J43.912026
G02 X1594.954401 Y210.614275 Z-0.125000 I72.542171 J9.260912
G01 X1594.954401 Y213.624033 Z-0.125000
G01 X1592.793510 Y214.087075 Z-0.125000
G03 X1579.398054 Y215.390539 Z-0.125000 I-12.497445 J-58.950875
G03 X1551.054875 Y213.461558 Z-0.125000 I3.991909 J-267.846947
G03 X1510.101278 Y204.920991 Z-0.125000 I29.828226 J-245.492177
G03 X1497.074090 Y197.338852 Z-0.125000 I9.194488 J-30.779776
G03 X1494.543276 Y193.673857 Z-0.125000 I7.653224 J-7.991138
G03 X1494.445119 Y190.306710 Z-0.125000 I4.258879 J-1.809157
G03 X1496.405899 Y186.879360 Z-0.125000 I10.603106 J3.791461
G03 X1503.629773 Y178.992657 Z-0.125000 I89.893199 J75.086506
G03 X1543.758027 Y148.720575 Z-0.125000 I129.696697 J130.191377
G03 X1612.866735 Y118.016711 Z-0.125000 I202.760729 J363.249456
G03 X1623.565971 Y114.483849 Z-0.125000 I215.375064 J634.293340
G03 X1624.272154 Y114.356261 Z-0.125000 I0.834414 J2.600262
G03 X1624.964478 Y114.522129 Z-0.125000 I-0.000000 J1.527793
G03 X1632.314415 Y118.466771 Z-0.125000 I-84.880343 J166.974862
G01 X1632.314415 Y118.461070 Z-0.125000
G00 Z5.000000

(Change tool to Default tool)

G00 Z5.000000
G00 X1842.079949 Y157.043755

G01 Z-0.125000 F100.0(Penetrate)
G03 X1858.072694 Y160.098836 Z-0.125000 I-27.848994 J189.170971 F400.000000
G03 X1864.387132 Y162.299664 Z-0.125000 I-7.382579 J31.340346
G03 X1869.787938 Y166.277260 Z-0.125000 I-7.312746 J15.584716
G03 X1871.080907 Y169.630330 Z-0.125000 I-3.651789 J3.333982
G03 X1868.940619 Y174.137064 Z-0.125000 I-5.814983 J0.000000
G03 X1860.252238 Y178.460584 Z-0.125000 I-13.907745 J-17.056795
G02 X1858.134876 Y179.323818 Z-0.125000 I1.801890 J7.448100
G02 X1857.798937 Y179.914706 Z-0.125000 I0.351691 J0.590888
G02 X1857.971656 Y180.730130 Z-0.125000 I2.011208 J-0.000000
G02 X1861.048359 Y187.243734 Z-0.125000 I138.216887 J-61.303338
G03 X1870.410820 Y210.638081 Z-0.125000 I-134.106011 J67.240087
G03 X1875.134550 Y233.327632 Z-0.125000 I-121.496203 J37.130743
G03 X1875.862913 Y252.248943 Z-0.125000 I-125.233415 J14.295449
G03 X1873.599176 Y275.631699 Z-0.125000 I-196.394934 J-7.212472
G01 X1872.616253 Y281.842112 Z-0.125000
G01 X1862.461869 Y281.842112 Z-0.125000
G02 X1838.018921 Y284.338869 Z-0.125000 I0.000000 J120.895149
G02 X1814.606208 Y291.695929 Z-0.125000 I24.635381 J119.330512
G03 X1807.962905 Y294.498403 Z-0.125000 I-236.243817 J-550.744091
G03 X1807.749958 Y294.540814 Z-0.125000 I-0.212947 J-0.513397
G01 X1807.705958 Y294.475084 Z-0.125000
G03 X1809.334043 Y290.955886 Z-0.125000 I42.389119 J17.474260
G02 X1814.933624 Y277.515723 Z-0.125000 I-89.834083 J-45.314173
G02 X1819.212244 Y261.348094 Z-0.125000 I-124.728934 J-41.658374
G02 X1820.869887 Y244.465997 Z-0.125000 I-85.525694 J-16.920145
G02 X1819.212244 Y227.786594 Z-0.125000 I-84.373408 J-0.036823
G02 X1811.910096 Y205.336245 Z-0.125000 I-98.864448 J19.743706
G02 X1799.090308 Y184.122695 Z-0.125000 I-100.910657 J46.501997
G02 X1796.197464 Y181.504229 Z-0.125000 I-8.633505 J6.630954
G02 X1792.770195 Y180.199016 Z-0.125000 I-5.078083 J8.181865
G03 X1784.570626 Y177.735892 Z-0.125000 I6.179998 J-35.452244
G03 X1780.040646 Y174.649031 Z-0.125000 I5.887904 J-13.507832
G03 X1777.709237 Y168.277769 Z-0.125000 I5.691618 J-5.694903
G03 X1780.991058 Y163.393896 Z-0.125000 I6.031596 J0.508477
G03 X1790.188131 Y160.002601 Z-0.125000 I18.839916 J36.926469
G03 X1810.706913 Y156.287456 Z-0.125000 I43.609943 J182.337860
G03 X1812.454551 Y156.163034 Z-0.125000 I2.195887 J18.507569
G03 X1823.420234 Y155.986889 Z-0.125000 I16.503267 J685.977299
G03 X1834.370686 Y156.245853 Z-0.125000 I1.611335 J163.516629
G03 X1842.071821 Y157.032382 Z-0.125000 I-4.954032 J86.601730
G01 X1842.079949 Y157.043755 Z-0.125000
G00 Z5.000000

(Change tool to Default tool)

G00 Z5.000000
G00 X1800.032620 Y191.219371

G01 Z-0.125000 F100.0(Penetrate)
G03 X1810.020831 Y209.470539 Z-0.125000 I-98.025149 J65.504339 F400.000000
G03 X1815.751607 Y227.165959 Z-0.125000 I-86.039325 J37.640075
G03 X1816.604320 Y233.073534 Z-0.125000 I-41.746987 J9.041187
G03 X1817.027026 Y244.581949 Z-0.125000 I-156.450473 J11.508415
G03 X1816.612786 Y256.087159 Z-0.125000 I-159.981359 J0.000000
G03 X1815.719123 Y262.201054 Z-0.125000 I-42.154885 J-3.039478
G03 X1811.822090 Y276.062606 Z-0.125000 I-115.301738 J-24.937318
G03 X1806.076521 Y289.875455 Z-0.125000 I-119.685866 J-41.682947
G01 X1802.429053 Y297.375906 Z-0.125000
G01 X1797.457455 Y300.584688 Z-0.125000
G03 X1792.451082 Y303.695296 Z-0.125000 I-96.416940 J-149.594306
G03 X1792.095938 Y303.793470 Z-0.125000 I-0.355144 J-0.593282
G03 X1787.931601 Y302.262371 Z-0.125000 I-0.000000 J-6.428704
G03 X1760.154252 Y276.655263 Z-0.125000 I305.144912 J-358.875716
G03 X1735.607748 Y245.190960 Z-0.125000 I115.060936 J-115.070419
G03 X1730.714636 Y227.496582 Z-0.125000 I29.546485 J-17.694378
G03 X1731.198360 Y223.764281 Z-0.125000 I14.640658 J0.000000
G03 X1732.834859 Y219.410408 Z-0.125000 I22.136667 J5.836060
G03 X1744.594885 Y205.801621 Z-0.125000 I32.663703 J16.340719
G03 X1775.345231 Y189.736011 Z-0.125000 I77.832765 J111.514009
G03 X1789.917815 Y184.982676 Z-0.125000 I69.950899 J189.737977
G03 X1794.654847 Y184.238830 Z-0.125000 I5.411060 J19.003903
G03 X1795.235723 Y184.525363 Z-0.125000 I0.000000 J0.732059
G03 X1800.032620 Y191.219371 Z-0.125000 I-100.525354 J77.101747
G01 X1800.032620 Y191.219371 Z-0.125000
G00 Z5.000000

(Change tool to Default tool)

G00 Z5.000000
G00 X1867.742134 Y186.010593

G01 Z-0.125000 F100.0(Penetrate)
G03 X1889.179697 Y199.735367 Z-0.125000 I-56.372221 J111.655920 F400.000000
G03 X1903.485635 Y214.417727 Z-0.125000 I-50.348442 J63.368388
G03 X1909.172838 Y225.577829 Z-0.125000 I-28.762829 J21.686732
G03 X1910.374369 Y236.969399 Z-0.125000 I-28.783254 J8.795076
G03 X1905.666313 Y258.995154 Z-0.125000 I-90.481703 J-7.824617
G03 X1895.849520 Y278.696689 Z-0.125000 I-81.833619 J-28.479189
G03 X1891.456777 Y284.140823 Z-0.125000 I-32.364076 J-21.619541
G03 X1890.219920 Y284.520429 Z-0.125000 I-0.962497 J-0.931265
G02 X1888.704737 Y284.241651 Z-0.125000 I-7.362759 J35.760231
G02 X1882.348235 Y283.250740 Z-0.125000 I-82.956900 J511.269076
G03 X1876.010272 Y282.264438 Z-0.125000 I71.341630 J-479.297411
G03 X1875.930642 Y282.214956 Z-0.125000 I0.019527 J-0.120238
G03 X1875.941479 Y282.069745 Z-0.125000 I0.978308 J0.000000
G03 X1876.889238 Y276.064656 Z-0.125000 I397.978867 J59.734077
G02 X1879.240667 Y246.108241 Z-0.125000 I-165.421241 J-28.055233
G02 X1876.239337 Y219.754888 Z-0.125000 I-130.149146 J1.474837
G02 X1871.485038 Y202.869474 Z-0.125000 I-142.874508 J31.116077
G02 X1865.280704 Y188.240487 Z-0.125000 I-112.697417 J39.166202
G03 X1863.631897 Y184.809951 Z-0.125000 I90.883776 J-45.792683
G03 X1863.722016 Y184.368306 Z-0.125000 I0.347531 J-0.159102
G03 X1864.183239 Y184.297238 Z-0.125000 I0.284144 J0.311885
G03 X1867.725906 Y186.010593 Z-0.125000 I-47.607094 J102.955396
G01 X1867.742134 Y186.010593 Z-0.125000
G00 Z5.000000

(Change tool to Default tool)

G00 Z5.000000
G00 X1871.950124 Y285.312486

G01 Z-0.125000 F100.0(Penetrate)
G03 X1902.804613 Y291.317704 Z-0.125000 I-14.216570 J155.310946 F400.000000
G03 X1920.111427 Y299.831638 Z-0.125000 I-17.069396 J56.545346
G03 X1932.017093 Y313.607752 Z-0.125000 I-22.575192 J31.542695
G03 X1936.353376 Y331.407757 Z-0.125000 I-34.707379 J17.883299
G03 X1930.910897 Y350.980457 Z-0.125000 I-37.915733 J0.000000
G03 X1916.588874 Y364.134161 Z-0.125000 I-29.570616 J-17.823185
G03 X1900.909356 Y369.146856 Z-0.125000 I-24.635287 J-50.029429
G03 X1882.104536 Y369.745925 Z-0.125000 I-11.703413 J-71.929139
G03 X1874.115486 Y368.639170 Z-0.125000 I9.790880 J-100.062619
G03 X1866.335764 Y366.221131 Z-0.125000 I5.844472 J-32.527954
G03 X1857.891644 Y361.967389 Z-0.125000 I46.717418 J-103.247026
G03 X1828.627404 Y345.549179 Z-0.125000 I2814.951292 J-5051.731396
G02 X1789.912844 Y323.696041 Z-0.125000 I-60037.717820 J106316.340806
G02 X1784.865997 Y320.858544 Z-0.125000 I-938.557351 J1663.435843
G03 X1779.960969 Y317.947423 Z-0.125000 I55.845611 J-99.683657
G03 X1779.837531 Y317.698502 Z-0.125000 I0.141348 J-0.225160
G03 X1779.959574 Y317.431674 Z-0.125000 I0.352711 J-0.000000
G03 X1784.549175 Y313.618077 Z-0.125000 I99.925704 J115.590362
G03 X1828.028025 Y290.205937 Z-0.125000 I85.788162 J107.239293
G03 X1871.950124 Y285.312486 Z-0.125000 I33.894876 J104.667598
G01 X1871.950124 Y285.312486 Z-0.125000
G00 Z5.000000

(Change tool to Default tool)

G00 Z5.000000
G00 X1710.885110 Y289.091526

G01 Z-0.125000 F100.0(Penetrate)
G03 X1716.868525 Y290.226958 Z-0.125000 I-11.379097 J76.297886 F400.000000
G03 X1722.225533 Y291.716249 Z-0.125000 I-14.179556 J61.383413
G03 X1732.350135 Y296.050930 Z-0.125000 I-19.031099 J58.442790
G03 X1820.861325 Y344.866794 Z-0.125000 I-2452.646455 J4551.702014
G02 X1866.901518 Y370.498320 Z-0.125000 I2254.766470 J-3995.920701
G02 X1868.091440 Y370.803581 Z-0.125000 I1.189922 J-2.166559
G03 X1868.838797 Y371.698819 Z-0.125000 I0.000000 J0.759571
G03 X1866.905401 Y377.358446 Z-0.125000 I-19.740276 J-3.583463
G03 X1860.441799 Y386.414415 Z-0.125000 I-35.084142 J-18.206287
G03 X1850.707144 Y394.356888 Z-0.125000 I-36.384914 J-34.658147
G03 X1828.502907 Y403.550336 Z-0.125000 I-38.400907 J-61.335967
G03 X1779.520737 Y410.704667 Z-0.125000 I-68.723683 J-299.261593
G03 X1730.621825 Y406.390252 Z-0.125000 I-10.397930 J-161.415026
G03 X1690.178268 Y388.808540 Z-0.125000 I31.069630 J-126.777491
G03 X1671.579566 Y371.728265 Z-0.125000 I42.655520 J-65.113770
G03 X1660.186230 Y350.551652 Z-0.125000 I55.466704 J-43.495119
G03 X1658.824249 Y345.013686 Z-0.125000 I33.204636 J-11.102654
G03 X1658.098491 Y337.587323 Z-0.125000 I59.260317 J-9.539989
G03 X1658.316158 Y330.127713 Z-0.125000 I56.978656 J-2.070382
G03 X1659.325142 Y324.300470 Z-0.125000 I38.373894 J3.643448
G03 X1668.669710 Y304.535131 Z-0.125000 I56.045482 J14.405320
G03 X1682.127851 Y293.134613 Z-0.125000 I30.401114 J22.244235
G03 X1695.248418 Y289.031291 Z-0.125000 I19.001978 J37.731242
G03 X1710.885110 Y289.091526 Z-0.125000 I7.609944 J54.129649
G01 X1710.885110 Y289.091526 Z-0.125000
G00 Z5.000000

(Change tool to Default tool)

G00 Z5.000000
G00 X1889.415700 Y372.814950

G01 Z-0.125000 F100.0(Penetrate)
G01 X1902.835734 Y372.928686 Z-0.125000 F400.000000
G01 X1905.305291 Y375.529843 Z-0.125000
G02 X1907.973232 Y377.872465 Z-0.125000 I14.120721 J-13.391132
G02 X1913.404448 Y381.417761 Z-0.125000 I37.512309 J-51.534159
G03 X1935.342527 Y398.234297 Z-0.125000 I-55.474100 J95.086932
G03 X1946.255961 Y413.914295 Z-0.125000 I-36.936844 J37.346338
G03 X1949.580469 Y427.152284 Z-0.125000 I-34.700479 J15.750908
G03 X1947.994366 Y440.121564 Z-0.125000 I-34.937494 J2.308880
G03 X1942.353754 Y451.165665 Z-0.125000 I-36.487418 J-11.672930
G03 X1931.706757 Y462.248407 Z-0.125000 I-47.519457 J-34.995551
G03 X1926.773778 Y466.052464 Z-0.125000 I-105.903146 J-132.231291
G03 X1925.009916 Y466.749347 Z-0.125000 I-2.180008 J-2.937087
G03 X1923.251899 Y466.350009 Z-0.125000 I-0.309815 J-2.705445
G03 X1919.269618 Y463.674081 Z-0.125000 I41.275112 J-65.726223
G02 X1908.923549 Y456.704492 Z-0.125000 I-122.448009 J170.605108
G02 X1898.067250 Y450.288958 Z-0.125000 I-114.600565 J181.532635
G01 X1894.135471 Y448.122423 Z-0.125000
G01 X1896.328790 Y446.520445 Z-0.125000
G02 X1903.067504 Y439.781065 Z-0.125000 I-18.200216 J-24.937133
G02 X1907.782976 Y430.826631 Z-0.125000 I-28.159720 J-20.547940
G02 X1908.126088 Y428.733313 Z-0.125000 I-6.214086 J-2.093318
G02 X1907.782976 Y427.721002 Z-0.125000 I-1.664910 J-0.000000
G02 X1906.355016 Y427.571792 Z-0.125000 I-0.781761 J0.574067
G02 X1903.729306 Y431.343296 Z-0.125000 I6.617549 J7.406878
G03 X1897.320701 Y440.975360 Z-0.125000 I-25.439008 J-9.977623
G03 X1887.449796 Y447.145962 Z-0.125000 I-19.289999 J-19.877186
G03 X1878.995252 Y448.693668 Z-0.125000 I-8.835076 J-24.396875
G03 X1867.896509 Y447.430301 Z-0.125000 I-0.641633 J-43.746417
G03 X1847.180087 Y437.210508 Z-0.125000 I12.790125 J-52.033617
G03 X1832.453575 Y419.033722 Z-0.125000 I34.389624 J-42.915841
G03 X1828.740681 Y410.608159 Z-0.125000 I79.622051 J-40.117922
G03 X1828.261841 Y408.001966 Z-0.125000 I6.852976 J-2.606193
G03 X1828.586763 Y407.497887 Z-0.125000 I0.553471 J0.000000
G03 X1833.225312 Y405.748534 Z-0.125000 I15.748894 J34.735034
G02 X1858.111183 Y392.838418 Z-0.125000 I-22.556171 J-73.920237
G02 X1871.048395 Y376.334064 Z-0.125000 I-26.532580 J-34.120705
G03 X1873.381871 Y372.625853 Z-0.125000 I14.235012 J6.369403
G03 X1874.476549 Y372.290186 Z-0.125000 I0.808803 J0.684853
G02 X1875.973580 Y372.515646 Z-0.125000 I1.730997 J-6.410835
G02 X1889.342576 Y372.810096 Z-0.125000 I17.820758 J-505.476452
G01 X1889.415700 Y372.814950 Z-0.125000
G00 Z5.000000

(Change tool to Default tool)

G00 Z5.000000
G00 X1825.418593 Y410.807029

G01 Z-0.125000 F100.0(Penetrate)
G02 X1840.742536 Y436.010490 Z-0.125000 I55.294868 J-16.359521 F400.000000
G02 X1866.751082 Y450.553796 Z-0.125000 I40.784230 J-42.408682
G02 X1877.593011 Y452.016033 Z-0.125000 I11.500994 J-44.349954
G02 X1886.897375 Y450.846234 Z-0.125000 I0.485220 J-33.728131
G01 X1890.284916 Y449.926670 Z-0.125000
G01 X1895.272742 Y452.633435 Z-0.125000
G03 X1935.281999 Y481.388507 Z-0.125000 I-93.621035 J172.474103
G03 X1962.666443 Y515.653745 Z-0.125000 I-101.609065 J109.280284
G03 X1979.616062 Y556.517090 Z-0.125000 I-143.606796 J83.513276
G03 X1988.977633 Y613.763413 Z-0.125000 I-287.822049 J76.456556
G03 X1985.953043 Y656.373012 Z-0.125000 I-157.584609 J10.226198
G03 X1970.715936 Y700.945831 Z-0.125000 I-188.099798 J-39.410653
G03 X1907.529888 Y777.353490 Z-0.125000 I-188.554193 J-91.596718
G03 X1812.453502 Y819.042300 Z-0.125000 I-137.433791 J-184.173407
G03 X1793.920666 Y821.655588 Z-0.125000 I-38.101470 J-203.184840
G03 X1771.437807 Y822.942402 Z-0.125000 I-28.332245 J-297.962695
G03 X1741.470899 Y821.992787 Z-0.125000 I-5.708758 J-293.155547
G03 X1713.874549 Y818.163333 Z-0.125000 I20.942740 J-252.269560
G03 X1649.215700 Y796.553051 Z-0.125000 I50.607395 J-258.955504
G03 X1596.695857 Y762.205084 Z-0.125000 I108.153158 J-222.698635
G03 X1555.482816 Y715.540724 Z-0.125000 I143.667378 J-168.415643
G03 X1533.126257 Y663.974884 Z-0.125000 I136.138073 J-89.652464
G03 X1530.466028 Y648.269245 Z-0.125000 I113.057743 J-27.227890
G03 X1529.438205 Y627.003126 Z-0.125000 I207.998120 J-20.710756
G03 X1530.388940 Y603.756419 Z-0.125000 I284.681599 J-0.000000
G03 X1532.866302 Y584.347337 Z-0.125000 I215.779351 J17.679287
G03 X1566.834585 Y497.661675 Z-0.125000 I229.633408 J39.985025
G03 X1631.347747 Y432.232804 Z-0.125000 I190.537128 J123.350898
G03 X1646.478999 Y422.620230 Z-0.125000 I219.646292 J329.032073
G03 X1647.919723 Y422.218938 Z-0.125000 I1.440725 J2.385613
G03 X1648.389622 Y422.442011 Z-0.125000 I0.000000 J0.606453
G03 X1651.201601 Y426.210830 Z-0.125000 I-42.049694 J34.307416
G02 X1654.149383 Y430.021326 Z-0.125000 I34.153022 J-23.375181
G02 X1658.382802 Y434.457844 Z-0.125000 I51.041605 J-44.466909
G02 X1670.240140 Y443.073760 Z-0.125000 I37.835986 J-39.603313
G02 X1685.750935 Y449.202854 Z-0.125000 I33.637574 J-62.435039
G02 X1691.784724 Y450.269762 Z-0.125000 I9.395675 J-35.541103
G02 X1702.696602 Y450.760128 Z-0.125000 I10.705757 J-116.576354
G02 X1713.602649 Y450.243794 Z-0.125000 I-0.000000 J-115.437274
G02 X1719.431053 Y449.188235 Z-0.125000 I-3.313361 J-34.914077
G02 X1736.611221 Y441.935957 Z-0.125000 I-17.823903 J-66.199131
G02 X1747.644047 Y432.434282 Z-0.125000 I-21.337090 J-35.931658
G02 X1752.308605 Y425.575537 Z-0.125000 I-37.035059 J-30.202672
G02 X1755.548245 Y418.296106 Z-0.125000 I-37.993813 J-21.269375
G01 X1756.921086 Y414.281466 Z-0.125000
G01 X1771.973973 Y413.980900 Z-0.125000
G02 X1796.208754 Y412.584674 Z-0.125000 I-6.320846 J-320.737023
G02 X1815.337333 Y409.834632 Z-0.125000 I-19.426095 J-203.024622
G03 X1823.755861 Y409.439081 Z-0.125000 I5.581844 J29.014920
G03 X1825.418593 Y410.807029 Z-0.125000 I-0.185142 J1.919533
G01 X1825.418593 Y410.807029 Z-0.125000
G00 Z5.000000

(Change tool to Default tool)

G00 Z5.000000
G00 X1720.121538 Y460.727681

G01 Z-0.125000 F100.0(Penetrate)
G02 X1720.029650 Y461.851112 Z-0.125000 I0.613022 J0.615613 F400.000000
G02 X1729.674817 Y474.046199 Z-0.125000 I140.582499 J-101.275770
G02 X1777.607119 Y526.835794 Z-0.125000 I1271.232110 J-1106.107345
G02 X1793.679995 Y541.598967 Z-0.125000 I114.111883 J-108.104253
G02 X1807.743250 Y551.031397 Z-0.125000 I63.588851 J-79.607619
G02 X1815.938467 Y553.980000 Z-0.125000 I13.105504 J-23.561852
G02 X1825.310675 Y553.204542 Z-0.125000 I3.261298 J-17.607993
G02 X1834.671302 Y546.957824 Z-0.125000 I-8.070543 J-22.230353
G02 X1841.774274 Y536.884770 Z-0.125000 I-35.601705 J-32.645236
G02 X1851.746935 Y514.932692 Z-0.125000 I-178.280454 J-94.232742
G02 X1865.438559 Y476.946261 Z-0.125000 I-905.666529 J-347.894239
G02 X1865.768130 Y473.371124 Z-0.125000 I-7.360985 J-2.481325
G02 X1865.334923 Y472.526304 Z-0.125000 I-1.320282 J0.143535
G02 X1864.443972 Y472.185113 Z-0.125000 I-0.890952 J0.992674
G02 X1863.664582 Y472.710187 Z-0.125000 I0.000000 J0.840979
G02 X1857.189675 Y490.092593 Z-0.125000 I301.503866 J122.206640
G03 X1834.702741 Y541.585198 Z-0.125000 I-318.964013 J-108.635942
G03 X1824.687497 Y550.270809 Z-0.125000 I-16.504639 J-8.914227
G03 X1819.391361 Y551.069280 Z-0.125000 I-4.579466 J-12.411436
G03 X1812.429090 Y549.604680 Z-0.125000 I1.263326 J-23.286056
G03 X1796.124696 Y539.256610 Z-0.125000 I16.671286 J-44.285851
G03 X1729.926644 Y469.440982 Z-0.125000 I818.495840 J-842.376330
G02 X1721.259409 Y460.694364 Z-0.125000 I-73.103054 J63.771983
G02 X1720.121538 Y460.727681 Z-0.125000 I-0.551258 J0.620407
G01 X1720.121538 Y460.727681 Z-0.125000
G00 Z5.000000

(Change tool to Default tool)

G00 Z5.000000
G00 X1664.808494 Y535.973403

G01 Z-0.125000 F100.0(Penetrate)
G02 X1663.527637 Y537.827623 Z-0.125000 I4.477017 J4.462135 F400.000000
G02 X1663.126957 Y539.683412 Z-0.125000 I4.097295 J1.855789
G02 X1664.369318 Y543.439381 Z-0.125000 I6.298800 J0.000000
G02 X1667.448655 Y545.495779 Z-0.125000 I4.417727 J-3.281528
G02 X1671.000798 Y545.112347 Z-0.125000 I1.254932 J-5.019597
G02 X1673.833735 Y542.323573 Z-0.125000 I-2.826685 J-5.704734
G02 X1672.124462 Y535.342079 Z-0.125000 I-4.854369 J-2.511496
G02 X1664.808494 Y535.973403 Z-0.125000 I-3.282623 J4.665458
G01 X1664.808494 Y535.973403 Z-0.125000
G00 Z5.000000

(Change tool to Default tool)

G00 Z5.000000
G00 X1938.627974 Y547.526678

G01 Z-0.125000 F100.0(Penetrate)
G02 X1937.082314 Y551.141027 Z-0.125000 I3.744470 J3.738978 F400.000000
G02 X1938.465499 Y555.036865 Z-0.125000 I5.793611 J0.136490
G02 X1940.180126 Y556.351088 Z-0.125000 I3.848083 J-3.244856
G02 X1942.259187 Y556.813483 Z-0.125000 I2.079061 J-4.442838
G02 X1945.731776 Y555.854727 Z-0.125000 I0.000000 J-6.768196
G02 X1947.734439 Y553.540523 Z-0.125000 I-2.505850 J-4.192142
G02 X1945.696897 Y546.821674 Z-0.125000 I-5.079767 J-2.127897
G02 X1938.660486 Y547.526678 Z-0.125000 I-3.086799 J4.658219
G01 X1938.627974 Y547.526678 Z-0.125000
G00 Z5.000000

(Change tool to Default tool)

G00 Z5.000000
G00 X1612.574297 Y575.391971

G01 Z-0.125000 F100.0(Penetrate)
G02 X1609.517486 Y579.728487 Z-0.125000 I2.914400 J5.299992 F400.000000
G02 X1611.087691 Y584.586167 Z-0.125000 I5.535791 J0.893219
G02 X1614.711851 Y586.156289 Z-0.125000 I3.800579 J-3.804799
G02 X1618.536947 Y584.829877 Z-0.125000 I0.185262 J-5.644339
G02 X1620.389184 Y581.877267 Z-0.125000 I-3.682979 J-4.367694
G02 X1620.145416 Y578.517088 Z-0.125000 I-5.146086 J-1.315602
G02 X1616.771446 Y575.157180 Z-0.125000 I-5.754681 J2.404766
G02 X1612.574297 Y575.389533 Z-0.125000 I-1.856187 J4.494587
G01 X1612.574297 Y575.391971 Z-0.125000
G00 Z5.000000

(Change tool to Default tool)

G00 Z5.000000
G00 X1691.388663 Y590.851839

G01 Z-0.125000 F100.0(Penetrate)
G02 X1690.725185 Y597.867362 Z-0.125000 I3.904103 J3.908357 F400.000000
G02 X1697.513816 Y599.881130 Z-0.125000 I4.626613 J-3.147323
G02 X1699.250684 Y598.717597 Z-0.125000 I-2.063854 J-4.958947
G02 X1700.413875 Y596.977786 Z-0.125000 I-3.814037 J-3.808710
G02 X1700.664712 Y593.555146 Z-0.125000 I-5.008453 J-2.087569
G02 X1698.829819 Y590.605696 Z-0.125000 I-5.554390 J1.409983
G02 X1695.003873 Y589.280725 Z-0.125000 I-3.640372 J4.325497
G02 X1691.388663 Y590.849404 Z-0.125000 I0.175887 J5.355536
G01 X1691.388663 Y590.851839 Z-0.125000
G00 Z5.000000

(Change tool to Default tool)

G00 Z5.000000
G00 X1962.892933 Y593.162980

G01 Z-0.125000 F100.0(Penetrate)
G02 X1961.341149 Y596.850783 Z-0.125000 I3.744797 J3.746154 F400.000000
G02 X1962.811681 Y600.765784 Z-0.125000 I5.777277 J0.063647
G02 X1967.796950 Y602.503116 Z-0.125000 I4.056219 J-3.618032
G02 X1971.966970 Y599.176822 Z-0.125000 I-0.948198 J-5.465739
G02 X1969.924117 Y592.455194 Z-0.125000 I-5.089081 J-2.124563
G02 X1962.892933 Y593.162980 Z-0.125000 I-3.082889 J4.652390
G01 X1962.892933 Y593.162980 Z-0.125000
G00 Z5.000000

(Change tool to Default tool)

G00 Z5.000000
G00 X1808.115521 Y600.147582

G01 Z-0.125000 F100.0(Penetrate)
G02 X1777.562897 Y612.206008 Z-0.125000 I14.282158 J80.921970 F400.000000
G02 X1760.203020 Y631.344333 Z-0.125000 I27.736437 J42.601508
G02 X1755.654384 Y648.154697 Z-0.125000 I36.123290 J18.795009
G02 X1758.276709 Y663.549415 Z-0.125000 I36.145181 J1.763756
G02 X1767.013397 Y676.840387 Z-0.125000 I37.958110 J-15.434411
G02 X1783.566223 Y688.807668 Z-0.125000 I43.562198 J-42.822721
G02 X1801.208317 Y694.783223 Z-0.125000 I31.444158 J-63.804186
G02 X1821.982340 Y696.406408 Z-0.125000 I17.274357 J-87.334774
G02 X1840.080045 Y693.884330 Z-0.125000 I-3.586703 J-91.930142
G02 X1855.776194 Y688.216277 Z-0.125000 I-18.145220 J-74.815461
G02 X1872.343718 Y676.840839 Z-0.125000 I-30.271160 J-61.840246
G02 X1882.323851 Y663.575206 Z-0.125000 I-31.951393 J-34.424983
G02 X1885.723480 Y653.929390 Z-0.125000 I-35.699343 J-18.004091
G02 X1886.548096 Y643.831806 Z-0.125000 I-38.472172 J-8.224283
G02 X1883.123331 Y630.301967 Z-0.125000 I-34.782634 J1.606050
G02 X1873.712912 Y617.180977 Z-0.125000 I-42.363297 J20.448014
G02 X1858.286055 Y606.406725 Z-0.125000 I-39.687792 J40.394605
G02 X1837.035255 Y599.790147 Z-0.125000 I-33.949629 J71.603328
G02 X1823.034767 Y598.748830 Z-0.125000 I-13.001375 J80.164434
G02 X1808.115521 Y600.147582 Z-0.125000 I1.136704 J92.388793
G01 X1808.115521 Y600.147582 Z-0.125000
G00 Z5.000000

(Change tool to Default tool)

G00 Z5.000000
G00 X1841.105125 Y604.097237

G01 Z-0.125000 F100.0(Penetrate)
G03 X1869.821638 Y618.307570 Z-0.125000 I-15.778907 J68.006921 F400.000000
G03 X1882.413230 Y638.265571 Z-0.125000 I-24.131245 J29.175557
G03 X1883.311426 Y647.303335 Z-0.125000 I-29.919785 J7.537017
G03 X1881.519630 Y656.751448 Z-0.125000 I-34.721565 J-1.690841
G03 X1872.673429 Y671.491217 Z-0.125000 I-38.246272 J-12.929388
G03 X1855.491883 Y684.416905 Z-0.125000 I-46.072620 J-43.360116
G03 X1839.860367 Y690.329079 Z-0.125000 I-34.017589 J-66.320360
G03 X1821.982340 Y692.945788 Z-0.125000 I-21.484354 J-84.404611
G03 X1770.254270 Y674.412239 Z-0.125000 I-3.027871 J-73.003659
G03 X1760.925989 Y638.361430 Z-0.125000 I22.370270 J-25.020658
G03 X1764.460044 Y630.959383 Z-0.125000 I35.075481 J12.201858
G03 X1770.154317 Y623.501076 Z-0.125000 I41.583717 J25.845479
G03 X1786.561862 Y611.188471 Z-0.125000 I42.409157 J39.425148
G03 X1810.430702 Y603.263764 Z-0.125000 I39.042982 J77.687344
G03 X1825.736027 Y602.126707 Z-0.125000 I13.245190 J74.709545
G03 X1841.105125 Y604.097237 Z-0.125000 I-2.099493 J77.295664
G01 X1841.105125 Y604.097237 Z-0.125000
G00 Z5.000000

(Change tool to Default tool)

G00 Z5.000000
G00 X1916.946308 Y600.683736

G01 Z-0.125000 F100.0(Penetrate)
G02 X1914.196696 Y602.860469 Z-0.125000 I2.559979 J6.058723 F400.000000
G02 X1913.258228 Y605.734126 Z-0.125000 I3.930444 J2.873657
G02 X1914.973022 Y609.971591 Z-0.125000 I6.093047 J-0.000000
G02 X1919.034047 Y611.692726 Z-0.125000 I4.061026 J-3.930439
G02 X1923.082752 Y609.964583 Z-0.125000 I-0.000000 J-5.606739
G02 X1924.809866 Y605.665077 Z-0.125000 I-4.488074 J-4.299506
G02 X1922.311323 Y601.126228 Z-0.125000 I-5.371904 J0.000000
G02 X1916.946308 Y600.683736 Z-0.125000 I-3.105328 J4.905272
G01 X1916.946308 Y600.683736 Z-0.125000
G00 Z5.000000

(Change tool to Default tool)

G00 Z5.000000
G00 X1646.766196 Y616.944582

G01 Z-0.125000 F100.0(Penetrate)
G02 X1620.588175 Y627.627629 Z-0.125000 I5.330086 J50.476167 F400.000000
G02 X1604.824446 Y650.147841 Z-0.125000 I29.801493 J37.637754
G02 X1603.511317 Y655.608394 Z-0.125000 I31.912946 J10.562444
G02 X1603.744015 Y657.189308 Z-0.125000 I2.685294 J0.412329
G02 X1606.072882 Y659.400535 Z-0.125000 I4.071443 J-1.956053
G02 X1609.064920 Y659.414339 Z-0.125000 I1.512741 J-3.617643
G02 X1610.397821 Y658.269993 Z-0.125000 I-1.039826 J-2.559595
G02 X1612.663648 Y653.372879 Z-0.125000 I-22.221264 J-13.254211
G03 X1619.215055 Y640.923812 Z-0.125000 I42.865397 J14.609815
G03 X1628.374536 Y632.285036 Z-0.125000 I29.114705 J21.694431
G03 X1649.128321 Y625.270670 Z-0.125000 I23.764387 J36.103123
G03 X1669.758778 Y628.192508 Z-0.125000 I3.474520 J49.761665
G03 X1687.126583 Y639.338666 Z-0.125000 I-16.299804 J44.502381
G03 X1696.977651 Y657.412706 Z-0.125000 I-26.298693 J26.055461
G02 X1699.424820 Y664.931493 Z-0.125000 I39.726707 J-8.772374
G02 X1700.836334 Y666.243781 Z-0.125000 I2.216157 J-0.968461
G02 X1704.149899 Y666.164867 Z-0.125000 I1.552935 J-4.399986
G02 X1706.124727 Y664.094300 Z-0.125000 I-1.317576 J-3.233695
G02 X1706.291917 Y656.147019 Z-0.125000 I-12.094735 J-4.229842
G02 X1698.967910 Y640.508476 Z-0.125000 I-57.727231 J17.501126
G02 X1682.225742 Y624.654760 Z-0.125000 I-42.104261 J27.696749
G02 X1658.455926 Y616.914525 Z-0.125000 I-29.818398 J51.202598
G02 X1652.606752 Y616.377144 Z-0.125000 I-26.182559 J252.884716
G02 X1651.940854 Y616.394621 Z-0.125000 I-0.251055 J3.128981
G03 X1651.207615 Y616.502571 Z-0.125000 I-1.419170 J-7.095357
G02 X1646.766196 Y616.947021 Z-0.125000 I44.086371 J462.972890
G01 X1646.766196 Y616.944582 Z-0.125000
G00 Z5.000000

(Change tool to Default tool)

G00 Z5.000000
G00 X1935.841594 Y636.030791

G01 Z-0.125000 F100.0(Penetrate)
G02 X1918.592766 Y645.742381 Z-0.125000 I4.747521 J28.605790 F400.000000
G02 X1904.590422 Y672.415219 Z-0.125000 I50.933009 J43.749918
G02 X1903.043025 Y679.014877 Z-0.125000 I122.865745 J32.289113
G02 X1902.860118 Y680.805189 Z-0.125000 I8.670422 J1.790313
G02 X1904.045109 Y683.915950 Z-0.125000 I4.675577 J0.000000
G02 X1906.759413 Y685.179704 Z-0.125000 I2.822468 J-2.515344
G02 X1909.471954 Y684.029631 Z-0.125000 I0.108267 J-3.518556
G02 X1911.536024 Y679.937599 Z-0.125000 I-6.336496 J-5.762790
G03 X1920.994747 Y656.205799 Z-0.125000 I68.731640 J13.643327
G03 X1933.095854 Y645.756265 Z-0.125000 I23.188250 J14.621581
G03 X1949.399114 Y647.956936 Z-0.125000 I6.359612 J14.376168
G03 X1959.286077 Y667.149554 Z-0.125000 I-17.119436 J20.961890
G02 X1960.709961 Y674.084456 Z-0.125000 I26.300785 J-1.786488
G02 X1962.340511 Y675.806788 Z-0.125000 I2.739333 J-0.960360
G02 X1965.157094 Y675.950265 Z-0.125000 I1.609808 J-3.884214
G02 X1967.368921 Y674.299874 Z-0.125000 I-1.155173 J-3.855467
G02 X1967.889825 Y672.774126 Z-0.125000 I-2.907194 J-1.844337
G02 X1967.937740 Y667.812434 Z-0.125000 I-29.792767 J-2.768785
G02 X1965.499154 Y655.530688 Z-0.125000 I-47.900904 J3.127931
G02 X1960.658947 Y646.367968 Z-0.125000 I-30.955783 J10.492616
G02 X1953.556062 Y639.729151 Z-0.125000 I-22.462260 J16.913319
G02 X1945.078050 Y636.211131 Z-0.125000 I-13.662094 J20.949517
G02 X1940.520162 Y635.688924 Z-0.125000 I-5.025265 J23.709098
G02 X1935.809111 Y636.032417 Z-0.125000 I-0.495391 J25.683710
G01 X1935.841594 Y636.030791 Z-0.125000
G00 Z5.000000

(Change tool to Default tool)

G00 Z5.000000
G00 X1713.094713 Y683.706098

G01 Z-0.125000 F100.0(Penetrate)
G02 X1709.098093 Y684.741425 Z-0.125000 I10.501454 J48.769867 F400.000000
G02 X1703.557718 Y686.607819 Z-0.125000 I28.262105 J93.052264
G02 X1693.335631 Y690.973068 Z-0.125000 I40.109670 J108.075799
G02 X1677.478155 Y699.064222 Z-0.125000 I194.514132 J400.803960
G02 X1661.340451 Y708.267880 Z-0.125000 I165.405128 J308.771286
G02 X1660.348705 Y709.754975 Z-0.125000 I1.092580 J1.802889
G02 X1660.469329 Y710.712206 Z-0.125000 I1.912727 J0.245187
G02 X1660.998579 Y711.223707 Z-0.125000 I0.830841 J-0.330113
G02 X1661.849118 Y711.179078 Z-0.125000 I0.373052 J-1.017463
G02 X1670.413738 Y706.633106 Z-0.125000 I-67.411523 J-137.344315
G03 X1694.184843 Y694.089538 Z-0.125000 I197.098075 J344.721371
G03 X1707.115807 Y688.823916 Z-0.125000 I46.919333 J96.711047
G03 X1721.091848 Y686.376165 Z-0.125000 I15.192802 J45.623373
G03 X1726.669122 Y688.328381 Z-0.125000 I0.211096 J8.339869
G03 X1729.205546 Y691.530772 Z-0.125000 I-6.617635 J7.847110
G03 X1731.299514 Y697.475463 Z-0.125000 I-21.534476 J10.926475
G02 X1733.106911 Y701.747597 Z-0.125000 I11.894630 J-2.513830
G02 X1734.459584 Y702.174920 Z-0.125000 I0.944577 J-0.635444
G02 X1734.995673 Y701.543026 Z-0.125000 I-0.293024 J-0.791949
G02 X1735.028205 Y699.351996 Z-0.125000 I-6.149231 J-1.187061
G02 X1730.589013 Y687.949634 Z-0.125000 I-29.525205 J4.929500
G02 X1724.792598 Y683.621612 Z-0.125000 I-8.784002 J5.718689
G02 X1720.021021 Y682.946278 Z-0.125000 I-4.657697 J15.714523
G02 X1713.094713 Y683.702849 Z-0.125000 I0.238063 J34.262422
G01 X1713.094713 Y683.706098 Z-0.125000
G00 Z5.000000

(Change tool to Default tool)

G00 Z5.000000
G00 X1897.368637 Y695.843448

G01 Z-0.125000 F100.0(Penetrate)
G02 X1892.857961 Y698.231409 Z-0.125000 I2.054354 J9.334663 F400.000000
G02 X1890.252432 Y702.574595 Z-0.125000 I6.444728 J6.819405
G02 X1890.339268 Y705.598537 Z-0.125000 I5.087205 J1.367134
G02 X1891.503439 Y706.317102 Z-0.125000 I1.010507 J-0.334819
G02 X1892.394670 Y705.809879 Z-0.125000 I-0.211136 J-1.407576
G02 X1893.063168 Y704.408887 Z-0.125000 I-2.532472 J-2.068384
G03 X1896.683355 Y700.237163 Z-0.125000 I5.506329 J1.121699
G03 X1905.248423 Y700.066864 Z-0.125000 I4.537419 J12.734189
G03 X1911.684750 Y702.679878 Z-0.125000 I-12.385104 J39.740180
G03 X1922.502784 Y708.812646 Z-0.125000 I-60.431704 J119.207616
G02 X1928.344327 Y712.493336 Z-0.125000 I1982.188730 J-3139.412714
G02 X1930.057647 Y713.568155 Z-0.125000 I514.383676 J-818.052524
G02 X1931.732694 Y714.185769 Z-0.125000 I2.300467 J-3.658880
G02 X1932.608428 Y713.941835 Z-0.125000 I0.162443 J-1.110750
G02 X1932.666638 Y712.561368 Z-0.125000 I-0.594016 J-0.716509
G02 X1925.272908 Y706.672101 Z-0.125000 I-31.944550 J32.519160
G02 X1904.983501 Y696.431376 Z-0.125000 I-62.630547 J98.867066
G02 X1897.368637 Y695.845074 Z-0.125000 I-4.777977 J12.312246
G01 X1897.368637 Y695.843448 Z-0.125000
G00 Z5.000000

(Change tool to Default tool)

G00 Z5.000000
G00 X1526.789945 Y648.740847

G01 Z-0.125000 F100.0(Penetrate)
G02 X1534.060329 Y679.620710 Z-0.125000 I151.506909 J-19.375124 F400.000000
G02 X1548.236012 Y710.271628 Z-0.125000 I163.092216 J-56.824699
G02 X1560.699071 Y729.134479 Z-0.125000 I182.796118 J-107.228287
G02 X1574.141895 Y745.279124 Z-0.125000 I147.952875 J-109.523933
G03 X1577.847833 Y749.549719 Z-0.125000 I-57.054635 J53.254148
G03 X1577.748780 Y749.756806 Z-0.125000 I-0.099053 J0.079854
G03 X1573.765372 Y749.345816 Z-0.125000 I-0.000000 J-19.509546
G03 X1563.475758 Y746.777098 Z-0.125000 I27.755393 J-133.073975
G03 X1545.194876 Y740.037375 Z-0.125000 I38.932929 J-133.764481
G03 X1525.840503 Y730.127236 Z-0.125000 I89.279259 J-198.215715
G03 X1507.574735 Y717.984789 Z-0.125000 I86.463929 J-149.876605
G03 X1500.689074 Y710.558391 Z-0.125000 I17.799478 J-23.408796
G03 X1499.577032 Y707.711807 Z-0.125000 I6.456063 J-4.162620
G03 X1499.267436 Y702.386943 Z-0.125000 I23.079169 J-4.013293
G03 X1503.272606 Y681.302220 Z-0.125000 I83.198721 J4.881335
G03 X1521.940210 Y633.355714 Z-0.125000 I449.181411 J147.278033
G01 X1525.352051 Y625.845521 Z-0.125000
G01 X1525.758253 Y634.588054 Z-0.125000
G02 X1526.266887 Y643.316599 Z-0.125000 I576.988415 J-29.243420
G02 X1526.822429 Y648.740847 Z-0.125000 I74.982397 J-4.938992
G01 X1526.789945 Y648.740847 Z-0.125000
G00 Z5.000000

(Change tool to Default tool)

G00 Z5.000000
G00 X1986.053105 Y684.324300

G01 Z-0.125000 F100.0(Penetrate)
G03 X1990.261182 Y702.390626 Z-0.125000 I-108.444733 J34.782603 F400.000000
G03 X1992.007486 Y724.443109 Z-0.125000 I-160.340150 J23.792485
G01 X1992.088879 Y733.500831 Z-0.125000
G01 X1990.358518 Y735.320498 Z-0.125000
G03 X1978.367324 Y744.764156 Z-0.125000 I-38.801698 J-36.934098
G03 X1947.482584 Y760.110232 Z-0.125000 I-137.069696 J-237.107991
G03 X1929.587373 Y767.006886 Z-0.125000 I-122.360704 J-290.832237
G03 X1925.947165 Y767.665104 Z-0.125000 I-3.878186 J-11.052913
G03 X1925.807337 Y767.353735 Z-0.125000 I0.000000 J-0.187081
G03 X1933.745756 Y758.860835 Z-0.125000 I173.525952 J154.240320
G02 X1961.018745 Y725.074326 Z-0.125000 I-159.554282 J-156.695510
G02 X1979.822259 Y688.811729 Z-0.125000 I-165.113084 J-108.623779
G02 X1982.977550 Y680.716934 Z-0.125000 I-1613.487817 J-633.587893
G02 X1983.339820 Y679.713390 Z-0.125000 I-21.883267 J-8.466824
G03 X1983.767396 Y678.819241 Z-0.125000 I2.984293 J0.877760
G03 X1983.989722 Y678.702823 Z-0.125000 I0.222326 J0.154081
G03 X1984.184869 Y678.839092 Z-0.125000 I0.000000 J0.207868
G03 X1986.069276 Y684.324300 Z-0.125000 I-131.311283 J48.177413
G01 X1986.053105 Y684.324300 Z-0.125000
G00 Z5.000000

(Change tool to Default tool)

G00 Z5.000000
G00 X320.511003 Y13.534093

G01 Z-0.125000 F100.0(Penetrate)
G02 X311.022259 Y17.352363 Z-0.125000 I5.020403 J26.175473 F400.000000
G02 X305.284323 Y23.415765 Z-0.125000 I9.665072 J14.892949
G02 X297.104508 Y42.994606 Z-0.125000 I73.972793 J42.403124
G02 X288.106444 Y85.245123 Z-0.125000 I340.485763 J94.596431
G02 X286.323771 Y104.848344 Z-0.125000 I167.951468 J25.155798
G02 X286.499979 Y134.353060 Z-0.125000 I381.353677 J12.475368
G03 X285.869947 Y136.091815 Z-0.125000 I-2.416414 J0.107943
G03 X283.231055 Y137.933839 Z-0.125000 I-5.409477 J-4.938383
G02 X241.601461 Y166.515980 Z-0.125000 I45.020065 J110.178870
G02 X211.600021 Y214.000659 Z-0.125000 I107.205363 J100.953738
G02 X201.256519 Y252.226313 Z-0.125000 I172.218046 J67.112835
G02 X198.462340 Y297.028292 Z-0.125000 I234.580577 J37.118285
G01 X198.806975 Y307.675013 Z-0.125000
G01 X190.044686 Y309.817926 Z-0.125000
G02 X153.537524 Y321.991116 Z-0.125000 I55.810339 J228.202869
G02 X112.510424 Y342.951182 Z-0.125000 I132.312190 J309.620162
G02 X73.383209 Y372.420837 Z-0.125000 I120.594667 J200.824653
G02 X64.794503 Y387.427683 Z-0.125000 I19.901852 J21.351376
G02 X65.594339 Y393.469858 Z-0.125000 I8.657665 J1.927965
G02 X70.969689 Y399.180810 Z-0.125000 I12.893942 J-6.751024
G02 X79.151798 Y402.732757 Z-0.125000 I17.335546 J-28.733458
G02 X96.108741 Y406.320260 Z-0.125000 I34.904087 J-123.111422
G02 X112.788455 Y408.024211 Z-0.125000 I30.225039 J-213.378710
G02 X139.978721 Y409.083074 Z-0.125000 I35.677095 J-566.507251
G01 X161.404298 Y409.403425 Z-0.125000
G01 X161.683972 Y411.197257 Z-0.125000
G03 X161.963160 Y412.991144 Z-0.125000 I-3315.247757 J516.867960
G03 X162.609974 Y417.157762 Z-0.125000 I-18005.162923 J2797.360088
G02 X163.391891 Y421.293539 Z-0.125000 I63.099260 J-9.787845
G02 X164.342508 Y424.911959 Z-0.125000 I49.231796 J-10.999906
G03 X165.156677 Y428.431270 Z-0.125000 I-25.951504 J7.857537
G03 X164.994385 Y428.933767 Z-0.125000 I-0.572013 J0.092713
G03 X164.506801 Y429.293508 Z-0.125000 I-1.435566 J-1.435430
G03 X159.397029 Y431.889621 Z-0.125000 I-84.849759 J-160.677920
G02 X116.194779 Y461.296002 Z-0.125000 I80.279088 J164.380041
G02 X83.972288 Y500.892334 Z-0.125000 I117.829288 J128.795578
G02 X63.857970 Y547.385622 Z-0.125000 I170.536945 J101.376783
G02 X55.159281 Y600.981359 Z-0.125000 I219.028166 J63.052461
G01 X54.785108 Y609.991928 Z-0.125000
G01 X50.700523 Y614.237761 Z-0.125000
G02 X40.843054 Y626.613692 Z-0.125000 I61.106681 J58.785385
G02 X28.755176 Y647.794141 Z-0.125000 I168.592096 J110.256617
G02 X20.508205 Y668.739363 Z-0.125000 I121.856534 J60.075981
G02 X17.242394 Y686.072305 Z-0.125000 I79.876677 J24.024218
G01 X16.849318 Y690.956466 Z-0.125000
G01 X19.445926 Y694.477002 Z-0.125000
G02 X28.656430 Y703.658375 Z-0.125000 I34.676870 J-25.576343
G02 X49.087067 Y716.194515 Z-0.125000 I86.512438 J-118.076316
G02 X64.974717 Y723.546249 Z-0.125000 I112.947127 J-223.244186
G02 X79.246742 Y728.888899 Z-0.125000 I73.545725 J-174.731460
G01 X88.282146 Y731.863045 Z-0.125000
G01 X91.261365 Y735.868421 Z-0.125000
G02 X114.551610 Y762.686397 Z-0.125000 I188.711385 J-140.365354
G02 X144.450546 Y788.496979 Z-0.125000 I204.559221 J-206.738338
G02 X206.421485 Y822.746223 Z-0.125000 I153.125632 J-203.877062
G02 X277.561448 Y839.451790 Z-0.125000 I97.092215 J-253.637084
G02 X301.131122 Y840.651863 Z-0.125000 I25.159710 J-262.085186
G02 X322.854830 Y839.725396 Z-0.125000 I1.349775 J-223.501580
G02 X353.050226 Y835.237320 Z-0.125000 I-24.741819 J-270.280927
G02 X381.000341 Y827.707148 Z-0.125000 I-49.394955 J-238.978732
G03 X389.356876 Y825.475344 Z-0.125000 I22.291981 J66.707196
G03 X392.339832 Y825.414927 Z-0.125000 I1.658242 J8.203367
G02 X420.512266 Y828.425631 Z-0.125000 I42.738164 J-266.603009
G02 X445.148098 Y828.267827 Z-0.125000 I11.012688 J-203.846402
G02 X467.883543 Y825.282318 Z-0.125000 I-12.002709 J-179.464819
G02 X473.829637 Y822.622195 Z-0.125000 I-2.803380 J-14.241936
G02 X478.995172 Y816.164271 Z-0.125000 I-10.108300 J-13.380237
G02 X486.643397 Y795.257976 Z-0.125000 I-135.638709 J-61.473330
G02 X491.588847 Y773.698747 Z-0.125000 I-211.188352 J-59.791112
G02 X494.405838 Y749.944952 Z-0.125000 I-206.590186 J-36.543714
G01 X494.774872 Y743.902224 Z-0.125000
G01 X498.657939 Y737.859499 Z-0.125000
G02 X525.156775 Y675.403375 Z-0.125000 I-168.786100 J-108.461951
G02 X528.907336 Y609.457447 Z-0.125000 I-185.102407 J-43.606996
G02 X514.607250 Y553.752038 Z-0.125000 I-214.475743 J25.369691
G02 X485.718530 Y502.823666 Z-0.125000 I-207.478381 J84.032848
G03 X480.544627 Y495.970121 Z-0.125000 I6915.375144 J-5225.960738
G03 X479.756332 Y494.917662 Z-0.125000 I159.696399 J-120.434464
G03 X479.563670 Y494.051110 Z-0.125000 I0.871742 J-0.648509
G03 X480.044057 Y493.513154 Z-0.125000 I0.702574 J0.143922
G02 X481.109388 Y493.143209 Z-0.125000 I-9.058150 J-27.803600
G02 X484.086891 Y492.021300 Z-0.125000 I-80.654229 J-218.565164
G01 X487.057110 Y490.878836 Z-0.125000
G01 X491.280622 Y494.284637 Z-0.125000
G02 X524.043662 Y516.384864 Z-0.125000 I145.788336 J-180.792291
G02 X546.850093 Y525.240718 Z-0.125000 I43.315965 J-77.756799
G02 X557.810374 Y526.804029 Z-0.125000 I14.062317 J-59.387462
G02 X564.140156 Y526.120630 Z-0.125000 I1.025760 J-20.154777
G02 X566.320799 Y525.075381 Z-0.125000 I-1.764880 J-6.479266
G02 X567.999460 Y523.318446 Z-0.125000 I-3.983769 J-5.486690
G02 X571.042741 Y513.456998 Z-0.125000 I-15.425270 J-10.160606
G02 X568.650600 Y491.418896 Z-0.125000 I-89.374120 J-1.447703
G02 X561.881254 Y469.544913 Z-0.125000 I-164.734875 J38.996087
G02 X547.516053 Y436.788294 Z-0.125000 I-367.031509 J141.431069
G02 X526.461779 Y400.204109 Z-0.125000 I-298.474418 J147.422165
G02 X508.549151 Y378.039222 Z-0.125000 I-126.456062 J83.875374
G01 X503.076890 Y372.437788 Z-0.125000
G01 X505.045475 Y368.074859 Z-0.125000
G03 X507.565184 Y364.285342 Z-0.125000 I12.786115 J5.769234
G03 X510.371065 Y362.354976 Z-0.125000 I5.750341 J5.353975
G02 X516.795180 Y358.903794 Z-0.125000 I-12.576965 J-31.115664
G02 X519.391395 Y356.159465 Z-0.125000 I-5.099321 J-7.424318
G02 X521.201258 Y351.567113 Z-0.125000 I-12.394849 J-7.537668
G02 X522.681739 Y340.290702 Z-0.125000 I-75.408409 J-15.635772
G03 X523.429191 Y334.912047 Z-0.125000 I33.319016 J1.888958
G03 X523.953179 Y334.592409 Z-0.125000 I0.416123 J0.092849
G03 X524.820143 Y334.982438 Z-0.125000 I-0.723639 J2.767086
G03 X535.805581 Y342.523418 Z-0.125000 I-312.490227 J466.997005
G03 X546.722963 Y350.210577 Z-0.125000 I-70128.285892 J99618.624341
G03 X552.766149 Y354.467147 Z-0.125000 I-20467.417648 J29063.096237
G02 X572.611619 Y366.199731 Z-0.125000 I83.255650 J-118.175110
G02 X583.867320 Y369.648163 Z-0.125000 I16.533582 J-33.872156
G02 X598.808443 Y369.827616 Z-0.125000 I8.165101 J-57.737169
G02 X626.919925 Y364.611173 Z-0.125000 I-24.809368 J-212.052848
G02 X667.562672 Y347.704027 Z-0.125000 I-38.087265 J-148.860915
G02 X678.256289 Y333.981398 Z-0.125000 I-12.297510 J-20.610982
G02 X678.409763 Y331.663427 Z-0.125000 I-4.987291 J-1.494279
G02 X677.348323 Y328.314658 Z-0.125000 I-11.756039 J1.883641
G02 X670.200029 Y319.153590 Z-0.125000 I-25.321205 J12.388488
G02 X644.073946 Y299.697921 Z-0.125000 I-173.641286 J205.904972
G02 X616.464247 Y283.181197 Z-0.125000 I-217.739824 J332.643590
G02 X584.813018 Y267.743475 Z-0.125000 I-187.842798 J344.959802
G02 X564.024281 Y259.305972 Z-0.125000 I-190.624579 J439.841378
G02 X538.968586 Y250.374645 Z-0.125000 I-238.780711 J630.257720
G01 X523.732311 Y245.280054 Z-0.125000
G01 X522.375895 Y238.494698 Z-0.125000
G02 X513.674593 Y211.333518 Z-0.125000 I-124.314212 J24.850699
G02 X500.710880 Y190.337454 Z-0.125000 I-86.539228 J38.932224
G03 X498.233604 Y187.183170 Z-0.125000 I87.501930 J-71.271198
G03 X496.023649 Y184.145838 Z-0.125000 I78.915532 J-59.741386
G02 X487.026187 Y174.722200 Z-0.125000 I-35.209616 J24.610194
G02 X481.196653 Y172.726449 Z-0.125000 I-5.862188 J7.611458
G03 X479.693987 Y172.308913 Z-0.125000 I0.014400 J-2.964557
G03 X474.578401 Y168.782252 Z-0.125000 I23.968370 J-40.240774
G02 X431.563540 Y143.338138 Z-0.125000 I-114.609138 J144.672178
G02 X380.233854 Y129.076944 Z-0.125000 I-81.352034 J193.301852
G03 X372.642961 Y127.847839 Z-0.125000 I32.623301 J-225.534978
G03 X372.258677 Y127.647093 Z-0.125000 I0.127798 J-0.712827
G03 X372.170853 Y127.273116 Z-0.125000 I0.257908 J-0.257867
G03 X376.099044 Y116.211985 Z-0.125000 I322.760604 J108.395386
G02 X388.506865 Y80.005619 Z-0.125000 I-632.829234 J-237.098060
G02 X394.520168 Y57.045733 Z-0.125000 I-248.123003 J-77.251996
G02 X395.534023 Y50.971950 Z-0.125000 I-66.821786 J-14.275614
G02 X395.877065 Y45.823533 Z-0.125000 I-47.637820 J-5.759765
G02 X395.462721 Y40.747788 Z-0.125000 I-27.071967 J-0.344843
G02 X394.356903 Y37.257721 Z-0.125000 I-13.777043 J2.444998
G02 X384.805940 Y26.761421 Z-0.125000 I-21.727326 J10.176945
G02 X359.098993 Y16.491161 Z-0.125000 I-46.332105 J78.663469
G02 X334.616172 Y12.736237 Z-0.125000 I-36.995536 J159.524179
G02 X320.511003 Y13.534093 Z-0.125000 I-4.070584 J53.117277
G01 X320.511003 Y13.534093 Z-0.125000
G00 Z5.000000

(Change tool to Default tool)

G00 Z5.000000
G00 X339.191461 Y16.708529

G01 Z-0.125000 F100.0(Penetrate)
G03 X339.424186 Y17.347636 Z-0.125000 I-0.297899 J0.470403 F400.000000
G03 X337.959194 Y20.584315 Z-0.125000 I-14.477176 J-4.602806
G02 X328.603103 Y40.335867 Z-0.125000 I93.898671 J56.570473
G02 X321.674238 Y66.253684 Z-0.125000 I155.586671 J55.479604
G03 X320.235104 Y74.017720 Z-0.125000 I-1162.819049 J-211.523580
G03 X319.925561 Y75.514722 Z-0.125000 I-43.460327 J-8.206024
G02 X319.944052 Y76.903924 Z-0.125000 I2.916990 J0.655898
G02 X320.544220 Y77.960601 Z-0.125000 I2.218469 J-0.561261
G02 X322.563687 Y77.846428 Z-0.125000 I0.958757 J-0.958744
G02 X324.445265 Y73.061223 Z-0.125000 I-6.854488 J-5.457764
G03 X325.941962 Y62.552176 Z-0.125000 I81.933235 J6.307820
G03 X329.792191 Y47.486358 Z-0.125000 I172.613504 J36.088305
G03 X334.239895 Y35.643395 Z-0.125000 I93.268429 J28.270921
G03 X341.134533 Y22.372023 Z-0.125000 I124.131531 J56.061216
G03 X344.386694 Y17.817122 Z-0.125000 I28.044196 J16.584866
G03 X345.428318 Y17.336417 Z-0.125000 I1.041624 J0.888176
G03 X352.211697 Y18.036085 Z-0.125000 I-0.000000 J33.232708
G03 X365.153902 Y21.449269 Z-0.125000 I-26.135022 J125.343386
G03 X367.159212 Y22.120809 Z-0.125000 I-24.901893 J77.690263
G03 X370.133374 Y23.188915 Z-0.125000 I-60.039715 J171.856667
G01 X373.098598 Y24.283091 Z-0.125000
G01 X370.341146 Y30.449336 Z-0.125000
G02 X363.218720 Y49.287894 Z-0.125000 I155.787749 J69.665458
G02 X357.285151 Y72.296429 Z-0.125000 I226.757589 J70.746872
G03 X355.868009 Y79.202339 Z-0.125000 I-83531.477719 J-17143.447117
G03 X355.297601 Y81.979925 Z-0.125000 I-13043.484639 J-2676.826352
G02 X355.613426 Y85.398657 Z-0.125000 I5.787678 J1.189284
G02 X357.096937 Y86.396138 Z-0.125000 I1.483511 J-0.604441
G02 X358.374444 Y85.588400 Z-0.125000 I0.000000 J-1.414112
G02 X359.577021 Y81.171104 Z-0.125000 I-11.720414 J-5.563144
G03 X361.626289 Y68.256524 Z-0.125000 I94.557714 J8.384411
G03 X366.854149 Y49.564304 Z-0.125000 I203.815112 J46.926053
G03 X374.367518 Y29.068570 Z-0.125000 I321.517483 J106.237549
G03 X376.313279 Y26.127582 Z-0.125000 I8.194477 J3.307323
G03 X378.129211 Y25.917668 Z-0.125000 I1.040379 J1.040525
G03 X386.676253 Y32.555137 Z-0.125000 I-27.175191 J43.815115
G03 X391.391659 Y41.077400 Z-0.125000 I-11.417921 J11.883245
G03 X391.418574 Y55.319266 Z-0.125000 I-34.494825 J7.186150
G03 X385.637077 Y77.309307 Z-0.125000 I-200.838617 J-41.048319
G03 X369.378881 Y123.515727 Z-0.125000 I-905.247459 J-292.556944
G01 X368.282363 Y126.393236 Z-0.125000
G01 X350.172558 Y126.200733 Z-0.125000
G02 X319.148545 Y127.847947 Z-0.125000 I-2.595293 J244.099891
G02 X296.610788 Y132.481052 Z-0.125000 I15.593626 J132.989321
G03 X290.812628 Y134.066838 Z-0.125000 I-39.236702 J-132.069528
G03 X290.556303 Y133.995880 Z-0.125000 I-0.065504 J-0.261824
G03 X290.433537 Y133.733393 Z-0.125000 I0.300493 J-0.300493
G03 X289.740059 Y124.905587 Z-0.125000 I395.184602 J-35.485291
G03 X289.542973 Y108.929392 Z-0.125000 I145.250970 J-9.781163
G03 X291.241369 Y89.658627 Z-0.125000 I213.221643 J9.081695
G02 X292.100606 Y83.230607 Z-0.125000 I-8930.605647 J-1197.034389
G02 X292.635236 Y79.202407 Z-0.125000 I-3518.581084 J-469.041155
G03 X298.553239 Y50.054181 Z-0.125000 I214.058448 J28.285687
G03 X306.781399 Y27.936599 Z-0.125000 I131.028454 J36.155764
G03 X312.405477 Y20.699947 Z-0.125000 I19.178152 J9.100857
G03 X319.913312 Y17.042002 Z-0.125000 I11.254410 J13.565590
G03 X334.384805 Y15.359512 Z-0.125000 I15.753059 J72.418139
G03 X339.191461 Y16.708529 Z-0.125000 I0.150493 J8.701542
G01 X339.191461 Y16.708529 Z-0.125000
G00 Z5.000000

(Change tool to Default tool)

G00 Z5.000000
G00 X358.535678 Y130.139087

G01 Z-0.125000 F100.0(Penetrate)
G03 X398.832388 Y135.931899 Z-0.125000 I-15.868102 J253.438774 F400.000000
G03 X430.824671 Y146.533800 Z-0.125000 I-38.493856 J169.729901
G03 X445.415846 Y153.609480 Z-0.125000 I-95.104841 J214.703756
G03 X457.666375 Y160.715128 Z-0.125000 I-83.656449 J158.341461
G03 X472.275710 Y170.622910 Z-0.125000 I-153.656626 J242.296348
G03 X474.181314 Y172.673165 Z-0.125000 I-4.230676 J5.842897
G03 X474.147215 Y173.156066 Z-0.125000 I-0.352414 J0.217769
G03 X473.238212 Y173.805497 Z-0.125000 I-1.695354 J-1.412092
G02 X468.191402 Y176.867482 Z-0.125000 I5.841614 J15.318345
G02 X461.002778 Y184.675315 Z-0.125000 I35.196834 J39.618689
G02 X446.725425 Y212.172982 Z-0.125000 I75.469780 J56.640838
G02 X432.834996 Y271.418658 Z-0.125000 I346.194238 J112.418053
G02 X430.502830 Y290.049788 Z-0.125000 I420.729977 J62.126738
G02 X429.470032 Y304.148477 Z-0.125000 I239.783552 J24.652481
G01 X429.321894 Y307.527919 Z-0.125000
G01 X424.962181 Y301.846447 Z-0.125000
G02 X406.886936 Y282.886402 Z-0.125000 I-97.302463 J74.665806
G02 X384.604544 Y267.695384 Z-0.125000 I-83.969315 J99.229770
G03 X381.389537 Y265.879212 Z-0.125000 I44.350678 J-82.263718
G03 X380.703545 Y264.986125 Z-0.125000 I0.769084 J-1.300746
G03 X380.768862 Y263.822541 Z-0.125000 I1.735441 J-0.486208
G03 X382.422995 Y259.908676 Z-0.125000 I135.275718 J54.865657
G02 X387.114694 Y248.042232 Z-0.125000 I-154.094905 J-67.786043
G02 X387.598301 Y245.213111 Z-0.125000 I-8.033438 J-2.829122
G02 X386.386698 Y243.131304 Z-0.125000 I-2.394307 J0.000000
G02 X375.183342 Y237.944911 Z-0.125000 I-36.740090 J64.670257
G02 X363.222818 Y234.120419 Z-0.125000 I-52.613317 J143.925611
G02 X346.084795 Y230.037457 Z-0.125000 I-67.511203 J245.365364
G02 X321.856972 Y226.803302 Z-0.125000 I-36.374627 J180.125725
G02 X318.572983 Y228.214894 Z-0.125000 I-0.259779 J3.921444
G02 X317.179048 Y231.236477 Z-0.125000 I4.971106 J4.125622
G02 X315.720845 Y244.658008 Z-0.125000 I104.772455 J18.173145
G01 X315.373345 Y252.427219 Z-0.125000
G01 X305.018301 Y253.138277 Z-0.125000
G02 X271.554093 Y259.097222 Z-0.125000 I10.836782 J157.800669
G02 X258.814371 Y266.618707 Z-0.125000 I8.392262 J28.764495
G02 X255.713173 Y271.617303 Z-0.125000 I8.994057 J9.041349
G02 X254.929260 Y278.242311 Z-0.125000 I15.556387 J5.199611
G02 X259.466383 Y297.157171 Z-0.125000 I65.524111 J-5.715731
G02 X271.168387 Y318.451471 Z-0.125000 I95.163305 J-38.433253
G02 X296.456165 Y342.559102 Z-0.125000 I75.952573 J-54.354035
G02 X331.199548 Y357.215173 Z-0.125000 I59.017927 J-91.397684
G02 X364.107354 Y358.880924 Z-0.125000 I21.180015 J-92.534012
G02 X398.307647 Y348.860295 Z-0.125000 I-13.719474 J-110.197326
G02 X413.022503 Y340.291524 Z-0.125000 I-45.331619 J-94.765474
G02 X426.223263 Y329.413659 Z-0.125000 I-60.591996 J-86.979798
G01 X429.455074 Y326.279864 Z-0.125000
G01 X430.144487 Y331.940395 Z-0.125000
G02 X435.456896 Y352.938853 Z-0.125000 I85.147049 J-10.370165
G02 X441.208783 Y360.099371 Z-0.125000 I14.354393 J-5.640127
G02 X446.849683 Y362.890763 Z-0.125000 I13.316590 J-19.815115
G02 X457.233531 Y365.540277 Z-0.125000 I22.252531 J-65.538338
G02 X477.861056 Y367.313015 Z-0.125000 I20.521692 J-117.892785
G02 X498.269122 Y365.504012 Z-0.125000 I-0.103643 J-117.189370
G03 X502.128624 Y364.987392 Z-0.125000 I7.951107 J44.725344
G03 X502.498702 Y365.121459 Z-0.125000 I0.041817 J0.462382
G03 X502.569661 Y365.469508 Z-0.125000 I-0.227722 J0.227685
G03 X501.172455 Y368.412594 Z-0.125000 I-25.128315 J-10.126261
G03 X499.139888 Y370.917756 Z-0.125000 I-7.970115 J-4.389420
G03 X496.579232 Y372.368305 Z-0.125000 I-4.941815 J-5.738354
G02 X481.407018 Y382.449225 Z-0.125000 I10.869455 J32.816866
G02 X462.704973 Y411.167737 Z-0.125000 I92.177770 J80.476750
G02 X456.562556 Y428.838080 Z-0.125000 I83.087504 J38.784942
G02 X454.647387 Y445.218836 Z-0.125000 I69.350490 J16.410501
G02 X455.254126 Y453.713232 Z-0.125000 I59.349301 J0.029658
G02 X456.429592 Y457.592051 Z-0.125000 I13.322046 J-1.919692
G02 X462.652915 Y467.202971 Z-0.125000 I40.087854 J-19.137593
G02 X479.005479 Y484.185541 Z-0.125000 I143.576388 J-121.885862
G03 X482.660832 Y487.732630 Z-0.125000 I-59.949607 J65.436380
G03 X482.977934 Y488.682678 Z-0.125000 I-0.825878 J0.803600
G03 X482.391979 Y489.402427 Z-0.125000 I-0.872311 J-0.111767
G03 X478.173883 Y490.676031 Z-0.125000 I-18.673785 J-54.224542
G03 X451.789009 Y490.755346 Z-0.125000 I-13.346592 J-51.241440
G03 X428.832351 Y478.140566 Z-0.125000 I12.850463 J-50.581470
G01 X426.691413 Y476.121379 Z-0.125000
G01 X429.231075 Y472.467815 Z-0.125000
G02 X434.601742 Y461.838628 Z-0.125000 I-35.142992 J-24.428319
G02 X433.415753 Y460.181778 Z-0.125000 I-1.185989 J-0.403953
G02 X432.577602 Y460.590713 Z-0.125000 I-0.000000 J1.063404
G02 X430.122389 Y464.399448 Z-0.125000 I19.789055 J15.452269
G03 X422.222009 Y475.590290 Z-0.125000 I-45.934723 J-24.044332
G03 X413.596330 Y482.238377 Z-0.125000 I-24.038502 J-22.269368
G03 X405.020558 Y485.401069 Z-0.125000 I-15.811670 J-29.665870
G03 X393.928800 Y486.573366 Z-0.125000 I-10.774114 J-48.881110
G03 X382.970775 Y485.317477 Z-0.125000 I0.325622 J-51.275191
G03 X373.526024 Y481.970773 Z-0.125000 I9.312406 J-41.280987
G03 X358.922317 Y470.286550 Z-0.125000 I19.374995 J-39.184580
G03 X349.603429 Y452.412652 Z-0.125000 I39.469877 J-31.944590
G03 X347.796750 Y441.516850 Z-0.125000 I45.662090 J-13.169110
G03 X348.452752 Y428.386002 Z-0.125000 I67.264652 J-3.221345
G02 X348.775175 Y423.661459 Z-0.125000 I-29.469033 J-4.384364
G02 X348.388462 Y422.756459 Z-0.125000 I-1.286698 J0.014692
G02 X346.124219 Y421.412616 Z-0.125000 I-3.890436 J3.975568
G02 X328.897546 Y416.797901 Z-0.125000 I-74.606122 J244.042870
G02 X317.549196 Y414.653240 Z-0.125000 I-32.470479 J140.718770
G02 X301.110736 Y412.689677 Z-0.125000 I-43.400704 J293.548698
G02 X295.149576 Y412.309089 Z-0.125000 I-9.968068 J109.255009
G02 X293.413690 Y412.556298 Z-0.125000 I-0.180849 J4.948328
G02 X292.420799 Y413.540106 Z-0.125000 I0.493034 J1.490518
G02 X292.065712 Y415.681571 Z-0.125000 I6.279834 J2.141465
G03 X291.148592 Y422.246300 Z-0.125000 I-23.953676 J-0.000000
G03 X287.342497 Y432.256115 Z-0.125000 I-60.131660 J-17.135724
G03 X283.938475 Y437.929837 Z-0.125000 I-32.689976 J-15.754766
G03 X278.899548 Y443.794968 Z-0.125000 I-39.998001 J-29.266475
G03 X273.053375 Y448.869961 Z-0.125000 I-40.162494 J-40.360699
G03 X268.470291 Y451.671960 Z-0.125000 I-16.523711 J-21.877817
G03 X258.963999 Y454.953188 Z-0.125000 I-18.562862 J-38.368550
G03 X248.040126 Y456.114420 Z-0.125000 I-10.806707 J-49.698392
G03 X237.019315 Y454.897457 Z-0.125000 I0.118748 J-51.586063
G03 X227.322209 Y451.532486 Z-0.125000 I9.546498 J-43.165852
G03 X213.510619 Y440.451289 Z-0.125000 I17.213859 J-35.603304
G03 X205.998652 Y424.553932 Z-0.125000 I30.590720 J-24.178503
G03 X205.102149 Y414.125415 Z-0.125000 I39.984982 J-8.690162
G03 X206.832932 Y404.934097 Z-0.125000 I32.641457 J1.387974
G02 X207.898281 Y401.460872 Z-0.125000 I-53.477645 J-18.303291
G02 X208.028886 Y400.535551 Z-0.125000 I-3.608974 J-0.981268
G02 X207.165194 Y399.370903 Z-0.125000 I-1.193004 J-0.017856
G02 X205.485036 Y399.805075 Z-0.125000 I-0.471699 J1.642640
G02 X203.744403 Y402.756354 Z-0.125000 I4.848936 J4.848794
G02 X201.973384 Y412.000123 Z-0.125000 I49.721892 J14.317783
G03 X200.958015 Y415.489862 Z-0.125000 I-9.835636 J-0.969177
G03 X199.751020 Y416.396214 Z-0.125000 I-1.521295 J-0.769061
G02 X193.979435 Y417.894894 Z-0.125000 I8.017979 J42.740972
G02 X177.323212 Y423.895056 Z-0.125000 I121.554613 J363.549646
G03 X168.934153 Y426.683942 Z-0.125000 I-33.279100 J-86.092867
G03 X168.276254 Y426.428537 Z-0.125000 I-0.158624 J-0.566444
G03 X167.904484 Y425.604481 Z-0.125000 I2.884708 J-1.797314
G03 X166.496180 Y420.472547 Z-0.125000 I112.856431 J-33.729249
G03 X165.627860 Y415.240170 Z-0.125000 I31.882106 J-7.979112
G03 X165.192985 Y404.934097 Z-0.125000 I123.875391 J-10.389264
G03 X165.810036 Y394.679401 Z-0.125000 I84.574688 J-0.056836
G03 X167.139946 Y388.904834 Z-0.125000 I27.934749 J3.393076
G03 X178.488482 Y369.779049 Z-0.125000 I51.972083 J17.908526
G03 X197.947191 Y355.111827 Z-0.125000 I48.770400 J44.461360
G03 X204.863085 Y351.848071 Z-0.125000 I88.055125 J177.629383
G03 X205.552290 Y351.700579 Z-0.125000 I0.689205 J1.536525
G02 X206.631380 Y350.790482 Z-0.125000 I0.000000 J-1.094781
G02 X206.586493 Y345.657863 Z-0.125000 I-14.266820 J-2.441735
G03 X201.715174 Y304.983003 Z-0.125000 I297.072137 J-56.207206
G03 X202.564902 Y267.479541 Z-0.125000 I253.194548 J-13.024641
G03 X213.698521 Y217.862938 Z-0.125000 I204.552026 J19.842588
G03 X233.804032 Y180.489987 Z-0.125000 I134.714843 J48.377940
G03 X283.403801 Y142.307705 Z-0.125000 I93.145725 J69.691868
G03 X358.535678 Y130.139087 Z-0.125000 I64.383599 J159.494167
G01 X358.535678 Y130.139087 Z-0.125000
G00 Z5.000000

(Change tool to Default tool)

G00 Z5.000000
G00 X482.810287 Y176.810148

G01 Z-0.125000 F100.0(Penetrate)
G03 X484.870639 Y177.797969 Z-0.125000 I-1.743069 J6.278220 F400.000000
G03 X488.641732 Y181.002475 Z-0.125000 I-17.843629 J24.819735
G03 X498.890738 Y198.258292 Z-0.125000 I-28.744043 J28.743963
G03 X513.584588 Y265.663638 Z-0.125000 I-460.722660 J135.738264
G03 X519.957156 Y332.834261 Z-0.125000 I-693.542503 J99.684917
G03 X517.574702 Y351.556110 Z-0.125000 I-54.760925 J2.543898
G03 X515.948454 Y354.843944 Z-0.125000 I-11.015624 J-3.402504
G03 X513.742576 Y356.934193 Z-0.125000 I-6.444682 J-4.592116
G03 X506.320812 Y360.627081 Z-0.125000 I-21.478501 J-33.861948
G03 X501.586842 Y361.484010 Z-0.125000 I-4.733970 J-12.647563
G03 X501.208167 Y361.126841 Z-0.125000 I0.000000 J-0.379322
G03 X500.105514 Y336.162129 Z-0.125000 I872.606646 J-51.048425
G02 X499.206335 Y321.678451 Z-0.125000 I-225.594561 J6.735648
G02 X496.385712 Y296.772627 Z-0.125000 I-670.328370 J63.303111
G02 X493.964680 Y288.433372 Z-0.125000 I-28.584227 J3.777439
G02 X492.259369 Y287.862843 Z-0.125000 I-1.121926 J0.519586
G02 X491.620723 Y288.958285 Z-0.125000 I0.570967 J1.066762
G02 X492.599503 Y302.207776 Z-0.125000 I132.784996 J-3.148328
G03 X493.870830 Y313.442717 Z-0.125000 I-505.949841 J62.941826
G03 X494.916830 Y324.939929 Z-0.125000 I-528.707625 J53.897246
G02 X495.933864 Y336.438720 Z-0.125000 I689.396539 J-55.180736
G02 X496.366267 Y339.902844 Z-0.125000 I62.916273 J-6.094353
G03 X496.752362 Y343.369491 Z-0.125000 I-42.169582 J6.451427
G03 X497.258653 Y352.626071 Z-0.125000 I-300.600432 J21.083576
G03 X497.135187 Y361.575029 Z-0.125000 I-84.314119 J3.312069
G03 X496.611998 Y362.284195 Z-0.125000 I-0.816303 J-0.054655
G03 X487.453638 Y364.195900 Z-0.125000 I-10.478902 J-27.307807
G03 X471.045486 Y363.439556 Z-0.125000 I-4.070148 J-90.059796
G01 X467.304744 Y362.922779 Z-0.125000
G01 X466.930940 Y355.153568 Z-0.125000
G03 X466.596446 Y347.382811 Z-0.125000 I768.800505 J-36.985780
G03 X466.220502 Y336.449855 Z-0.125000 I1521.124055 J-57.778768
G02 X465.753551 Y325.522027 Z-0.125000 I-458.413916 J14.114344
G02 X464.725656 Y309.113725 Z-0.125000 I-1034.550841 J56.572925
G03 X463.580079 Y292.711603 Z-0.125000 I10734.517465 J-757.974014
G03 X463.565751 Y292.321531 Z-0.125000 I6.038474 J-0.417111
G02 X462.900065 Y290.779646 Z-0.125000 I-2.156254 J0.016288
G02 X461.261999 Y290.122315 Z-0.125000 I-1.638066 J1.712360
G02 X460.822824 Y290.252913 Z-0.125000 I0.000000 J0.803728
G02 X459.842873 Y291.048145 Z-0.125000 I3.333238 J5.108900
G02 X459.310791 Y292.113893 Z-0.125000 I1.329623 J1.329519
G02 X459.251758 Y295.220518 Z-0.125000 I12.666058 J1.794557
G03 X460.195266 Y305.992712 Z-0.125000 I-349.418632 J36.032055
G03 X463.012680 Y347.384357 Z-0.125000 I-5160.236683 J372.034659
G03 X463.387619 Y354.292844 Z-0.125000 I-354.615089 J22.710184
G03 X463.509476 Y358.544666 Z-0.125000 I-134.209614 J5.974083
G01 X463.564029 Y362.798996 Z-0.125000
G01 X460.254917 Y362.447968 Z-0.125000
G03 X451.211680 Y360.676216 Z-0.125000 I5.544926 J-52.266722
G03 X444.332701 Y357.847887 Z-0.125000 I9.502177 J-32.890512
G03 X441.305444 Y355.481582 Z-0.125000 I5.611507 J-10.298468
G03 X438.699884 Y351.713307 Z-0.125000 I12.281477 J-11.276923
G03 X432.736881 Y326.714060 Z-0.125000 I49.694739 J-25.064345
G03 X438.592217 Y259.620922 Z-0.125000 I382.197536 J-0.447026
G03 X456.559337 Y197.930496 Z-0.125000 I293.116486 J51.907506
G03 X471.827185 Y179.121407 Z-0.125000 I39.113710 J16.148453
G03 X477.633095 Y176.645978 Z-0.125000 I9.149162 J13.412238
G03 X482.810315 Y176.810148 Z-0.125000 I2.251875 J10.701268
G01 X482.810287 Y176.810148 Z-0.125000
G00 Z5.000000

(Change tool to Default tool)

G00 Z5.000000
G00 X509.372901 Y209.664766

G01 Z-0.125000 F100.0(Penetrate)
G03 X516.277311 Y227.332672 Z-0.125000 I-87.821894 J44.502794 F400.000000
G03 X521.502502 Y252.481829 Z-0.125000 I-173.692893 J49.205228
G03 X522.149976 Y259.931856 Z-0.125000 I-78.936195 J10.613408
G03 X522.472500 Y276.885838 Z-0.125000 I-409.158142 J16.263678
G03 X522.237897 Y292.252984 Z-0.125000 I-565.502877 J-0.947874
G03 X521.943284 Y294.745287 Z-0.125000 I-14.142213 J-0.408179
G03 X521.545858 Y294.745156 Z-0.125000 I-0.198699 J-0.041619
G03 X520.330207 Y287.114503 Z-0.125000 I79.107889 J-16.514954
G02 X513.126629 Y237.878638 Z-0.125000 I-704.370387 J77.909795
G02 X505.792404 Y207.401033 Z-0.125000 I-276.673109 J50.458204
G03 X503.908786 Y200.924305 Z-0.125000 I363.764678 J-109.305442
G03 X503.850320 Y200.495056 Z-0.125000 I1.507445 J-0.423928
G03 X504.235681 Y200.387899 Z-0.125000 I0.207579 J0.000000
G03 X509.372901 Y209.664766 Z-0.125000 I-123.746600 J74.587594
G01 X509.372901 Y209.664766 Z-0.125000
G00 Z5.000000

(Change tool to Default tool)

G00 Z5.000000
G00 X339.831992 Y231.988318

G01 Z-0.125000 F100.0(Penetrate)
G03 X357.705117 Y235.847476 Z-0.125000 I-48.553755 J268.187594 F400.000000
G03 X370.950661 Y239.808499 Z-0.125000 I-37.979015 J151.127581
G03 X383.527402 Y244.840492 Z-0.125000 I-48.803876 J140.211094
G03 X384.145341 Y245.799738 Z-0.125000 I-0.435563 J0.959245
G03 X383.768750 Y247.887828 Z-0.125000 I-5.977232 J-0.000000
G03 X378.992330 Y259.620922 Z-0.125000 I-199.620077 J-74.424487
G02 X368.886493 Y284.823666 Z-0.125000 I355.009599 J156.979819
G02 X363.488847 Y302.576499 Z-0.125000 I170.497102 J61.535633
G02 X360.627313 Y318.017824 Z-0.125000 I125.570469 J31.256104
G02 X359.742968 Y332.996866 Z-0.125000 I117.251100 J14.437992
G02 X360.278687 Y344.442252 Z-0.125000 I135.810848 J-0.621602
G02 X361.257372 Y349.974085 Z-0.125000 I32.519758 J-2.900870
G03 X362.540305 Y355.416753 Z-0.125000 I-90.778056 J24.270531
G03 X362.463788 Y355.872896 Z-0.125000 I-0.629901 J0.128824
G03 X362.090576 Y356.097696 Z-0.125000 I-0.395033 J-0.233629
G03 X353.466120 Y356.301168 Z-0.125000 I-8.554755 J-179.723779
G03 X333.760087 Y354.394489 Z-0.125000 I0.041312 J-103.213812
G03 X316.524360 Y349.100042 Z-0.125000 I16.376830 J-84.015834
G03 X306.569582 Y343.421718 Z-0.125000 I19.637104 J-45.991295
G03 X303.263866 Y339.366170 Z-0.125000 I6.167952 J-8.402590
G03 X300.012702 Y329.118285 Z-0.125000 I39.829619 J-18.275698
G03 X298.698950 Y314.868688 Z-0.125000 I76.320211 J-14.221756
G03 X299.049233 Y304.833897 Z-0.125000 I145.639790 J0.060320
G03 X299.739193 Y299.905774 Z-0.125000 I35.625278 J2.475341
G03 X305.967701 Y279.117209 Z-0.125000 I129.175672 J27.375258
G03 X315.272619 Y260.253805 Z-0.125000 I115.494009 J45.244094
G01 X318.538580 Y254.844029 Z-0.125000
G01 X318.543095 Y249.031605 Z-0.125000
G03 X319.004793 Y240.822524 Z-0.125000 I74.116110 J0.050934
G03 X320.349233 Y232.922050 Z-0.125000 I70.047776 J7.855547
G01 X320.994957 Y230.106263 Z-0.125000
G01 X327.104447 Y230.448147 Z-0.125000
G03 X333.190799 Y230.986164 Z-0.125000 I-5.293700 J94.580400
G03 X339.832162 Y231.988318 Z-0.125000 I-13.751729 J113.641431
G01 X339.831992 Y231.988318 Z-0.125000
G00 Z5.000000

(Change tool to Default tool)

G00 Z5.000000
G00 X537.725962 Y253.802431

G01 Z-0.125000 F100.0(Penetrate)
G03 X598.200492 Y277.971014 Z-0.125000 I-178.054212 J533.270378 F400.000000
G03 X641.180755 Y302.273900 Z-0.125000 I-137.110502 J292.640636
G02 X645.321577 Y304.968737 Z-0.125000 I97.245421 J-144.896239
G02 X647.511254 Y306.267401 Z-0.125000 I24.735420 J-39.211030
G03 X659.941614 Y314.637680 Z-0.125000 I-43.034412 J77.323706
G03 X670.911399 Y325.089959 Z-0.125000 I-56.704307 J70.494409
G03 X674.104505 Y332.041242 Z-0.125000 I-9.837236 J8.727809
G03 X672.634619 Y337.729055 Z-0.125000 I-7.685173 J1.047778
G03 X659.129328 Y349.033128 Z-0.125000 I-30.612492 J-22.853987
G03 X624.703380 Y361.734313 Z-0.125000 I-74.263944 J-148.283307
G03 X595.630766 Y366.762323 Z-0.125000 I-49.719160 J-200.917879
G03 X582.000984 Y366.015314 Z-0.125000 I-4.419343 J-44.082213
G03 X574.743753 Y363.638907 Z-0.125000 I7.430546 J-34.961413
G03 X563.913277 Y357.862252 Z-0.125000 I37.949982 J-84.192477
G03 X551.392658 Y349.592236 Z-0.125000 I145.568852 J-234.000944
G03 X546.723432 Y345.823330 Z-0.125000 I25.275571 J-36.090184
G02 X545.510522 Y344.834122 Z-0.125000 I-8.446667 J9.118612
G02 X534.925725 Y337.380228 Z-0.125000 I-494.743222 J691.310907
G01 X524.279004 Y330.003447 Z-0.125000
G01 X523.836254 Y323.443192 Z-0.125000
G03 X523.763193 Y316.893538 Z-0.125000 I58.136682 J-3.923742
G03 X524.547567 Y307.675013 Z-0.125000 I116.137112 J5.239086
G02 X526.521254 Y284.062864 Z-0.125000 I-284.766878 J-35.691600
G02 X526.334005 Y265.269826 Z-0.125000 I-180.406216 J-7.599929
G02 X525.601863 Y254.737073 Z-0.125000 I-714.829742 J44.396726
G02 X525.335023 Y252.283313 Z-0.125000 I-39.005838 J3.000389
G03 X525.217098 Y250.034240 Z-0.125000 I12.764010 J-1.796880
G03 X525.420875 Y249.837491 Z-0.125000 I0.203777 J0.007153
G03 X525.840370 Y249.903407 Z-0.125000 I0.000000 J1.367815
G03 X537.725962 Y253.802431 Z-0.125000 I-363.886194 J1129.317773
G01 X537.725962 Y253.802431 Z-0.125000
G00 Z5.000000

(Change tool to Default tool)

G00 Z5.000000
G00 X312.499842 Y258.613812

G01 Z-0.125000 F100.0(Penetrate)
G02 X302.471800 Y279.040904 Z-0.125000 I103.579583 J63.524184 F400.000000
G02 X296.308020 Y301.296819 Z-0.125000 I117.006539 J44.386471
G02 X295.244067 Y320.341857 Z-0.125000 I77.152342 J13.862361
G02 X298.640728 Y336.501445 Z-0.125000 I58.615602 J-3.883918
G03 X299.726058 Y340.012760 Z-0.125000 I-35.695206 J12.956604
G03 X299.588119 Y340.190597 Z-0.125000 I-0.137938 J0.035423
G03 X298.093395 Y339.698837 Z-0.125000 I0.000000 J-2.517516
G03 X287.017829 Y330.915533 Z-0.125000 I120.634394 J-163.492187
G03 X276.255345 Y319.730713 Z-0.125000 I50.714484 J-59.569973
G03 X267.141200 Y305.660736 Z-0.125000 I71.707822 J-56.437298
G03 X259.915090 Y287.990911 Z-0.125000 I89.473909 J-46.903010
G03 X258.111333 Y275.790985 Z-0.125000 I40.355954 J-12.199926
G01 X258.111333 Y271.770081 Z-0.125000
G01 X261.109645 Y268.818714 Z-0.125000
G03 X270.540084 Y262.856721 Z-0.125000 I18.448587 J18.741890
G03 X291.777958 Y257.623268 Z-0.125000 I34.661232 J94.949311
G03 X300.990485 Y256.629255 Z-0.125000 I23.928695 J178.583454
G03 X308.356115 Y256.264707 Z-0.125000 I9.321659 J113.749717
G01 X313.999854 Y256.167933 Z-0.125000
G01 X312.499842 Y258.613812 Z-0.125000
G00 Z5.000000

(Change tool to Default tool)

G00 Z5.000000
G00 X384.403235 Y271.214103

G01 Z-0.125000 F100.0(Penetrate)
G03 X405.024320 Y285.557068 Z-0.125000 I-68.351778 J120.265420 F400.000000
G03 X420.903290 Y301.873484 Z-0.125000 I-73.096512 J87.021613
G03 X427.789454 Y312.176745 Z-0.125000 I-59.000910 J46.885948
G03 X429.173360 Y316.768269 Z-0.125000 I-9.866188 J5.478035
G03 X428.814469 Y320.478109 Z-0.125000 I-10.665214 J0.840524
G03 X427.330816 Y323.386493 Z-0.125000 I-7.908553 J-2.201768
G03 X416.126615 Y334.384120 Z-0.125000 I-50.154513 J-39.890448
G03 X398.802693 Y345.222309 Z-0.125000 I-65.990605 J-86.215865
G03 X389.702792 Y349.293779 Z-0.125000 I-50.699873 J-101.111212
G03 X380.734516 Y352.368261 Z-0.125000 I-37.618369 J-95.115469
G03 X367.419239 Y355.627961 Z-0.125000 I-43.833182 J-150.225395
G03 X366.200777 Y355.258019 Z-0.125000 I-0.263314 J-1.324299
G03 X364.807849 Y352.679621 Z-0.125000 I3.629292 J-3.626103
G03 X362.887657 Y339.376471 Z-0.125000 I105.645968 J-22.039213
G03 X363.661346 Y318.037129 Z-0.125000 I90.949822 J-7.386180
G03 X370.642418 Y289.259053 Z-0.125000 I173.428121 J26.834935
G03 X378.057385 Y268.804054 Z-0.125000 I407.685621 J136.215151
G03 X378.864257 Y268.253394 Z-0.125000 I0.806873 J0.315818
G03 X379.173422 Y268.330837 Z-0.125000 I0.000000 J0.655837
G03 X384.403235 Y271.214103 Z-0.125000 I-108.548010 J203.074575
G01 X384.403235 Y271.214103 Z-0.125000
G00 Z5.000000

(Change tool to Default tool)

G00 Z5.000000
G00 X199.817102 Y318.656759

G01 Z-0.125000 F100.0(Penetrate)
G02 X200.622190 Y326.078218 Z-0.125000 I257.589752 J-24.189210 F400.000000
G02 X202.007460 Y336.449855 Z-0.125000 I504.550409 J-62.111091
G03 X203.484325 Y346.810844 Z-0.125000 I-3496.145031 J503.629636
G03 X203.613256 Y347.836026 Z-0.125000 I-34.109293 J4.810424
G03 X203.263672 Y348.595560 Z-0.125000 I-0.806264 J0.089125
G03 X199.190515 Y350.848776 Z-0.125000 I-14.153972 J-20.778102
G02 X183.193508 Y360.731838 Z-0.125000 I26.856908 J61.359498
G02 X170.963501 Y374.347671 Z-0.125000 I40.597460 J48.765965
G02 X164.542701 Y387.311869 Z-0.125000 I47.454003 J31.574743
G02 X161.643422 Y401.327918 Z-0.125000 I52.731636 J18.215648
G01 X161.262583 Y406.372838 Z-0.125000
G01 X147.964831 Y406.361549 Z-0.125000
G03 X91.209206 Y402.885818 Z-0.125000 I0.391695 J-471.518613
G03 X73.781215 Y397.303852 Z-0.125000 I5.919157 J-48.478553
G03 X69.157690 Y393.594630 Z-0.125000 I8.015933 J-14.728027
G03 X67.719981 Y390.144605 Z-0.125000 I4.449089 J-3.878619
G03 X68.396583 Y386.223446 Z-0.125000 I8.228631 J-0.599092
G03 X72.455592 Y379.096173 Z-0.125000 I36.411776 J16.017197
G03 X85.709195 Y365.227053 Z-0.125000 I55.224825 J39.506666
G03 X114.937260 Y345.077487 Z-0.125000 I174.874874 J222.392471
G03 X146.086188 Y328.485740 Z-0.125000 I176.968723 J294.701650
G03 X176.102917 Y316.855843 Z-0.125000 I99.843002 J213.142991
G03 X196.590714 Y311.030473 Z-0.125000 I130.671944 J420.632171
G03 X198.545412 Y311.057277 Z-0.125000 I0.928267 J3.592772
G03 X198.873808 Y311.425605 Z-0.125000 I-0.128027 J0.444708
G03 X199.817102 Y318.656534 Z-0.125000 I-99.669206 J16.679106
G01 X199.817102 Y318.656759 Z-0.125000
G00 Z5.000000

(Change tool to Default tool)

G00 Z5.000000
G00 X502.550179 Y376.303104

G01 Z-0.125000 F100.0(Penetrate)
G03 X507.853597 Y381.248942 Z-0.125000 I-22.112652 J29.027728 F400.000000
G03 X519.210970 Y395.270526 Z-0.125000 I-169.759376 J149.114243
G03 X541.879674 Y431.586191 Z-0.125000 I-207.386339 J154.686092
G03 X561.197086 Y476.871328 Z-0.125000 I-304.266906 J156.554724
G03 X568.436805 Y508.607951 Z-0.125000 I-144.228103 J49.595207
G03 X566.314509 Y520.274679 Z-0.125000 I-20.100477 J2.369916
G03 X564.329525 Y522.327218 Z-0.125000 I-4.413976 J-2.282603
G03 X560.476488 Y523.545720 Z-0.125000 I-4.865177 J-8.683117
G03 X548.161364 Y522.502208 Z-0.125000 I-3.390963 J-33.172094
G03 X526.682211 Y514.158867 Z-0.125000 I31.020224 J-111.678386
G03 X508.029589 Y503.002660 Z-0.125000 I71.438608 J-140.613027
G03 X487.635419 Y487.316722 Z-0.125000 I154.249583 J-221.649325
G03 X468.854120 Y469.527510 Z-0.125000 I152.218661 J-179.516704
G03 X459.912158 Y457.542126 Z-0.125000 I46.711238 J-44.178323
G03 X456.839481 Y440.673787 Z-0.125000 I21.988418 J-12.719357
G03 X468.261421 Y407.110115 Z-0.125000 I107.153704 J17.739799
G03 X483.066387 Y385.621512 Z-0.125000 I103.519565 J55.477323
G03 X494.876670 Y376.432164 Z-0.125000 I29.173097 J25.309638
G03 X499.484421 Y375.297021 Z-0.125000 I4.786789 J9.511025
G03 X502.550179 Y376.303104 Z-0.125000 I0.082771 J4.921844
G01 X502.550179 Y376.303104 Z-0.125000
G00 Z5.000000

(Change tool to Default tool)

G00 Z5.000000
G00 X305.877639 Y416.458472

G01 Z-0.125000 F100.0(Penetrate)
G03 X325.007725 Y419.414233 Z-0.125000 I-25.428252 J227.959278 F400.000000
G03 X340.855810 Y423.385391 Z-0.125000 I-31.741098 J160.281085
G01 X345.620370 Y424.835957 Z-0.125000
G01 X345.172060 Y427.833749 Z-0.125000
G02 X344.894873 Y430.843570 Z-0.125000 I26.412462 J3.950114
G02 X344.782594 Y438.888479 Z-0.125000 I189.114016 J6.662613
G02 X345.904346 Y450.757343 Z-0.125000 I68.658567 J-0.501631
G02 X348.514644 Y459.263681 Z-0.125000 I37.621154 J-6.890943
G03 X349.474182 Y461.769344 Z-0.125000 I-25.274545 J11.115397
G03 X349.416428 Y462.011482 Z-0.125000 I-0.225790 J0.074102
G03 X349.162302 Y462.104903 Z-0.125000 I-0.228050 J-0.227995
G03 X343.689942 Y461.546887 Z-0.125000 I10.763447 J-132.667441
G02 X321.886640 Y462.817517 Z-0.125000 I-7.420034 J60.377941
G02 X300.319555 Y472.100644 Z-0.125000 I16.624466 J68.317400
G02 X274.429102 Y495.290074 Z-0.125000 I60.680314 J93.795897
G02 X257.001401 Y525.213145 Z-0.125000 I85.929342 J70.083326
G02 X254.310923 Y533.316068 Z-0.125000 I79.580754 J30.921964
G02 X252.134325 Y542.344701 Z-0.125000 I131.638485 J36.511718
G02 X250.701955 Y551.758248 Z-0.125000 I90.486546 J18.584224
G02 X251.208900 Y553.416769 Z-0.125000 I2.236483 J0.223132
G02 X251.930467 Y553.789974 Z-0.125000 I0.801230 J-0.664971
G02 X264.584450 Y554.443098 Z-0.125000 I19.379076 J-252.551688
G03 X349.546953 Y568.365150 Z-0.125000 I-8.438909 J317.712934
G03 X399.147766 Y595.814957 Z-0.125000 I-40.495109 J131.711552
G02 X403.784225 Y599.487098 Z-0.125000 I45.206026 J-52.314227
G02 X404.564401 Y599.740053 Z-0.125000 I0.780175 J-1.076649
G02 X405.367568 Y598.936013 Z-0.125000 I0.000000 J-0.803167
G02 X404.561296 Y596.846841 Z-0.125000 I-3.118603 J0.003391
G03 X404.145661 Y595.764270 Z-0.125000 I1.192010 J-1.078726
G03 X404.571739 Y592.485288 Z-0.125000 I13.070710 J0.031259
G02 X405.302316 Y589.063257 Z-0.125000 I-37.052666 J-9.699457
G02 X406.378271 Y581.611875 Z-0.125000 I-174.897366 J-29.057994
G02 X407.569121 Y559.677127 Z-0.125000 I-160.599620 J-19.718746
G02 X405.743695 Y535.284330 Z-0.125000 I-200.607093 J2.747663
G02 X400.796912 Y513.646292 Z-0.125000 I-123.633607 J16.880038
G02 X392.780014 Y495.339019 Z-0.125000 I-96.222410 J31.227578
G03 X389.942354 Y490.200409 Z-0.125000 I358.379637 J-201.258378
G03 X389.900416 Y490.035274 Z-0.125000 I0.304150 J-0.165136
G03 X389.986870 Y489.945943 Z-0.125000 I0.089379 J0.000000
G03 X394.731129 Y489.877116 Z-0.125000 I4.260260 J130.115841
G02 X409.289157 Y487.521081 Z-0.125000 I0.167330 J-45.121368
G02 X421.111598 Y480.999929 Z-0.125000 I-12.061862 J-35.844653
G01 X424.194170 Y478.489083 Z-0.125000
G01 X426.758074 Y480.739015 Z-0.125000
G02 X438.336995 Y488.871043 Z-0.125000 I43.295810 J-49.338012
G02 X450.615391 Y493.905584 Z-0.125000 I27.900485 J-50.554832
G02 X455.280604 Y494.765961 Z-0.125000 I7.016791 J-24.968824
G02 X465.578334 Y495.267843 Z-0.125000 I11.106714 J-121.993618
G01 X475.937301 Y495.336310 Z-0.125000
G01 X479.863350 Y500.203486 Z-0.125000
G03 X502.890306 Y535.654230 Z-0.125000 I-160.442138 J129.418777
G03 X519.346550 Y577.292924 Z-0.125000 I-205.810059 J105.410486
G03 X524.318479 Y599.281802 Z-0.125000 I-190.061874 J54.531638
G03 X526.805458 Y621.995412 Z-0.125000 I-200.350927 J33.429960
G03 X522.703735 Y672.547752 Z-0.125000 I-189.914905 J10.033233
G03 X505.372966 Y720.280605 Z-0.125000 I-186.275124 J-40.619840
G03 X467.070762 Y772.067451 Z-0.125000 I-184.901670 J-96.697784
G03 X413.971150 Y810.521982 Z-0.125000 I-151.877831 J-153.830870
G03 X368.824776 Y828.181468 Z-0.125000 I-109.103750 J-212.385140
G03 X319.114087 Y836.894293 Z-0.125000 I-69.319123 J-249.329983
G03 X296.576171 Y837.538697 Z-0.125000 I-18.081361 J-237.940511
G03 X273.649772 Y836.045117 Z-0.125000 I4.627552 J-247.739364
G03 X200.429023 Y816.931342 Z-0.125000 I29.339472 J-262.196527
G03 X136.116885 Y778.017986 Z-0.125000 I101.193784 J-239.844095
G03 X115.005014 Y758.673431 Z-0.125000 I172.751768 J-209.726949
G03 X96.476479 Y737.652709 Z-0.125000 I185.646240 J-182.312556
G01 X92.903419 Y733.129686 Z-0.125000
G01 X94.793825 Y732.185509 Z-0.125000
G02 X99.796216 Y725.550825 Z-0.125000 I-4.168700 J-8.346282
G02 X101.050940 Y698.658655 Z-0.125000 I-96.271703 J-17.967163
G02 X94.799086 Y663.493021 Z-0.125000 I-210.253858 J19.241020
G02 X83.491959 Y632.819833 Z-0.125000 I-170.898865 J45.578156
G02 X74.360799 Y617.179020 Z-0.125000 I-98.910108 J47.258254
G02 X66.868201 Y609.091907 Z-0.125000 I-33.266453 J23.306454
G02 X62.479203 Y606.891797 Z-0.125000 I-7.051314 J8.588803
G02 X59.477512 Y607.268167 Z-0.125000 I-1.010821 J4.096306
G03 X58.343687 Y607.696977 Z-0.125000 I-2.209437 J-4.128630
G03 X58.033649 Y607.608891 Z-0.125000 I-0.076020 J-0.322100
G03 X57.900906 Y607.271472 Z-0.125000 I0.321173 J-0.321173
G03 X58.400922 Y597.347178 Z-0.125000 I340.933542 J12.202526
G03 X65.732107 Y552.421786 Z-0.125000 I234.862683 J15.265380
G03 X80.610750 Y513.390207 Z-0.125000 I191.601519 J50.685920
G03 X95.303421 Y489.487181 Z-0.125000 I153.888148 J78.124558
G03 X113.754561 Y468.172252 Z-0.125000 I140.532559 J103.007638
G03 X128.694258 Y454.984268 Z-0.125000 I131.531287 J133.946091
G03 X144.738291 Y443.620160 Z-0.125000 I113.494169 J143.225249
G03 X168.622071 Y430.951514 Z-0.125000 I96.508918 J153.097110
G03 X198.664755 Y419.994011 Z-0.125000 I101.605551 J231.913101
G03 X200.918187 Y419.436256 Z-0.125000 I7.473520 J25.363361
G03 X201.640776 Y419.652727 Z-0.125000 I0.158273 J0.785929
G03 X202.036330 Y420.409001 Z-0.125000 I-0.990738 J0.999766
G03 X202.575918 Y423.869854 Z-0.125000 I-89.834984 J15.778825
G02 X206.256291 Y435.550232 Z-0.125000 I35.908116 J-4.894283
G02 X214.145485 Y446.365702 Z-0.125000 I38.510454 J-19.805847
G02 X237.947529 Y458.898677 Z-0.125000 I32.106099 J-32.106056
G02 X266.533784 Y456.111316 Z-0.125000 I9.466892 J-50.889945
G02 X273.686336 Y452.379555 Z-0.125000 I-14.550867 J-36.609626
G02 X280.765531 Y446.716646 Z-0.125000 I-27.405872 J-41.516342
G02 X289.973761 Y434.191372 Z-0.125000 I-31.681413 J-32.938740
G02 X295.232160 Y417.738943 Z-0.125000 I-50.475982 J-25.199285
G03 X296.517671 Y416.498840 Z-0.125000 I1.462277 J0.229479
G03 X305.877639 Y416.458472 Z-0.125000 I4.854118 J40.355482
G01 X305.877639 Y416.458472 Z-0.125000
G00 Z5.000000

(Change tool to Default tool)

G00 Z5.000000
G00 X193.770694 Y497.416598

G01 Z-0.125000 F100.0(Penetrate)
G02 X193.278531 Y498.189380 Z-0.125000 I1.495503 J1.495558 F400.000000
G02 X193.080099 Y499.315728 Z-0.125000 I3.097505 J1.126348
G02 X193.278537 Y500.442088 Z-0.125000 I3.295909 J0.000000
G02 X193.770694 Y501.214886 Z-0.125000 I1.987881 J-0.722870
G02 X194.543481 Y501.707041 Z-0.125000 I1.495682 J-1.495738
G02 X195.669838 Y501.905484 Z-0.125000 I1.126357 J-3.097374
G02 X196.796192 Y501.707042 Z-0.125000 I-0.000000 J-3.295805
G02 X197.568979 Y501.214886 Z-0.125000 I-0.722897 J-1.987896
G02 X198.061138 Y500.442088 Z-0.125000 I-1.495733 J-1.495678
G02 X198.259577 Y499.315728 Z-0.125000 I-3.097447 J-1.126360
G02 X198.061144 Y498.189380 Z-0.125000 I-3.295914 J0.000000
G02 X197.568979 Y497.416598 Z-0.125000 I-1.987677 J0.722786
G02 X196.796182 Y496.924428 Z-0.125000 I-1.495567 J1.495511
G02 X195.669838 Y496.726000 Z-0.125000 I-1.126344 J3.097548
G02 X194.543491 Y496.924428 Z-0.125000 I-0.000000 J3.295987
G02 X193.770694 Y497.416598 Z-0.125000 I0.722768 J1.987679
G01 X193.770694 Y497.416598 Z-0.125000
