%
(Header)
(Generated by gcodetools from Inkscape.)
(Using default header. To add your own header create file "header" in the output dir.)
M3
(Header end.)
G21 (All units in mm)

(Start cutting path id: path14846)
(Change tool to Default tool)

G00 Z5.000000
G00 X3259.551698 Y242.490170

G01 Z-0.125000 F100.0(Penetrate)
G01 X3257.838228 Y250.522531 Z-0.125000 F400.000000
G01 X3252.697906 Y254.538707 Z-0.125000
G01 X3249.271056 Y254.538707 Z-0.125000
G01 X3244.130735 Y250.522531 Z-0.125000
G01 X3240.703839 Y238.473995 Z-0.125000
G01 X3238.990413 Y218.393098 Z-0.125000
G01 X3238.990413 Y198.312201 Z-0.125000
G01 X3240.703839 Y182.247480 Z-0.125000
G01 X3244.130735 Y174.215129 Z-0.125000
G01 X3249.271056 Y170.198944 Z-0.125000
G01 X3250.984481 Y170.198944 Z-0.125000
G01 X3256.124802 Y174.215129 Z-0.125000
G01 X3259.551698 Y182.247480 Z-0.125000
G01 X3261.265124 Y194.296016 Z-0.125000
G01 X3261.265124 Y198.312201 Z-0.125000
G01 X3259.551698 Y210.360737 Z-0.125000
G01 X3256.124802 Y218.393098 Z-0.125000
G01 X3250.984481 Y222.409274 Z-0.125000
G01 X3249.271056 Y222.409274 Z-0.125000
G01 X3244.130735 Y218.393098 Z-0.125000
G01 X3240.703839 Y210.360737 Z-0.125000
G01 X3238.990413 Y198.312201 Z-0.125000
G00 Z5.000000

(Change tool to Default tool)

G00 Z5.000000
G00 X3220.142599 Y254.538707

G01 Z-0.125000 F100.0(Penetrate)
G01 X3203.008210 Y198.312201 Z-0.125000 F400.000000
G01 X3228.709771 Y198.312201 Z-0.125000
G00 Z5.000000

(Change tool to Default tool)

G00 Z5.000000
G00 X3220.142599 Y254.538707

G01 Z-0.125000 F100.0(Penetrate)
G01 X3220.142599 Y170.198944 Z-0.125000 F400.000000
G00 Z5.000000

(Change tool to Default tool)

G00 Z5.000000
G00 X3173.879753 Y238.473995

G01 Z-0.125000 F100.0(Penetrate)
G01 X3177.306604 Y242.490170 Z-0.125000 F400.000000
G01 X3182.446925 Y254.538707 Z-0.125000
G01 X3182.446925 Y170.198944 Z-0.125000
G00 Z5.000000

(Change tool to Default tool)

G00 Z5.000000
G00 X3151.605043 Y254.538707

G01 Z-0.125000 F100.0(Penetrate)
G01 X3134.470654 Y198.312201 Z-0.125000 F400.000000
G01 X3160.172215 Y198.312201 Z-0.125000
G00 Z5.000000

(Change tool to Default tool)

G00 Z5.000000
G00 X3151.605043 Y254.538707

G01 Z-0.125000 F100.0(Penetrate)
G01 X3151.605043 Y170.198944 Z-0.125000 F400.000000
G00 Z5.000000

(Change tool to Default tool)

G00 Z5.000000
G00 X3108.769048 Y254.538707

G01 Z-0.125000 F100.0(Penetrate)
G01 X3103.628726 Y250.522531 Z-0.125000 F400.000000
G01 X3101.915301 Y242.490170 Z-0.125000
G01 X3101.915301 Y234.457810 Z-0.125000
G01 X3103.628726 Y226.425459 Z-0.125000
G01 X3107.055622 Y222.409274 Z-0.125000
G01 X3113.909369 Y218.393098 Z-0.125000
G01 X3119.049690 Y214.376913 Z-0.125000
G01 X3122.476586 Y206.344562 Z-0.125000
G01 X3124.190011 Y198.312201 Z-0.125000
G01 X3124.190011 Y186.263665 Z-0.125000
G01 X3122.476586 Y178.231304 Z-0.125000
G01 X3120.763115 Y174.215129 Z-0.125000
G01 X3115.622840 Y170.198944 Z-0.125000
G01 X3108.769048 Y170.198944 Z-0.125000
G01 X3103.628726 Y174.215129 Z-0.125000
G01 X3101.915301 Y178.231304 Z-0.125000
G01 X3100.201876 Y186.263665 Z-0.125000
G01 X3100.201876 Y198.312201 Z-0.125000
G01 X3101.915301 Y206.344562 Z-0.125000
G01 X3105.342197 Y214.376913 Z-0.125000
G01 X3110.482518 Y218.393098 Z-0.125000
G01 X3117.336265 Y222.409274 Z-0.125000
G01 X3120.763115 Y226.425459 Z-0.125000
G01 X3122.476586 Y234.457810 Z-0.125000
G01 X3122.476586 Y242.490170 Z-0.125000
G01 X3120.763115 Y250.522531 Z-0.125000
G01 X3115.622840 Y254.538707 Z-0.125000
G01 X3108.769048 Y254.538707 Z-0.125000
G00 Z5.000000

(Change tool to Default tool)

G00 Z5.000000
G00 X3069.359994 Y254.538707

G01 Z-0.125000 F100.0(Penetrate)
G01 X3088.207808 Y254.538707 Z-0.125000 F400.000000
G01 X3077.927166 Y222.409274 Z-0.125000
G01 X3083.067487 Y222.409274 Z-0.125000
G01 X3086.494383 Y218.393098 Z-0.125000
G01 X3088.207808 Y214.376913 Z-0.125000
G01 X3089.921233 Y202.328377 Z-0.125000
G01 X3089.921233 Y194.296016 Z-0.125000
G01 X3088.207808 Y182.247480 Z-0.125000
G01 X3084.780912 Y174.215129 Z-0.125000
G01 X3079.640591 Y170.198944 Z-0.125000
G01 X3074.500269 Y170.198944 Z-0.125000
G01 X3069.359994 Y174.215129 Z-0.125000
G01 X3067.646523 Y178.231304 Z-0.125000
G01 X3065.933098 Y186.263665 Z-0.125000
G00 Z5.000000

(Change tool to Default tool)

G00 Z5.000000
G00 X3036.804641 Y238.473995

G01 Z-0.125000 F100.0(Penetrate)
G01 X3040.231491 Y242.490170 Z-0.125000 F400.000000
G01 X3045.371813 Y254.538707 Z-0.125000
G01 X3045.371813 Y170.198944 Z-0.125000
G00 Z5.000000

(Change tool to Default tool)

G00 Z5.000000
G00 X2999.108967 Y234.457810

G01 Z-0.125000 F100.0(Penetrate)
G01 X2999.108967 Y238.473995 Z-0.125000 F400.000000
G01 X3000.822438 Y246.506346 Z-0.125000
G01 X3002.535863 Y250.522531 Z-0.125000
G01 X3005.962759 Y254.538707 Z-0.125000
G01 X3012.816505 Y254.538707 Z-0.125000
G01 X3016.243356 Y250.522531 Z-0.125000
G01 X3017.956827 Y246.506346 Z-0.125000
G01 X3019.670252 Y238.473995 Z-0.125000
G01 X3019.670252 Y230.441634 Z-0.125000
G01 X3017.956827 Y222.409274 Z-0.125000
G01 X3014.529931 Y210.360737 Z-0.125000
G01 X2997.395542 Y170.198944 Z-0.125000
G01 X3021.383677 Y170.198944 Z-0.125000
G00 Z5.000000

(Change tool to Default tool)

G00 Z5.000000
G00 X2983.688049 Y254.538707

G01 Z-0.125000 F100.0(Penetrate)
G01 X2966.553660 Y254.538707 Z-0.125000 F400.000000
G01 X2964.840189 Y218.393098 Z-0.125000
G01 X2966.553660 Y222.409274 Z-0.125000
G01 X2971.693981 Y226.425459 Z-0.125000
G01 X2976.834257 Y226.425459 Z-0.125000
G01 X2981.974578 Y222.409274 Z-0.125000
G01 X2985.401474 Y214.376913 Z-0.125000
G01 X2987.114899 Y202.328377 Z-0.125000
G01 X2987.114899 Y194.296016 Z-0.125000
G01 X2985.401474 Y182.247480 Z-0.125000
G01 X2981.974578 Y174.215129 Z-0.125000
G01 X2976.834257 Y170.198944 Z-0.125000
G01 X2971.693981 Y170.198944 Z-0.125000
G01 X2966.553660 Y174.215129 Z-0.125000
G01 X2964.840189 Y178.231304 Z-0.125000
G01 X2963.126764 Y186.263665 Z-0.125000
G00 Z5.000000

(Change tool to Default tool)

G00 Z5.000000
G00 X2951.132696 Y242.490170

G01 Z-0.125000 F100.0(Penetrate)
G01 X2949.419271 Y250.522531 Z-0.125000 F400.000000
G01 X2944.278949 Y254.538707 Z-0.125000
G01 X2940.852053 Y254.538707 Z-0.125000
G01 X2935.711732 Y250.522531 Z-0.125000
G01 X2932.284881 Y238.473995 Z-0.125000
G01 X2930.571411 Y218.393098 Z-0.125000
G01 X2930.571411 Y198.312201 Z-0.125000
G01 X2932.284881 Y182.247480 Z-0.125000
G01 X2935.711732 Y174.215129 Z-0.125000
G01 X2940.852053 Y170.198944 Z-0.125000
G01 X2942.565524 Y170.198944 Z-0.125000
G01 X2947.705800 Y174.215129 Z-0.125000
G01 X2951.132696 Y182.247480 Z-0.125000
G01 X2952.846121 Y194.296016 Z-0.125000
G01 X2952.846121 Y198.312201 Z-0.125000
G01 X2951.132696 Y210.360737 Z-0.125000
G01 X2947.705800 Y218.393098 Z-0.125000
G01 X2942.565524 Y222.409274 Z-0.125000
G01 X2940.852053 Y222.409274 Z-0.125000
G01 X2935.711732 Y218.393098 Z-0.125000
G01 X2932.284881 Y210.360737 Z-0.125000
G01 X2930.571411 Y198.312201 Z-0.125000
G00 Z5.000000

(Change tool to Default tool)

G00 Z5.000000
G00 X2916.863918 Y242.490170

G01 Z-0.125000 F100.0(Penetrate)
G01 X2915.150492 Y250.522531 Z-0.125000 F400.000000
G01 X2910.010171 Y254.538707 Z-0.125000
G01 X2906.583275 Y254.538707 Z-0.125000
G01 X2901.442954 Y250.522531 Z-0.125000
G01 X2898.016103 Y238.473995 Z-0.125000
G01 X2896.302633 Y218.393098 Z-0.125000
G01 X2896.302633 Y198.312201 Z-0.125000
G01 X2898.016103 Y182.247480 Z-0.125000
G01 X2901.442954 Y174.215129 Z-0.125000
G01 X2906.583275 Y170.198944 Z-0.125000
G01 X2908.296746 Y170.198944 Z-0.125000
G01 X2913.437022 Y174.215129 Z-0.125000
G01 X2916.863918 Y182.247480 Z-0.125000
G01 X2918.577343 Y194.296016 Z-0.125000
G01 X2918.577343 Y198.312201 Z-0.125000
G01 X2916.863918 Y210.360737 Z-0.125000
G01 X2913.437022 Y218.393098 Z-0.125000
G01 X2908.296746 Y222.409274 Z-0.125000
G01 X2906.583275 Y222.409274 Z-0.125000
G01 X2901.442954 Y218.393098 Z-0.125000
G01 X2898.016103 Y210.360737 Z-0.125000
G01 X2896.302633 Y198.312201 Z-0.125000
G00 Z5.000000

(Change tool to Default tool)

G00 Z5.000000
G00 X2877.454818 Y254.538707

G01 Z-0.125000 F100.0(Penetrate)
G01 X2860.320429 Y198.312201 Z-0.125000 F400.000000
G01 X2886.022036 Y198.312201 Z-0.125000
G00 Z5.000000

(Change tool to Default tool)

G00 Z5.000000
G00 X2877.454818 Y254.538707

G01 Z-0.125000 F100.0(Penetrate)
G01 X2877.454818 Y170.198944 Z-0.125000 F400.000000
G00 Z5.000000

(Change tool to Default tool)

G00 Z5.000000
G00 X2836.332294 Y254.538707

G01 Z-0.125000 F100.0(Penetrate)
G01 X2831.191973 Y250.522531 Z-0.125000 F400.000000
G01 X2827.765122 Y238.473995 Z-0.125000
G01 X2826.051651 Y218.393098 Z-0.125000
G01 X2826.051651 Y206.344562 Z-0.125000
G01 X2827.765122 Y186.263665 Z-0.125000
G01 X2831.191973 Y174.215129 Z-0.125000
G01 X2836.332294 Y170.198944 Z-0.125000
G01 X2839.759190 Y170.198944 Z-0.125000
G01 X2844.899511 Y174.215129 Z-0.125000
G01 X2848.326362 Y186.263665 Z-0.125000
G01 X2850.039787 Y206.344562 Z-0.125000
G01 X2850.039787 Y218.393098 Z-0.125000
G01 X2848.326362 Y238.473995 Z-0.125000
G01 X2844.899511 Y250.522531 Z-0.125000
G01 X2839.759190 Y254.538707 Z-0.125000
G01 X2836.332294 Y254.538707 Z-0.125000
G00 Z5.000000

(Change tool to Default tool)

G00 Z5.000000
G00 X2793.496344 Y234.457810

G01 Z-0.125000 F100.0(Penetrate)
G01 X2793.496344 Y238.473995 Z-0.125000 F400.000000
G01 X2795.209769 Y246.506346 Z-0.125000
G01 X2796.923194 Y250.522531 Z-0.125000
G01 X2800.350090 Y254.538707 Z-0.125000
G01 X2807.203837 Y254.538707 Z-0.125000
G01 X2810.630733 Y250.522531 Z-0.125000
G01 X2812.344158 Y246.506346 Z-0.125000
G01 X2814.057583 Y238.473995 Z-0.125000
G01 X2814.057583 Y230.441634 Z-0.125000
G01 X2812.344158 Y222.409274 Z-0.125000
G01 X2808.917262 Y210.360737 Z-0.125000
G01 X2791.782873 Y170.198944 Z-0.125000
G01 X2815.771054 Y170.198944 Z-0.125000
G00 Z5.000000

(Change tool to Default tool)

G00 Z5.000000
G00 X2766.081312 Y254.538707

G01 Z-0.125000 F100.0(Penetrate)
G01 X2760.940991 Y250.522531 Z-0.125000 F400.000000
G01 X2759.227566 Y242.490170 Z-0.125000
G01 X2759.227566 Y234.457810 Z-0.125000
G01 X2760.940991 Y226.425459 Z-0.125000
G01 X2764.367887 Y222.409274 Z-0.125000
G01 X2771.221634 Y218.393098 Z-0.125000
G01 X2776.361955 Y214.376913 Z-0.125000
G01 X2779.788805 Y206.344562 Z-0.125000
G01 X2781.502276 Y198.312201 Z-0.125000
G01 X2781.502276 Y186.263665 Z-0.125000
G01 X2779.788805 Y178.231304 Z-0.125000
G01 X2778.075380 Y174.215129 Z-0.125000
G01 X2772.935059 Y170.198944 Z-0.125000
G01 X2766.081312 Y170.198944 Z-0.125000
G01 X2760.940991 Y174.215129 Z-0.125000
G01 X2759.227566 Y178.231304 Z-0.125000
G01 X2757.514095 Y186.263665 Z-0.125000
G01 X2757.514095 Y198.312201 Z-0.125000
G01 X2759.227566 Y206.344562 Z-0.125000
G01 X2762.654416 Y214.376913 Z-0.125000
G01 X2767.794738 Y218.393098 Z-0.125000
G01 X2774.648484 Y222.409274 Z-0.125000
G01 X2778.075380 Y226.425459 Z-0.125000
G01 X2779.788805 Y234.457810 Z-0.125000
G01 X2779.788805 Y242.490170 Z-0.125000
G01 X2778.075380 Y250.522531 Z-0.125000
G01 X2772.935059 Y254.538707 Z-0.125000
G01 X2766.081312 Y254.538707 Z-0.125000
G00 Z5.000000

(Change tool to Default tool)

G00 Z5.000000
G00 X2731.812534 Y254.538707

G01 Z-0.125000 F100.0(Penetrate)
G01 X2726.672213 Y250.522531 Z-0.125000 F400.000000
G01 X2724.958788 Y242.490170 Z-0.125000
G01 X2724.958788 Y234.457810 Z-0.125000
G01 X2726.672213 Y226.425459 Z-0.125000
G01 X2730.099109 Y222.409274 Z-0.125000
G01 X2736.952856 Y218.393098 Z-0.125000
G01 X2742.093177 Y214.376913 Z-0.125000
G01 X2745.520027 Y206.344562 Z-0.125000
G01 X2747.233498 Y198.312201 Z-0.125000
G01 X2747.233498 Y186.263665 Z-0.125000
G01 X2745.520027 Y178.231304 Z-0.125000
G01 X2743.806602 Y174.215129 Z-0.125000
G01 X2738.666281 Y170.198944 Z-0.125000
G01 X2731.812534 Y170.198944 Z-0.125000
G01 X2726.672213 Y174.215129 Z-0.125000
G01 X2724.958788 Y178.231304 Z-0.125000
G01 X2723.245317 Y186.263665 Z-0.125000
G01 X2723.245317 Y198.312201 Z-0.125000
G01 X2724.958788 Y206.344562 Z-0.125000
G01 X2728.385638 Y214.376913 Z-0.125000
G01 X2733.525960 Y218.393098 Z-0.125000
G01 X2740.379706 Y222.409274 Z-0.125000
G01 X2743.806602 Y226.425459 Z-0.125000
G01 X2745.520027 Y234.457810 Z-0.125000
G01 X2745.520027 Y242.490170 Z-0.125000
G01 X2743.806602 Y250.522531 Z-0.125000
G01 X2738.666281 Y254.538707 Z-0.125000
G01 X2731.812534 Y254.538707 Z-0.125000
G00 Z5.000000

(Change tool to Default tool)

G00 Z5.000000
G00 X2706.110928 Y254.538707

G01 Z-0.125000 F100.0(Penetrate)
G01 X2688.976584 Y198.312201 Z-0.125000 F400.000000
G01 X2714.678145 Y198.312201 Z-0.125000
G00 Z5.000000

(Change tool to Default tool)

G00 Z5.000000
G00 X2706.110928 Y254.538707

G01 Z-0.125000 F100.0(Penetrate)
G01 X2706.110928 Y170.198944 Z-0.125000 F400.000000
G00 Z5.000000

(Change tool to Default tool)

G00 Z5.000000
G00 X2675.269046 Y254.538707

G01 Z-0.125000 F100.0(Penetrate)
G01 X2658.134657 Y254.538707 Z-0.125000 F400.000000
G01 X2656.421232 Y218.393098 Z-0.125000
G01 X2658.134657 Y222.409274 Z-0.125000
G01 X2663.274978 Y226.425459 Z-0.125000
G01 X2668.415299 Y226.425459 Z-0.125000
G01 X2673.555621 Y222.409274 Z-0.125000
G01 X2676.982471 Y214.376913 Z-0.125000
G01 X2678.695942 Y202.328377 Z-0.125000
G01 X2678.695942 Y194.296016 Z-0.125000
G01 X2676.982471 Y182.247480 Z-0.125000
G01 X2673.555621 Y174.215129 Z-0.125000
G01 X2668.415299 Y170.198944 Z-0.125000
G01 X2663.274978 Y170.198944 Z-0.125000
G01 X2658.134657 Y174.215129 Z-0.125000
G01 X2656.421232 Y178.231304 Z-0.125000
G01 X2654.707806 Y186.263665 Z-0.125000
G00 Z5.000000

(Change tool to Default tool)

G00 Z5.000000
G00 X2630.719625 Y254.538707

G01 Z-0.125000 F100.0(Penetrate)
G01 X2625.579350 Y250.522531 Z-0.125000 F400.000000
G01 X2622.152454 Y238.473995 Z-0.125000
G01 X2620.439028 Y218.393098 Z-0.125000
G01 X2620.439028 Y206.344562 Z-0.125000
G01 X2622.152454 Y186.263665 Z-0.125000
G01 X2625.579350 Y174.215129 Z-0.125000
G01 X2630.719625 Y170.198944 Z-0.125000
G01 X2634.146521 Y170.198944 Z-0.125000
G01 X2639.286843 Y174.215129 Z-0.125000
G01 X2642.713693 Y186.263665 Z-0.125000
G01 X2644.427164 Y206.344562 Z-0.125000
G01 X2644.427164 Y218.393098 Z-0.125000
G01 X2642.713693 Y238.473995 Z-0.125000
G01 X2639.286843 Y250.522531 Z-0.125000
G01 X2634.146521 Y254.538707 Z-0.125000
G01 X2630.719625 Y254.538707 Z-0.125000
G00 Z5.000000

(Change tool to Default tool)

G00 Z5.000000
G00 X2589.597101 Y254.538707

G01 Z-0.125000 F100.0(Penetrate)
G01 X2608.444961 Y254.538707 Z-0.125000 F400.000000
G01 X2598.164318 Y222.409274 Z-0.125000
G01 X2603.304639 Y222.409274 Z-0.125000
G01 X2606.731490 Y218.393098 Z-0.125000
G01 X2608.444961 Y214.376913 Z-0.125000
G01 X2610.158386 Y202.328377 Z-0.125000
G01 X2610.158386 Y194.296016 Z-0.125000
G01 X2608.444961 Y182.247480 Z-0.125000
G01 X2605.018065 Y174.215129 Z-0.125000
G01 X2599.877743 Y170.198944 Z-0.125000
G01 X2594.737422 Y170.198944 Z-0.125000
G01 X2589.597101 Y174.215129 Z-0.125000
G01 X2587.883676 Y178.231304 Z-0.125000
G01 X2586.170250 Y186.263665 Z-0.125000
G00 Z5.000000

(Change tool to Default tool)

G00 Z5.000000
G00 X2572.462712 Y254.538707

G01 Z-0.125000 F100.0(Penetrate)
G01 X2555.328323 Y254.538707 Z-0.125000 F400.000000
G01 X2553.614897 Y218.393098 Z-0.125000
G01 X2555.328323 Y222.409274 Z-0.125000
G01 X2560.468644 Y226.425459 Z-0.125000
G01 X2565.608965 Y226.425459 Z-0.125000
G01 X2570.749286 Y222.409274 Z-0.125000
G01 X2574.176182 Y214.376913 Z-0.125000
G01 X2575.889608 Y202.328377 Z-0.125000
G01 X2575.889608 Y194.296016 Z-0.125000
G01 X2574.176182 Y182.247480 Z-0.125000
G01 X2570.749286 Y174.215129 Z-0.125000
G01 X2565.608965 Y170.198944 Z-0.125000
G01 X2560.468644 Y170.198944 Z-0.125000
G01 X2555.328323 Y174.215129 Z-0.125000
G01 X2553.614897 Y178.231304 Z-0.125000
G01 X2551.901472 Y186.263665 Z-0.125000
G00 Z5.000000

(Change tool to Default tool)

G00 Z5.000000
G00 X2527.913337 Y254.538707

G01 Z-0.125000 F100.0(Penetrate)
G01 X2522.773015 Y250.522531 Z-0.125000 F400.000000
G01 X2519.346119 Y238.473995 Z-0.125000
G01 X2517.632694 Y218.393098 Z-0.125000
G01 X2517.632694 Y206.344562 Z-0.125000
G01 X2519.346119 Y186.263665 Z-0.125000
G01 X2522.773015 Y174.215129 Z-0.125000
G01 X2527.913337 Y170.198944 Z-0.125000
G01 X2531.340187 Y170.198944 Z-0.125000
G01 X2536.480508 Y174.215129 Z-0.125000
G01 X2539.907404 Y186.263665 Z-0.125000
G01 X2541.620830 Y206.344562 Z-0.125000
G01 X2541.620830 Y218.393098 Z-0.125000
G01 X2539.907404 Y238.473995 Z-0.125000
G01 X2536.480508 Y250.522531 Z-0.125000
G01 X2531.340187 Y254.538707 Z-0.125000
G01 X2527.913337 Y254.538707 Z-0.125000
G00 Z5.000000

(Change tool to Default tool)

G00 Z5.000000
G00 X2486.790767 Y254.538707

G01 Z-0.125000 F100.0(Penetrate)
G01 X2505.638626 Y254.538707 Z-0.125000 F400.000000
G01 X2495.357984 Y222.409274 Z-0.125000
G01 X2500.498305 Y222.409274 Z-0.125000
G01 X2503.925156 Y218.393098 Z-0.125000
G01 X2505.638626 Y214.376913 Z-0.125000
G01 X2507.352052 Y202.328377 Z-0.125000
G01 X2507.352052 Y194.296016 Z-0.125000
G01 X2505.638626 Y182.247480 Z-0.125000
G01 X2502.211730 Y174.215129 Z-0.125000
G01 X2497.071409 Y170.198944 Z-0.125000
G01 X2491.931088 Y170.198944 Z-0.125000
G01 X2486.790767 Y174.215129 Z-0.125000
G01 X2485.077341 Y178.231304 Z-0.125000
G01 X2483.363916 Y186.263665 Z-0.125000
G00 Z5.000000

(Change tool to Default tool)

G00 Z5.000000
G00 X2452.521988 Y254.538707

G01 Z-0.125000 F100.0(Penetrate)
G01 X2471.369848 Y254.538707 Z-0.125000 F400.000000
G01 X2461.089206 Y222.409274 Z-0.125000
G01 X2466.229527 Y222.409274 Z-0.125000
G01 X2469.656377 Y218.393098 Z-0.125000
G01 X2471.369848 Y214.376913 Z-0.125000
G01 X2473.083274 Y202.328377 Z-0.125000
G01 X2473.083274 Y194.296016 Z-0.125000
G01 X2471.369848 Y182.247480 Z-0.125000
G01 X2467.942952 Y174.215129 Z-0.125000
G01 X2462.802631 Y170.198944 Z-0.125000
G01 X2457.662310 Y170.198944 Z-0.125000
G01 X2452.521988 Y174.215129 Z-0.125000
G01 X2450.808563 Y178.231304 Z-0.125000
G01 X2449.095138 Y186.263665 Z-0.125000
G00 Z5.000000

(Change tool to Default tool)

G00 Z5.000000
G00 X2419.966681 Y238.473995

G01 Z-0.125000 F100.0(Penetrate)
G01 X2423.393532 Y242.490170 Z-0.125000 F400.000000
G01 X2428.533853 Y254.538707 Z-0.125000
G01 X2428.533853 Y170.198944 Z-0.125000
G00 Z5.000000

(Change tool to Default tool)

G00 Z5.000000
G00 X2385.697903 Y238.473995

G01 Z-0.125000 F100.0(Penetrate)
G01 X2389.124754 Y242.490170 Z-0.125000 F400.000000
G01 X2394.265075 Y254.538707 Z-0.125000
G01 X2394.265075 Y170.198944 Z-0.125000
G00 Z5.000000

(Change tool to Default tool)

G00 Z5.000000
G00 X2356.569446 Y254.538707

G01 Z-0.125000 F100.0(Penetrate)
G01 X2351.429125 Y250.522531 Z-0.125000 F400.000000
G01 X2348.002229 Y238.473995 Z-0.125000
G01 X2346.288804 Y218.393098 Z-0.125000
G01 X2346.288804 Y206.344562 Z-0.125000
G01 X2348.002229 Y186.263665 Z-0.125000
G01 X2351.429125 Y174.215129 Z-0.125000
G01 X2356.569446 Y170.198944 Z-0.125000
G01 X2359.996297 Y170.198944 Z-0.125000
G01 X2365.136618 Y174.215129 Z-0.125000
G01 X2368.563514 Y186.263665 Z-0.125000
G01 X2370.276939 Y206.344562 Z-0.125000
G01 X2370.276939 Y218.393098 Z-0.125000
G01 X2368.563514 Y238.473995 Z-0.125000
G01 X2365.136618 Y250.522531 Z-0.125000
G01 X2359.996297 Y254.538707 Z-0.125000
G01 X2356.569446 Y254.538707 Z-0.125000
G00 Z5.000000

(Change tool to Default tool)

G00 Z5.000000
G00 X2322.300668 Y254.538707

G01 Z-0.125000 F100.0(Penetrate)
G01 X2317.160347 Y250.522531 Z-0.125000 F400.000000
G01 X2313.733451 Y238.473995 Z-0.125000
G01 X2312.020026 Y218.393098 Z-0.125000
G01 X2312.020026 Y206.344562 Z-0.125000
G01 X2313.733451 Y186.263665 Z-0.125000
G01 X2317.160347 Y174.215129 Z-0.125000
G01 X2322.300668 Y170.198944 Z-0.125000
G01 X2325.727519 Y170.198944 Z-0.125000
G01 X2330.867840 Y174.215129 Z-0.125000
G01 X2334.294736 Y186.263665 Z-0.125000
G01 X2336.008161 Y206.344562 Z-0.125000
G01 X2336.008161 Y218.393098 Z-0.125000
G01 X2334.294736 Y238.473995 Z-0.125000
G01 X2330.867840 Y250.522531 Z-0.125000
G01 X2325.727519 Y254.538707 Z-0.125000
G01 X2322.300668 Y254.538707 Z-0.125000
G00 Z5.000000

(Change tool to Default tool)

G00 Z5.000000
G00 X2300.025958 Y242.490170

G01 Z-0.125000 F100.0(Penetrate)
G01 X2298.312533 Y250.522531 Z-0.125000 F400.000000
G01 X2293.172211 Y254.538707 Z-0.125000
G01 X2289.745315 Y254.538707 Z-0.125000
G01 X2284.604994 Y250.522531 Z-0.125000
G01 X2281.178144 Y238.473995 Z-0.125000
G01 X2279.464673 Y218.393098 Z-0.125000
G01 X2279.464673 Y198.312201 Z-0.125000
G01 X2281.178144 Y182.247480 Z-0.125000
G01 X2284.604994 Y174.215129 Z-0.125000
G01 X2289.745315 Y170.198944 Z-0.125000
G01 X2291.458786 Y170.198944 Z-0.125000
G01 X2296.599062 Y174.215129 Z-0.125000
G01 X2300.025958 Y182.247480 Z-0.125000
G01 X2301.739383 Y194.296016 Z-0.125000
G01 X2301.739383 Y198.312201 Z-0.125000
G01 X2300.025958 Y210.360737 Z-0.125000
G01 X2296.599062 Y218.393098 Z-0.125000
G01 X2291.458786 Y222.409274 Z-0.125000
G01 X2289.745315 Y222.409274 Z-0.125000
G01 X2284.604994 Y218.393098 Z-0.125000
G01 X2281.178144 Y210.360737 Z-0.125000
G01 X2279.464673 Y198.312201 Z-0.125000
G00 Z5.000000

(Change tool to Default tool)

G00 Z5.000000
G00 X2246.909366 Y254.538707

G01 Z-0.125000 F100.0(Penetrate)
G01 X2265.757180 Y254.538707 Z-0.125000 F400.000000
G01 X2255.476537 Y222.409274 Z-0.125000
G01 X2260.616859 Y222.409274 Z-0.125000
G01 X2264.043755 Y218.393098 Z-0.125000
G01 X2265.757180 Y214.376913 Z-0.125000
G01 X2267.470605 Y202.328377 Z-0.125000
G01 X2267.470605 Y194.296016 Z-0.125000
G01 X2265.757180 Y182.247480 Z-0.125000
G01 X2262.330284 Y174.215129 Z-0.125000
G01 X2257.190008 Y170.198944 Z-0.125000
G01 X2252.049687 Y170.198944 Z-0.125000
G01 X2246.909366 Y174.215129 Z-0.125000
G01 X2245.195895 Y178.231304 Z-0.125000
G01 X2243.482470 Y186.263665 Z-0.125000
G00 Z5.000000

(Change tool to Default tool)

G00 Z5.000000
G00 X2219.494334 Y254.538707

G01 Z-0.125000 F100.0(Penetrate)
G01 X2214.354013 Y250.522531 Z-0.125000 F400.000000
G01 X2210.927162 Y238.473995 Z-0.125000
G01 X2209.213691 Y218.393098 Z-0.125000
G01 X2209.213691 Y206.344562 Z-0.125000
G01 X2210.927162 Y186.263665 Z-0.125000
G01 X2214.354013 Y174.215129 Z-0.125000
G01 X2219.494334 Y170.198944 Z-0.125000
G01 X2222.921230 Y170.198944 Z-0.125000
G01 X2228.061551 Y174.215129 Z-0.125000
G01 X2231.488402 Y186.263665 Z-0.125000
G01 X2233.201827 Y206.344562 Z-0.125000
G01 X2233.201827 Y218.393098 Z-0.125000
G01 X2231.488402 Y238.473995 Z-0.125000
G01 X2228.061551 Y250.522531 Z-0.125000
G01 X2222.921230 Y254.538707 Z-0.125000
G01 X2219.494334 Y254.538707 Z-0.125000
G00 Z5.000000

(Change tool to Default tool)

G00 Z5.000000
G00 X2197.219624 Y226.425459

G01 Z-0.125000 F100.0(Penetrate)
G01 X2195.506198 Y214.376913 Z-0.125000 F400.000000
G01 X2192.079302 Y206.344562 Z-0.125000
G01 X2186.938981 Y202.328377 Z-0.125000
G01 X2185.225556 Y202.328377 Z-0.125000
G01 X2180.085235 Y206.344562 Z-0.125000
G01 X2176.658384 Y214.376913 Z-0.125000
G01 X2174.944913 Y226.425459 Z-0.125000
G01 X2174.944913 Y230.441634 Z-0.125000
G01 X2176.658384 Y242.490170 Z-0.125000
G01 X2180.085235 Y250.522531 Z-0.125000
G01 X2185.225556 Y254.538707 Z-0.125000
G01 X2186.938981 Y254.538707 Z-0.125000
G01 X2192.079302 Y250.522531 Z-0.125000
G01 X2195.506198 Y242.490170 Z-0.125000
G01 X2197.219624 Y226.425459 Z-0.125000
G01 X2197.219624 Y206.344562 Z-0.125000
G01 X2195.506198 Y186.263665 Z-0.125000
G01 X2192.079302 Y174.215129 Z-0.125000
G01 X2186.938981 Y170.198944 Z-0.125000
G01 X2183.512131 Y170.198944 Z-0.125000
G01 X2178.371809 Y174.215129 Z-0.125000
G01 X2176.658384 Y182.247480 Z-0.125000
G00 Z5.000000

(Change tool to Default tool)

G00 Z5.000000
G00 X2161.237420 Y254.538707

G01 Z-0.125000 F100.0(Penetrate)
G01 X2144.103031 Y254.538707 Z-0.125000 F400.000000
G01 X2142.389606 Y218.393098 Z-0.125000
G01 X2144.103031 Y222.409274 Z-0.125000
G01 X2149.243353 Y226.425459 Z-0.125000
G01 X2154.383674 Y226.425459 Z-0.125000
G01 X2159.523995 Y222.409274 Z-0.125000
G01 X2162.950846 Y214.376913 Z-0.125000
G01 X2164.664316 Y202.328377 Z-0.125000
G01 X2164.664316 Y194.296016 Z-0.125000
G01 X2162.950846 Y182.247480 Z-0.125000
G01 X2159.523995 Y174.215129 Z-0.125000
G01 X2154.383674 Y170.198944 Z-0.125000
G01 X2149.243353 Y170.198944 Z-0.125000
G01 X2144.103031 Y174.215129 Z-0.125000
G01 X2142.389606 Y178.231304 Z-0.125000
G01 X2140.676135 Y186.263665 Z-0.125000
G00 Z5.000000

(Change tool to Default tool)

G00 Z5.000000
G00 X2108.120828 Y234.457810

G01 Z-0.125000 F100.0(Penetrate)
G01 X2108.120828 Y238.473995 Z-0.125000 F400.000000
G01 X2109.834253 Y246.506346 Z-0.125000
G01 X2111.547679 Y250.522531 Z-0.125000
G01 X2114.974575 Y254.538707 Z-0.125000
G01 X2121.828321 Y254.538707 Z-0.125000
G01 X2125.255217 Y250.522531 Z-0.125000
G01 X2126.968642 Y246.506346 Z-0.125000
G01 X2128.682068 Y238.473995 Z-0.125000
G01 X2128.682068 Y230.441634 Z-0.125000
G01 X2126.968642 Y222.409274 Z-0.125000
G01 X2123.541746 Y210.360737 Z-0.125000
G01 X2106.407357 Y170.198944 Z-0.125000
G01 X2130.395538 Y170.198944 Z-0.125000
G00 Z5.000000

(Change tool to Default tool)

G00 Z5.000000
G00 X2094.413289 Y226.425459

G01 Z-0.125000 F100.0(Penetrate)
G01 X2092.699864 Y214.376913 Z-0.125000 F400.000000
G01 X2089.272968 Y206.344562 Z-0.125000
G01 X2084.132692 Y202.328377 Z-0.125000
G01 X2082.419222 Y202.328377 Z-0.125000
G01 X2077.278900 Y206.344562 Z-0.125000
G01 X2073.852050 Y214.376913 Z-0.125000
G01 X2072.138579 Y226.425459 Z-0.125000
G01 X2072.138579 Y230.441634 Z-0.125000
G01 X2073.852050 Y242.490170 Z-0.125000
G01 X2077.278900 Y250.522531 Z-0.125000
G01 X2082.419222 Y254.538707 Z-0.125000
G01 X2084.132692 Y254.538707 Z-0.125000
G01 X2089.272968 Y250.522531 Z-0.125000
G01 X2092.699864 Y242.490170 Z-0.125000
G01 X2094.413289 Y226.425459 Z-0.125000
G01 X2094.413289 Y206.344562 Z-0.125000
G01 X2092.699864 Y186.263665 Z-0.125000
G01 X2089.272968 Y174.215129 Z-0.125000
G01 X2084.132692 Y170.198944 Z-0.125000
G01 X2080.705796 Y170.198944 Z-0.125000
G01 X2075.565475 Y174.215129 Z-0.125000
G01 X2073.852050 Y182.247480 Z-0.125000
G00 Z5.000000

(Change tool to Default tool)

G00 Z5.000000
G00 X2046.437018 Y254.538707

G01 Z-0.125000 F100.0(Penetrate)
G01 X2041.296697 Y250.522531 Z-0.125000 F400.000000
G01 X2039.583272 Y242.490170 Z-0.125000
G01 X2039.583272 Y234.457810 Z-0.125000
G01 X2041.296697 Y226.425459 Z-0.125000
G01 X2044.723593 Y222.409274 Z-0.125000
G01 X2051.577340 Y218.393098 Z-0.125000
G01 X2056.717661 Y214.376913 Z-0.125000
G01 X2060.144511 Y206.344562 Z-0.125000
G01 X2061.857982 Y198.312201 Z-0.125000
G01 X2061.857982 Y186.263665 Z-0.125000
G01 X2060.144511 Y178.231304 Z-0.125000
G01 X2058.431086 Y174.215129 Z-0.125000
G01 X2053.290765 Y170.198944 Z-0.125000
G01 X2046.437018 Y170.198944 Z-0.125000
G01 X2041.296697 Y174.215129 Z-0.125000
G01 X2039.583272 Y178.231304 Z-0.125000
G01 X2037.869847 Y186.263665 Z-0.125000
G01 X2037.869847 Y198.312201 Z-0.125000
G01 X2039.583272 Y206.344562 Z-0.125000
G01 X2043.010122 Y214.376913 Z-0.125000
G01 X2048.150444 Y218.393098 Z-0.125000
G01 X2055.004190 Y222.409274 Z-0.125000
G01 X2058.431086 Y226.425459 Z-0.125000
G01 X2060.144511 Y234.457810 Z-0.125000
G01 X2060.144511 Y242.490170 Z-0.125000
G01 X2058.431086 Y250.522531 Z-0.125000
G01 X2053.290765 Y254.538707 Z-0.125000
G01 X2046.437018 Y254.538707 Z-0.125000
G00 Z5.000000

(Change tool to Default tool)

G00 Z5.000000
G00 X2027.589204 Y254.538707

G01 Z-0.125000 F100.0(Penetrate)
G01 X2010.454815 Y170.198944 Z-0.125000 F400.000000
G00 Z5.000000

(Change tool to Default tool)

G00 Z5.000000
G00 X2003.601069 Y254.538707

G01 Z-0.125000 F100.0(Penetrate)
G01 X2027.589204 Y254.538707 Z-0.125000 F400.000000
G00 Z5.000000

(Change tool to Default tool)

G00 Z5.000000
G00 X1991.606955 Y242.490170

G01 Z-0.125000 F100.0(Penetrate)
G01 X1989.893530 Y250.522531 Z-0.125000 F400.000000
G01 X1984.753209 Y254.538707 Z-0.125000
G01 X1981.326358 Y254.538707 Z-0.125000
G01 X1976.186037 Y250.522531 Z-0.125000
G01 X1972.759141 Y238.473995 Z-0.125000
G01 X1971.045716 Y218.393098 Z-0.125000
G01 X1971.045716 Y198.312201 Z-0.125000
G01 X1972.759141 Y182.247480 Z-0.125000
G01 X1976.186037 Y174.215129 Z-0.125000
G01 X1981.326358 Y170.198944 Z-0.125000
G01 X1983.039784 Y170.198944 Z-0.125000
G01 X1988.180105 Y174.215129 Z-0.125000
G01 X1991.606955 Y182.247480 Z-0.125000
G01 X1993.320426 Y194.296016 Z-0.125000
G01 X1993.320426 Y198.312201 Z-0.125000
G01 X1991.606955 Y210.360737 Z-0.125000
G01 X1988.180105 Y218.393098 Z-0.125000
G01 X1983.039784 Y222.409274 Z-0.125000
G01 X1981.326358 Y222.409274 Z-0.125000
G01 X1976.186037 Y218.393098 Z-0.125000
G01 X1972.759141 Y210.360737 Z-0.125000
G01 X1971.045716 Y198.312201 Z-0.125000
G00 Z5.000000

(Change tool to Default tool)

G00 Z5.000000
G00 X1938.490363 Y254.538707

G01 Z-0.125000 F100.0(Penetrate)
G01 X1957.338223 Y254.538707 Z-0.125000 F400.000000
G01 X1947.057580 Y222.409274 Z-0.125000
G01 X1952.197901 Y222.409274 Z-0.125000
G01 X1955.624752 Y218.393098 Z-0.125000
G01 X1957.338223 Y214.376913 Z-0.125000
G01 X1959.051648 Y202.328377 Z-0.125000
G01 X1959.051648 Y194.296016 Z-0.125000
G01 X1957.338223 Y182.247480 Z-0.125000
G01 X1953.911327 Y174.215129 Z-0.125000
G01 X1948.771005 Y170.198944 Z-0.125000
G01 X1943.630684 Y170.198944 Z-0.125000
G01 X1938.490363 Y174.215129 Z-0.125000
G01 X1936.776938 Y178.231304 Z-0.125000
G01 X1935.063512 Y186.263665 Z-0.125000
G00 Z5.000000

(Change tool to Default tool)

G00 Z5.000000
G00 X1917.929123 Y254.538707

G01 Z-0.125000 F100.0(Penetrate)
G01 X1900.794734 Y198.312201 Z-0.125000 F400.000000
G01 X1926.496295 Y198.312201 Z-0.125000
G00 Z5.000000

(Change tool to Default tool)

G00 Z5.000000
G00 X1917.929123 Y254.538707

G01 Z-0.125000 F100.0(Penetrate)
G01 X1917.929123 Y170.198944 Z-0.125000 F400.000000
G00 Z5.000000

(Change tool to Default tool)

G00 Z5.000000
G00 X1888.800667 Y242.490170

G01 Z-0.125000 F100.0(Penetrate)
G01 X1887.087196 Y250.522531 Z-0.125000 F400.000000
G01 X1881.946875 Y254.538707 Z-0.125000
G01 X1878.520024 Y254.538707 Z-0.125000
G01 X1873.379703 Y250.522531 Z-0.125000
G01 X1869.952807 Y238.473995 Z-0.125000
G01 X1868.239382 Y218.393098 Z-0.125000
G01 X1868.239382 Y198.312201 Z-0.125000
G01 X1869.952807 Y182.247480 Z-0.125000
G01 X1873.379703 Y174.215129 Z-0.125000
G01 X1878.520024 Y170.198944 Z-0.125000
G01 X1880.233449 Y170.198944 Z-0.125000
G01 X1885.373771 Y174.215129 Z-0.125000
G01 X1888.800667 Y182.247480 Z-0.125000
G01 X1890.514092 Y194.296016 Z-0.125000
G01 X1890.514092 Y198.312201 Z-0.125000
G01 X1888.800667 Y210.360737 Z-0.125000
G01 X1885.373771 Y218.393098 Z-0.125000
G01 X1880.233449 Y222.409274 Z-0.125000
G01 X1878.520024 Y222.409274 Z-0.125000
G01 X1873.379703 Y218.393098 Z-0.125000
G01 X1869.952807 Y210.360737 Z-0.125000
G01 X1868.239382 Y198.312201 Z-0.125000
G00 Z5.000000

(Change tool to Default tool)

G00 Z5.000000
G00 X1835.684029 Y254.538707

G01 Z-0.125000 F100.0(Penetrate)
G01 X1854.531889 Y254.538707 Z-0.125000 F400.000000
G01 X1844.251246 Y222.409274 Z-0.125000
G01 X1849.391567 Y222.409274 Z-0.125000
G01 X1852.818418 Y218.393098 Z-0.125000
G01 X1854.531889 Y214.376913 Z-0.125000
G01 X1856.245314 Y202.328377 Z-0.125000
G01 X1856.245314 Y194.296016 Z-0.125000
G01 X1854.531889 Y182.247480 Z-0.125000
G01 X1851.104992 Y174.215129 Z-0.125000
G01 X1845.964671 Y170.198944 Z-0.125000
G01 X1840.824350 Y170.198944 Z-0.125000
G01 X1835.684029 Y174.215129 Z-0.125000
G01 X1833.970603 Y178.231304 Z-0.125000
G01 X1832.257178 Y186.263665 Z-0.125000
G00 Z5.000000

(Change tool to Default tool)

G00 Z5.000000
G00 X1818.549640 Y254.538707

G01 Z-0.125000 F100.0(Penetrate)
G01 X1801.415251 Y254.538707 Z-0.125000 F400.000000
G01 X1799.701825 Y218.393098 Z-0.125000
G01 X1801.415251 Y222.409274 Z-0.125000
G01 X1806.555572 Y226.425459 Z-0.125000
G01 X1811.695893 Y226.425459 Z-0.125000
G01 X1816.836214 Y222.409274 Z-0.125000
G01 X1820.263110 Y214.376913 Z-0.125000
G01 X1821.976536 Y202.328377 Z-0.125000
G01 X1821.976536 Y194.296016 Z-0.125000
G01 X1820.263110 Y182.247480 Z-0.125000
G01 X1816.836214 Y174.215129 Z-0.125000
G01 X1811.695893 Y170.198944 Z-0.125000
G01 X1806.555572 Y170.198944 Z-0.125000
G01 X1801.415251 Y174.215129 Z-0.125000
G01 X1799.701825 Y178.231304 Z-0.125000
G01 X1797.988400 Y186.263665 Z-0.125000
G00 Z5.000000

(Change tool to Default tool)

G00 Z5.000000
G00 X1768.859943 Y238.473995

G01 Z-0.125000 F100.0(Penetrate)
G01 X1772.286794 Y242.490170 Z-0.125000 F400.000000
G01 X1777.427115 Y254.538707 Z-0.125000
G01 X1777.427115 Y170.198944 Z-0.125000
G00 Z5.000000

(Change tool to Default tool)

G00 Z5.000000
G00 X1753.438980 Y254.538707

G01 Z-0.125000 F100.0(Penetrate)
G01 X1736.304590 Y170.198944 Z-0.125000 F400.000000
G00 Z5.000000

(Change tool to Default tool)

G00 Z5.000000
G00 X1729.450844 Y254.538707

G01 Z-0.125000 F100.0(Penetrate)
G01 X1753.438980 Y254.538707 Z-0.125000 F400.000000
G00 Z5.000000

(Change tool to Default tool)

G00 Z5.000000
G00 X1700.322387 Y238.473995

G01 Z-0.125000 F100.0(Penetrate)
G01 X1703.749283 Y242.490170 Z-0.125000 F400.000000
G01 X1708.889559 Y254.538707 Z-0.125000
G01 X1708.889559 Y170.198944 Z-0.125000
G00 Z5.000000

(Change tool to Default tool)

G00 Z5.000000
G00 X1683.187998 Y226.425459

G01 Z-0.125000 F100.0(Penetrate)
G01 X1681.474573 Y214.376913 Z-0.125000 F400.000000
G01 X1678.047677 Y206.344562 Z-0.125000
G01 X1672.907356 Y202.328377 Z-0.125000
G01 X1671.193930 Y202.328377 Z-0.125000
G01 X1666.053609 Y206.344562 Z-0.125000
G01 X1662.626713 Y214.376913 Z-0.125000
G01 X1660.913288 Y226.425459 Z-0.125000
G01 X1660.913288 Y230.441634 Z-0.125000
G01 X1662.626713 Y242.490170 Z-0.125000
G01 X1666.053609 Y250.522531 Z-0.125000
G01 X1671.193930 Y254.538707 Z-0.125000
G01 X1672.907356 Y254.538707 Z-0.125000
G01 X1678.047677 Y250.522531 Z-0.125000
G01 X1681.474573 Y242.490170 Z-0.125000
G01 X1683.187998 Y226.425459 Z-0.125000
G01 X1683.187998 Y206.344562 Z-0.125000
G01 X1681.474573 Y186.263665 Z-0.125000
G01 X1678.047677 Y174.215129 Z-0.125000
G01 X1672.907356 Y170.198944 Z-0.125000
G01 X1669.480505 Y170.198944 Z-0.125000
G01 X1664.340184 Y174.215129 Z-0.125000
G01 X1662.626713 Y182.247480 Z-0.125000
G00 Z5.000000

(Change tool to Default tool)

G00 Z5.000000
G00 X1636.925152 Y254.538707

G01 Z-0.125000 F100.0(Penetrate)
G01 X1631.784831 Y250.522531 Z-0.125000 F400.000000
G01 X1628.357935 Y238.473995 Z-0.125000
G01 X1626.644510 Y218.393098 Z-0.125000
G01 X1626.644510 Y206.344562 Z-0.125000
G01 X1628.357935 Y186.263665 Z-0.125000
G01 X1631.784831 Y174.215129 Z-0.125000
G01 X1636.925152 Y170.198944 Z-0.125000
G01 X1640.352048 Y170.198944 Z-0.125000
G01 X1645.492324 Y174.215129 Z-0.125000
G01 X1648.919220 Y186.263665 Z-0.125000
G01 X1650.632645 Y206.344562 Z-0.125000
G01 X1650.632645 Y218.393098 Z-0.125000
G01 X1648.919220 Y238.473995 Z-0.125000
G01 X1645.492324 Y250.522531 Z-0.125000
G01 X1640.352048 Y254.538707 Z-0.125000
G01 X1636.925152 Y254.538707 Z-0.125000
G00 Z5.000000

(Change tool to Default tool)

G00 Z5.000000
G00 X1609.510121 Y254.538707

G01 Z-0.125000 F100.0(Penetrate)
G01 X1592.375732 Y198.312201 Z-0.125000 F400.000000
G01 X1618.077338 Y198.312201 Z-0.125000
G00 Z5.000000

(Change tool to Default tool)

G00 Z5.000000
G00 X1609.510121 Y254.538707

G01 Z-0.125000 F100.0(Penetrate)
G01 X1609.510121 Y170.198944 Z-0.125000 F400.000000
G00 Z5.000000

(Change tool to Default tool)

G00 Z5.000000
G00 X1578.668239 Y254.538707

G01 Z-0.125000 F100.0(Penetrate)
G01 X1561.533850 Y254.538707 Z-0.125000 F400.000000
G01 X1559.820424 Y218.393098 Z-0.125000
G01 X1561.533850 Y222.409274 Z-0.125000
G01 X1566.674171 Y226.425459 Z-0.125000
G01 X1571.814492 Y226.425459 Z-0.125000
G01 X1576.954813 Y222.409274 Z-0.125000
G01 X1580.381664 Y214.376913 Z-0.125000
G01 X1582.095089 Y202.328377 Z-0.125000
G01 X1582.095089 Y194.296016 Z-0.125000
G01 X1580.381664 Y182.247480 Z-0.125000
G01 X1576.954813 Y174.215129 Z-0.125000
G01 X1571.814492 Y170.198944 Z-0.125000
G01 X1566.674171 Y170.198944 Z-0.125000
G01 X1561.533850 Y174.215129 Z-0.125000
G01 X1559.820424 Y178.231304 Z-0.125000
G01 X1558.106954 Y186.263665 Z-0.125000
G00 Z5.000000

(Change tool to Default tool)

G00 Z5.000000
G00 X1525.551646 Y234.457810

G01 Z-0.125000 F100.0(Penetrate)
G01 X1525.551646 Y238.473995 Z-0.125000 F400.000000
G01 X1527.265072 Y246.506346 Z-0.125000
G01 X1528.978497 Y250.522531 Z-0.125000
G01 X1532.405393 Y254.538707 Z-0.125000
G01 X1539.259139 Y254.538707 Z-0.125000
G01 X1542.686035 Y250.522531 Z-0.125000
G01 X1544.399461 Y246.506346 Z-0.125000
G01 X1546.112886 Y238.473995 Z-0.125000
G01 X1546.112886 Y230.441634 Z-0.125000
G01 X1544.399461 Y222.409274 Z-0.125000
G01 X1540.972565 Y210.360737 Z-0.125000
G01 X1523.838176 Y170.198944 Z-0.125000
G01 X1547.826311 Y170.198944 Z-0.125000
G00 Z5.000000

(Change tool to Default tool)

G00 Z5.000000
G00 X1511.844108 Y226.425459

G01 Z-0.125000 F100.0(Penetrate)
G01 X1510.130683 Y214.376913 Z-0.125000 F400.000000
G01 X1506.703787 Y206.344562 Z-0.125000
G01 X1501.563465 Y202.328377 Z-0.125000
G01 X1499.850040 Y202.328377 Z-0.125000
G01 X1494.709719 Y206.344562 Z-0.125000
G01 X1491.282868 Y214.376913 Z-0.125000
G01 X1489.569397 Y226.425459 Z-0.125000
G01 X1489.569397 Y230.441634 Z-0.125000
G01 X1491.282868 Y242.490170 Z-0.125000
G01 X1494.709719 Y250.522531 Z-0.125000
G01 X1499.850040 Y254.538707 Z-0.125000
G01 X1501.563465 Y254.538707 Z-0.125000
G01 X1506.703787 Y250.522531 Z-0.125000
G01 X1510.130683 Y242.490170 Z-0.125000
G01 X1511.844108 Y226.425459 Z-0.125000
G01 X1511.844108 Y206.344562 Z-0.125000
G01 X1510.130683 Y186.263665 Z-0.125000
G01 X1506.703787 Y174.215129 Z-0.125000
G01 X1501.563465 Y170.198944 Z-0.125000
G01 X1498.136615 Y170.198944 Z-0.125000
G01 X1492.996294 Y174.215129 Z-0.125000
G01 X1491.282868 Y182.247480 Z-0.125000
G00 Z5.000000

(Change tool to Default tool)

G00 Z5.000000
G00 X1457.014090 Y234.457810

G01 Z-0.125000 F100.0(Penetrate)
G01 X1457.014090 Y238.473995 Z-0.125000 F400.000000
G01 X1458.727515 Y246.506346 Z-0.125000
G01 X1460.440941 Y250.522531 Z-0.125000
G01 X1463.867837 Y254.538707 Z-0.125000
G01 X1470.721583 Y254.538707 Z-0.125000
G01 X1474.148479 Y250.522531 Z-0.125000
G01 X1475.861904 Y246.506346 Z-0.125000
G01 X1477.575330 Y238.473995 Z-0.125000
G01 X1477.575330 Y230.441634 Z-0.125000
G01 X1475.861904 Y222.409274 Z-0.125000
G01 X1472.435008 Y210.360737 Z-0.125000
G01 X1455.300619 Y170.198944 Z-0.125000
G01 X1479.288800 Y170.198944 Z-0.125000
G00 Z5.000000

(Change tool to Default tool)

G00 Z5.000000
G00 X1429.599059 Y254.538707

G01 Z-0.125000 F100.0(Penetrate)
G01 X1424.458737 Y250.522531 Z-0.125000 F400.000000
G01 X1422.745312 Y242.490170 Z-0.125000
G01 X1422.745312 Y234.457810 Z-0.125000
G01 X1424.458737 Y226.425459 Z-0.125000
G01 X1427.885633 Y222.409274 Z-0.125000
G01 X1434.739380 Y218.393098 Z-0.125000
G01 X1439.879701 Y214.376913 Z-0.125000
G01 X1443.306552 Y206.344562 Z-0.125000
G01 X1445.020022 Y198.312201 Z-0.125000
G01 X1445.020022 Y186.263665 Z-0.125000
G01 X1443.306552 Y178.231304 Z-0.125000
G01 X1441.593126 Y174.215129 Z-0.125000
G01 X1436.452805 Y170.198944 Z-0.125000
G01 X1429.599059 Y170.198944 Z-0.125000
G01 X1424.458737 Y174.215129 Z-0.125000
G01 X1422.745312 Y178.231304 Z-0.125000
G01 X1421.031841 Y186.263665 Z-0.125000
G01 X1421.031841 Y198.312201 Z-0.125000
G01 X1422.745312 Y206.344562 Z-0.125000
G01 X1426.172163 Y214.376913 Z-0.125000
G01 X1431.312484 Y218.393098 Z-0.125000
G01 X1438.166230 Y222.409274 Z-0.125000
G01 X1441.593126 Y226.425459 Z-0.125000
G01 X1443.306552 Y234.457810 Z-0.125000
G01 X1443.306552 Y242.490170 Z-0.125000
G01 X1441.593126 Y250.522531 Z-0.125000
G01 X1436.452805 Y254.538707 Z-0.125000
G01 X1429.599059 Y254.538707 Z-0.125000
G00 Z5.000000

(Change tool to Default tool)

G00 Z5.000000
G00 X1388.476534 Y234.457810

G01 Z-0.125000 F100.0(Penetrate)
G01 X1388.476534 Y238.473995 Z-0.125000 F400.000000
G01 X1390.189959 Y246.506346 Z-0.125000
G01 X1391.903385 Y250.522531 Z-0.125000
G01 X1395.330281 Y254.538707 Z-0.125000
G01 X1402.184027 Y254.538707 Z-0.125000
G01 X1405.610923 Y250.522531 Z-0.125000
G01 X1407.324348 Y246.506346 Z-0.125000
G01 X1409.037774 Y238.473995 Z-0.125000
G01 X1409.037774 Y230.441634 Z-0.125000
G01 X1407.324348 Y222.409274 Z-0.125000
G01 X1403.897452 Y210.360737 Z-0.125000
G01 X1386.763109 Y170.198944 Z-0.125000
G01 X1410.751244 Y170.198944 Z-0.125000
G00 Z5.000000

(Change tool to Default tool)

G00 Z5.000000
G00 X1374.768995 Y242.490170

G01 Z-0.125000 F100.0(Penetrate)
G01 X1373.055570 Y250.522531 Z-0.125000 F400.000000
G01 X1367.915249 Y254.538707 Z-0.125000
G01 X1364.488398 Y254.538707 Z-0.125000
G01 X1359.348077 Y250.522531 Z-0.125000
G01 X1355.921181 Y238.473995 Z-0.125000
G01 X1354.207756 Y218.393098 Z-0.125000
G01 X1354.207756 Y198.312201 Z-0.125000
G01 X1355.921181 Y182.247480 Z-0.125000
G01 X1359.348077 Y174.215129 Z-0.125000
G01 X1364.488398 Y170.198944 Z-0.125000
G01 X1366.201824 Y170.198944 Z-0.125000
G01 X1371.342145 Y174.215129 Z-0.125000
G01 X1374.768995 Y182.247480 Z-0.125000
G01 X1376.482466 Y194.296016 Z-0.125000
G01 X1376.482466 Y198.312201 Z-0.125000
G01 X1374.768995 Y210.360737 Z-0.125000
G01 X1371.342145 Y218.393098 Z-0.125000
G01 X1366.201824 Y222.409274 Z-0.125000
G01 X1364.488398 Y222.409274 Z-0.125000
G01 X1359.348077 Y218.393098 Z-0.125000
G01 X1355.921181 Y210.360737 Z-0.125000
G01 X1354.207756 Y198.312201 Z-0.125000
G00 Z5.000000

(Change tool to Default tool)

G00 Z5.000000
G00 X1340.500217 Y226.425459

G01 Z-0.125000 F100.0(Penetrate)
G01 X1338.786792 Y214.376913 Z-0.125000 F400.000000
G01 X1335.359942 Y206.344562 Z-0.125000
G01 X1330.219620 Y202.328377 Z-0.125000
G01 X1328.506150 Y202.328377 Z-0.125000
G01 X1323.365874 Y206.344562 Z-0.125000
G01 X1319.938978 Y214.376913 Z-0.125000
G01 X1318.225553 Y226.425459 Z-0.125000
G01 X1318.225553 Y230.441634 Z-0.125000
G01 X1319.938978 Y242.490170 Z-0.125000
G01 X1323.365874 Y250.522531 Z-0.125000
G01 X1328.506150 Y254.538707 Z-0.125000
G01 X1330.219620 Y254.538707 Z-0.125000
G01 X1335.359942 Y250.522531 Z-0.125000
G01 X1338.786792 Y242.490170 Z-0.125000
G01 X1340.500217 Y226.425459 Z-0.125000
G01 X1340.500217 Y206.344562 Z-0.125000
G01 X1338.786792 Y186.263665 Z-0.125000
G01 X1335.359942 Y174.215129 Z-0.125000
G01 X1330.219620 Y170.198944 Z-0.125000
G01 X1326.792724 Y170.198944 Z-0.125000
G01 X1321.652403 Y174.215129 Z-0.125000
G01 X1319.938978 Y182.247480 Z-0.125000
G00 Z5.000000

(Change tool to Default tool)

G00 Z5.000000
G00 X1294.237372 Y254.538707

G01 Z-0.125000 F100.0(Penetrate)
G01 X1289.097096 Y250.522531 Z-0.125000 F400.000000
G01 X1285.670200 Y238.473995 Z-0.125000
G01 X1283.956775 Y218.393098 Z-0.125000
G01 X1283.956775 Y206.344562 Z-0.125000
G01 X1285.670200 Y186.263665 Z-0.125000
G01 X1289.097096 Y174.215129 Z-0.125000
G01 X1294.237372 Y170.198944 Z-0.125000
G01 X1297.664268 Y170.198944 Z-0.125000
G01 X1302.804589 Y174.215129 Z-0.125000
G01 X1306.231485 Y186.263665 Z-0.125000
G01 X1307.944910 Y206.344562 Z-0.125000
G01 X1307.944910 Y218.393098 Z-0.125000
G01 X1306.231485 Y238.473995 Z-0.125000
G01 X1302.804589 Y250.522531 Z-0.125000
G01 X1297.664268 Y254.538707 Z-0.125000
G01 X1294.237372 Y254.538707 Z-0.125000
G00 Z5.000000

(Change tool to Default tool)

G00 Z5.000000
G00 X1251.401422 Y234.457810

G01 Z-0.125000 F100.0(Penetrate)
G01 X1251.401422 Y238.473995 Z-0.125000 F400.000000
G01 X1253.114847 Y246.506346 Z-0.125000
G01 X1254.828318 Y250.522531 Z-0.125000
G01 X1258.255168 Y254.538707 Z-0.125000
G01 X1265.108915 Y254.538707 Z-0.125000
G01 X1268.535811 Y250.522531 Z-0.125000
G01 X1270.249236 Y246.506346 Z-0.125000
G01 X1271.962707 Y238.473995 Z-0.125000
G01 X1271.962707 Y230.441634 Z-0.125000
G01 X1270.249236 Y222.409274 Z-0.125000
G01 X1266.822386 Y210.360737 Z-0.125000
G01 X1249.687997 Y170.198944 Z-0.125000
G01 X1273.676132 Y170.198944 Z-0.125000
G00 Z5.000000

(Change tool to Default tool)

G00 Z5.000000
G00 X1237.693929 Y226.425459

G01 Z-0.125000 F100.0(Penetrate)
G01 X1235.980458 Y214.376913 Z-0.125000 F400.000000
G01 X1232.553607 Y206.344562 Z-0.125000
G01 X1227.413286 Y202.328377 Z-0.125000
G01 X1225.699861 Y202.328377 Z-0.125000
G01 X1220.559540 Y206.344562 Z-0.125000
G01 X1217.132644 Y214.376913 Z-0.125000
G01 X1215.419218 Y226.425459 Z-0.125000
G01 X1215.419218 Y230.441634 Z-0.125000
G01 X1217.132644 Y242.490170 Z-0.125000
G01 X1220.559540 Y250.522531 Z-0.125000
G01 X1225.699861 Y254.538707 Z-0.125000
G01 X1227.413286 Y254.538707 Z-0.125000
G01 X1232.553607 Y250.522531 Z-0.125000
G01 X1235.980458 Y242.490170 Z-0.125000
G01 X1237.693929 Y226.425459 Z-0.125000
G01 X1237.693929 Y206.344562 Z-0.125000
G01 X1235.980458 Y186.263665 Z-0.125000
G01 X1232.553607 Y174.215129 Z-0.125000
G01 X1227.413286 Y170.198944 Z-0.125000
G01 X1223.986390 Y170.198944 Z-0.125000
G01 X1218.846069 Y174.215129 Z-0.125000
G01 X1217.132644 Y182.247480 Z-0.125000
G00 Z5.000000

(Change tool to Default tool)

G00 Z5.000000
G00 X1191.431083 Y254.538707

G01 Z-0.125000 F100.0(Penetrate)
G01 X1186.290762 Y250.522531 Z-0.125000 F400.000000
G01 X1182.863866 Y238.473995 Z-0.125000
G01 X1181.150440 Y218.393098 Z-0.125000
G01 X1181.150440 Y206.344562 Z-0.125000
G01 X1182.863866 Y186.263665 Z-0.125000
G01 X1186.290762 Y174.215129 Z-0.125000
G01 X1191.431083 Y170.198944 Z-0.125000
G01 X1194.857933 Y170.198944 Z-0.125000
G01 X1199.998255 Y174.215129 Z-0.125000
G01 X1203.425151 Y186.263665 Z-0.125000
G01 X1205.138576 Y206.344562 Z-0.125000
G01 X1205.138576 Y218.393098 Z-0.125000
G01 X1203.425151 Y238.473995 Z-0.125000
G01 X1199.998255 Y250.522531 Z-0.125000
G01 X1194.857933 Y254.538707 Z-0.125000
G01 X1191.431083 Y254.538707 Z-0.125000
G00 Z5.000000

(Change tool to Default tool)

G00 Z5.000000
G00 X1148.595088 Y234.457810

G01 Z-0.125000 F100.0(Penetrate)
G01 X1148.595088 Y238.473995 Z-0.125000 F400.000000
G01 X1150.308513 Y246.506346 Z-0.125000
G01 X1152.021984 Y250.522531 Z-0.125000
G01 X1155.448834 Y254.538707 Z-0.125000
G01 X1162.302626 Y254.538707 Z-0.125000
G01 X1165.729477 Y250.522531 Z-0.125000
G01 X1167.442902 Y246.506346 Z-0.125000
G01 X1169.156373 Y238.473995 Z-0.125000
G01 X1169.156373 Y230.441634 Z-0.125000
G01 X1167.442902 Y222.409274 Z-0.125000
G01 X1164.016051 Y210.360737 Z-0.125000
G01 X1146.881662 Y170.198944 Z-0.125000
G01 X1170.869798 Y170.198944 Z-0.125000
G00 Z5.000000

(Change tool to Default tool)

G00 Z5.000000
G00 X1133.174169 Y254.538707

G01 Z-0.125000 F100.0(Penetrate)
G01 X1116.039780 Y254.538707 Z-0.125000 F400.000000
G01 X1114.326309 Y218.393098 Z-0.125000
G01 X1116.039780 Y222.409274 Z-0.125000
G01 X1121.180056 Y226.425459 Z-0.125000
G01 X1126.320377 Y226.425459 Z-0.125000
G01 X1131.460698 Y222.409274 Z-0.125000
G01 X1134.887595 Y214.376913 Z-0.125000
G01 X1136.601020 Y202.328377 Z-0.125000
G01 X1136.601020 Y194.296016 Z-0.125000
G01 X1134.887595 Y182.247480 Z-0.125000
G01 X1131.460698 Y174.215129 Z-0.125000
G01 X1126.320377 Y170.198944 Z-0.125000
G01 X1121.180056 Y170.198944 Z-0.125000
G01 X1116.039780 Y174.215129 Z-0.125000
G01 X1114.326309 Y178.231304 Z-0.125000
G01 X1112.612884 Y186.263665 Z-0.125000
G00 Z5.000000

(Change tool to Default tool)

G00 Z5.000000
G00 X1083.484427 Y238.473995

G01 Z-0.125000 F100.0(Penetrate)
G01 X1086.911278 Y242.490170 Z-0.125000 F400.000000
G01 X1092.051599 Y254.538707 Z-0.125000
G01 X1092.051599 Y170.198944 Z-0.125000
G00 Z5.000000

(Change tool to Default tool)

G00 Z5.000000
G00 X1052.642545 Y254.538707

G01 Z-0.125000 F100.0(Penetrate)
G01 X1047.502224 Y250.522531 Z-0.125000 F400.000000
G01 X1045.788753 Y242.490170 Z-0.125000
G01 X1045.788753 Y234.457810 Z-0.125000
G01 X1047.502224 Y226.425459 Z-0.125000
G01 X1050.929075 Y222.409274 Z-0.125000
G01 X1057.782821 Y218.393098 Z-0.125000
G01 X1062.923142 Y214.376913 Z-0.125000
G01 X1066.350038 Y206.344562 Z-0.125000
G01 X1068.063464 Y198.312201 Z-0.125000
G01 X1068.063464 Y186.263665 Z-0.125000
G01 X1066.350038 Y178.231304 Z-0.125000
G01 X1064.636613 Y174.215129 Z-0.125000
G01 X1059.496292 Y170.198944 Z-0.125000
G01 X1052.642545 Y170.198944 Z-0.125000
G01 X1047.502224 Y174.215129 Z-0.125000
G01 X1045.788753 Y178.231304 Z-0.125000
G01 X1044.075328 Y186.263665 Z-0.125000
G01 X1044.075328 Y198.312201 Z-0.125000
G01 X1045.788753 Y206.344562 Z-0.125000
G01 X1049.215649 Y214.376913 Z-0.125000
G01 X1054.355971 Y218.393098 Z-0.125000
G01 X1061.209717 Y222.409274 Z-0.125000
G01 X1064.636613 Y226.425459 Z-0.125000
G01 X1066.350038 Y234.457810 Z-0.125000
G01 X1066.350038 Y242.490170 Z-0.125000
G01 X1064.636613 Y250.522531 Z-0.125000
G01 X1059.496292 Y254.538707 Z-0.125000
G01 X1052.642545 Y254.538707 Z-0.125000
G00 Z5.000000

(Change tool to Default tool)

G00 Z5.000000
G00 X1018.373767 Y254.538707

G01 Z-0.125000 F100.0(Penetrate)
G01 X1013.233446 Y250.522531 Z-0.125000 F400.000000
G01 X1011.519975 Y242.490170 Z-0.125000
G01 X1011.519975 Y234.457810 Z-0.125000
G01 X1013.233446 Y226.425459 Z-0.125000
G01 X1016.660297 Y222.409274 Z-0.125000
G01 X1023.514043 Y218.393098 Z-0.125000
G01 X1028.654364 Y214.376913 Z-0.125000
G01 X1032.081260 Y206.344562 Z-0.125000
G01 X1033.794686 Y198.312201 Z-0.125000
G01 X1033.794686 Y186.263665 Z-0.125000
G01 X1032.081260 Y178.231304 Z-0.125000
G01 X1030.367835 Y174.215129 Z-0.125000
G01 X1025.227514 Y170.198944 Z-0.125000
G01 X1018.373767 Y170.198944 Z-0.125000
G01 X1013.233446 Y174.215129 Z-0.125000
G01 X1011.519975 Y178.231304 Z-0.125000
G01 X1009.806550 Y186.263665 Z-0.125000
G01 X1009.806550 Y198.312201 Z-0.125000
G01 X1011.519975 Y206.344562 Z-0.125000
G01 X1014.946871 Y214.376913 Z-0.125000
G01 X1020.087193 Y218.393098 Z-0.125000
G01 X1026.940939 Y222.409274 Z-0.125000
G01 X1030.367835 Y226.425459 Z-0.125000
G01 X1032.081260 Y234.457810 Z-0.125000
G01 X1032.081260 Y242.490170 Z-0.125000
G01 X1030.367835 Y250.522531 Z-0.125000
G01 X1025.227514 Y254.538707 Z-0.125000
G01 X1018.373767 Y254.538707 Z-0.125000
G00 Z5.000000

(Change tool to Default tool)

G00 Z5.000000
G00 X992.672161 Y254.538707

G01 Z-0.125000 F100.0(Penetrate)
G01 X975.537772 Y198.312201 Z-0.125000 F400.000000
G01 X1001.239378 Y198.312201 Z-0.125000
G00 Z5.000000

(Change tool to Default tool)

G00 Z5.000000
G00 X992.672161 Y254.538707

G01 Z-0.125000 F100.0(Penetrate)
G01 X992.672161 Y170.198944 Z-0.125000 F400.000000
G00 Z5.000000

(Change tool to Default tool)

G00 Z5.000000
G00 X965.257129 Y254.538707

G01 Z-0.125000 F100.0(Penetrate)
G01 X948.122740 Y170.198944 Z-0.125000 F400.000000
G00 Z5.000000

(Change tool to Default tool)

G00 Z5.000000
G00 X941.268994 Y254.538707

G01 Z-0.125000 F100.0(Penetrate)
G01 X965.257129 Y254.538707 Z-0.125000 F400.000000
G00 Z5.000000

(Change tool to Default tool)

G00 Z5.000000
G00 X912.140537 Y238.473995

G01 Z-0.125000 F100.0(Penetrate)
G01 X915.567433 Y242.490170 Z-0.125000 F400.000000
G01 X920.707754 Y254.538707 Z-0.125000
G01 X920.707754 Y170.198944 Z-0.125000
G00 Z5.000000

(Change tool to Default tool)

G00 Z5.000000
G00 X881.298655 Y254.538707

G01 Z-0.125000 F100.0(Penetrate)
G01 X876.158334 Y250.522531 Z-0.125000 F400.000000
G01 X874.444908 Y242.490170 Z-0.125000
G01 X874.444908 Y234.457810 Z-0.125000
G01 X876.158334 Y226.425459 Z-0.125000
G01 X879.585184 Y222.409274 Z-0.125000
G01 X886.438976 Y218.393098 Z-0.125000
G01 X891.579298 Y214.376913 Z-0.125000
G01 X895.006148 Y206.344562 Z-0.125000
G01 X896.719573 Y198.312201 Z-0.125000
G01 X896.719573 Y186.263665 Z-0.125000
G01 X895.006148 Y178.231304 Z-0.125000
G01 X893.292723 Y174.215129 Z-0.125000
G01 X888.152402 Y170.198944 Z-0.125000
G01 X881.298655 Y170.198944 Z-0.125000
G01 X876.158334 Y174.215129 Z-0.125000
G01 X874.444908 Y178.231304 Z-0.125000
G01 X872.731438 Y186.263665 Z-0.125000
G01 X872.731438 Y198.312201 Z-0.125000
G01 X874.444908 Y206.344562 Z-0.125000
G01 X877.871759 Y214.376913 Z-0.125000
G01 X883.012080 Y218.393098 Z-0.125000
G01 X889.865827 Y222.409274 Z-0.125000
G01 X893.292723 Y226.425459 Z-0.125000
G01 X895.006148 Y234.457810 Z-0.125000
G01 X895.006148 Y242.490170 Z-0.125000
G01 X893.292723 Y250.522531 Z-0.125000
G01 X888.152402 Y254.538707 Z-0.125000
G01 X881.298655 Y254.538707 Z-0.125000
G00 Z5.000000

(Change tool to Default tool)

G00 Z5.000000
G00 X847.029877 Y254.538707

G01 Z-0.125000 F100.0(Penetrate)
G01 X841.889556 Y250.522531 Z-0.125000 F400.000000
G01 X840.176130 Y242.490170 Z-0.125000
G01 X840.176130 Y234.457810 Z-0.125000
G01 X841.889556 Y226.425459 Z-0.125000
G01 X845.316452 Y222.409274 Z-0.125000
G01 X852.170198 Y218.393098 Z-0.125000
G01 X857.310519 Y214.376913 Z-0.125000
G01 X860.737370 Y206.344562 Z-0.125000
G01 X862.450841 Y198.312201 Z-0.125000
G01 X862.450841 Y186.263665 Z-0.125000
G01 X860.737370 Y178.231304 Z-0.125000
G01 X859.023945 Y174.215129 Z-0.125000
G01 X853.883623 Y170.198944 Z-0.125000
G01 X847.029877 Y170.198944 Z-0.125000
G01 X841.889556 Y174.215129 Z-0.125000
G01 X840.176130 Y178.231304 Z-0.125000
G01 X838.462660 Y186.263665 Z-0.125000
G01 X838.462660 Y198.312201 Z-0.125000
G01 X840.176130 Y206.344562 Z-0.125000
G01 X843.602981 Y214.376913 Z-0.125000
G01 X848.743302 Y218.393098 Z-0.125000
G01 X855.597049 Y222.409274 Z-0.125000
G01 X859.023945 Y226.425459 Z-0.125000
G01 X860.737370 Y234.457810 Z-0.125000
G01 X860.737370 Y242.490170 Z-0.125000
G01 X859.023945 Y250.522531 Z-0.125000
G01 X853.883623 Y254.538707 Z-0.125000
G01 X847.029877 Y254.538707 Z-0.125000
G00 Z5.000000

(Change tool to Default tool)

G00 Z5.000000
G00 X824.755167 Y254.538707

G01 Z-0.125000 F100.0(Penetrate)
G01 X807.620778 Y254.538707 Z-0.125000 F400.000000
G01 X805.907352 Y218.393098 Z-0.125000
G01 X807.620778 Y222.409274 Z-0.125000
G01 X812.761099 Y226.425459 Z-0.125000
G01 X817.901420 Y226.425459 Z-0.125000
G01 X823.041741 Y222.409274 Z-0.125000
G01 X826.468592 Y214.376913 Z-0.125000
G01 X828.182063 Y202.328377 Z-0.125000
G01 X828.182063 Y194.296016 Z-0.125000
G01 X826.468592 Y182.247480 Z-0.125000
G01 X823.041741 Y174.215129 Z-0.125000
G01 X817.901420 Y170.198944 Z-0.125000
G01 X812.761099 Y170.198944 Z-0.125000
G01 X807.620778 Y174.215129 Z-0.125000
G01 X805.907352 Y178.231304 Z-0.125000
G01 X804.193882 Y186.263665 Z-0.125000
G00 Z5.000000

(Change tool to Default tool)

G00 Z5.000000
G00 X790.486389 Y254.538707

G01 Z-0.125000 F100.0(Penetrate)
G01 X773.352000 Y254.538707 Z-0.125000 F400.000000
G01 X771.638574 Y218.393098 Z-0.125000
G01 X773.352000 Y222.409274 Z-0.125000
G01 X778.492321 Y226.425459 Z-0.125000
G01 X783.632642 Y226.425459 Z-0.125000
G01 X788.772963 Y222.409274 Z-0.125000
G01 X792.199814 Y214.376913 Z-0.125000
G01 X793.913285 Y202.328377 Z-0.125000
G01 X793.913285 Y194.296016 Z-0.125000
G01 X792.199814 Y182.247480 Z-0.125000
G01 X788.772963 Y174.215129 Z-0.125000
G01 X783.632642 Y170.198944 Z-0.125000
G01 X778.492321 Y170.198944 Z-0.125000
G01 X773.352000 Y174.215129 Z-0.125000
G01 X771.638574 Y178.231304 Z-0.125000
G01 X769.925103 Y186.263665 Z-0.125000
G00 Z5.000000

(Change tool to Default tool)

G00 Z5.000000
G00 X740.796647 Y238.473995

G01 Z-0.125000 F100.0(Penetrate)
G01 X744.223543 Y242.490170 Z-0.125000 F400.000000
G01 X749.363864 Y254.538707 Z-0.125000
G01 X749.363864 Y170.198944 Z-0.125000
G00 Z5.000000

(Change tool to Default tool)

G00 Z5.000000
G00 X704.814443 Y254.538707

G01 Z-0.125000 F100.0(Penetrate)
G01 X723.662258 Y254.538707 Z-0.125000 F400.000000
G01 X713.381661 Y222.409274 Z-0.125000
G01 X718.521982 Y222.409274 Z-0.125000
G01 X721.948832 Y218.393098 Z-0.125000
G01 X723.662258 Y214.376913 Z-0.125000
G01 X725.375728 Y202.328377 Z-0.125000
G01 X725.375728 Y194.296016 Z-0.125000
G01 X723.662258 Y182.247480 Z-0.125000
G01 X720.235407 Y174.215129 Z-0.125000
G01 X715.095086 Y170.198944 Z-0.125000
G01 X709.954765 Y170.198944 Z-0.125000
G01 X704.814443 Y174.215129 Z-0.125000
G01 X703.101018 Y178.231304 Z-0.125000
G01 X701.387593 Y186.263665 Z-0.125000
G00 Z5.000000

(Change tool to Default tool)

G00 Z5.000000
G00 X689.393480 Y242.490170

G01 Z-0.125000 F100.0(Penetrate)
G01 X687.680054 Y250.522531 Z-0.125000 F400.000000
G01 X682.539733 Y254.538707 Z-0.125000
G01 X679.112883 Y254.538707 Z-0.125000
G01 X673.972561 Y250.522531 Z-0.125000
G01 X670.545665 Y238.473995 Z-0.125000
G01 X668.832240 Y218.393098 Z-0.125000
G01 X668.832240 Y198.312201 Z-0.125000
G01 X670.545665 Y182.247480 Z-0.125000
G01 X673.972561 Y174.215129 Z-0.125000
G01 X679.112883 Y170.198944 Z-0.125000
G01 X680.826308 Y170.198944 Z-0.125000
G01 X685.966629 Y174.215129 Z-0.125000
G01 X689.393480 Y182.247480 Z-0.125000
G01 X691.106950 Y194.296016 Z-0.125000
G01 X691.106950 Y198.312201 Z-0.125000
G01 X689.393480 Y210.360737 Z-0.125000
G01 X685.966629 Y218.393098 Z-0.125000
G01 X680.826308 Y222.409274 Z-0.125000
G01 X679.112883 Y222.409274 Z-0.125000
G01 X673.972561 Y218.393098 Z-0.125000
G01 X670.545665 Y210.360737 Z-0.125000
G01 X668.832240 Y198.312201 Z-0.125000
G00 Z5.000000

(Change tool to Default tool)

G00 Z5.000000
G00 X643.130634 Y254.538707

G01 Z-0.125000 F100.0(Penetrate)
G01 X637.990358 Y250.522531 Z-0.125000 F400.000000
G01 X634.563462 Y238.473995 Z-0.125000
G01 X632.849991 Y218.393098 Z-0.125000
G01 X632.849991 Y206.344562 Z-0.125000
G01 X634.563462 Y186.263665 Z-0.125000
G01 X637.990358 Y174.215129 Z-0.125000
G01 X643.130634 Y170.198944 Z-0.125000
G01 X646.557530 Y170.198944 Z-0.125000
G01 X651.697851 Y174.215129 Z-0.125000
G01 X655.124747 Y186.263665 Z-0.125000
G01 X656.838172 Y206.344562 Z-0.125000
G01 X656.838172 Y218.393098 Z-0.125000
G01 X655.124747 Y238.473995 Z-0.125000
G01 X651.697851 Y250.522531 Z-0.125000
G01 X646.557530 Y254.538707 Z-0.125000
G01 X643.130634 Y254.538707 Z-0.125000
G00 Z5.000000

(Change tool to Default tool)

G00 Z5.000000
G00 X620.855923 Y242.490170

G01 Z-0.125000 F100.0(Penetrate)
G01 X619.142498 Y250.522531 Z-0.125000 F400.000000
G01 X614.002177 Y254.538707 Z-0.125000
G01 X610.575281 Y254.538707 Z-0.125000
G01 X605.434982 Y250.522531 Z-0.125000
G01 X602.008105 Y238.473995 Z-0.125000
G01 X600.294666 Y218.393098 Z-0.125000
G01 X600.294666 Y198.312201 Z-0.125000
G01 X602.008105 Y182.247480 Z-0.125000
G01 X605.434982 Y174.215129 Z-0.125000
G01 X610.575281 Y170.198944 Z-0.125000
G01 X612.288752 Y170.198944 Z-0.125000
G01 X617.429073 Y174.215129 Z-0.125000
G01 X620.855923 Y182.247480 Z-0.125000
G01 X622.569394 Y194.296016 Z-0.125000
G01 X622.569394 Y198.312201 Z-0.125000
G01 X620.855923 Y210.360737 Z-0.125000
G01 X617.429073 Y218.393098 Z-0.125000
G01 X612.288752 Y222.409274 Z-0.125000
G01 X610.575281 Y222.409274 Z-0.125000
G01 X605.434982 Y218.393098 Z-0.125000
G01 X602.008105 Y210.360737 Z-0.125000
G01 X600.294666 Y198.312201 Z-0.125000
G00 Z5.000000

(Change tool to Default tool)

G00 Z5.000000
G00 X3265.438120 Y385.673527

G01 Z-0.125000 F100.0(Penetrate)
G01 X3263.718501 Y395.446093 Z-0.125000 F400.000000
G01 X3258.559737 Y400.332371 Z-0.125000
G01 X3255.120546 Y400.332371 Z-0.125000
G01 X3249.961736 Y395.446093 Z-0.125000
G01 X3246.522544 Y380.787250 Z-0.125000
G01 X3244.802971 Y356.355841 Z-0.125000
G01 X3244.802971 Y331.924433 Z-0.125000
G01 X3246.522544 Y312.379311 Z-0.125000
G01 X3249.961736 Y302.606746 Z-0.125000
G01 X3255.120546 Y297.720468 Z-0.125000
G01 X3256.840118 Y297.720468 Z-0.125000
G01 X3261.998928 Y302.606746 Z-0.125000
G01 X3265.438120 Y312.379311 Z-0.125000
G01 X3267.157693 Y327.038155 Z-0.125000
G01 X3267.157693 Y331.924433 Z-0.125000
G01 X3265.438120 Y346.583285 Z-0.125000
G01 X3261.998928 Y356.355841 Z-0.125000
G01 X3256.840118 Y361.242119 Z-0.125000
G01 X3255.120546 Y361.242119 Z-0.125000
G01 X3249.961736 Y356.355841 Z-0.125000
G01 X3246.522544 Y346.583285 Z-0.125000
G01 X3244.802971 Y331.924433 Z-0.125000
G00 Z5.000000

(Change tool to Default tool)

G00 Z5.000000
G00 X3219.009013 Y400.332371

G01 Z-0.125000 F100.0(Penetrate)
G01 X3213.850249 Y395.446093 Z-0.125000 F400.000000
G01 X3210.411058 Y380.787250 Z-0.125000
G01 X3208.691439 Y356.355841 Z-0.125000
G01 X3208.691439 Y341.696998 Z-0.125000
G01 X3210.411058 Y317.265599 Z-0.125000
G01 X3213.850249 Y302.606746 Z-0.125000
G01 X3219.009013 Y297.720468 Z-0.125000
G01 X3222.448205 Y297.720468 Z-0.125000
G01 X3227.607015 Y302.606746 Z-0.125000
G01 X3231.046206 Y317.265599 Z-0.125000
G01 X3232.765779 Y341.696998 Z-0.125000
G01 X3232.765779 Y356.355841 Z-0.125000
G01 X3231.046206 Y380.787250 Z-0.125000
G01 X3227.607015 Y395.446093 Z-0.125000
G01 X3222.448205 Y400.332371 Z-0.125000
G01 X3219.009013 Y400.332371 Z-0.125000
G00 Z5.000000

(Change tool to Default tool)

G00 Z5.000000
G00 X3184.617100 Y400.332371

G01 Z-0.125000 F100.0(Penetrate)
G01 X3179.458335 Y395.446093 Z-0.125000 F400.000000
G01 X3176.019098 Y380.787250 Z-0.125000
G01 X3174.299526 Y356.355841 Z-0.125000
G01 X3174.299526 Y341.696998 Z-0.125000
G01 X3176.019098 Y317.265599 Z-0.125000
G01 X3179.458335 Y302.606746 Z-0.125000
G01 X3184.617100 Y297.720468 Z-0.125000
G01 X3188.056291 Y297.720468 Z-0.125000
G01 X3193.215101 Y302.606746 Z-0.125000
G01 X3196.654292 Y317.265599 Z-0.125000
G01 X3198.373865 Y341.696998 Z-0.125000
G01 X3198.373865 Y356.355841 Z-0.125000
G01 X3196.654292 Y380.787250 Z-0.125000
G01 X3193.215101 Y395.446093 Z-0.125000
G01 X3188.056291 Y400.332371 Z-0.125000
G01 X3184.617100 Y400.332371 Z-0.125000
G00 Z5.000000

(Change tool to Default tool)

G00 Z5.000000
G00 X3163.981951 Y400.332371

G01 Z-0.125000 F100.0(Penetrate)
G01 X3146.785995 Y297.720468 Z-0.125000 F400.000000
G00 Z5.000000

(Change tool to Default tool)

G00 Z5.000000
G00 X3139.907612 Y400.332371

G01 Z-0.125000 F100.0(Penetrate)
G01 X3163.981951 Y400.332371 Z-0.125000 F400.000000
G00 Z5.000000

(Change tool to Default tool)

G00 Z5.000000
G00 X3114.113654 Y400.332371

G01 Z-0.125000 F100.0(Penetrate)
G01 X3108.954890 Y395.446093 Z-0.125000 F400.000000
G01 X3107.235271 Y385.673527 Z-0.125000
G01 X3107.235271 Y375.900972 Z-0.125000
G01 X3108.954890 Y366.128406 Z-0.125000
G01 X3112.394081 Y361.242119 Z-0.125000
G01 X3119.272464 Y356.355841 Z-0.125000
G01 X3124.431228 Y351.469563 Z-0.125000
G01 X3127.870465 Y341.696998 Z-0.125000
G01 X3129.590038 Y331.924433 Z-0.125000
G01 X3129.590038 Y317.265599 Z-0.125000
G01 X3127.870465 Y307.493033 Z-0.125000
G01 X3126.150846 Y302.606746 Z-0.125000
G01 X3120.992037 Y297.720468 Z-0.125000
G01 X3114.113654 Y297.720468 Z-0.125000
G01 X3108.954890 Y302.606746 Z-0.125000
G01 X3107.235271 Y307.493033 Z-0.125000
G01 X3105.515698 Y317.265599 Z-0.125000
G01 X3105.515698 Y331.924433 Z-0.125000
G01 X3107.235271 Y341.696998 Z-0.125000
G01 X3110.674462 Y351.469563 Z-0.125000
G01 X3115.833272 Y356.355841 Z-0.125000
G01 X3122.711655 Y361.242119 Z-0.125000
G01 X3126.150846 Y366.128406 Z-0.125000
G01 X3127.870465 Y375.900972 Z-0.125000
G01 X3127.870465 Y385.673527 Z-0.125000
G01 X3126.150846 Y395.446093 Z-0.125000
G01 X3120.992037 Y400.332371 Z-0.125000
G01 X3114.113654 Y400.332371 Z-0.125000
G00 Z5.000000

(Change tool to Default tool)

G00 Z5.000000
G00 X3091.758933 Y400.332371

G01 Z-0.125000 F100.0(Penetrate)
G01 X3074.562976 Y400.332371 Z-0.125000 F400.000000
G01 X3072.843357 Y356.355841 Z-0.125000
G01 X3074.562976 Y361.242119 Z-0.125000
G01 X3079.721740 Y366.128406 Z-0.125000
G01 X3084.880550 Y366.128406 Z-0.125000
G01 X3090.039314 Y361.242119 Z-0.125000
G01 X3093.478506 Y351.469563 Z-0.125000
G01 X3095.198124 Y336.810720 Z-0.125000
G01 X3095.198124 Y327.038155 Z-0.125000
G01 X3093.478506 Y312.379311 Z-0.125000
G01 X3090.039314 Y302.606746 Z-0.125000
G01 X3084.880550 Y297.720468 Z-0.125000
G01 X3079.721740 Y297.720468 Z-0.125000
G01 X3074.562976 Y302.606746 Z-0.125000
G01 X3072.843357 Y307.493033 Z-0.125000
G01 X3071.123784 Y317.265599 Z-0.125000
G00 Z5.000000

(Change tool to Default tool)

G00 Z5.000000
G00 X3053.927828 Y400.332371

G01 Z-0.125000 F100.0(Penetrate)
G01 X3036.731871 Y331.924433 Z-0.125000 F400.000000
G01 X3062.525783 Y331.924433 Z-0.125000
G00 Z5.000000

(Change tool to Default tool)

G00 Z5.000000
G00 X3053.927828 Y400.332371

G01 Z-0.125000 F100.0(Penetrate)
G01 X3053.927828 Y297.720468 Z-0.125000 F400.000000
G00 Z5.000000

(Change tool to Default tool)

G00 Z5.000000
G00 X3004.059530 Y375.900972

G01 Z-0.125000 F100.0(Penetrate)
G01 X3004.059530 Y380.787250 Z-0.125000 F400.000000
G01 X3005.779103 Y390.559805 Z-0.125000
G01 X3007.498721 Y395.446093 Z-0.125000
G01 X3010.937913 Y400.332371 Z-0.125000
G01 X3017.816295 Y400.332371 Z-0.125000
G01 X3021.255487 Y395.446093 Z-0.125000
G01 X3022.975105 Y390.559805 Z-0.125000
G01 X3024.694678 Y380.787250 Z-0.125000
G01 X3024.694678 Y371.014684 Z-0.125000
G01 X3022.975105 Y361.242119 Z-0.125000
G01 X3019.535914 Y346.583285 Z-0.125000
G01 X3002.339957 Y297.720468 Z-0.125000
G01 X3026.414297 Y297.720468 Z-0.125000
G00 Z5.000000

(Change tool to Default tool)

G00 Z5.000000
G00 X2992.022337 Y400.332371

G01 Z-0.125000 F100.0(Penetrate)
G01 X2974.826380 Y297.720468 Z-0.125000 F400.000000
G00 Z5.000000

(Change tool to Default tool)

G00 Z5.000000
G00 X2967.948043 Y400.332371

G01 Z-0.125000 F100.0(Penetrate)
G01 X2992.022337 Y400.332371 Z-0.125000 F400.000000
G00 Z5.000000

(Change tool to Default tool)

G00 Z5.000000
G00 X2936.995275 Y400.332371

G01 Z-0.125000 F100.0(Penetrate)
G01 X2955.910851 Y400.332371 Z-0.125000 F400.000000
G01 X2945.593277 Y361.242119 Z-0.125000
G01 X2950.752041 Y361.242119 Z-0.125000
G01 X2954.191232 Y356.355841 Z-0.125000
G01 X2955.910851 Y351.469563 Z-0.125000
G01 X2957.630469 Y336.810720 Z-0.125000
G01 X2957.630469 Y327.038155 Z-0.125000
G01 X2955.910851 Y312.379311 Z-0.125000
G01 X2952.471659 Y302.606746 Z-0.125000
G01 X2947.312895 Y297.720468 Z-0.125000
G01 X2942.154085 Y297.720468 Z-0.125000
G01 X2936.995275 Y302.606746 Z-0.125000
G01 X2935.275702 Y307.493033 Z-0.125000
G01 X2933.556084 Y317.265599 Z-0.125000
G00 Z5.000000

(Change tool to Default tool)

G00 Z5.000000
G00 X2923.238510 Y400.332371

G01 Z-0.125000 F100.0(Penetrate)
G01 X2906.042553 Y297.720468 Z-0.125000 F400.000000
G00 Z5.000000

(Change tool to Default tool)

G00 Z5.000000
G00 X2899.164170 Y400.332371

G01 Z-0.125000 F100.0(Penetrate)
G01 X2923.238510 Y400.332371 Z-0.125000 F400.000000
G00 Z5.000000

(Change tool to Default tool)

G00 Z5.000000
G00 X2866.491875 Y375.900972

G01 Z-0.125000 F100.0(Penetrate)
G01 X2866.491875 Y380.787250 Z-0.125000 F400.000000
G01 X2868.211448 Y390.559805 Z-0.125000
G01 X2869.931066 Y395.446093 Z-0.125000
G01 X2873.370258 Y400.332371 Z-0.125000
G01 X2880.248640 Y400.332371 Z-0.125000
G01 X2883.687832 Y395.446093 Z-0.125000
G01 X2885.407405 Y390.559805 Z-0.125000
G01 X2887.127023 Y380.787250 Z-0.125000
G01 X2887.127023 Y371.014684 Z-0.125000
G01 X2885.407405 Y361.242119 Z-0.125000
G01 X2881.968213 Y346.583285 Z-0.125000
G01 X2864.772257 Y297.720468 Z-0.125000
G01 X2888.846596 Y297.720468 Z-0.125000
G00 Z5.000000

(Change tool to Default tool)

G00 Z5.000000
G00 X2835.539153 Y380.787250

G01 Z-0.125000 F100.0(Penetrate)
G01 X2838.978344 Y385.673527 Z-0.125000 F400.000000
G01 X2844.137108 Y400.332371 Z-0.125000
G01 X2844.137108 Y297.720468 Z-0.125000
G00 Z5.000000

(Change tool to Default tool)

G00 Z5.000000
G00 X2813.184386 Y400.332371

G01 Z-0.125000 F100.0(Penetrate)
G01 X2795.988429 Y331.924433 Z-0.125000 F400.000000
G01 X2821.782387 Y331.924433 Z-0.125000
G00 Z5.000000

(Change tool to Default tool)

G00 Z5.000000
G00 X2813.184386 Y400.332371

G01 Z-0.125000 F100.0(Penetrate)
G01 X2813.184386 Y297.720468 Z-0.125000 F400.000000
G00 Z5.000000

(Change tool to Default tool)

G00 Z5.000000
G00 X2766.755325 Y380.787250

G01 Z-0.125000 F100.0(Penetrate)
G01 X2770.194471 Y385.673527 Z-0.125000 F400.000000
G01 X2775.353281 Y400.332371 Z-0.125000
G01 X2775.353281 Y297.720468 Z-0.125000
G00 Z5.000000

(Change tool to Default tool)

G00 Z5.000000
G00 X2749.559323 Y366.128406

G01 Z-0.125000 F100.0(Penetrate)
G01 X2747.839750 Y351.469563 Z-0.125000 F400.000000
G01 X2744.400559 Y341.696998 Z-0.125000
G01 X2739.241749 Y336.810720 Z-0.125000
G01 X2737.522176 Y336.810720 Z-0.125000
G01 X2732.363366 Y341.696998 Z-0.125000
G01 X2728.924175 Y351.469563 Z-0.125000
G01 X2727.204602 Y366.128406 Z-0.125000
G01 X2727.204602 Y371.014684 Z-0.125000
G01 X2728.924175 Y385.673527 Z-0.125000
G01 X2732.363366 Y395.446093 Z-0.125000
G01 X2737.522176 Y400.332371 Z-0.125000
G01 X2739.241749 Y400.332371 Z-0.125000
G01 X2744.400559 Y395.446093 Z-0.125000
G01 X2747.839750 Y385.673527 Z-0.125000
G01 X2749.559323 Y366.128406 Z-0.125000
G01 X2749.559323 Y341.696998 Z-0.125000
G01 X2747.839750 Y317.265599 Z-0.125000
G01 X2744.400559 Y302.606746 Z-0.125000
G01 X2739.241749 Y297.720468 Z-0.125000
G01 X2735.802557 Y297.720468 Z-0.125000
G01 X2730.643793 Y302.606746 Z-0.125000
G01 X2728.924175 Y312.379311 Z-0.125000
G00 Z5.000000

(Change tool to Default tool)

G00 Z5.000000
G00 X2710.008645 Y400.332371

G01 Z-0.125000 F100.0(Penetrate)
G01 X2692.812688 Y331.924433 Z-0.125000 F400.000000
G01 X2718.606600 Y331.924433 Z-0.125000
G00 Z5.000000

(Change tool to Default tool)

G00 Z5.000000
G00 X2710.008645 Y400.332371

G01 Z-0.125000 F100.0(Penetrate)
G01 X2710.008645 Y297.720468 Z-0.125000 F400.000000
G00 Z5.000000

(Change tool to Default tool)

G00 Z5.000000
G00 X2660.140347 Y375.900972

G01 Z-0.125000 F100.0(Penetrate)
G01 X2660.140347 Y380.787250 Z-0.125000 F400.000000
G01 X2661.859966 Y390.559805 Z-0.125000
G01 X2663.579539 Y395.446093 Z-0.125000
G01 X2667.018730 Y400.332371 Z-0.125000
G01 X2673.897113 Y400.332371 Z-0.125000
G01 X2677.336304 Y395.446093 Z-0.125000
G01 X2679.055922 Y390.559805 Z-0.125000
G01 X2680.775495 Y380.787250 Z-0.125000
G01 X2680.775495 Y371.014684 Z-0.125000
G01 X2679.055922 Y361.242119 Z-0.125000
G01 X2675.616731 Y346.583285 Z-0.125000
G01 X2658.420774 Y297.720468 Z-0.125000
G01 X2682.495114 Y297.720468 Z-0.125000
G00 Z5.000000

(Change tool to Default tool)

G00 Z5.000000
G00 X2634.346389 Y400.332371

G01 Z-0.125000 F100.0(Penetrate)
G01 X2629.187625 Y395.446093 Z-0.125000 F400.000000
G01 X2625.748433 Y380.787250 Z-0.125000
G01 X2624.028815 Y356.355841 Z-0.125000
G01 X2624.028815 Y341.696998 Z-0.125000
G01 X2625.748433 Y317.265599 Z-0.125000
G01 X2629.187625 Y302.606746 Z-0.125000
G01 X2634.346389 Y297.720468 Z-0.125000
G01 X2637.785626 Y297.720468 Z-0.125000
G01 X2642.944390 Y302.606746 Z-0.125000
G01 X2646.383582 Y317.265599 Z-0.125000
G01 X2648.103200 Y341.696998 Z-0.125000
G01 X2648.103200 Y356.355841 Z-0.125000
G01 X2646.383582 Y380.787250 Z-0.125000
G01 X2642.944390 Y395.446093 Z-0.125000
G01 X2637.785626 Y400.332371 Z-0.125000
G01 X2634.346389 Y400.332371 Z-0.125000
G00 Z5.000000

(Change tool to Default tool)

G00 Z5.000000
G00 X2611.991668 Y385.673527

G01 Z-0.125000 F100.0(Penetrate)
G01 X2610.272049 Y395.446093 Z-0.125000 F400.000000
G01 X2605.113285 Y400.332371 Z-0.125000
G01 X2601.674094 Y400.332371 Z-0.125000
G01 X2596.515330 Y395.446093 Z-0.125000
G01 X2593.076093 Y380.787250 Z-0.125000
G01 X2591.356520 Y356.355841 Z-0.125000
G01 X2591.356520 Y331.924433 Z-0.125000
G01 X2593.076093 Y312.379311 Z-0.125000
G01 X2596.515330 Y302.606746 Z-0.125000
G01 X2601.674094 Y297.720468 Z-0.125000
G01 X2603.393667 Y297.720468 Z-0.125000
G01 X2608.552477 Y302.606746 Z-0.125000
G01 X2611.991668 Y312.379311 Z-0.125000
G01 X2613.711241 Y327.038155 Z-0.125000
G01 X2613.711241 Y331.924433 Z-0.125000
G01 X2611.991668 Y346.583285 Z-0.125000
G01 X2608.552477 Y356.355841 Z-0.125000
G01 X2603.393667 Y361.242119 Z-0.125000
G01 X2601.674094 Y361.242119 Z-0.125000
G01 X2596.515330 Y356.355841 Z-0.125000
G01 X2593.076093 Y346.583285 Z-0.125000
G01 X2591.356520 Y331.924433 Z-0.125000
G00 Z5.000000

(Change tool to Default tool)

G00 Z5.000000
G00 X2556.964606 Y375.900972

G01 Z-0.125000 F100.0(Penetrate)
G01 X2556.964606 Y380.787250 Z-0.125000 F400.000000
G01 X2558.684179 Y390.559805 Z-0.125000
G01 X2560.403797 Y395.446093 Z-0.125000
G01 X2563.842989 Y400.332371 Z-0.125000
G01 X2570.721371 Y400.332371 Z-0.125000
G01 X2574.160563 Y395.446093 Z-0.125000
G01 X2575.880136 Y390.559805 Z-0.125000
G01 X2577.599754 Y380.787250 Z-0.125000
G01 X2577.599754 Y371.014684 Z-0.125000
G01 X2575.880136 Y361.242119 Z-0.125000
G01 X2572.440944 Y346.583285 Z-0.125000
G01 X2555.244988 Y297.720468 Z-0.125000
G01 X2579.319327 Y297.720468 Z-0.125000
G00 Z5.000000

(Change tool to Default tool)

G00 Z5.000000
G00 X2544.927413 Y400.332371

G01 Z-0.125000 F100.0(Penetrate)
G01 X2527.731457 Y297.720468 Z-0.125000 F400.000000
G00 Z5.000000

(Change tool to Default tool)

G00 Z5.000000
G00 X2520.853074 Y400.332371

G01 Z-0.125000 F100.0(Penetrate)
G01 X2544.927413 Y400.332371 Z-0.125000 F400.000000
G00 Z5.000000

(Change tool to Default tool)

G00 Z5.000000
G00 X2496.778734 Y400.332371

G01 Z-0.125000 F100.0(Penetrate)
G01 X2491.619970 Y395.446093 Z-0.125000 F400.000000
G01 X2488.180779 Y380.787250 Z-0.125000
G01 X2486.461160 Y356.355841 Z-0.125000
G01 X2486.461160 Y341.696998 Z-0.125000
G01 X2488.180779 Y317.265599 Z-0.125000
G01 X2491.619970 Y302.606746 Z-0.125000
G01 X2496.778734 Y297.720468 Z-0.125000
G01 X2500.217926 Y297.720468 Z-0.125000
G01 X2505.376735 Y302.606746 Z-0.125000
G01 X2508.815927 Y317.265599 Z-0.125000
G01 X2510.535500 Y341.696998 Z-0.125000
G01 X2510.535500 Y356.355841 Z-0.125000
G01 X2508.815927 Y380.787250 Z-0.125000
G01 X2505.376735 Y395.446093 Z-0.125000
G01 X2500.217926 Y400.332371 Z-0.125000
G01 X2496.778734 Y400.332371 Z-0.125000
G00 Z5.000000

(Change tool to Default tool)

G00 Z5.000000
G00 X2474.423968 Y385.673527

G01 Z-0.125000 F100.0(Penetrate)
G01 X2472.704395 Y395.446093 Z-0.125000 F400.000000
G01 X2467.545630 Y400.332371 Z-0.125000
G01 X2464.106393 Y400.332371 Z-0.125000
G01 X2458.947629 Y395.446093 Z-0.125000
G01 X2455.508438 Y380.787250 Z-0.125000
G01 X2453.788819 Y356.355841 Z-0.125000
G01 X2453.788819 Y331.924433 Z-0.125000
G01 X2455.508438 Y312.379311 Z-0.125000
G01 X2458.947629 Y302.606746 Z-0.125000
G01 X2464.106393 Y297.720468 Z-0.125000
G01 X2465.826012 Y297.720468 Z-0.125000
G01 X2470.984822 Y302.606746 Z-0.125000
G01 X2474.423968 Y312.379311 Z-0.125000
G01 X2476.143586 Y327.038155 Z-0.125000
G01 X2476.143586 Y331.924433 Z-0.125000
G01 X2474.423968 Y346.583285 Z-0.125000
G01 X2470.984822 Y356.355841 Z-0.125000
G01 X2465.826012 Y361.242119 Z-0.125000
G01 X2464.106393 Y361.242119 Z-0.125000
G01 X2458.947629 Y356.355841 Z-0.125000
G01 X2455.508438 Y346.583285 Z-0.125000
G01 X2453.788819 Y331.924433 Z-0.125000
G00 Z5.000000

(Change tool to Default tool)

G00 Z5.000000
G00 X2421.116524 Y400.332371

G01 Z-0.125000 F100.0(Penetrate)
G01 X2440.032054 Y400.332371 Z-0.125000 F400.000000
G01 X2429.714480 Y361.242119 Z-0.125000
G01 X2434.873290 Y361.242119 Z-0.125000
G01 X2438.312481 Y356.355841 Z-0.125000
G01 X2440.032054 Y351.469563 Z-0.125000
G01 X2441.751672 Y336.810720 Z-0.125000
G01 X2441.751672 Y327.038155 Z-0.125000
G01 X2440.032054 Y312.379311 Z-0.125000
G01 X2436.592908 Y302.606746 Z-0.125000
G01 X2431.434098 Y297.720468 Z-0.125000
G01 X2426.275334 Y297.720468 Z-0.125000
G01 X2421.116524 Y302.606746 Z-0.125000
G01 X2419.396906 Y307.493033 Z-0.125000
G01 X2417.677333 Y317.265599 Z-0.125000
G00 Z5.000000

(Change tool to Default tool)

G00 Z5.000000
G00 X2405.640186 Y366.128406

G01 Z-0.125000 F100.0(Penetrate)
G01 X2403.920567 Y351.469563 Z-0.125000 F400.000000
G01 X2400.481376 Y341.696998 Z-0.125000
G01 X2395.322566 Y336.810720 Z-0.125000
G01 X2393.602993 Y336.810720 Z-0.125000
G01 X2388.444183 Y341.696998 Z-0.125000
G01 X2385.004992 Y351.469563 Z-0.125000
G01 X2383.285419 Y366.128406 Z-0.125000
G01 X2383.285419 Y371.014684 Z-0.125000
G01 X2385.004992 Y385.673527 Z-0.125000
G01 X2388.444183 Y395.446093 Z-0.125000
G01 X2393.602993 Y400.332371 Z-0.125000
G01 X2395.322566 Y400.332371 Z-0.125000
G01 X2400.481376 Y395.446093 Z-0.125000
G01 X2403.920567 Y385.673527 Z-0.125000
G01 X2405.640186 Y366.128406 Z-0.125000
G01 X2405.640186 Y341.696998 Z-0.125000
G01 X2403.920567 Y317.265599 Z-0.125000
G01 X2400.481376 Y302.606746 Z-0.125000
G01 X2395.322566 Y297.720468 Z-0.125000
G01 X2391.883375 Y297.720468 Z-0.125000
G01 X2386.724610 Y302.606746 Z-0.125000
G01 X2385.004992 Y312.379311 Z-0.125000
G00 Z5.000000

(Change tool to Default tool)

G00 Z5.000000
G00 X2352.332697 Y400.332371

G01 Z-0.125000 F100.0(Penetrate)
G01 X2371.248226 Y400.332371 Z-0.125000 F400.000000
G01 X2360.930652 Y361.242119 Z-0.125000
G01 X2366.089462 Y361.242119 Z-0.125000
G01 X2369.528653 Y356.355841 Z-0.125000
G01 X2371.248226 Y351.469563 Z-0.125000
G01 X2372.967845 Y336.810720 Z-0.125000
G01 X2372.967845 Y327.038155 Z-0.125000
G01 X2371.248226 Y312.379311 Z-0.125000
G01 X2367.809035 Y302.606746 Z-0.125000
G01 X2362.650271 Y297.720468 Z-0.125000
G01 X2357.491461 Y297.720468 Z-0.125000
G01 X2352.332697 Y302.606746 Z-0.125000
G01 X2350.613078 Y307.493033 Z-0.125000
G01 X2348.893505 Y317.265599 Z-0.125000
G00 Z5.000000

(Change tool to Default tool)

G00 Z5.000000
G00 X2317.940783 Y400.332371

G01 Z-0.125000 F100.0(Penetrate)
G01 X2336.856313 Y400.332371 Z-0.125000 F400.000000
G01 X2326.538739 Y361.242119 Z-0.125000
G01 X2331.697548 Y361.242119 Z-0.125000
G01 X2335.136740 Y356.355841 Z-0.125000
G01 X2336.856313 Y351.469563 Z-0.125000
G01 X2338.575931 Y336.810720 Z-0.125000
G01 X2338.575931 Y327.038155 Z-0.125000
G01 X2336.856313 Y312.379311 Z-0.125000
G01 X2333.417121 Y302.606746 Z-0.125000
G01 X2328.258357 Y297.720468 Z-0.125000
G01 X2323.099547 Y297.720468 Z-0.125000
G01 X2317.940783 Y302.606746 Z-0.125000
G01 X2316.221164 Y307.493033 Z-0.125000
G01 X2314.501591 Y317.265599 Z-0.125000
G00 Z5.000000

(Change tool to Default tool)

G00 Z5.000000
G00 X2285.268442 Y380.787250

G01 Z-0.125000 F100.0(Penetrate)
G01 X2288.707633 Y385.673527 Z-0.125000 F400.000000
G01 X2293.866398 Y400.332371 Z-0.125000
G01 X2293.866398 Y297.720468 Z-0.125000
G00 Z5.000000

(Change tool to Default tool)

G00 Z5.000000
G00 X2247.437337 Y375.900972

G01 Z-0.125000 F100.0(Penetrate)
G01 X2247.437337 Y380.787250 Z-0.125000 F400.000000
G01 X2249.156910 Y390.559805 Z-0.125000
G01 X2250.876528 Y395.446093 Z-0.125000
G01 X2254.315720 Y400.332371 Z-0.125000
G01 X2261.194102 Y400.332371 Z-0.125000
G01 X2264.633294 Y395.446093 Z-0.125000
G01 X2266.352912 Y390.559805 Z-0.125000
G01 X2268.072485 Y380.787250 Z-0.125000
G01 X2268.072485 Y371.014684 Z-0.125000
G01 X2266.352912 Y361.242119 Z-0.125000
G01 X2262.913675 Y346.583285 Z-0.125000
G01 X2245.717764 Y297.720468 Z-0.125000
G01 X2269.792058 Y297.720468 Z-0.125000
G00 Z5.000000

(Change tool to Default tool)

G00 Z5.000000
G00 X2219.923806 Y400.332371

G01 Z-0.125000 F100.0(Penetrate)
G01 X2214.765042 Y395.446093 Z-0.125000 F400.000000
G01 X2213.045423 Y385.673527 Z-0.125000
G01 X2213.045423 Y375.900972 Z-0.125000
G01 X2214.765042 Y366.128406 Z-0.125000
G01 X2218.204188 Y361.242119 Z-0.125000
G01 X2225.082616 Y356.355841 Z-0.125000
G01 X2230.241380 Y351.469563 Z-0.125000
G01 X2233.680571 Y341.696998 Z-0.125000
G01 X2235.400190 Y331.924433 Z-0.125000
G01 X2235.400190 Y317.265599 Z-0.125000
G01 X2233.680571 Y307.493033 Z-0.125000
G01 X2231.960953 Y302.606746 Z-0.125000
G01 X2226.802189 Y297.720468 Z-0.125000
G01 X2219.923806 Y297.720468 Z-0.125000
G01 X2214.765042 Y302.606746 Z-0.125000
G01 X2213.045423 Y307.493033 Z-0.125000
G01 X2211.325805 Y317.265599 Z-0.125000
G01 X2211.325805 Y331.924433 Z-0.125000
G01 X2213.045423 Y341.696998 Z-0.125000
G01 X2216.484615 Y351.469563 Z-0.125000
G01 X2221.643379 Y356.355841 Z-0.125000
G01 X2228.521762 Y361.242119 Z-0.125000
G01 X2231.960953 Y366.128406 Z-0.125000
G01 X2233.680571 Y375.900972 Z-0.125000
G01 X2233.680571 Y385.673527 Z-0.125000
G01 X2231.960953 Y395.446093 Z-0.125000
G01 X2226.802189 Y400.332371 Z-0.125000
G01 X2219.923806 Y400.332371 Z-0.125000
G00 Z5.000000

(Change tool to Default tool)

G00 Z5.000000
G00 X2194.129848 Y400.332371

G01 Z-0.125000 F100.0(Penetrate)
G01 X2176.933891 Y331.924433 Z-0.125000 F400.000000
G01 X2202.727849 Y331.924433 Z-0.125000
G00 Z5.000000

(Change tool to Default tool)

G00 Z5.000000
G00 X2194.129848 Y400.332371

G01 Z-0.125000 F100.0(Penetrate)
G01 X2194.129848 Y297.720468 Z-0.125000 F400.000000
G00 Z5.000000

(Change tool to Default tool)

G00 Z5.000000
G00 X2164.896744 Y385.673527

G01 Z-0.125000 F100.0(Penetrate)
G01 X2163.177126 Y395.446093 Z-0.125000 F400.000000
G01 X2158.018361 Y400.332371 Z-0.125000
G01 X2154.579170 Y400.332371 Z-0.125000
G01 X2149.420360 Y395.446093 Z-0.125000
G01 X2145.981169 Y380.787250 Z-0.125000
G01 X2144.261596 Y356.355841 Z-0.125000
G01 X2144.261596 Y331.924433 Z-0.125000
G01 X2145.981169 Y312.379311 Z-0.125000
G01 X2149.420360 Y302.606746 Z-0.125000
G01 X2154.579170 Y297.720468 Z-0.125000
G01 X2156.298743 Y297.720468 Z-0.125000
G01 X2161.457553 Y302.606746 Z-0.125000
G01 X2164.896744 Y312.379311 Z-0.125000
G01 X2166.616317 Y327.038155 Z-0.125000
G01 X2166.616317 Y331.924433 Z-0.125000
G01 X2164.896744 Y346.583285 Z-0.125000
G01 X2161.457553 Y356.355841 Z-0.125000
G01 X2156.298743 Y361.242119 Z-0.125000
G01 X2154.579170 Y361.242119 Z-0.125000
G01 X2149.420360 Y356.355841 Z-0.125000
G01 X2145.981169 Y346.583285 Z-0.125000
G01 X2144.261596 Y331.924433 Z-0.125000
G00 Z5.000000

(Change tool to Default tool)

G00 Z5.000000
G00 X2130.504830 Y385.673527

G01 Z-0.125000 F100.0(Penetrate)
G01 X2128.785212 Y395.446093 Z-0.125000 F400.000000
G01 X2123.626448 Y400.332371 Z-0.125000
G01 X2120.187256 Y400.332371 Z-0.125000
G01 X2115.028446 Y395.446093 Z-0.125000
G01 X2111.589255 Y380.787250 Z-0.125000
G01 X2109.869682 Y356.355841 Z-0.125000
G01 X2109.869682 Y331.924433 Z-0.125000
G01 X2111.589255 Y312.379311 Z-0.125000
G01 X2115.028446 Y302.606746 Z-0.125000
G01 X2120.187256 Y297.720468 Z-0.125000
G01 X2121.906829 Y297.720468 Z-0.125000
G01 X2127.065639 Y302.606746 Z-0.125000
G01 X2130.504830 Y312.379311 Z-0.125000
G01 X2132.224403 Y327.038155 Z-0.125000
G01 X2132.224403 Y331.924433 Z-0.125000
G01 X2130.504830 Y346.583285 Z-0.125000
G01 X2127.065639 Y356.355841 Z-0.125000
G01 X2121.906829 Y361.242119 Z-0.125000
G01 X2120.187256 Y361.242119 Z-0.125000
G01 X2115.028446 Y356.355841 Z-0.125000
G01 X2111.589255 Y346.583285 Z-0.125000
G01 X2109.869682 Y331.924433 Z-0.125000
G00 Z5.000000

(Change tool to Default tool)

G00 Z5.000000
G00 X2075.477768 Y375.900972

G01 Z-0.125000 F100.0(Penetrate)
G01 X2075.477768 Y380.787250 Z-0.125000 F400.000000
G01 X2077.197341 Y390.559805 Z-0.125000
G01 X2078.916914 Y395.446093 Z-0.125000
G01 X2082.356106 Y400.332371 Z-0.125000
G01 X2089.234488 Y400.332371 Z-0.125000
G01 X2092.673680 Y395.446093 Z-0.125000
G01 X2094.393298 Y390.559805 Z-0.125000
G01 X2096.112917 Y380.787250 Z-0.125000
G01 X2096.112917 Y371.014684 Z-0.125000
G01 X2094.393298 Y361.242119 Z-0.125000
G01 X2090.954107 Y346.583285 Z-0.125000
G01 X2073.758150 Y297.720468 Z-0.125000
G01 X2097.832490 Y297.720468 Z-0.125000
G00 Z5.000000

(Change tool to Default tool)

G00 Z5.000000
G00 X2042.805428 Y400.332371

G01 Z-0.125000 F100.0(Penetrate)
G01 X2061.720957 Y400.332371 Z-0.125000 F400.000000
G01 X2051.403383 Y361.242119 Z-0.125000
G01 X2056.562193 Y361.242119 Z-0.125000
G01 X2060.001384 Y356.355841 Z-0.125000
G01 X2061.720957 Y351.469563 Z-0.125000
G01 X2063.440576 Y336.810720 Z-0.125000
G01 X2063.440576 Y327.038155 Z-0.125000
G01 X2061.720957 Y312.379311 Z-0.125000
G01 X2058.281766 Y302.606746 Z-0.125000
G01 X2053.123002 Y297.720468 Z-0.125000
G01 X2047.964192 Y297.720468 Z-0.125000
G01 X2042.805428 Y302.606746 Z-0.125000
G01 X2041.085809 Y307.493033 Z-0.125000
G01 X2039.366236 Y317.265599 Z-0.125000
G00 Z5.000000

(Change tool to Default tool)

G00 Z5.000000
G00 X2022.170279 Y400.332371

G01 Z-0.125000 F100.0(Penetrate)
G01 X2004.974322 Y331.924433 Z-0.125000 F400.000000
G01 X2030.768235 Y331.924433 Z-0.125000
G00 Z5.000000

(Change tool to Default tool)

G00 Z5.000000
G00 X2022.170279 Y400.332371

G01 Z-0.125000 F100.0(Penetrate)
G01 X2022.170279 Y297.720468 Z-0.125000 F400.000000
G00 Z5.000000

(Change tool to Default tool)

G00 Z5.000000
G00 X1991.217557 Y400.332371

G01 Z-0.125000 F100.0(Penetrate)
G01 X1974.021600 Y400.332371 Z-0.125000 F400.000000
G01 X1972.301982 Y356.355841 Z-0.125000
G01 X1974.021600 Y361.242119 Z-0.125000
G01 X1979.180364 Y366.128406 Z-0.125000
G01 X1984.339174 Y366.128406 Z-0.125000
G01 X1989.497939 Y361.242119 Z-0.125000
G01 X1992.937130 Y351.469563 Z-0.125000
G01 X1994.656748 Y336.810720 Z-0.125000
G01 X1994.656748 Y327.038155 Z-0.125000
G01 X1992.937130 Y312.379311 Z-0.125000
G01 X1989.497939 Y302.606746 Z-0.125000
G01 X1984.339174 Y297.720468 Z-0.125000
G01 X1979.180364 Y297.720468 Z-0.125000
G01 X1974.021600 Y302.606746 Z-0.125000
G01 X1972.301982 Y307.493033 Z-0.125000
G01 X1970.582409 Y317.265599 Z-0.125000
G00 Z5.000000

(Change tool to Default tool)

G00 Z5.000000
G00 X1953.386452 Y400.332371

G01 Z-0.125000 F100.0(Penetrate)
G01 X1936.190495 Y331.924433 Z-0.125000 F400.000000
G01 X1961.984408 Y331.924433 Z-0.125000
G00 Z5.000000

(Change tool to Default tool)

G00 Z5.000000
G00 X1953.386452 Y400.332371

G01 Z-0.125000 F100.0(Penetrate)
G01 X1953.386452 Y297.720468 Z-0.125000 F400.000000
G00 Z5.000000

(Change tool to Default tool)

G00 Z5.000000
G00 X1912.116110 Y400.332371

G01 Z-0.125000 F100.0(Penetrate)
G01 X1906.957346 Y395.446093 Z-0.125000 F400.000000
G01 X1903.518154 Y380.787250 Z-0.125000
G01 X1901.798536 Y356.355841 Z-0.125000
G01 X1901.798536 Y341.696998 Z-0.125000
G01 X1903.518154 Y317.265599 Z-0.125000
G01 X1906.957346 Y302.606746 Z-0.125000
G01 X1912.116110 Y297.720468 Z-0.125000
G01 X1915.555347 Y297.720468 Z-0.125000
G01 X1920.714111 Y302.606746 Z-0.125000
G01 X1924.153302 Y317.265599 Z-0.125000
G01 X1925.872921 Y341.696998 Z-0.125000
G01 X1925.872921 Y356.355841 Z-0.125000
G01 X1924.153302 Y380.787250 Z-0.125000
G01 X1920.714111 Y395.446093 Z-0.125000
G01 X1915.555347 Y400.332371 Z-0.125000
G01 X1912.116110 Y400.332371 Z-0.125000
G00 Z5.000000

(Change tool to Default tool)

G00 Z5.000000
G00 X1872.565432 Y380.787250

G01 Z-0.125000 F100.0(Penetrate)
G01 X1876.004623 Y385.673527 Z-0.125000 F400.000000
G01 X1881.163388 Y400.332371 Z-0.125000
G01 X1881.163388 Y297.720468 Z-0.125000
G00 Z5.000000

(Change tool to Default tool)

G00 Z5.000000
G00 X1855.369475 Y385.673527

G01 Z-0.125000 F100.0(Penetrate)
G01 X1853.649902 Y395.446093 Z-0.125000 F400.000000
G01 X1848.491092 Y400.332371 Z-0.125000
G01 X1845.051901 Y400.332371 Z-0.125000
G01 X1839.893091 Y395.446093 Z-0.125000
G01 X1836.453900 Y380.787250 Z-0.125000
G01 X1834.734327 Y356.355841 Z-0.125000
G01 X1834.734327 Y331.924433 Z-0.125000
G01 X1836.453900 Y312.379311 Z-0.125000
G01 X1839.893091 Y302.606746 Z-0.125000
G01 X1845.051901 Y297.720468 Z-0.125000
G01 X1846.771474 Y297.720468 Z-0.125000
G01 X1851.930284 Y302.606746 Z-0.125000
G01 X1855.369475 Y312.379311 Z-0.125000
G01 X1857.089048 Y327.038155 Z-0.125000
G01 X1857.089048 Y331.924433 Z-0.125000
G01 X1855.369475 Y346.583285 Z-0.125000
G01 X1851.930284 Y356.355841 Z-0.125000
G01 X1846.771474 Y361.242119 Z-0.125000
G01 X1845.051901 Y361.242119 Z-0.125000
G01 X1839.893091 Y356.355841 Z-0.125000
G01 X1836.453900 Y346.583285 Z-0.125000
G01 X1834.734327 Y331.924433 Z-0.125000
G00 Z5.000000

(Change tool to Default tool)

G00 Z5.000000
G00 X1807.220796 Y400.332371

G01 Z-0.125000 F100.0(Penetrate)
G01 X1802.061986 Y395.446093 Z-0.125000 F400.000000
G01 X1800.342413 Y385.673527 Z-0.125000
G01 X1800.342413 Y375.900972 Z-0.125000
G01 X1802.061986 Y366.128406 Z-0.125000
G01 X1805.501177 Y361.242119 Z-0.125000
G01 X1812.379560 Y356.355841 Z-0.125000
G01 X1817.538370 Y351.469563 Z-0.125000
G01 X1820.977561 Y341.696998 Z-0.125000
G01 X1822.697134 Y331.924433 Z-0.125000
G01 X1822.697134 Y317.265599 Z-0.125000
G01 X1820.977561 Y307.493033 Z-0.125000
G01 X1819.257943 Y302.606746 Z-0.125000
G01 X1814.099179 Y297.720468 Z-0.125000
G01 X1807.220796 Y297.720468 Z-0.125000
G01 X1802.061986 Y302.606746 Z-0.125000
G01 X1800.342413 Y307.493033 Z-0.125000
G01 X1798.622795 Y317.265599 Z-0.125000
G01 X1798.622795 Y331.924433 Z-0.125000
G01 X1800.342413 Y341.696998 Z-0.125000
G01 X1803.781604 Y351.469563 Z-0.125000
G01 X1808.940369 Y356.355841 Z-0.125000
G01 X1815.818751 Y361.242119 Z-0.125000
G01 X1819.257943 Y366.128406 Z-0.125000
G01 X1820.977561 Y375.900972 Z-0.125000
G01 X1820.977561 Y385.673527 Z-0.125000
G01 X1819.257943 Y395.446093 Z-0.125000
G01 X1814.099179 Y400.332371 Z-0.125000
G01 X1807.220796 Y400.332371 Z-0.125000
G00 Z5.000000

(Change tool to Default tool)

G00 Z5.000000
G00 X1781.426838 Y400.332371

G01 Z-0.125000 F100.0(Penetrate)
G01 X1764.230881 Y331.924433 Z-0.125000 F400.000000
G01 X1790.024839 Y331.924433 Z-0.125000
G00 Z5.000000

(Change tool to Default tool)

G00 Z5.000000
G00 X1781.426838 Y400.332371

G01 Z-0.125000 F100.0(Penetrate)
G01 X1781.426838 Y297.720468 Z-0.125000 F400.000000
G00 Z5.000000

(Change tool to Default tool)

G00 Z5.000000
G00 X1733.278159 Y400.332371

G01 Z-0.125000 F100.0(Penetrate)
G01 X1752.193688 Y400.332371 Z-0.125000 F400.000000
G01 X1741.876114 Y361.242119 Z-0.125000
G01 X1747.034924 Y361.242119 Z-0.125000
G01 X1750.474115 Y356.355841 Z-0.125000
G01 X1752.193688 Y351.469563 Z-0.125000
G01 X1753.913307 Y336.810720 Z-0.125000
G01 X1753.913307 Y327.038155 Z-0.125000
G01 X1752.193688 Y312.379311 Z-0.125000
G01 X1748.754542 Y302.606746 Z-0.125000
G01 X1743.595733 Y297.720468 Z-0.125000
G01 X1738.436968 Y297.720468 Z-0.125000
G01 X1733.278159 Y302.606746 Z-0.125000
G01 X1731.558540 Y307.493033 Z-0.125000
G01 X1729.838967 Y317.265599 Z-0.125000
G00 Z5.000000

(Change tool to Default tool)

G00 Z5.000000
G00 X1705.764628 Y400.332371

G01 Z-0.125000 F100.0(Penetrate)
G01 X1700.605818 Y395.446093 Z-0.125000 F400.000000
G01 X1697.166626 Y380.787250 Z-0.125000
G01 X1695.447053 Y356.355841 Z-0.125000
G01 X1695.447053 Y341.696998 Z-0.125000
G01 X1697.166626 Y317.265599 Z-0.125000
G01 X1700.605818 Y302.606746 Z-0.125000
G01 X1705.764628 Y297.720468 Z-0.125000
G01 X1709.203819 Y297.720468 Z-0.125000
G01 X1714.362629 Y302.606746 Z-0.125000
G01 X1717.801775 Y317.265599 Z-0.125000
G01 X1719.521393 Y341.696998 Z-0.125000
G01 X1719.521393 Y356.355841 Z-0.125000
G01 X1717.801775 Y380.787250 Z-0.125000
G01 X1714.362629 Y395.446093 Z-0.125000
G01 X1709.203819 Y400.332371 Z-0.125000
G01 X1705.764628 Y400.332371 Z-0.125000
G00 Z5.000000

(Change tool to Default tool)

G00 Z5.000000
G00 X1683.409906 Y385.673527

G01 Z-0.125000 F100.0(Penetrate)
G01 X1681.690288 Y395.446093 Z-0.125000 F400.000000
G01 X1676.531478 Y400.332371 Z-0.125000
G01 X1673.092332 Y400.332371 Z-0.125000
G01 X1667.933522 Y395.446093 Z-0.125000
G01 X1664.494331 Y380.787250 Z-0.125000
G01 X1662.774713 Y356.355841 Z-0.125000
G01 X1662.774713 Y331.924433 Z-0.125000
G01 X1664.494331 Y312.379311 Z-0.125000
G01 X1667.933522 Y302.606746 Z-0.125000
G01 X1673.092332 Y297.720468 Z-0.125000
G01 X1674.811905 Y297.720468 Z-0.125000
G01 X1679.970670 Y302.606746 Z-0.125000
G01 X1683.409906 Y312.379311 Z-0.125000
G01 X1685.129479 Y327.038155 Z-0.125000
G01 X1685.129479 Y331.924433 Z-0.125000
G01 X1683.409906 Y346.583285 Z-0.125000
G01 X1679.970670 Y356.355841 Z-0.125000
G01 X1674.811905 Y361.242119 Z-0.125000
G01 X1673.092332 Y361.242119 Z-0.125000
G01 X1667.933522 Y356.355841 Z-0.125000
G01 X1664.494331 Y346.583285 Z-0.125000
G01 X1662.774713 Y331.924433 Z-0.125000
G00 Z5.000000

(Change tool to Default tool)

G00 Z5.000000
G00 X1643.859092 Y400.332371

G01 Z-0.125000 F100.0(Penetrate)
G01 X1626.663180 Y331.924433 Z-0.125000 F400.000000
G01 X1652.457139 Y331.924433 Z-0.125000
G00 Z5.000000

(Change tool to Default tool)

G00 Z5.000000
G00 X1643.859092 Y400.332371

G01 Z-0.125000 F100.0(Penetrate)
G01 X1643.859092 Y297.720468 Z-0.125000 F400.000000
G00 Z5.000000

(Change tool to Default tool)

G00 Z5.000000
G00 X1595.710458 Y400.332371

G01 Z-0.125000 F100.0(Penetrate)
G01 X1614.626125 Y400.332371 Z-0.125000 F400.000000
G01 X1604.308459 Y361.242119 Z-0.125000
G01 X1609.467315 Y361.242119 Z-0.125000
G01 X1612.906506 Y356.355841 Z-0.125000
G01 X1614.626125 Y351.469563 Z-0.125000
G01 X1616.345743 Y336.810720 Z-0.125000
G01 X1616.345743 Y327.038155 Z-0.125000
G01 X1614.626125 Y312.379311 Z-0.125000
G01 X1611.186888 Y302.606746 Z-0.125000
G01 X1606.028078 Y297.720468 Z-0.125000
G01 X1600.869268 Y297.720468 Z-0.125000
G01 X1595.710458 Y302.606746 Z-0.125000
G01 X1593.990840 Y307.493033 Z-0.125000
G01 X1592.271221 Y317.265599 Z-0.125000
G00 Z5.000000

(Change tool to Default tool)

G00 Z5.000000
G00 X1559.599017 Y375.900972

G01 Z-0.125000 F100.0(Penetrate)
G01 X1559.599017 Y380.787250 Z-0.125000 F400.000000
G01 X1561.318635 Y390.559805 Z-0.125000
G01 X1563.038254 Y395.446093 Z-0.125000
G01 X1566.477263 Y400.332371 Z-0.125000
G01 X1573.355691 Y400.332371 Z-0.125000
G01 X1576.794928 Y395.446093 Z-0.125000
G01 X1578.514547 Y390.559805 Z-0.125000
G01 X1580.234120 Y380.787250 Z-0.125000
G01 X1580.234120 Y371.014684 Z-0.125000
G01 X1578.514547 Y361.242119 Z-0.125000
G01 X1575.075310 Y346.583285 Z-0.125000
G01 X1557.879399 Y297.720468 Z-0.125000
G01 X1581.953738 Y297.720468 Z-0.125000
G00 Z5.000000

(Change tool to Default tool)

G00 Z5.000000
G00 X1545.842160 Y366.128406

G01 Z-0.125000 F100.0(Penetrate)
G01 X1544.122542 Y351.469563 Z-0.125000 F400.000000
G01 X1540.683351 Y341.696998 Z-0.125000
G01 X1535.524677 Y336.810720 Z-0.125000
G01 X1533.805105 Y336.810720 Z-0.125000
G01 X1528.646249 Y341.696998 Z-0.125000
G01 X1525.207058 Y351.469563 Z-0.125000
G01 X1523.487439 Y366.128406 Z-0.125000
G01 X1523.487439 Y371.014684 Z-0.125000
G01 X1525.207058 Y385.673527 Z-0.125000
G01 X1528.646249 Y395.446093 Z-0.125000
G01 X1533.805105 Y400.332371 Z-0.125000
G01 X1535.524677 Y400.332371 Z-0.125000
G01 X1540.683351 Y395.446093 Z-0.125000
G01 X1544.122542 Y385.673527 Z-0.125000
G01 X1545.842160 Y366.128406 Z-0.125000
G01 X1545.842160 Y341.696998 Z-0.125000
G01 X1544.122542 Y317.265599 Z-0.125000
G01 X1540.683351 Y302.606746 Z-0.125000
G01 X1535.524677 Y297.720468 Z-0.125000
G01 X1532.085486 Y297.720468 Z-0.125000
G01 X1526.926676 Y302.606746 Z-0.125000
G01 X1525.207058 Y312.379311 Z-0.125000
G00 Z5.000000

(Change tool to Default tool)

G00 Z5.000000
G00 X1511.450383 Y385.673527

G01 Z-0.125000 F100.0(Penetrate)
G01 X1509.730765 Y395.446093 Z-0.125000 F400.000000
G01 X1504.571955 Y400.332371 Z-0.125000
G01 X1501.132718 Y400.332371 Z-0.125000
G01 X1495.973908 Y395.446093 Z-0.125000
G01 X1492.534671 Y380.787250 Z-0.125000
G01 X1490.815099 Y356.355841 Z-0.125000
G01 X1490.815099 Y331.924433 Z-0.125000
G01 X1492.534671 Y312.379311 Z-0.125000
G01 X1495.973908 Y302.606746 Z-0.125000
G01 X1501.132718 Y297.720468 Z-0.125000
G01 X1502.852337 Y297.720468 Z-0.125000
G01 X1508.011146 Y302.606746 Z-0.125000
G01 X1511.450383 Y312.379311 Z-0.125000
G01 X1513.169820 Y327.038155 Z-0.125000
G01 X1513.169820 Y331.924433 Z-0.125000
G01 X1511.450383 Y346.583285 Z-0.125000
G01 X1508.011146 Y356.355841 Z-0.125000
G01 X1502.852337 Y361.242119 Z-0.125000
G01 X1501.132718 Y361.242119 Z-0.125000
G01 X1495.973908 Y356.355841 Z-0.125000
G01 X1492.534671 Y346.583285 Z-0.125000
G01 X1490.815099 Y331.924433 Z-0.125000
G00 Z5.000000

(Change tool to Default tool)

G00 Z5.000000
G00 X1477.058379 Y385.673527

G01 Z-0.125000 F100.0(Penetrate)
G01 X1475.338806 Y395.446093 Z-0.125000 F400.000000
G01 X1470.179950 Y400.332371 Z-0.125000
G01 X1466.740759 Y400.332371 Z-0.125000
G01 X1461.581949 Y395.446093 Z-0.125000
G01 X1458.142894 Y380.787250 Z-0.125000
G01 X1456.423276 Y356.355841 Z-0.125000
G01 X1456.423276 Y331.924433 Z-0.125000
G01 X1458.142894 Y312.379311 Z-0.125000
G01 X1461.581949 Y302.606746 Z-0.125000
G01 X1466.740759 Y297.720468 Z-0.125000
G01 X1468.460377 Y297.720468 Z-0.125000
G01 X1473.619187 Y302.606746 Z-0.125000
G01 X1477.058379 Y312.379311 Z-0.125000
G01 X1478.777997 Y327.038155 Z-0.125000
G01 X1478.777997 Y331.924433 Z-0.125000
G01 X1477.058379 Y346.583285 Z-0.125000
G01 X1473.619187 Y356.355841 Z-0.125000
G01 X1468.460377 Y361.242119 Z-0.125000
G01 X1466.740759 Y361.242119 Z-0.125000
G01 X1461.581949 Y356.355841 Z-0.125000
G01 X1458.142894 Y346.583285 Z-0.125000
G01 X1456.423276 Y331.924433 Z-0.125000
G00 Z5.000000

(Change tool to Default tool)

G00 Z5.000000
G00 X1440.946801 Y400.332371

G01 Z-0.125000 F100.0(Penetrate)
G01 X1423.750935 Y400.332371 Z-0.125000 F400.000000
G01 X1422.031317 Y356.355841 Z-0.125000
G01 X1423.750935 Y361.242119 Z-0.125000
G01 X1428.909745 Y366.128406 Z-0.125000
G01 X1434.068373 Y366.128406 Z-0.125000
G01 X1439.227228 Y361.242119 Z-0.125000
G01 X1442.666419 Y351.469563 Z-0.125000
G01 X1444.386038 Y336.810720 Z-0.125000
G01 X1444.386038 Y327.038155 Z-0.125000
G01 X1442.666419 Y312.379311 Z-0.125000
G01 X1439.227228 Y302.606746 Z-0.125000
G01 X1434.068373 Y297.720468 Z-0.125000
G01 X1428.909745 Y297.720468 Z-0.125000
G01 X1423.750935 Y302.606746 Z-0.125000
G01 X1422.031317 Y307.493033 Z-0.125000
G01 X1420.311698 Y317.265599 Z-0.125000
G00 Z5.000000

(Change tool to Default tool)

G00 Z5.000000
G00 X1394.517786 Y400.332371

G01 Z-0.125000 F100.0(Penetrate)
G01 X1389.358930 Y395.446093 Z-0.125000 F400.000000
G01 X1387.639357 Y385.673527 Z-0.125000
G01 X1387.639357 Y375.900972 Z-0.125000
G01 X1389.358930 Y366.128406 Z-0.125000
G01 X1392.798167 Y361.242119 Z-0.125000
G01 X1399.676595 Y356.355841 Z-0.125000
G01 X1404.835405 Y351.469563 Z-0.125000
G01 X1408.274460 Y341.696998 Z-0.125000
G01 X1409.994079 Y331.924433 Z-0.125000
G01 X1409.994079 Y317.265599 Z-0.125000
G01 X1408.274460 Y307.493033 Z-0.125000
G01 X1406.555024 Y302.606746 Z-0.125000
G01 X1401.396214 Y297.720468 Z-0.125000
G01 X1394.517786 Y297.720468 Z-0.125000
G01 X1389.358930 Y302.606746 Z-0.125000
G01 X1387.639357 Y307.493033 Z-0.125000
G01 X1385.919739 Y317.265599 Z-0.125000
G01 X1385.919739 Y331.924433 Z-0.125000
G01 X1387.639357 Y341.696998 Z-0.125000
G01 X1391.078549 Y351.469563 Z-0.125000
G01 X1396.237359 Y356.355841 Z-0.125000
G01 X1403.115787 Y361.242119 Z-0.125000
G01 X1406.555024 Y366.128406 Z-0.125000
G01 X1408.274460 Y375.900972 Z-0.125000
G01 X1408.274460 Y385.673527 Z-0.125000
G01 X1406.555024 Y395.446093 Z-0.125000
G01 X1401.396214 Y400.332371 Z-0.125000
G01 X1394.517786 Y400.332371 Z-0.125000
G00 Z5.000000

(Change tool to Default tool)

G00 Z5.000000
G00 X1368.723828 Y400.332371

G01 Z-0.125000 F100.0(Penetrate)
G01 X1351.527916 Y331.924433 Z-0.125000 F400.000000
G01 X1377.321874 Y331.924433 Z-0.125000
G00 Z5.000000

(Change tool to Default tool)

G00 Z5.000000
G00 X1368.723828 Y400.332371

G01 Z-0.125000 F100.0(Penetrate)
G01 X1368.723828 Y297.720468 Z-0.125000 F400.000000
G00 Z5.000000

(Change tool to Default tool)

G00 Z5.000000
G00 X1339.490678 Y385.673527

G01 Z-0.125000 F100.0(Penetrate)
G01 X1337.771060 Y395.446093 Z-0.125000 F400.000000
G01 X1332.612250 Y400.332371 Z-0.125000
G01 X1329.173059 Y400.332371 Z-0.125000
G01 X1324.014385 Y395.446093 Z-0.125000
G01 X1320.575194 Y380.787250 Z-0.125000
G01 X1318.855575 Y356.355841 Z-0.125000
G01 X1318.855575 Y331.924433 Z-0.125000
G01 X1320.575194 Y312.379311 Z-0.125000
G01 X1324.014385 Y302.606746 Z-0.125000
G01 X1329.173059 Y297.720468 Z-0.125000
G01 X1330.892631 Y297.720468 Z-0.125000
G01 X1336.051487 Y302.606746 Z-0.125000
G01 X1339.490678 Y312.379311 Z-0.125000
G01 X1341.210297 Y327.038155 Z-0.125000
G01 X1341.210297 Y331.924433 Z-0.125000
G01 X1339.490678 Y346.583285 Z-0.125000
G01 X1336.051487 Y356.355841 Z-0.125000
G01 X1330.892631 Y361.242119 Z-0.125000
G01 X1329.173059 Y361.242119 Z-0.125000
G01 X1324.014385 Y356.355841 Z-0.125000
G01 X1320.575194 Y346.583285 Z-0.125000
G01 X1318.855575 Y331.924433 Z-0.125000
G00 Z5.000000

(Change tool to Default tool)

G00 Z5.000000
G00 X1303.379100 Y400.332371

G01 Z-0.125000 F100.0(Penetrate)
G01 X1286.183189 Y400.332371 Z-0.125000 F400.000000
G01 X1284.463616 Y356.355841 Z-0.125000
G01 X1286.183189 Y361.242119 Z-0.125000
G01 X1291.342044 Y366.128406 Z-0.125000
G01 X1296.500854 Y366.128406 Z-0.125000
G01 X1301.659664 Y361.242119 Z-0.125000
G01 X1305.098719 Y351.469563 Z-0.125000
G01 X1306.818337 Y336.810720 Z-0.125000
G01 X1306.818337 Y327.038155 Z-0.125000
G01 X1305.098719 Y312.379311 Z-0.125000
G01 X1301.659664 Y302.606746 Z-0.125000
G01 X1296.500854 Y297.720468 Z-0.125000
G01 X1291.342044 Y297.720468 Z-0.125000
G01 X1286.183189 Y302.606746 Z-0.125000
G01 X1284.463616 Y307.493033 Z-0.125000
G01 X1282.743998 Y317.265599 Z-0.125000
G00 Z5.000000

(Change tool to Default tool)

G00 Z5.000000
G00 X1265.548086 Y400.332371

G01 Z-0.125000 F100.0(Penetrate)
G01 X1248.352175 Y331.924433 Z-0.125000 F400.000000
G01 X1274.146133 Y331.924433 Z-0.125000
G00 Z5.000000

(Change tool to Default tool)

G00 Z5.000000
G00 X1265.548086 Y400.332371

G01 Z-0.125000 F100.0(Penetrate)
G01 X1265.548086 Y297.720468 Z-0.125000 F400.000000
G00 Z5.000000

(Change tool to Default tool)

G00 Z5.000000
G00 X1219.119026 Y380.787250

G01 Z-0.125000 F100.0(Penetrate)
