%
(Header)
(Generated by gcodetools from Inkscape.)
(Using default header. To add your own header create file "header" in the output dir.)
M3
(Header end.)
G21 (All units in mm)

(Start cutting path id: path9909)
(Change tool to Default tool)

G00 Z5.000000
G00 X2551.313394 Y532.515098

G01 Z-0.125000 F100.0(Penetrate)
G01 X2551.313394 Y610.400328 Z-0.125000 F400.000000
G00 Z5.000000

(Change tool to Default tool)

G00 Z5.000000
G00 X2557.702417 Y610.400328

G01 Z-0.125000 F100.0(Penetrate)
G01 X2557.702417 Y532.515098 Z-0.125000 F400.000000
G00 Z5.000000

(Change tool to Default tool)

G00 Z5.000000
G00 X2564.091439 Y532.515098

G01 Z-0.125000 F100.0(Penetrate)
G01 X2564.091439 Y610.400328 Z-0.125000 F400.000000
G00 Z5.000000

(Change tool to Default tool)

G00 Z5.000000
G00 X2570.480461 Y610.400328

G01 Z-0.125000 F100.0(Penetrate)
G01 X2570.480461 Y532.515098 Z-0.125000 F400.000000
G00 Z5.000000

(Change tool to Default tool)

G00 Z5.000000
G00 X2576.869483 Y532.515098

G01 Z-0.125000 F100.0(Penetrate)
G01 X2576.869483 Y610.400328 Z-0.125000 F400.000000
G00 Z5.000000

(Change tool to Default tool)

G00 Z5.000000
G00 X2583.258506 Y610.400328

G01 Z-0.125000 F100.0(Penetrate)
G01 X2583.258506 Y532.515098 Z-0.125000 F400.000000
G00 Z5.000000

(Change tool to Default tool)

G00 Z5.000000
G00 X2586.876609 Y532.515098

G01 Z-0.125000 F100.0(Penetrate)
G01 X2550.695576 Y532.515098 Z-0.125000 F400.000000
G01 X2550.695576 Y610.400328 Z-0.125000
G01 X2586.876609 Y610.400328 Z-0.125000
G01 X2586.876609 Y532.515098 Z-0.125000
G00 Z5.000000

(Change tool to Default tool)

G00 Z5.000000
G00 X821.219843 Y531.691933

G01 Z-0.125000 F100.0(Penetrate)
G01 X821.219843 Y609.576101 Z-0.125000 F400.000000
G00 Z5.000000

(Change tool to Default tool)

G00 Z5.000000
G00 X827.608866 Y609.576101

G01 Z-0.125000 F100.0(Penetrate)
G01 X827.608866 Y531.691933 Z-0.125000 F400.000000
G00 Z5.000000

(Change tool to Default tool)

G00 Z5.000000
G00 X833.997888 Y531.691933

G01 Z-0.125000 F100.0(Penetrate)
G01 X833.997888 Y609.576101 Z-0.125000 F400.000000
G00 Z5.000000

(Change tool to Default tool)

G00 Z5.000000
G00 X840.386910 Y609.576101

G01 Z-0.125000 F100.0(Penetrate)
G01 X840.386910 Y531.691933 Z-0.125000 F400.000000
G00 Z5.000000

(Change tool to Default tool)

G00 Z5.000000
G00 X846.775932 Y531.691933

G01 Z-0.125000 F100.0(Penetrate)
G01 X846.775932 Y609.576101 Z-0.125000 F400.000000
G00 Z5.000000

(Change tool to Default tool)

G00 Z5.000000
G00 X853.164954 Y609.576101

G01 Z-0.125000 F100.0(Penetrate)
G01 X853.164954 Y531.691933 Z-0.125000 F400.000000
G00 Z5.000000

(Change tool to Default tool)

G00 Z5.000000
G00 X820.601599 Y531.691933

G01 Z-0.125000 F100.0(Penetrate)
G01 X856.782632 Y531.691933 Z-0.125000 F400.000000
G01 X856.782632 Y609.576101 Z-0.125000
G01 X820.601599 Y609.576101 Z-0.125000
G01 X820.601599 Y531.691933 Z-0.125000
G00 Z5.000000

(Change tool to Default tool)

G00 Z5.000000
G00 X1242.114891 Y569.949845

G01 Z-0.125000 F100.0(Penetrate)
G01 X1242.114891 Y609.139611 Z-0.125000 F400.000000
G00 Z5.000000

(Change tool to Default tool)

G00 Z5.000000
G00 X1248.503913 Y618.617332

G01 Z-0.125000 F100.0(Penetrate)
G01 X1248.503913 Y557.223977 Z-0.125000 F400.000000
G00 Z5.000000

(Change tool to Default tool)

G00 Z5.000000
G00 X1254.892936 Y547.823782

G01 Z-0.125000 F100.0(Penetrate)
G01 X1254.892936 Y624.669901 Z-0.125000 F400.000000
G00 Z5.000000

(Change tool to Default tool)

G00 Z5.000000
G00 X1261.281958 Y626.798309

G01 Z-0.125000 F100.0(Penetrate)
G01 X1261.281958 Y540.352831 Z-0.125000 F400.000000
G00 Z5.000000

(Change tool to Default tool)

G00 Z5.000000
G00 X1267.670980 Y534.147854

G01 Z-0.125000 F100.0(Penetrate)
G01 X1267.670980 Y626.798309 Z-0.125000 F400.000000
G00 Z5.000000

(Change tool to Default tool)

G00 Z5.000000
G00 X1274.060002 Y626.798309

G01 Z-0.125000 F100.0(Penetrate)
G01 X1274.060002 Y529.103467 Z-0.125000 F400.000000
G00 Z5.000000

(Change tool to Default tool)

G00 Z5.000000
G00 X1280.449025 Y524.956531

G01 Z-0.125000 F100.0(Penetrate)
G01 X1280.449025 Y626.798309 Z-0.125000 F400.000000
G00 Z5.000000

(Change tool to Default tool)

G00 Z5.000000
G00 X1286.838047 Y626.798309

G01 Z-0.125000 F100.0(Penetrate)
G01 X1286.838047 Y521.735374 Z-0.125000 F400.000000
G00 Z5.000000

(Change tool to Default tool)

G00 Z5.000000
G00 X1293.227069 Y519.108245

G01 Z-0.125000 F100.0(Penetrate)
G01 X1293.227069 Y626.798309 Z-0.125000 F400.000000
G00 Z5.000000

(Change tool to Default tool)

G00 Z5.000000
G00 X1299.616091 Y626.798309

G01 Z-0.125000 F100.0(Penetrate)
G01 X1299.616091 Y516.961239 Z-0.125000 F400.000000
G00 Z5.000000

(Change tool to Default tool)

G00 Z5.000000
G00 X1306.005113 Y515.231339

G01 Z-0.125000 F100.0(Penetrate)
G01 X1306.005113 Y626.798309 Z-0.125000 F400.000000
G00 Z5.000000

(Change tool to Default tool)

G00 Z5.000000
G00 X1312.394136 Y626.798309

G01 Z-0.125000 F100.0(Penetrate)
G01 X1312.394136 Y514.098303 Z-0.125000 F400.000000
G00 Z5.000000

(Change tool to Default tool)

G00 Z5.000000
G00 X1318.783158 Y513.256253

G01 Z-0.125000 F100.0(Penetrate)
G01 X1318.783158 Y626.798309 Z-0.125000 F400.000000
G00 Z5.000000

(Change tool to Default tool)

G00 Z5.000000
G00 X1325.172180 Y626.798309

G01 Z-0.125000 F100.0(Penetrate)
G01 X1325.172180 Y512.680441 Z-0.125000 F400.000000
G00 Z5.000000

(Change tool to Default tool)

G00 Z5.000000
G00 X1331.561202 Y512.585166

G01 Z-0.125000 F100.0(Penetrate)
G01 X1331.561202 Y626.798309 Z-0.125000 F400.000000
G00 Z5.000000

(Change tool to Default tool)

G00 Z5.000000
G00 X1337.950225 Y626.798309

G01 Z-0.125000 F100.0(Penetrate)
G01 X1337.950225 Y512.564836 Z-0.125000 F400.000000
G00 Z5.000000

(Change tool to Default tool)

G00 Z5.000000
G00 X1344.339247 Y512.918128

G01 Z-0.125000 F100.0(Penetrate)
G01 X1344.339247 Y626.798309 Z-0.125000 F400.000000
G00 Z5.000000

(Change tool to Default tool)

G00 Z5.000000
G00 X1350.728269 Y626.798309

G01 Z-0.125000 F100.0(Penetrate)
G01 X1350.728269 Y513.376127 Z-0.125000 F400.000000
G00 Z5.000000

(Change tool to Default tool)

G00 Z5.000000
G00 X1357.117291 Y514.104824

G01 Z-0.125000 F100.0(Penetrate)
G01 X1357.117291 Y626.798309 Z-0.125000 F400.000000
G00 Z5.000000

(Change tool to Default tool)

G00 Z5.000000
G00 X1363.506313 Y626.798309

G01 Z-0.125000 F100.0(Penetrate)
G01 X1363.506313 Y514.955860 Z-0.125000 F400.000000
G00 Z5.000000

(Change tool to Default tool)

G00 Z5.000000
G00 X1369.895336 Y515.996830

G01 Z-0.125000 F100.0(Penetrate)
G01 X1369.895336 Y626.798309 Z-0.125000 F400.000000
G00 Z5.000000

(Change tool to Default tool)

G00 Z5.000000
G00 X1376.284358 Y626.798309

G01 Z-0.125000 F100.0(Penetrate)
G01 X1376.284358 Y517.171555 Z-0.125000 F400.000000
G00 Z5.000000

(Change tool to Default tool)

G00 Z5.000000
G00 X1382.673380 Y518.468407

G01 Z-0.125000 F100.0(Penetrate)
G01 X1382.673380 Y626.798309 Z-0.125000 F400.000000
G00 Z5.000000

(Change tool to Default tool)

G00 Z5.000000
G00 X1389.062402 Y626.798309

G01 Z-0.125000 F100.0(Penetrate)
G01 X1389.062402 Y519.905419 Z-0.125000 F400.000000
G00 Z5.000000

(Change tool to Default tool)

G00 Z5.000000
G00 X1395.451425 Y521.405757

G01 Z-0.125000 F100.0(Penetrate)
G01 X1395.451425 Y626.798309 Z-0.125000 F400.000000
G00 Z5.000000

(Change tool to Default tool)

G00 Z5.000000
G00 X1401.840447 Y626.798309

G01 Z-0.125000 F100.0(Penetrate)
G01 X1401.840447 Y523.088148 Z-0.125000 F400.000000
G00 Z5.000000

(Change tool to Default tool)

G00 Z5.000000
G00 X1408.229469 Y524.789242

G01 Z-0.125000 F100.0(Penetrate)
G01 X1408.229469 Y626.798309 Z-0.125000 F400.000000
G00 Z5.000000

(Change tool to Default tool)

G00 Z5.000000
G00 X1414.618491 Y626.798309

G01 Z-0.125000 F100.0(Penetrate)
G01 X1414.618491 Y526.490337 Z-0.125000 F400.000000
G00 Z5.000000

(Change tool to Default tool)

G00 Z5.000000
G00 X1421.007514 Y528.289532

G01 Z-0.125000 F100.0(Penetrate)
G01 X1421.007514 Y626.798309 Z-0.125000 F400.000000
G00 Z5.000000

(Change tool to Default tool)

G00 Z5.000000
G00 X1427.396536 Y626.798309

G01 Z-0.125000 F100.0(Penetrate)
G01 X1427.396536 Y530.163703 Z-0.125000 F400.000000
G00 Z5.000000

(Change tool to Default tool)

G00 Z5.000000
G00 X1433.785558 Y532.037875

G01 Z-0.125000 F100.0(Penetrate)
G01 X1433.785558 Y626.798309 Z-0.125000 F400.000000
G00 Z5.000000

(Change tool to Default tool)

G00 Z5.000000
G00 X1440.174580 Y626.798309

G01 Z-0.125000 F100.0(Penetrate)
G01 X1440.174580 Y534.004496 Z-0.125000 F400.000000
G00 Z5.000000

(Change tool to Default tool)

G00 Z5.000000
G00 X1446.563602 Y536.073498

G01 Z-0.125000 F100.0(Penetrate)
G01 X1446.563602 Y626.798309 Z-0.125000 F400.000000
G00 Z5.000000

(Change tool to Default tool)

G00 Z5.000000
G00 X1452.952625 Y626.798309

G01 Z-0.125000 F100.0(Penetrate)
G01 X1452.952625 Y538.142510 Z-0.125000 F400.000000
G00 Z5.000000

(Change tool to Default tool)

G00 Z5.000000
G00 X1459.341647 Y540.316155

G01 Z-0.125000 F100.0(Penetrate)
G01 X1459.341647 Y626.798309 Z-0.125000 F400.000000
G00 Z5.000000

(Change tool to Default tool)

G00 Z5.000000
G00 X1465.730669 Y626.798309

G01 Z-0.125000 F100.0(Penetrate)
G01 X1465.730669 Y542.578361 Z-0.125000 F400.000000
G00 Z5.000000

(Change tool to Default tool)

G00 Z5.000000
G00 X1472.119691 Y544.840568

G01 Z-0.125000 F100.0(Penetrate)
G01 X1472.119691 Y626.798309 Z-0.125000 F400.000000
G00 Z5.000000

(Change tool to Default tool)

G00 Z5.000000
G00 X1478.508714 Y626.798309

G01 Z-0.125000 F100.0(Penetrate)
G01 X1478.508714 Y547.237253 Z-0.125000 F400.000000
G00 Z5.000000

(Change tool to Default tool)

G00 Z5.000000
G00 X1484.897736 Y549.683115

G01 Z-0.125000 F100.0(Penetrate)
G01 X1484.897736 Y626.798309 Z-0.125000 F400.000000
G00 Z5.000000

(Change tool to Default tool)

G00 Z5.000000
G00 X1491.286758 Y626.798309

G01 Z-0.125000 F100.0(Penetrate)
G01 X1491.286758 Y552.130709 Z-0.125000 F400.000000
G00 Z5.000000

(Change tool to Default tool)

G00 Z5.000000
G00 X1497.675780 Y554.742331

G01 Z-0.125000 F100.0(Penetrate)
G01 X1497.675780 Y626.798309 Z-0.125000 F400.000000
G00 Z5.000000

(Change tool to Default tool)

G00 Z5.000000
G00 X1504.064802 Y626.798309

G01 Z-0.125000 F100.0(Penetrate)
G01 X1504.064802 Y557.353952 Z-0.125000 F400.000000
G00 Z5.000000

(Change tool to Default tool)

G00 Z5.000000
G00 X1510.453825 Y560.013201

G01 Z-0.125000 F100.0(Penetrate)
G01 X1510.453825 Y626.798309 Z-0.125000 F400.000000
G00 Z5.000000

(Change tool to Default tool)

G00 Z5.000000
G00 X1516.842847 Y626.798309

G01 Z-0.125000 F100.0(Penetrate)
G01 X1516.842847 Y562.764888 Z-0.125000 F400.000000
G00 Z5.000000

(Change tool to Default tool)

G00 Z5.000000
G00 X1523.231869 Y565.516575

G01 Z-0.125000 F100.0(Penetrate)
G01 X1523.231869 Y626.798309 Z-0.125000 F400.000000
G00 Z5.000000

(Change tool to Default tool)

G00 Z5.000000
G00 X1529.620891 Y626.798309

G01 Z-0.125000 F100.0(Penetrate)
G01 X1529.620891 Y568.367689 Z-0.125000 F400.000000
G00 Z5.000000

(Change tool to Default tool)

G00 Z5.000000
G00 X1536.009914 Y571.264498

G01 Z-0.125000 F100.0(Penetrate)
G01 X1536.009914 Y626.798309 Z-0.125000 F400.000000
G00 Z5.000000

(Change tool to Default tool)

G00 Z5.000000
G00 X1542.398936 Y626.798309

G01 Z-0.125000 F100.0(Penetrate)
G01 X1542.398936 Y574.161306 Z-0.125000 F400.000000
G00 Z5.000000

(Change tool to Default tool)

G00 Z5.000000
G00 X1548.787958 Y577.058115

G01 Z-0.125000 F100.0(Penetrate)
G01 X1548.787958 Y626.798309 Z-0.125000 F400.000000
G00 Z5.000000

(Change tool to Default tool)

G00 Z5.000000
G00 X1555.176980 Y626.798309

G01 Z-0.125000 F100.0(Penetrate)
G01 X1555.176980 Y579.954923 Z-0.125000 F400.000000
G00 Z5.000000

(Change tool to Default tool)

G00 Z5.000000
G00 X1561.566002 Y582.883681

G01 Z-0.125000 F100.0(Penetrate)
G01 X1561.566002 Y626.798309 Z-0.125000 F400.000000
G00 Z5.000000

(Change tool to Default tool)

G00 Z5.000000
G00 X1567.955025 Y626.798309

G01 Z-0.125000 F100.0(Penetrate)
G01 X1567.955025 Y585.895626 Z-0.125000 F400.000000
G00 Z5.000000

(Change tool to Default tool)

G00 Z5.000000
G00 X1574.344047 Y588.907582

G01 Z-0.125000 F100.0(Penetrate)
G01 X1574.344047 Y626.798309 Z-0.125000 F400.000000
G00 Z5.000000

(Change tool to Default tool)

G00 Z5.000000
G00 X1580.733069 Y626.798309

G01 Z-0.125000 F100.0(Penetrate)
G01 X1580.733069 Y592.172722 Z-0.125000 F400.000000
G00 Z5.000000

(Change tool to Default tool)

G00 Z5.000000
G00 X1587.122091 Y595.533668

G01 Z-0.125000 F100.0(Penetrate)
G01 X1587.122091 Y626.798309 Z-0.125000 F400.000000
G00 Z5.000000

(Change tool to Default tool)

G00 Z5.000000
G00 X1593.511114 Y626.798309

G01 Z-0.125000 F100.0(Penetrate)
G01 X1593.511114 Y599.378444 Z-0.125000 F400.000000
G00 Z5.000000

(Change tool to Default tool)

G00 Z5.000000
G00 X1599.900136 Y603.359951

G01 Z-0.125000 F100.0(Penetrate)
G01 X1599.900136 Y626.463732 Z-0.125000 F400.000000
G00 Z5.000000

(Change tool to Default tool)

G00 Z5.000000
G00 X1606.289158 Y624.657877

G01 Z-0.125000 F100.0(Penetrate)
G01 X1606.289158 Y608.379081 Z-0.125000 F400.000000
G00 Z5.000000

(Change tool to Default tool)

G00 Z5.000000
G00 X1257.498592 Y626.798309

G01 Z-0.125000 F100.0(Penetrate)
G03 X1241.537793 Y607.189055 Z-0.125000 I29.279530 J-40.132055 F400.000000
G03 X1237.978532 Y587.281735 Z-0.125000 I37.372824 J-16.953790
G03 X1243.648921 Y566.155834 Z-0.125000 I57.700880 J4.163513
G03 X1258.750840 Y543.008595 Z-0.125000 I99.171868 J48.202474
G03 X1288.676178 Y521.051217 Z-0.125000 I61.018564 J51.790108
G03 X1324.916619 Y512.684254 Z-0.125000 I42.187603 J100.061336
G03 X1374.513142 Y516.620999 Z-0.125000 I10.157681 J186.415611
G03 X1417.386003 Y527.227192 Z-0.125000 I-157.285535 J727.741611
G03 X1492.457329 Y552.819937 Z-0.125000 I-186.718023 J670.600817
G03 X1559.793049 Y582.047865 Z-0.125000 I-576.009145 J1419.196578
G02 X1569.473710 Y586.407610 Z-0.125000 I202.410120 J-436.516967
G03 X1599.348417 Y602.954136 Z-0.125000 I-73.110695 J167.243778
G03 X1609.497020 Y611.279174 Z-0.125000 I-42.369202 J61.998324
G03 X1612.530484 Y616.908378 Z-0.125000 I-7.517643 J7.683044
G03 X1610.939229 Y621.194682 Z-0.125000 I-4.309118 J0.838797
G03 X1598.629785 Y626.798309 Z-0.125000 I-17.583837 J-22.304435
G01 X1257.498592 Y626.798309 Z-0.125000
G00 Z5.000000

(Change tool to Default tool)

G00 Z5.000000
G00 X175.697955 Y791.714504

G01 Z-0.125000 F100.0(Penetrate)
G01 X175.697955 Y719.488402 Z-0.125000 F400.000000
G00 Z5.000000

(Change tool to Default tool)

G00 Z5.000000
G00 X196.300102 Y791.714504

G01 Z-0.125000 F100.0(Penetrate)
G01 X196.300102 Y719.488402 Z-0.125000 F400.000000
G00 Z5.000000

(Change tool to Default tool)

G00 Z5.000000
G00 X216.161762 Y791.714504

G01 Z-0.125000 F100.0(Penetrate)
G01 X216.161762 Y719.488402 Z-0.125000 F400.000000
G00 Z5.000000

(Change tool to Default tool)

G00 Z5.000000
G00 X1585.991554 Y37.207184

G01 Z-0.125000 F100.0(Penetrate)
G01 X1585.991554 Y125.589628 Z-0.125000 F400.000000
G00 Z5.000000

(Change tool to Default tool)

G00 Z5.000000
G00 X1592.380576 Y125.589628

G01 Z-0.125000 F100.0(Penetrate)
G01 X1592.380576 Y37.207184 Z-0.125000 F400.000000
G00 Z5.000000

(Change tool to Default tool)

G00 Z5.000000
G00 X1598.769598 Y37.207184

G01 Z-0.125000 F100.0(Penetrate)
G01 X1598.769598 Y125.589628 Z-0.125000 F400.000000
G00 Z5.000000

(Change tool to Default tool)

G00 Z5.000000
G00 X1605.158621 Y125.589628

G01 Z-0.125000 F100.0(Penetrate)
G01 X1605.158621 Y37.207184 Z-0.125000 F400.000000
G00 Z5.000000

(Change tool to Default tool)

G00 Z5.000000
G00 X1611.547643 Y37.207184

G01 Z-0.125000 F100.0(Penetrate)
G01 X1611.547643 Y125.589628 Z-0.125000 F400.000000
G00 Z5.000000

(Change tool to Default tool)

G00 Z5.000000
G00 X1617.936665 Y160.273027

G01 Z-0.125000 F100.0(Penetrate)
G01 X1617.936665 Y37.207184 Z-0.125000 F400.000000
G00 Z5.000000

(Change tool to Default tool)

G00 Z5.000000
G00 X1624.325687 Y37.207184

G01 Z-0.125000 F100.0(Penetrate)
G01 X1624.325687 Y160.273027 Z-0.125000 F400.000000
G00 Z5.000000

(Change tool to Default tool)

G00 Z5.000000
G00 X1630.714710 Y160.273027

G01 Z-0.125000 F100.0(Penetrate)
G01 X1630.714710 Y37.207184 Z-0.125000 F400.000000
G00 Z5.000000

(Change tool to Default tool)

G00 Z5.000000
G00 X1637.103732 Y37.207184

G01 Z-0.125000 F100.0(Penetrate)
G01 X1637.103732 Y160.273027 Z-0.125000 F400.000000
G00 Z5.000000

(Change tool to Default tool)

G00 Z5.000000
G00 X1643.492754 Y160.273027

G01 Z-0.125000 F100.0(Penetrate)
G01 X1643.492754 Y37.207184 Z-0.125000 F400.000000
G00 Z5.000000

(Change tool to Default tool)

G00 Z5.000000
G00 X1649.881776 Y37.207184

G01 Z-0.125000 F100.0(Penetrate)
G01 X1649.881776 Y160.273027 Z-0.125000 F400.000000
G00 Z5.000000

(Change tool to Default tool)

G00 Z5.000000
G00 X1656.270798 Y212.588538

G01 Z-0.125000 F100.0(Penetrate)
G01 X1656.270798 Y37.207184 Z-0.125000 F400.000000
G00 Z5.000000

(Change tool to Default tool)

G00 Z5.000000
G00 X1662.659821 Y37.207184

G01 Z-0.125000 F100.0(Penetrate)
G01 X1662.659821 Y212.951804 Z-0.125000 F400.000000
G00 Z5.000000

(Change tool to Default tool)

G00 Z5.000000
G00 X1669.048843 Y212.904857

G01 Z-0.125000 F100.0(Penetrate)
G01 X1669.048843 Y37.207184 Z-0.125000 F400.000000
G00 Z5.000000

(Change tool to Default tool)

G00 Z5.000000
G00 X1675.437865 Y37.207184

G01 Z-0.125000 F100.0(Penetrate)
G01 X1675.437865 Y212.752768 Z-0.125000 F400.000000
G00 Z5.000000

(Change tool to Default tool)

G00 Z5.000000
G00 X1681.826887 Y229.640462

G01 Z-0.125000 F100.0(Penetrate)
G01 X1681.826887 Y37.207184 Z-0.125000 F400.000000
G00 Z5.000000

(Change tool to Default tool)

G00 Z5.000000
G00 X1688.215910 Y37.207184

G01 Z-0.125000 F100.0(Penetrate)
G01 X1688.215910 Y229.841208 Z-0.125000 F400.000000
G00 Z5.000000

(Change tool to Default tool)

G00 Z5.000000
G00 X1694.604932 Y230.041944

G01 Z-0.125000 F100.0(Penetrate)
G01 X1694.604932 Y37.207184 Z-0.125000 F400.000000
G00 Z5.000000

(Change tool to Default tool)

G00 Z5.000000
G00 X1700.993954 Y37.207184

G01 Z-0.125000 F100.0(Penetrate)
G01 X1700.993954 Y230.242690 Z-0.125000 F400.000000
G00 Z5.000000

(Change tool to Default tool)

G00 Z5.000000
G00 X1707.382976 Y230.443425

G01 Z-0.125000 F100.0(Penetrate)
G01 X1707.382976 Y38.029287 Z-0.125000 F400.000000
G00 Z5.000000

(Change tool to Default tool)

G00 Z5.000000
G00 X1713.771998 Y38.029287

G01 Z-0.125000 F100.0(Penetrate)
G01 X1713.771998 Y230.458742 Z-0.125000 F400.000000
G00 Z5.000000

(Change tool to Default tool)

G00 Z5.000000
G00 X1720.160914 Y230.458742

G01 Z-0.125000 F100.0(Penetrate)
G01 X1720.160914 Y38.029287 Z-0.125000 F400.000000
G00 Z5.000000

(Change tool to Default tool)

G00 Z5.000000
G00 X1726.549936 Y38.029287

G01 Z-0.125000 F100.0(Penetrate)
G01 X1726.549936 Y213.666152 Z-0.125000 F400.000000
G00 Z5.000000

(Change tool to Default tool)

G00 Z5.000000
G00 X1732.938959 Y213.561211

G01 Z-0.125000 F100.0(Penetrate)
G01 X1732.938959 Y38.029287 Z-0.125000 F400.000000
G00 Z5.000000

(Change tool to Default tool)

G00 Z5.000000
G00 X1739.327981 Y38.029287

G01 Z-0.125000 F100.0(Penetrate)
G01 X1739.327981 Y213.757581 Z-0.125000 F400.000000
G00 Z5.000000

(Change tool to Default tool)

G00 Z5.000000
G00 X1745.717003 Y213.763954

G01 Z-0.125000 F100.0(Penetrate)
G01 X1745.717003 Y38.029287 Z-0.125000 F400.000000
G00 Z5.000000

(Change tool to Default tool)

G00 Z5.000000
G00 X1752.106025 Y38.029287

G01 Z-0.125000 F100.0(Penetrate)
G01 X1752.106025 Y213.268611 Z-0.125000 F400.000000
G00 Z5.000000

(Change tool to Default tool)

G00 Z5.000000
G00 X1758.495048 Y161.096192

G01 Z-0.125000 F100.0(Penetrate)
G01 X1758.495048 Y38.029287 Z-0.125000 F400.000000
G00 Z5.000000

(Change tool to Default tool)

G00 Z5.000000
G00 X1764.884070 Y38.029287

G01 Z-0.125000 F100.0(Penetrate)
G01 X1764.884070 Y161.096192 Z-0.125000 F400.000000
G00 Z5.000000

(Change tool to Default tool)

G00 Z5.000000
G00 X1771.273092 Y161.096192

G01 Z-0.125000 F100.0(Penetrate)
G01 X1771.273092 Y38.029287 Z-0.125000 F400.000000
G00 Z5.000000

(Change tool to Default tool)

G00 Z5.000000
G00 X1777.662114 Y38.029287

G01 Z-0.125000 F100.0(Penetrate)
G01 X1777.662114 Y161.096192 Z-0.125000 F400.000000
G00 Z5.000000

(Change tool to Default tool)

G00 Z5.000000
G00 X1784.051136 Y161.096192

G01 Z-0.125000 F100.0(Penetrate)
G01 X1784.051136 Y38.029287 Z-0.125000 F400.000000
G00 Z5.000000

(Change tool to Default tool)

G00 Z5.000000
G00 X1790.440159 Y38.029287

G01 Z-0.125000 F100.0(Penetrate)
G01 X1790.440159 Y161.096192 Z-0.125000 F400.000000
G00 Z5.000000

(Change tool to Default tool)

G00 Z5.000000
G00 X1796.829181 Y126.411731

G01 Z-0.125000 F100.0(Penetrate)
G01 X1796.829181 Y38.029287 Z-0.125000 F400.000000
G00 Z5.000000

(Change tool to Default tool)

G00 Z5.000000
G00 X1803.218203 Y38.029287

G01 Z-0.125000 F100.0(Penetrate)
G01 X1803.218203 Y126.411731 Z-0.125000 F400.000000
G00 Z5.000000

(Change tool to Default tool)

G00 Z5.000000
G00 X1809.607225 Y126.411731

G01 Z-0.125000 F100.0(Penetrate)
G01 X1809.607225 Y38.029287 Z-0.125000 F400.000000
G00 Z5.000000

(Change tool to Default tool)

G00 Z5.000000
G00 X1815.996248 Y38.029287

G01 Z-0.125000 F100.0(Penetrate)
G01 X1815.996248 Y126.411731 Z-0.125000 F400.000000
G00 Z5.000000

(Change tool to Default tool)

G00 Z5.000000
G00 X1822.385270 Y126.411731

G01 Z-0.125000 F100.0(Penetrate)
G01 X1822.385270 Y38.029287 Z-0.125000 F400.000000
G00 Z5.000000

(Change tool to Default tool)

G00 Z5.000000
G00 X1826.122528 Y38.029287

G01 Z-0.125000 F100.0(Penetrate)
G01 X1703.845162 Y38.029287 Z-0.125000 F400.000000
G01 X1703.633259 Y37.207184 Z-0.125000
G01 X1581.355892 Y37.207184 Z-0.125000
G01 X1581.355892 Y125.589628 Z-0.125000
G01 X1614.808813 Y125.589628 Z-0.125000
G01 X1614.808813 Y160.273027 Z-0.125000
G01 X1652.819236 Y160.273027 Z-0.125000
G01 X1652.819236 Y211.735187 Z-0.125000
G02 X1665.173215 Y213.265576 Z-0.125000 I9.121601 J-23.005015
G03 X1681.705070 Y212.855753 Z-0.125000 I10.188071 J77.332653
G01 X1681.705070 Y229.636639 Z-0.125000
G03 X1694.787658 Y230.047690 Z-0.125000 I0.000000 J208.396115
G02 X1707.870246 Y230.458742 Z-0.125000 I13.082588 J-207.985063
G01 X1725.773351 Y230.458742 Z-0.125000
G01 X1725.773351 Y213.678919 Z-0.125000
G03 X1742.305206 Y214.088741 Z-0.125000 I6.343784 J77.742475
G02 X1754.659185 Y212.558352 Z-0.125000 I3.232379 J-24.535404
G01 X1754.659185 Y161.096192 Z-0.125000
G01 X1792.669608 Y161.096192 Z-0.125000
G01 X1792.669608 Y126.411731 Z-0.125000
G01 X1826.122528 Y126.411731 Z-0.125000
G01 X1826.122528 Y38.029287 Z-0.125000
G00 Z5.000000

(Change tool to Default tool)

G00 Z5.000000
G00 X3407.478364 Y649.137630

G01 Z-0.125000 F100.0(Penetrate)
G01 X2418.739905 Y649.137630 Z-0.125000 F400.000000
G00 Z5.000000

(Change tool to Default tool)

G00 Z5.000000
G00 X994.483950 Y649.137948

G01 Z-0.125000 F100.0(Penetrate)
G01 X994.483950 Y669.999725 Z-0.125000 F400.000000
G00 Z5.000000

(Change tool to Default tool)

G00 Z5.000000
G00 X1000.872972 Y693.199907

G01 Z-0.125000 F100.0(Penetrate)
G01 X1000.872972 Y649.137948 Z-0.125000 F400.000000
G00 Z5.000000

(Change tool to Default tool)

G00 Z5.000000
G00 X1007.261994 Y649.137948

G01 Z-0.125000 F100.0(Penetrate)
G01 X1007.261994 Y709.689975 Z-0.125000 F400.000000
G00 Z5.000000

(Change tool to Default tool)

G00 Z5.000000
G00 X1013.651017 Y709.689975

G01 Z-0.125000 F100.0(Penetrate)
G01 X1013.651017 Y649.137948 Z-0.125000 F400.000000
G00 Z5.000000

(Change tool to Default tool)

G00 Z5.000000
G00 X1020.040039 Y649.137948

G01 Z-0.125000 F100.0(Penetrate)
G01 X1020.040039 Y709.689975 Z-0.125000 F400.000000
G00 Z5.000000

(Change tool to Default tool)

G00 Z5.000000
G00 X1026.429061 Y709.689975

G01 Z-0.125000 F100.0(Penetrate)
G01 X1026.429061 Y649.137948 Z-0.125000 F400.000000
G00 Z5.000000

(Change tool to Default tool)

G00 Z5.000000
G00 X1032.818083 Y649.137948

G01 Z-0.125000 F100.0(Penetrate)
G01 X1032.818083 Y709.689975 Z-0.125000 F400.000000
G00 Z5.000000

(Change tool to Default tool)

G00 Z5.000000
G00 X1039.207106 Y709.689975

G01 Z-0.125000 F100.0(Penetrate)
G01 X1039.207106 Y649.137948 Z-0.125000 F400.000000
G00 Z5.000000

(Change tool to Default tool)

G00 Z5.000000
G00 X1045.596128 Y649.137948

G01 Z-0.125000 F100.0(Penetrate)
G01 X1045.596128 Y709.689975 Z-0.125000 F400.000000
G00 Z5.000000

(Change tool to Default tool)

G00 Z5.000000
G00 X1051.985150 Y709.689975

G01 Z-0.125000 F100.0(Penetrate)
G01 X1051.985150 Y649.137948 Z-0.125000 F400.000000
G00 Z5.000000

(Change tool to Default tool)

G00 Z5.000000
G00 X1058.374172 Y649.137948

G01 Z-0.125000 F100.0(Penetrate)
G01 X1058.374172 Y709.689975 Z-0.125000 F400.000000
G00 Z5.000000

(Change tool to Default tool)

G00 Z5.000000
G00 X1064.763195 Y709.689975

G01 Z-0.125000 F100.0(Penetrate)
G01 X1064.763195 Y649.137948 Z-0.125000 F400.000000
G00 Z5.000000

(Change tool to Default tool)

G00 Z5.000000
G00 X1071.152217 Y649.137948

G01 Z-0.125000 F100.0(Penetrate)
G01 X1071.152217 Y709.689975 Z-0.125000 F400.000000
G00 Z5.000000

(Change tool to Default tool)

G00 Z5.000000
G00 X1077.541239 Y709.689975

G01 Z-0.125000 F100.0(Penetrate)
G01 X1077.541239 Y649.137948 Z-0.125000 F400.000000
G00 Z5.000000

(Change tool to Default tool)

G00 Z5.000000
G00 X1083.930261 Y649.137948

G01 Z-0.125000 F100.0(Penetrate)
G01 X1083.930261 Y709.689975 Z-0.125000 F400.000000
G00 Z5.000000

(Change tool to Default tool)

G00 Z5.000000
G00 X1090.319283 Y709.689975

G01 Z-0.125000 F100.0(Penetrate)
G01 X1090.319283 Y649.137948 Z-0.125000 F400.000000
G00 Z5.000000

(Change tool to Default tool)

G00 Z5.000000
G00 X1096.708306 Y649.137948

G01 Z-0.125000 F100.0(Penetrate)
G01 X1096.708306 Y709.689975 Z-0.125000 F400.000000
G00 Z5.000000

(Change tool to Default tool)

G00 Z5.000000
G00 X1103.097328 Y709.689975

G01 Z-0.125000 F100.0(Penetrate)
G01 X1103.097328 Y649.137948 Z-0.125000 F400.000000
G00 Z5.000000

(Change tool to Default tool)

G00 Z5.000000
G00 X1109.486350 Y649.137948

G01 Z-0.125000 F100.0(Penetrate)
G01 X1109.486350 Y709.689975 Z-0.125000 F400.000000
G00 Z5.000000

(Change tool to Default tool)

G00 Z5.000000
G00 X1115.875372 Y709.689975

G01 Z-0.125000 F100.0(Penetrate)
G01 X1115.875372 Y649.137948 Z-0.125000 F400.000000
G00 Z5.000000

(Change tool to Default tool)

G00 Z5.000000
G00 X1122.264395 Y649.137948

G01 Z-0.125000 F100.0(Penetrate)
G01 X1122.264395 Y709.689975 Z-0.125000 F400.000000
G00 Z5.000000

(Change tool to Default tool)

G00 Z5.000000
G00 X1128.653417 Y709.689975

G01 Z-0.125000 F100.0(Penetrate)
G01 X1128.653417 Y649.137948 Z-0.125000 F400.000000
G00 Z5.000000

(Change tool to Default tool)

G00 Z5.000000
G00 X1135.042439 Y649.137948

G01 Z-0.125000 F100.0(Penetrate)
G01 X1135.042439 Y709.689975 Z-0.125000 F400.000000
G00 Z5.000000

(Change tool to Default tool)

G00 Z5.000000
G00 X1141.431461 Y709.689975

G01 Z-0.125000 F100.0(Penetrate)
G01 X1141.431461 Y649.137948 Z-0.125000 F400.000000
G00 Z5.000000

(Change tool to Default tool)

G00 Z5.000000
G00 X1147.820483 Y649.137948

G01 Z-0.125000 F100.0(Penetrate)
G01 X1147.820483 Y709.689975 Z-0.125000 F400.000000
G00 Z5.000000

(Change tool to Default tool)

G00 Z5.000000
G00 X1154.209506 Y709.689975

G01 Z-0.125000 F100.0(Penetrate)
G01 X1154.209506 Y649.137948 Z-0.125000 F400.000000
G00 Z5.000000

(Change tool to Default tool)

G00 Z5.000000
G00 X1160.598528 Y649.137948

G01 Z-0.125000 F100.0(Penetrate)
G01 X1160.598528 Y709.689975 Z-0.125000 F400.000000
G00 Z5.000000

(Change tool to Default tool)

G00 Z5.000000
G00 X1166.987550 Y709.689975

G01 Z-0.125000 F100.0(Penetrate)
G01 X1166.987550 Y649.137948 Z-0.125000 F400.000000
G00 Z5.000000

(Change tool to Default tool)

G00 Z5.000000
G00 X1173.376572 Y649.137948

G01 Z-0.125000 F100.0(Penetrate)
G01 X1173.376572 Y709.689975 Z-0.125000 F400.000000
G00 Z5.000000

(Change tool to Default tool)

G00 Z5.000000
G00 X1179.765595 Y709.689975

G01 Z-0.125000 F100.0(Penetrate)
G01 X1179.765595 Y649.137948 Z-0.125000 F400.000000
G00 Z5.000000

(Change tool to Default tool)

G00 Z5.000000
G00 X1186.154617 Y649.137948

G01 Z-0.125000 F100.0(Penetrate)
G01 X1186.154617 Y709.689975 Z-0.125000 F400.000000
G00 Z5.000000

(Change tool to Default tool)

G00 Z5.000000
G00 X1192.543639 Y709.689975

G01 Z-0.125000 F100.0(Penetrate)
G01 X1192.543639 Y649.137948 Z-0.125000 F400.000000
G00 Z5.000000

(Change tool to Default tool)

G00 Z5.000000
G00 X1198.932661 Y649.137948

G01 Z-0.125000 F100.0(Penetrate)
G01 X1198.932661 Y709.689975 Z-0.125000 F400.000000
G00 Z5.000000

(Change tool to Default tool)

G00 Z5.000000
G00 X1205.321683 Y709.689975

G01 Z-0.125000 F100.0(Penetrate)
G01 X1205.321683 Y649.137948 Z-0.125000 F400.000000
G00 Z5.000000

(Change tool to Default tool)

G00 Z5.000000
G00 X1211.710706 Y649.137948

G01 Z-0.125000 F100.0(Penetrate)
G01 X1211.710706 Y709.689975 Z-0.125000 F400.000000
G00 Z5.000000

(Change tool to Default tool)

G00 Z5.000000
G00 X1218.099728 Y709.689975

G01 Z-0.125000 F100.0(Penetrate)
G01 X1218.099728 Y649.137948 Z-0.125000 F400.000000
G00 Z5.000000

(Change tool to Default tool)

G00 Z5.000000
G00 X1224.488750 Y649.137948

G01 Z-0.125000 F100.0(Penetrate)
G01 X1224.488750 Y709.689975 Z-0.125000 F400.000000
G00 Z5.000000

(Change tool to Default tool)

G00 Z5.000000
G00 X1230.877772 Y709.689975

G01 Z-0.125000 F100.0(Penetrate)
G01 X1230.877772 Y649.137948 Z-0.125000 F400.000000
G00 Z5.000000

(Change tool to Default tool)

G00 Z5.000000
G00 X1237.266795 Y649.137948

G01 Z-0.125000 F100.0(Penetrate)
G01 X1237.266795 Y709.689975 Z-0.125000 F400.000000
G00 Z5.000000

(Change tool to Default tool)

G00 Z5.000000
G00 X1243.655817 Y709.689975

G01 Z-0.125000 F100.0(Penetrate)
G01 X1243.655817 Y649.137948 Z-0.125000 F400.000000
G00 Z5.000000

(Change tool to Default tool)

G00 Z5.000000
G00 X1250.044839 Y649.137948

G01 Z-0.125000 F100.0(Penetrate)
G01 X1250.044839 Y709.689975 Z-0.125000 F400.000000
G00 Z5.000000

(Change tool to Default tool)

G00 Z5.000000
G00 X1256.433861 Y709.689975

G01 Z-0.125000 F100.0(Penetrate)
G01 X1256.433861 Y649.137948 Z-0.125000 F400.000000
G00 Z5.000000

(Change tool to Default tool)

G00 Z5.000000
G00 X1262.822884 Y649.137948

G01 Z-0.125000 F100.0(Penetrate)
G01 X1262.822884 Y709.689975 Z-0.125000 F400.000000
G00 Z5.000000

(Change tool to Default tool)

G00 Z5.000000
G00 X1269.211906 Y709.689975

G01 Z-0.125000 F100.0(Penetrate)
G01 X1269.211906 Y649.137948 Z-0.125000 F400.000000
G00 Z5.000000

(Change tool to Default tool)

G00 Z5.000000
G00 X1275.600928 Y649.137948

G01 Z-0.125000 F100.0(Penetrate)
G01 X1275.600928 Y709.689975 Z-0.125000 F400.000000
G00 Z5.000000

(Change tool to Default tool)

G00 Z5.000000
G00 X1281.989950 Y709.689975

G01 Z-0.125000 F100.0(Penetrate)
G01 X1281.989950 Y649.137948 Z-0.125000 F400.000000
G00 Z5.000000

(Change tool to Default tool)

G00 Z5.000000
G00 X1288.378972 Y649.137948

G01 Z-0.125000 F100.0(Penetrate)
G01 X1288.378972 Y709.689975 Z-0.125000 F400.000000
G00 Z5.000000

(Change tool to Default tool)

G00 Z5.000000
G00 X1294.767995 Y709.689975

G01 Z-0.125000 F100.0(Penetrate)
G01 X1294.767995 Y649.137948 Z-0.125000 F400.000000
G00 Z5.000000

(Change tool to Default tool)

G00 Z5.000000
G00 X1301.157017 Y649.137948

G01 Z-0.125000 F100.0(Penetrate)
G01 X1301.157017 Y709.689975 Z-0.125000 F400.000000
G00 Z5.000000

(Change tool to Default tool)

G00 Z5.000000
G00 X1307.546039 Y709.689975

G01 Z-0.125000 F100.0(Penetrate)
G01 X1307.546039 Y649.137948 Z-0.125000 F400.000000
G00 Z5.000000

(Change tool to Default tool)

G00 Z5.000000
G00 X1313.935061 Y649.137948

G01 Z-0.125000 F100.0(Penetrate)
G01 X1313.935061 Y709.689975 Z-0.125000 F400.000000
G00 Z5.000000

(Change tool to Default tool)

G00 Z5.000000
G00 X1320.324084 Y709.689975

G01 Z-0.125000 F100.0(Penetrate)
G01 X1320.324084 Y649.137948 Z-0.125000 F400.000000
G00 Z5.000000

(Change tool to Default tool)

G00 Z5.000000
G00 X1326.713106 Y649.137948

G01 Z-0.125000 F100.0(Penetrate)
G01 X1326.713106 Y709.689975 Z-0.125000 F400.000000
G00 Z5.000000

(Change tool to Default tool)

G00 Z5.000000
G00 X1333.102128 Y709.689975

G01 Z-0.125000 F100.0(Penetrate)
G01 X1333.102128 Y649.137948 Z-0.125000 F400.000000
G00 Z5.000000

(Change tool to Default tool)

G00 Z5.000000
G00 X1339.491257 Y649.137948

G01 Z-0.125000 F100.0(Penetrate)
G01 X1339.491257 Y709.689975 Z-0.125000 F400.000000
G00 Z5.000000

(Change tool to Default tool)

G00 Z5.000000
G00 X1345.880279 Y709.689975

G01 Z-0.125000 F100.0(Penetrate)
G01 X1345.880279 Y649.137948 Z-0.125000 F400.000000
G00 Z5.000000

(Change tool to Default tool)

G00 Z5.000000
G00 X1352.269301 Y649.137948

G01 Z-0.125000 F100.0(Penetrate)
G01 X1352.269301 Y709.689975 Z-0.125000 F400.000000
G00 Z5.000000

(Change tool to Default tool)

G00 Z5.000000
G00 X1358.658323 Y709.689975

G01 Z-0.125000 F100.0(Penetrate)
G01 X1358.658323 Y649.137948 Z-0.125000 F400.000000
G00 Z5.000000

(Change tool to Default tool)

G00 Z5.000000
G00 X1365.047346 Y649.137948

G01 Z-0.125000 F100.0(Penetrate)
G01 X1365.047346 Y709.689975 Z-0.125000 F400.000000
G00 Z5.000000

(Change tool to Default tool)

G00 Z5.000000
G00 X1371.436368 Y709.689975

G01 Z-0.125000 F100.0(Penetrate)
G01 X1371.436368 Y649.137948 Z-0.125000 F400.000000
G00 Z5.000000

(Change tool to Default tool)

G00 Z5.000000
G00 X1377.825390 Y649.137948

G01 Z-0.125000 F100.0(Penetrate)
G01 X1377.825390 Y709.689975 Z-0.125000 F400.000000
G00 Z5.000000

(Change tool to Default tool)

G00 Z5.000000
G00 X1384.214412 Y709.689975

G01 Z-0.125000 F100.0(Penetrate)
G01 X1384.214412 Y649.137948 Z-0.125000 F400.000000
G00 Z5.000000

(Change tool to Default tool)

G00 Z5.000000
G00 X1390.603435 Y649.137948

G01 Z-0.125000 F100.0(Penetrate)
G01 X1390.603435 Y709.689975 Z-0.125000 F400.000000
G00 Z5.000000

(Change tool to Default tool)

G00 Z5.000000
G00 X1396.992457 Y709.689975

G01 Z-0.125000 F100.0(Penetrate)
G01 X1396.992457 Y649.137948 Z-0.125000 F400.000000
G00 Z5.000000

(Change tool to Default tool)

G00 Z5.000000
G00 X1403.381479 Y649.137948

G01 Z-0.125000 F100.0(Penetrate)
G01 X1403.381479 Y709.689975 Z-0.125000 F400.000000
G00 Z5.000000

(Change tool to Default tool)

G00 Z5.000000
G00 X1409.770501 Y709.689975

G01 Z-0.125000 F100.0(Penetrate)
G01 X1409.770501 Y649.137948 Z-0.125000 F400.000000
G00 Z5.000000

(Change tool to Default tool)

G00 Z5.000000
G00 X1416.159523 Y649.137948

G01 Z-0.125000 F100.0(Penetrate)
G01 X1416.159523 Y709.689975 Z-0.125000 F400.000000
G00 Z5.000000

(Change tool to Default tool)

G00 Z5.000000
G00 X1422.548546 Y709.689975

G01 Z-0.125000 F100.0(Penetrate)
G01 X1422.548546 Y649.137948 Z-0.125000 F400.000000
G00 Z5.000000

(Change tool to Default tool)

G00 Z5.000000
G00 X1428.937568 Y649.137948

G01 Z-0.125000 F100.0(Penetrate)
G01 X1428.937568 Y709.689975 Z-0.125000 F400.000000
G00 Z5.000000

(Change tool to Default tool)

G00 Z5.000000
G00 X1435.326590 Y709.689975

G01 Z-0.125000 F100.0(Penetrate)
G01 X1435.326590 Y649.137948 Z-0.125000 F400.000000
G00 Z5.000000

(Change tool to Default tool)

G00 Z5.000000
G00 X1441.715612 Y649.137948

G01 Z-0.125000 F100.0(Penetrate)
G01 X1441.715612 Y709.689975 Z-0.125000 F400.000000
G00 Z5.000000

(Change tool to Default tool)

G00 Z5.000000
G00 X1448.104635 Y709.689975

G01 Z-0.125000 F100.0(Penetrate)
G01 X1448.104635 Y649.137948 Z-0.125000 F400.000000
G00 Z5.000000

(Change tool to Default tool)

G00 Z5.000000
G00 X1454.493657 Y649.137948

G01 Z-0.125000 F100.0(Penetrate)
G01 X1454.493657 Y709.689975 Z-0.125000 F400.000000
G00 Z5.000000

(Change tool to Default tool)

G00 Z5.000000
G00 X1460.882679 Y709.689975

G01 Z-0.125000 F100.0(Penetrate)
G01 X1460.882679 Y649.137948 Z-0.125000 F400.000000
G00 Z5.000000

(Change tool to Default tool)

G00 Z5.000000
G00 X1467.271701 Y649.137948

G01 Z-0.125000 F100.0(Penetrate)
G01 X1467.271701 Y709.689975 Z-0.125000 F400.000000
G00 Z5.000000

(Change tool to Default tool)

G00 Z5.000000
G00 X1473.660723 Y709.689975

G01 Z-0.125000 F100.0(Penetrate)
G01 X1473.660723 Y649.137948 Z-0.125000 F400.000000
G00 Z5.000000

(Change tool to Default tool)

G00 Z5.000000
G00 X1480.049746 Y649.137948

G01 Z-0.125000 F100.0(Penetrate)
G01 X1480.049746 Y709.689975 Z-0.125000 F400.000000
G00 Z5.000000

(Change tool to Default tool)

G00 Z5.000000
G00 X1486.438768 Y709.689975

G01 Z-0.125000 F100.0(Penetrate)
G01 X1486.438768 Y649.137948 Z-0.125000 F400.000000
G00 Z5.000000

(Change tool to Default tool)

G00 Z5.000000
G00 X1492.827790 Y649.137948

G01 Z-0.125000 F100.0(Penetrate)
G01 X1492.827790 Y709.689975 Z-0.125000 F400.000000
G00 Z5.000000

(Change tool to Default tool)

G00 Z5.000000
G00 X1499.216812 Y709.689975

G01 Z-0.125000 F100.0(Penetrate)
G01 X1499.216812 Y649.137948 Z-0.125000 F400.000000
G00 Z5.000000

(Change tool to Default tool)

G00 Z5.000000
G00 X1505.605835 Y649.137948

G01 Z-0.125000 F100.0(Penetrate)
G01 X1505.605835 Y709.689975 Z-0.125000 F400.000000
G00 Z5.000000

(Change tool to Default tool)

G00 Z5.000000
G00 X1511.994857 Y709.689975

G01 Z-0.125000 F100.0(Penetrate)
G01 X1511.994857 Y649.137948 Z-0.125000 F400.000000
G00 Z5.000000

(Change tool to Default tool)

G00 Z5.000000
G00 X1518.383879 Y649.137948

G01 Z-0.125000 F100.0(Penetrate)
G01 X1518.383879 Y709.689975 Z-0.125000 F400.000000
G00 Z5.000000

(Change tool to Default tool)

G00 Z5.000000
G00 X1524.772901 Y709.689975

G01 Z-0.125000 F100.0(Penetrate)
G01 X1524.772901 Y649.137948 Z-0.125000 F400.000000
G00 Z5.000000

(Change tool to Default tool)

G00 Z5.000000
G00 X1531.161924 Y649.137948

G01 Z-0.125000 F100.0(Penetrate)
G01 X1531.161924 Y709.689975 Z-0.125000 F400.000000
G00 Z5.000000

(Change tool to Default tool)

G00 Z5.000000
G00 X1537.550946 Y709.689975

G01 Z-0.125000 F100.0(Penetrate)
G01 X1537.550946 Y649.137948 Z-0.125000 F400.000000
G00 Z5.000000

(Change tool to Default tool)

G00 Z5.000000
G00 X1543.939968 Y649.137948

G01 Z-0.125000 F100.0(Penetrate)
G01 X1543.939968 Y709.689975 Z-0.125000 F400.000000
G00 Z5.000000

(Change tool to Default tool)

G00 Z5.000000
G00 X1550.328990 Y709.689975

G01 Z-0.125000 F100.0(Penetrate)
G01 X1550.328990 Y649.137948 Z-0.125000 F400.000000
G00 Z5.000000

(Change tool to Default tool)

G00 Z5.000000
G00 X1556.718012 Y649.137948

G01 Z-0.125000 F100.0(Penetrate)
G01 X1556.718012 Y709.689975 Z-0.125000 F400.000000
G00 Z5.000000

(Change tool to Default tool)

G00 Z5.000000
G00 X1563.107035 Y709.689975

G01 Z-0.125000 F100.0(Penetrate)
G01 X1563.107035 Y649.137948 Z-0.125000 F400.000000
G00 Z5.000000

(Change tool to Default tool)

G00 Z5.000000
G00 X1569.496057 Y649.137948

G01 Z-0.125000 F100.0(Penetrate)
G01 X1569.496057 Y709.689975 Z-0.125000 F400.000000
G00 Z5.000000

(Change tool to Default tool)

G00 Z5.000000
G00 X1575.885079 Y709.689975

G01 Z-0.125000 F100.0(Penetrate)
G01 X1575.885079 Y649.137948 Z-0.125000 F400.000000
G00 Z5.000000

(Change tool to Default tool)

G00 Z5.000000
G00 X1582.274101 Y649.137948

G01 Z-0.125000 F100.0(Penetrate)
G01 X1582.274101 Y709.689975 Z-0.125000 F400.000000
G00 Z5.000000

(Change tool to Default tool)

G00 Z5.000000
G00 X1588.663124 Y709.689975

G01 Z-0.125000 F100.0(Penetrate)
G01 X1588.663124 Y649.137948 Z-0.125000 F400.000000
G00 Z5.000000

(Change tool to Default tool)

G00 Z5.000000
G00 X1595.052146 Y649.137948

G01 Z-0.125000 F100.0(Penetrate)
G01 X1595.052146 Y709.689975 Z-0.125000 F400.000000
G00 Z5.000000

(Change tool to Default tool)

G00 Z5.000000
G00 X1601.441168 Y709.689975

G01 Z-0.125000 F100.0(Penetrate)
G01 X1601.441168 Y649.137948 Z-0.125000 F400.000000
G00 Z5.000000

(Change tool to Default tool)

G00 Z5.000000
G00 X1607.830190 Y649.137948

G01 Z-0.125000 F100.0(Penetrate)
G01 X1607.830190 Y709.689975 Z-0.125000 F400.000000
G00 Z5.000000

(Change tool to Default tool)

G00 Z5.000000
G00 X1614.219212 Y709.689975

G01 Z-0.125000 F100.0(Penetrate)
G01 X1614.219212 Y649.137948 Z-0.125000 F400.000000
G00 Z5.000000

(Change tool to Default tool)

G00 Z5.000000
G00 X1620.608235 Y649.137948

G01 Z-0.125000 F100.0(Penetrate)
G01 X1620.608235 Y709.689975 Z-0.125000 F400.000000
G00 Z5.000000

(Change tool to Default tool)

G00 Z5.000000
G00 X1626.997257 Y709.689975

G01 Z-0.125000 F100.0(Penetrate)
G01 X1626.997257 Y649.137948 Z-0.125000 F400.000000
G00 Z5.000000

(Change tool to Default tool)

G00 Z5.000000
G00 X1633.386279 Y649.137948

G01 Z-0.125000 F100.0(Penetrate)
G01 X1633.386279 Y709.689975 Z-0.125000 F400.000000
G00 Z5.000000

(Change tool to Default tool)

G00 Z5.000000
G00 X1639.775301 Y709.689975

G01 Z-0.125000 F100.0(Penetrate)
G01 X1639.775301 Y649.137948 Z-0.125000 F400.000000
G00 Z5.000000

(Change tool to Default tool)

G00 Z5.000000
G00 X1646.164324 Y649.137948

G01 Z-0.125000 F100.0(Penetrate)
G01 X1646.164324 Y709.689975 Z-0.125000 F400.000000
G00 Z5.000000

(Change tool to Default tool)

G00 Z5.000000
G00 X1652.553346 Y709.689975

G01 Z-0.125000 F100.0(Penetrate)
G01 X1652.553346 Y649.137948 Z-0.125000 F400.000000
G00 Z5.000000

(Change tool to Default tool)

G00 Z5.000000
G00 X1658.942368 Y649.137948

G01 Z-0.125000 F100.0(Penetrate)
G01 X1658.942368 Y709.689975 Z-0.125000 F400.000000
G00 Z5.000000

(Change tool to Default tool)

G00 Z5.000000
G00 X1665.331390 Y709.689975

G01 Z-0.125000 F100.0(Penetrate)
G01 X1665.331390 Y649.137948 Z-0.125000 F400.000000
G00 Z5.000000

(Change tool to Default tool)

G00 Z5.000000
G00 X1671.720413 Y649.137948

G01 Z-0.125000 F100.0(Penetrate)
G01 X1671.720413 Y709.689975 Z-0.125000 F400.000000
G00 Z5.000000

(Change tool to Default tool)

G00 Z5.000000
G00 X1678.109435 Y709.689975

G01 Z-0.125000 F100.0(Penetrate)
G01 X1678.109435 Y649.137948 Z-0.125000 F400.000000
G00 Z5.000000

(Change tool to Default tool)

G00 Z5.000000
G00 X1684.498457 Y649.137948

G01 Z-0.125000 F100.0(Penetrate)
G01 X1684.498457 Y709.689975 Z-0.125000 F400.000000
G00 Z5.000000

(Change tool to Default tool)

G00 Z5.000000
G00 X1690.887479 Y709.689975

G01 Z-0.125000 F100.0(Penetrate)
G01 X1690.887479 Y649.137948 Z-0.125000 F400.000000
G00 Z5.000000

(Change tool to Default tool)

G00 Z5.000000
G00 X1697.276501 Y649.137948

G01 Z-0.125000 F100.0(Penetrate)
G01 X1697.276501 Y709.689975 Z-0.125000 F400.000000
G00 Z5.000000

(Change tool to Default tool)

G00 Z5.000000
G00 X1703.665524 Y709.689975

G01 Z-0.125000 F100.0(Penetrate)
G01 X1703.665524 Y649.137948 Z-0.125000 F400.000000
G00 Z5.000000

(Change tool to Default tool)

G00 Z5.000000
G00 X1710.054546 Y649.137948

G01 Z-0.125000 F100.0(Penetrate)
G01 X1710.054546 Y709.689975 Z-0.125000 F400.000000
G00 Z5.000000

(Change tool to Default tool)

G00 Z5.000000
G00 X1716.443568 Y709.689975

G01 Z-0.125000 F100.0(Penetrate)
G01 X1716.443568 Y649.137948 Z-0.125000 F400.000000
G00 Z5.000000

(Change tool to Default tool)

G00 Z5.000000
G00 X1722.832590 Y649.137948

G01 Z-0.125000 F100.0(Penetrate)
G01 X1722.832590 Y709.689975 Z-0.125000 F400.000000
G00 Z5.000000

(Change tool to Default tool)

G00 Z5.000000
G00 X1729.221613 Y709.689975

G01 Z-0.125000 F100.0(Penetrate)
G01 X1729.221613 Y649.137948 Z-0.125000 F400.000000
G00 Z5.000000

(Change tool to Default tool)

G00 Z5.000000
G00 X1735.610635 Y649.137948

G01 Z-0.125000 F100.0(Penetrate)
G01 X1735.610635 Y709.689975 Z-0.125000 F400.000000
G00 Z5.000000

(Change tool to Default tool)

G00 Z5.000000
G00 X1741.999657 Y709.689975

G01 Z-0.125000 F100.0(Penetrate)
G01 X1741.999657 Y649.137948 Z-0.125000 F400.000000
G00 Z5.000000

(Change tool to Default tool)

G00 Z5.000000
G00 X1748.388679 Y649.137948

G01 Z-0.125000 F100.0(Penetrate)
G01 X1748.388679 Y709.689975 Z-0.125000 F400.000000
G00 Z5.000000

(Change tool to Default tool)

G00 Z5.000000
G00 X1754.777701 Y709.689975

G01 Z-0.125000 F100.0(Penetrate)
G01 X1754.777701 Y649.137948 Z-0.125000 F400.000000
G00 Z5.000000

(Change tool to Default tool)

G00 Z5.000000
G00 X1761.166724 Y649.137948

G01 Z-0.125000 F100.0(Penetrate)
G01 X1761.166724 Y709.689975 Z-0.125000 F400.000000
G00 Z5.000000

(Change tool to Default tool)

G00 Z5.000000
G00 X1767.555746 Y709.689975

G01 Z-0.125000 F100.0(Penetrate)
G01 X1767.555746 Y649.137948 Z-0.125000 F400.000000
G00 Z5.000000

(Change tool to Default tool)

G00 Z5.000000
G00 X1773.944768 Y649.137948

G01 Z-0.125000 F100.0(Penetrate)
G01 X1773.944768 Y709.689975 Z-0.125000 F400.000000
G00 Z5.000000

(Change tool to Default tool)

G00 Z5.000000
G00 X1780.333790 Y709.689975

G01 Z-0.125000 F100.0(Penetrate)
G01 X1780.333790 Y649.137948 Z-0.125000 F400.000000
G00 Z5.000000

(Change tool to Default tool)

G00 Z5.000000
G00 X1786.722813 Y649.137948

G01 Z-0.125000 F100.0(Penetrate)
G01 X1786.722813 Y709.689975 Z-0.125000 F400.000000
G00 Z5.000000

(Change tool to Default tool)

G00 Z5.000000
G00 X1793.111835 Y709.689975

G01 Z-0.125000 F100.0(Penetrate)
G01 X1793.111835 Y649.137948 Z-0.125000 F400.000000
G00 Z5.000000

(Change tool to Default tool)

G00 Z5.000000
G00 X1799.500857 Y649.137948

G01 Z-0.125000 F100.0(Penetrate)
G01 X1799.500857 Y709.689975 Z-0.125000 F400.000000
G00 Z5.000000

(Change tool to Default tool)

G00 Z5.000000
G00 X1805.889879 Y709.689975

G01 Z-0.125000 F100.0(Penetrate)
G01 X1805.889879 Y649.137948 Z-0.125000 F400.000000
G00 Z5.000000

(Change tool to Default tool)

G00 Z5.000000
G00 X1812.278901 Y649.137948

G01 Z-0.125000 F100.0(Penetrate)
G01 X1812.278901 Y709.689975 Z-0.125000 F400.000000
G00 Z5.000000

(Change tool to Default tool)

G00 Z5.000000
G00 X1818.667924 Y709.689975

G01 Z-0.125000 F100.0(Penetrate)
G01 X1818.667924 Y649.137948 Z-0.125000 F400.000000
G00 Z5.000000

(Change tool to Default tool)

G00 Z5.000000
G00 X1825.056946 Y649.137948

G01 Z-0.125000 F100.0(Penetrate)
G01 X1825.056946 Y709.689975 Z-0.125000 F400.000000
G00 Z5.000000

(Change tool to Default tool)

G00 Z5.000000
G00 X1831.445968 Y709.689975

G01 Z-0.125000 F100.0(Penetrate)
G01 X1831.445968 Y649.137948 Z-0.125000 F400.000000
G00 Z5.000000

(Change tool to Default tool)

G00 Z5.000000
G00 X1837.834990 Y649.137948

G01 Z-0.125000 F100.0(Penetrate)
G01 X1837.834990 Y709.689975 Z-0.125000 F400.000000
G00 Z5.000000

(Change tool to Default tool)

G00 Z5.000000
G00 X1844.224013 Y709.689975

G01 Z-0.125000 F100.0(Penetrate)
G01 X1844.224013 Y649.137948 Z-0.125000 F400.000000
G00 Z5.000000

(Change tool to Default tool)

G00 Z5.000000
G00 X1850.613035 Y649.137948

G01 Z-0.125000 F100.0(Penetrate)
G01 X1850.613035 Y709.689975 Z-0.125000 F400.000000
G00 Z5.000000

(Change tool to Default tool)

G00 Z5.000000
G00 X1857.002057 Y709.689975

G01 Z-0.125000 F100.0(Penetrate)
G01 X1857.002057 Y649.137948 Z-0.125000 F400.000000
G00 Z5.000000

(Change tool to Default tool)

G00 Z5.000000
G00 X1863.391079 Y649.137948

G01 Z-0.125000 F100.0(Penetrate)
G01 X1863.391079 Y709.689975 Z-0.125000 F400.000000
G00 Z5.000000

(Change tool to Default tool)

G00 Z5.000000
G00 X1869.780102 Y709.689975

G01 Z-0.125000 F100.0(Penetrate)
G01 X1869.780102 Y649.137948 Z-0.125000 F400.000000
G00 Z5.000000

(Change tool to Default tool)

G00 Z5.000000
G00 X1876.169124 Y649.137948

G01 Z-0.125000 F100.0(Penetrate)
G01 X1876.169124 Y709.689975 Z-0.125000 F400.000000
G00 Z5.000000

(Change tool to Default tool)

G00 Z5.000000
G00 X1882.558146 Y709.689975

G01 Z-0.125000 F100.0(Penetrate)
G01 X1882.558146 Y649.137948 Z-0.125000 F400.000000
G00 Z5.000000

(Change tool to Default tool)

G00 Z5.000000
G00 X1888.947168 Y649.137948

G01 Z-0.125000 F100.0(Penetrate)
G01 X1888.947168 Y709.689975 Z-0.125000 F400.000000
G00 Z5.000000

(Change tool to Default tool)

G00 Z5.000000
G00 X1895.336190 Y709.689975

G01 Z-0.125000 F100.0(Penetrate)
G01 X1895.336190 Y649.137948 Z-0.125000 F400.000000
G00 Z5.000000

(Change tool to Default tool)

G00 Z5.000000
G00 X1901.725213 Y649.137948

G01 Z-0.125000 F100.0(Penetrate)
G01 X1901.725213 Y709.689975 Z-0.125000 F400.000000
G00 Z5.000000

(Change tool to Default tool)

G00 Z5.000000
G00 X1908.114235 Y709.689975

G01 Z-0.125000 F100.0(Penetrate)
G01 X1908.114235 Y649.137948 Z-0.125000 F400.000000
G00 Z5.000000

(Change tool to Default tool)

G00 Z5.000000
G00 X1914.503257 Y649.137948

G01 Z-0.125000 F100.0(Penetrate)
G01 X1914.503257 Y709.689975 Z-0.125000 F400.000000
G00 Z5.000000

(Change tool to Default tool)

G00 Z5.000000
G00 X1920.892279 Y709.689975

G01 Z-0.125000 F100.0(Penetrate)
G01 X1920.892279 Y649.137948 Z-0.125000 F400.000000
G00 Z5.000000

(Change tool to Default tool)

G00 Z5.000000
G00 X1927.281302 Y649.137948

G01 Z-0.125000 F100.0(Penetrate)
G01 X1927.281302 Y709.689975 Z-0.125000 F400.000000
G00 Z5.000000

(Change tool to Default tool)

G00 Z5.000000
G00 X1933.670324 Y709.689975

G01 Z-0.125000 F100.0(Penetrate)
G01 X1933.670324 Y649.137948 Z-0.125000 F400.000000
G00 Z5.000000

(Change tool to Default tool)

G00 Z5.000000
G00 X1940.059346 Y649.137948

G01 Z-0.125000 F100.0(Penetrate)
G01 X1940.059346 Y709.689975 Z-0.125000 F400.000000
G00 Z5.000000

(Change tool to Default tool)

G00 Z5.000000
G00 X1946.448368 Y709.689975

G01 Z-0.125000 F100.0(Penetrate)
G01 X1946.448368 Y649.137948 Z-0.125000 F400.000000
G00 Z5.000000

(Change tool to Default tool)

G00 Z5.000000
G00 X1952.837390 Y649.137948

G01 Z-0.125000 F100.0(Penetrate)
G01 X1952.837390 Y709.689975 Z-0.125000 F400.000000
G00 Z5.000000

(Change tool to Default tool)

G00 Z5.000000
G00 X1959.226413 Y709.689975

G01 Z-0.125000 F100.0(Penetrate)
G01 X1959.226413 Y649.137948 Z-0.125000 F400.000000
G00 Z5.000000

(Change tool to Default tool)

G00 Z5.000000
G00 X1965.615435 Y649.137948

G01 Z-0.125000 F100.0(Penetrate)
G01 X1965.615435 Y709.689975 Z-0.125000 F400.000000
G00 Z5.000000

(Change tool to Default tool)

G00 Z5.000000
G00 X1972.004457 Y709.689975

G01 Z-0.125000 F100.0(Penetrate)
G01 X1972.004457 Y649.137948 Z-0.125000 F400.000000
G00 Z5.000000

(Change tool to Default tool)

G00 Z5.000000
G00 X1978.393479 Y649.137948

G01 Z-0.125000 F100.0(Penetrate)
G01 X1978.393479 Y709.689975 Z-0.125000 F400.000000
G00 Z5.000000

(Change tool to Default tool)

G00 Z5.000000
G00 X1984.782502 Y709.689975

G01 Z-0.125000 F100.0(Penetrate)
G01 X1984.782502 Y649.137948 Z-0.125000 F400.000000
G00 Z5.000000

(Change tool to Default tool)

G00 Z5.000000
G00 X1991.171524 Y649.137948

G01 Z-0.125000 F100.0(Penetrate)
G01 X1991.171524 Y709.689975 Z-0.125000 F400.000000
G00 Z5.000000

(Change tool to Default tool)

G00 Z5.000000
G00 X1997.560546 Y709.689975

G01 Z-0.125000 F100.0(Penetrate)
G01 X1997.560546 Y649.137948 Z-0.125000 F400.000000
G00 Z5.000000

(Change tool to Default tool)

G00 Z5.000000
G00 X2003.949568 Y649.137948

G01 Z-0.125000 F100.0(Penetrate)
G01 X2003.949568 Y709.689975 Z-0.125000 F400.000000
G00 Z5.000000

(Change tool to Default tool)

G00 Z5.000000
G00 X2010.338591 Y709.689975

G01 Z-0.125000 F100.0(Penetrate)
G01 X2010.338591 Y649.137948 Z-0.125000 F400.000000
G00 Z5.000000

(Change tool to Default tool)

G00 Z5.000000
G00 X2016.727613 Y649.137948

G01 Z-0.125000 F100.0(Penetrate)
G01 X2016.727613 Y709.689975 Z-0.125000 F400.000000
G00 Z5.000000

(Change tool to Default tool)

G00 Z5.000000
G00 X2023.116635 Y709.689975

G01 Z-0.125000 F100.0(Penetrate)
G01 X2023.116635 Y649.137948 Z-0.125000 F400.000000
G00 Z5.000000

(Change tool to Default tool)

G00 Z5.000000
G00 X2029.505657 Y649.137948

G01 Z-0.125000 F100.0(Penetrate)
G01 X2029.505657 Y709.689975 Z-0.125000 F400.000000
G00 Z5.000000

(Change tool to Default tool)

G00 Z5.000000
G00 X2035.894679 Y709.689975

G01 Z-0.125000 F100.0(Penetrate)
G01 X2035.894679 Y649.137948 Z-0.125000 F400.000000
G00 Z5.000000

(Change tool to Default tool)

G00 Z5.000000
G00 X2042.283702 Y649.137948

G01 Z-0.125000 F100.0(Penetrate)
G01 X2042.283702 Y709.689975 Z-0.125000 F400.000000
G00 Z5.000000

(Change tool to Default tool)

G00 Z5.000000
G00 X2048.672724 Y709.689975

G01 Z-0.125000 F100.0(Penetrate)
G01 X2048.672724 Y649.137948 Z-0.125000 F400.000000
G00 Z5.000000

(Change tool to Default tool)

G00 Z5.000000
G00 X2055.061746 Y649.137948

G01 Z-0.125000 F100.0(Penetrate)
G01 X2055.061746 Y709.689975 Z-0.125000 F400.000000
G00 Z5.000000

(Change tool to Default tool)

G00 Z5.000000
G00 X2061.450768 Y709.689975

G01 Z-0.125000 F100.0(Penetrate)
G01 X2061.450768 Y649.137948 Z-0.125000 F400.000000
G00 Z5.000000

(Change tool to Default tool)

G00 Z5.000000
G00 X2067.839791 Y649.137948

G01 Z-0.125000 F100.0(Penetrate)
G01 X2067.839791 Y709.689975 Z-0.125000 F400.000000
G00 Z5.000000

(Change tool to Default tool)

G00 Z5.000000
G00 X2074.228813 Y709.689975

G01 Z-0.125000 F100.0(Penetrate)
G01 X2074.228813 Y649.137948 Z-0.125000 F400.000000
G00 Z5.000000

(Change tool to Default tool)

G00 Z5.000000
G00 X2080.617835 Y649.137948

G01 Z-0.125000 F100.0(Penetrate)
G01 X2080.617835 Y709.689975 Z-0.125000 F400.000000
G00 Z5.000000

(Change tool to Default tool)

G00 Z5.000000
G00 X2087.006857 Y709.689975

G01 Z-0.125000 F100.0(Penetrate)
G01 X2087.006857 Y649.137948 Z-0.125000 F400.000000
G00 Z5.000000

(Change tool to Default tool)

G00 Z5.000000
G00 X2093.395879 Y649.137948

G01 Z-0.125000 F100.0(Penetrate)
G01 X2093.395879 Y709.689975 Z-0.125000 F400.000000
G00 Z5.000000

(Change tool to Default tool)

G00 Z5.000000
G00 X2099.784902 Y709.689975

G01 Z-0.125000 F100.0(Penetrate)
G01 X2099.784902 Y649.137948 Z-0.125000 F400.000000
G00 Z5.000000

(Change tool to Default tool)

G00 Z5.000000
G00 X2106.173924 Y649.137948

G01 Z-0.125000 F100.0(Penetrate)
G01 X2106.173924 Y709.689975 Z-0.125000 F400.000000
G00 Z5.000000

(Change tool to Default tool)

G00 Z5.000000
G00 X2112.562946 Y709.689975

G01 Z-0.125000 F100.0(Penetrate)
G01 X2112.562946 Y649.137948 Z-0.125000 F400.000000
G00 Z5.000000

(Change tool to Default tool)

G00 Z5.000000
G00 X2118.951968 Y649.137948

G01 Z-0.125000 F100.0(Penetrate)
G01 X2118.951968 Y709.689975 Z-0.125000 F400.000000
G00 Z5.000000

(Change tool to Default tool)

G00 Z5.000000
G00 X2125.340991 Y709.689975

G01 Z-0.125000 F100.0(Penetrate)
G01 X2125.340991 Y649.137948 Z-0.125000 F400.000000
G00 Z5.000000

(Change tool to Default tool)

G00 Z5.000000
G00 X2131.730013 Y649.137948

G01 Z-0.125000 F100.0(Penetrate)
G01 X2131.730013 Y709.689975 Z-0.125000 F400.000000
G00 Z5.000000

(Change tool to Default tool)

G00 Z5.000000
G00 X2138.119035 Y709.689975

G01 Z-0.125000 F100.0(Penetrate)
G01 X2138.119035 Y649.137948 Z-0.125000 F400.000000
G00 Z5.000000

(Change tool to Default tool)

G00 Z5.000000
G00 X2144.508057 Y649.137948

G01 Z-0.125000 F100.0(Penetrate)
G01 X2144.508057 Y709.689975 Z-0.125000 F400.000000
G00 Z5.000000

(Change tool to Default tool)

G00 Z5.000000
G00 X2150.897079 Y709.689975

G01 Z-0.125000 F100.0(Penetrate)
G01 X2150.897079 Y649.137948 Z-0.125000 F400.000000
G00 Z5.000000

(Change tool to Default tool)

G00 Z5.000000
G00 X2157.286102 Y649.137948

G01 Z-0.125000 F100.0(Penetrate)
G01 X2157.286102 Y709.689975 Z-0.125000 F400.000000
G00 Z5.000000

(Change tool to Default tool)

G00 Z5.000000
G00 X2163.675124 Y709.689975

G01 Z-0.125000 F100.0(Penetrate)
G01 X2163.675124 Y649.137948 Z-0.125000 F400.000000
G00 Z5.000000

(Change tool to Default tool)

G00 Z5.000000
G00 X2170.064146 Y649.137948

G01 Z-0.125000 F100.0(Penetrate)
G01 X2170.064146 Y709.689975 Z-0.125000 F400.000000
G00 Z5.000000

(Change tool to Default tool)

G00 Z5.000000
G00 X2176.453168 Y709.689975

G01 Z-0.125000 F100.0(Penetrate)
G01 X2176.453168 Y649.137948 Z-0.125000 F400.000000
G00 Z5.000000

(Change tool to Default tool)

G00 Z5.000000
G00 X2182.842191 Y649.137948

G01 Z-0.125000 F100.0(Penetrate)
G01 X2182.842191 Y709.689975 Z-0.125000 F400.000000
G00 Z5.000000

(Change tool to Default tool)

G00 Z5.000000
G00 X2189.231213 Y709.689975

G01 Z-0.125000 F100.0(Penetrate)
G01 X2189.231213 Y649.137948 Z-0.125000 F400.000000
G00 Z5.000000

(Change tool to Default tool)

G00 Z5.000000
G00 X2195.620235 Y649.137948

G01 Z-0.125000 F100.0(Penetrate)
G01 X2195.620235 Y709.689975 Z-0.125000 F400.000000
G00 Z5.000000

(Change tool to Default tool)

G00 Z5.000000
G00 X2202.009257 Y709.689975

G01 Z-0.125000 F100.0(Penetrate)
G01 X2202.009257 Y649.137948 Z-0.125000 F400.000000
G00 Z5.000000

(Change tool to Default tool)

G00 Z5.000000
G00 X2208.398280 Y649.137948

G01 Z-0.125000 F100.0(Penetrate)
G01 X2208.398280 Y709.689975 Z-0.125000 F400.000000
G00 Z5.000000

(Change tool to Default tool)

G00 Z5.000000
G00 X2214.787302 Y709.689975

G01 Z-0.125000 F100.0(Penetrate)
G01 X2214.787302 Y649.137948 Z-0.125000 F400.000000
G00 Z5.000000

(Change tool to Default tool)

G00 Z5.000000
G00 X2221.176324 Y649.137948

G01 Z-0.125000 F100.0(Penetrate)
G01 X2221.176324 Y709.689975 Z-0.125000 F400.000000
G00 Z5.000000

(Change tool to Default tool)

G00 Z5.000000
G00 X2227.565346 Y709.689975

G01 Z-0.125000 F100.0(Penetrate)
G01 X2227.565346 Y649.137948 Z-0.125000 F400.000000
G00 Z5.000000

(Change tool to Default tool)

G00 Z5.000000
G00 X2233.954368 Y649.137948

G01 Z-0.125000 F100.0(Penetrate)
G01 X2233.954368 Y709.689975 Z-0.125000 F400.000000
G00 Z5.000000

(Change tool to Default tool)

G00 Z5.000000
G00 X2240.343391 Y709.689975

G01 Z-0.125000 F100.0(Penetrate)
G01 X2240.343391 Y649.137948 Z-0.125000 F400.000000
G00 Z5.000000

(Change tool to Default tool)

G00 Z5.000000
G00 X2246.732413 Y649.137948

G01 Z-0.125000 F100.0(Penetrate)
G01 X2246.732413 Y709.689975 Z-0.125000 F400.000000
G00 Z5.000000

(Change tool to Default tool)

G00 Z5.000000
G00 X2253.121435 Y709.689975

G01 Z-0.125000 F100.0(Penetrate)
G01 X2253.121435 Y649.137948 Z-0.125000 F400.000000
G00 Z5.000000

(Change tool to Default tool)

G00 Z5.000000
G00 X2259.510457 Y649.137948

G01 Z-0.125000 F100.0(Penetrate)
G01 X2259.510457 Y709.689975 Z-0.125000 F400.000000
G00 Z5.000000

(Change tool to Default tool)

G00 Z5.000000
G00 X2265.899480 Y709.689975

G01 Z-0.125000 F100.0(Penetrate)
G01 X2265.899480 Y649.137948 Z-0.125000 F400.000000
G00 Z5.000000

(Change tool to Default tool)

G00 Z5.000000
G00 X2272.288502 Y649.137948

G01 Z-0.125000 F100.0(Penetrate)
G01 X2272.288502 Y709.689975 Z-0.125000 F400.000000
G00 Z5.000000

(Change tool to Default tool)

G00 Z5.000000
G00 X2278.677524 Y709.689975

G01 Z-0.125000 F100.0(Penetrate)
G01 X2278.677524 Y649.137948 Z-0.125000 F400.000000
G00 Z5.000000

(Change tool to Default tool)

G00 Z5.000000
G00 X2285.066546 Y649.137948

G01 Z-0.125000 F100.0(Penetrate)
G01 X2285.066546 Y709.689975 Z-0.125000 F400.000000
G00 Z5.000000

(Change tool to Default tool)

G00 Z5.000000
G00 X2291.455568 Y709.689975

G01 Z-0.125000 F100.0(Penetrate)
G01 X2291.455568 Y649.137948 Z-0.125000 F400.000000
G00 Z5.000000

(Change tool to Default tool)

G00 Z5.000000
G00 X2297.844484 Y649.137948

G01 Z-0.125000 F100.0(Penetrate)
G01 X2297.844484 Y709.689975 Z-0.125000 F400.000000
G00 Z5.000000

(Change tool to Default tool)

G00 Z5.000000
G00 X2304.233506 Y709.689975

G01 Z-0.125000 F100.0(Penetrate)
G01 X2304.233506 Y649.137948 Z-0.125000 F400.000000
G00 Z5.000000

(Change tool to Default tool)

G00 Z5.000000
G00 X2310.622529 Y649.137948

G01 Z-0.125000 F100.0(Penetrate)
G01 X2310.622529 Y709.689975 Z-0.125000 F400.000000
G00 Z5.000000

(Change tool to Default tool)

G00 Z5.000000
G00 X2317.011551 Y709.689975

G01 Z-0.125000 F100.0(Penetrate)
G01 X2317.011551 Y649.137948 Z-0.125000 F400.000000
G00 Z5.000000

(Change tool to Default tool)

G00 Z5.000000
G00 X2323.400573 Y649.137948

G01 Z-0.125000 F100.0(Penetrate)
G01 X2323.400573 Y709.689975 Z-0.125000 F400.000000
G00 Z5.000000

(Change tool to Default tool)

G00 Z5.000000
G00 X2329.789595 Y709.689975

G01 Z-0.125000 F100.0(Penetrate)
G01 X2329.789595 Y649.137948 Z-0.125000 F400.000000
G00 Z5.000000

(Change tool to Default tool)

G00 Z5.000000
G00 X2336.178618 Y649.137948

G01 Z-0.125000 F100.0(Penetrate)
G01 X2336.178618 Y709.689975 Z-0.125000 F400.000000
G00 Z5.000000

(Change tool to Default tool)

G00 Z5.000000
G00 X2342.567640 Y709.689975

G01 Z-0.125000 F100.0(Penetrate)
G01 X2342.567640 Y649.137948 Z-0.125000 F400.000000
G00 Z5.000000

(Change tool to Default tool)

G00 Z5.000000
G00 X2348.956662 Y649.137948

G01 Z-0.125000 F100.0(Penetrate)
G01 X2348.956662 Y709.689975 Z-0.125000 F400.000000
G00 Z5.000000

(Change tool to Default tool)

G00 Z5.000000
G00 X2355.345684 Y709.689975

G01 Z-0.125000 F100.0(Penetrate)
G01 X2355.345684 Y649.137948 Z-0.125000 F400.000000
G00 Z5.000000

(Change tool to Default tool)

G00 Z5.000000
G00 X2361.734706 Y649.137948

G01 Z-0.125000 F100.0(Penetrate)
G01 X2361.734706 Y709.689975 Z-0.125000 F400.000000
G00 Z5.000000

(Change tool to Default tool)

G00 Z5.000000
G00 X2368.123729 Y709.689975

G01 Z-0.125000 F100.0(Penetrate)
G01 X2368.123729 Y649.137948 Z-0.125000 F400.000000
G00 Z5.000000

(Change tool to Default tool)

G00 Z5.000000
G00 X2374.512751 Y649.137948

G01 Z-0.125000 F100.0(Penetrate)
G01 X2374.512751 Y709.689975 Z-0.125000 F400.000000
G00 Z5.000000

(Change tool to Default tool)

G00 Z5.000000
G00 X2380.901773 Y709.689975

G01 Z-0.125000 F100.0(Penetrate)
G01 X2380.901773 Y649.137948 Z-0.125000 F400.000000
G00 Z5.000000

(Change tool to Default tool)

G00 Z5.000000
G00 X2387.290795 Y649.137948

G01 Z-0.125000 F100.0(Penetrate)
G01 X2387.290795 Y709.689975 Z-0.125000 F400.000000
G00 Z5.000000

(Change tool to Default tool)

G00 Z5.000000
G00 X2393.679818 Y709.689975

G01 Z-0.125000 F100.0(Penetrate)
G01 X2393.679818 Y649.137948 Z-0.125000 F400.000000
G00 Z5.000000

(Change tool to Default tool)

G00 Z5.000000
G00 X2400.068840 Y649.137948

G01 Z-0.125000 F100.0(Penetrate)
G01 X2400.068840 Y709.689975 Z-0.125000 F400.000000
G00 Z5.000000

(Change tool to Default tool)

G00 Z5.000000
G00 X2406.457862 Y694.558373

G01 Z-0.125000 F100.0(Penetrate)
G01 X2406.457862 Y649.137948 Z-0.125000 F400.000000
G00 Z5.000000

(Change tool to Default tool)

G00 Z5.000000
G00 X2412.846884 Y649.137948

G01 Z-0.125000 F100.0(Penetrate)
G01 X2412.846884 Y671.357777 Z-0.125000 F400.000000
G00 Z5.000000

(Change tool to Default tool)

G00 Z5.000000
G00 X2402.290942 Y709.689975

G01 Z-0.125000 F100.0(Penetrate)
G01 X1005.187479 Y709.689975 Z-0.125000 F400.000000
G01 X1005.187479 Y708.866810 Z-0.125000
G01 X988.738941 Y649.137948 Z-0.125000
G01 X2418.725637 Y649.137948 Z-0.125000
G01 X2418.739479 Y649.960051 Z-0.125000
G01 X2402.290942 Y709.689975 Z-0.125000
G00 Z5.000000

(Change tool to Default tool)

G00 Z5.000000
G00 X988.738515 Y649.137630

G01 Z-0.125000 F100.0(Penetrate)
G01 X0.000056 Y649.137630 Z-0.125000 F400.000000
G00 Z5.000000

(Change tool to Default tool)

G00 Z5.000000
G00 X1694.117875 Y378.691950

G01 Z-0.125000 F100.0(Penetrate)
G01 X1694.117875 Y425.558714 Z-0.125000 F400.000000
G00 Z5.000000

(Change tool to Default tool)

G00 Z5.000000
G00 X1700.506898 Y425.799025

G01 Z-0.125000 F100.0(Penetrate)
G01 X1700.506898 Y378.953483 Z-0.125000 F400.000000
G00 Z5.000000

(Change tool to Default tool)

G00 Z5.000000
G00 X1706.895920 Y379.215027

G01 Z-0.125000 F100.0(Penetrate)
G01 X1706.895920 Y426.155992 Z-0.125000 F400.000000
G00 Z5.000000

(Change tool to Default tool)

G00 Z5.000000
G00 X1713.284942 Y426.066665

G01 Z-0.125000 F100.0(Penetrate)
G01 X1713.284942 Y379.254921 Z-0.125000 F400.000000
G00 Z5.000000

(Change tool to Default tool)

G00 Z5.000000
G00 X1719.673964 Y379.254921

G01 Z-0.125000 F100.0(Penetrate)
G01 X1719.673964 Y426.241654 Z-0.125000 F400.000000
G00 Z5.000000

(Change tool to Default tool)

G00 Z5.000000
G00 X1707.870565 Y379.254921

G01 Z-0.125000 F100.0(Penetrate)
G03 X1697.827795 Y378.843814 Z-0.125000 I0.000000 J-122.870969 F400.000000
G02 X1687.787739 Y378.432818 Z-0.125000 I-10.040057 J122.426773
G01 X1687.787739 Y425.418022 Z-0.125000
G03 X1696.987919 Y425.461994 Z-0.125000 I4.367866 J48.608973
G02 X1707.869500 Y426.210385 Z-0.125000 I17.702529 J-177.911304
G03 X1714.274398 Y426.039306 Z-0.125000 I10.507027 J273.385868
G03 X1719.691321 Y426.242249 Z-0.125000 I0.775290 J51.701412
G01 X1719.691321 Y379.254921 Z-0.125000
G01 X1707.870565 Y379.254921 Z-0.125000
G00 Z5.000000

(Change tool to Default tool)

G00 Z5.000000
G00 X1617.804519 Y367.634708

G01 Z-0.125000 F100.0(Penetrate)
G01 X1617.804519 Y399.174880 Z-0.125000 F400.000000
G00 Z5.000000

(Change tool to Default tool)

G00 Z5.000000
G00 X1624.193541 Y401.834309

G01 Z-0.125000 F100.0(Penetrate)
G01 X1624.193541 Y369.306678 Z-0.125000 F400.000000
G00 Z5.000000

(Change tool to Default tool)

G00 Z5.000000
G00 X1630.582563 Y370.964947

G01 Z-0.125000 F100.0(Penetrate)
G01 X1630.582563 Y404.825096 Z-0.125000 F400.000000
G00 Z5.000000

(Change tool to Default tool)

G00 Z5.000000
G00 X1636.971585 Y407.488614

G01 Z-0.125000 F100.0(Penetrate)
G01 X1636.971585 Y372.271560 Z-0.125000 F400.000000
G00 Z5.000000

(Change tool to Default tool)

G00 Z5.000000
G00 X1643.360608 Y373.578183

G01 Z-0.125000 F100.0(Penetrate)
G01 X1643.360608 Y409.327225 Z-0.125000 F400.000000
G00 Z5.000000

(Change tool to Default tool)

G00 Z5.000000
G00 X1645.216725 Y409.755367

G01 Z-0.125000 F100.0(Penetrate)
G03 X1629.765459 Y404.383753 Z-0.125000 I10.066345 J-53.863832 F400.000000
G02 X1616.323437 Y398.569880 Z-0.125000 I-44.803413 J85.141860
G01 X1616.323437 Y367.247119 Z-0.125000
G02 X1630.011643 Y370.830282 Z-0.125000 I119.400733 J-428.191173
G02 X1645.216725 Y373.957774 Z-0.125000 I49.561169 J-202.428619
G01 X1645.216725 Y409.755367 Z-0.125000
G00 Z5.000000

(Change tool to Default tool)

G00 Z5.000000
G00 X1550.100583 Y341.990681

G01 Z-0.125000 F100.0(Penetrate)
G01 X1550.100583 Y361.521204 Z-0.125000 F400.000000
G00 Z5.000000

(Change tool to Default tool)

G00 Z5.000000
G00 X1556.489605 Y365.128653

G01 Z-0.125000 F100.0(Penetrate)
G01 X1556.489605 Y344.866385 Z-0.125000 F400.000000
G00 Z5.000000

(Change tool to Default tool)

G00 Z5.000000
G00 X1562.878627 Y348.224495

G01 Z-0.125000 F100.0(Penetrate)
G01 X1562.878627 Y368.237838 Z-0.125000 F400.000000
G00 Z5.000000

(Change tool to Default tool)

G00 Z5.000000
G00 X1569.267649 Y371.240362

G01 Z-0.125000 F100.0(Penetrate)
G01 X1569.267649 Y350.846058 Z-0.125000 F400.000000
G00 Z5.000000

(Change tool to Default tool)

G00 Z5.000000
G00 X1573.751998 Y373.957667

G01 Z-0.125000 F100.0(Penetrate)
G02 X1560.944177 Y367.506947 Z-0.125000 I-20.347489 J24.459432 F400.000000
G03 X1546.383556 Y358.293100 Z-0.125000 I6.395238 J-26.218363
G03 X1545.053174 Y355.253884 Z-0.125000 I5.017986 J-4.007354
G03 X1544.508378 Y349.395482 Z-0.125000 I49.649472 J-7.571631
G03 X1544.642652 Y343.032061 Z-0.125000 I57.630971 J-1.967059
G03 X1544.866163 Y342.632782 Z-0.125000 I0.542491 J0.041480
G03 X1549.805063 Y341.915640 Z-0.125000 I3.164887 J4.430849
G03 X1557.052158 Y345.166272 Z-0.125000 I-14.430573 J41.875931
G02 X1564.667050 Y349.203111 Z-0.125000 I88.002759 J-156.803440
G02 X1573.751998 Y351.582446 Z-0.125000 I10.197738 J-20.403663
G01 X1573.751998 Y373.957667 Z-0.125000
G00 Z5.000000

(Change tool to Default tool)

G00 Z5.000000
G00 X1505.334195 Y326.968003

G01 Z-0.125000 F100.0(Penetrate)
G02 X1491.261305 Y317.502593 Z-0.125000 I-171.385518 J239.616613 F400.000000
G03 X1479.485276 Y306.828604 Z-0.125000 I24.646192 J-39.023717
G03 X1492.616784 Y313.488794 Z-0.125000 I-29.082474 J73.615636
G02 X1505.334195 Y320.259472 Z-0.125000 I52.458611 J-83.204414
G01 X1505.334195 Y326.968003 Z-0.125000
G00 Z5.000000

(Change tool to Default tool)

G00 Z5.000000
G00 X1402.212181 Y82.037471

G01 Z-0.125000 F100.0(Penetrate)
G01 X1402.212181 Y101.659920 Z-0.125000 F400.000000
G00 Z5.000000

(Change tool to Default tool)

G00 Z5.000000
G00 X1408.601204 Y111.764670

G01 Z-0.125000 F100.0(Penetrate)
G01 X1408.601204 Y71.870522 Z-0.125000 F400.000000
G00 Z5.000000

(Change tool to Default tool)

G00 Z5.000000
G00 X1414.990226 Y66.510299

G01 Z-0.125000 F100.0(Penetrate)
G01 X1414.990226 Y117.232345 Z-0.125000 F400.000000
G00 Z5.000000

(Change tool to Default tool)

G00 Z5.000000
G00 X1421.379248 Y120.975346

G01 Z-0.125000 F100.0(Penetrate)
G01 X1421.379248 Y62.861660 Z-0.125000 F400.000000
G00 Z5.000000

(Change tool to Default tool)

G00 Z5.000000
G00 X1427.768270 Y60.313250

G01 Z-0.125000 F100.0(Penetrate)
G01 X1427.768270 Y123.674669 Z-0.125000 F400.000000
G00 Z5.000000

(Change tool to Default tool)

G00 Z5.000000
G00 X1434.157293 Y125.600568

G01 Z-0.125000 F100.0(Penetrate)
G01 X1434.157293 Y58.450044 Z-0.125000 F400.000000
G00 Z5.000000

(Change tool to Default tool)

G00 Z5.000000
G00 X1440.546315 Y57.345836

G01 Z-0.125000 F100.0(Penetrate)
G01 X1440.546315 Y126.931153 Z-0.125000 F400.000000
G00 Z5.000000

(Change tool to Default tool)

G00 Z5.000000
G00 X1446.935337 Y127.677281

G01 Z-0.125000 F100.0(Penetrate)
G01 X1446.935337 Y56.625524 Z-0.125000 F400.000000
G00 Z5.000000

(Change tool to Default tool)

G00 Z5.000000
G00 X1453.324359 Y56.276776

G01 Z-0.125000 F100.0(Penetrate)
G01 X1453.324359 Y127.879960 Z-0.125000 F400.000000
G00 Z5.000000

(Change tool to Default tool)

G00 Z5.000000
G00 X1459.713381 Y127.604502

G01 Z-0.125000 F100.0(Penetrate)
G01 X1459.713381 Y56.615287 Z-0.125000 F400.000000
G00 Z5.000000

(Change tool to Default tool)

G00 Z5.000000
G00 X1466.102404 Y57.288993

G01 Z-0.125000 F100.0(Penetrate)
G01 X1466.102404 Y126.964080 Z-0.125000 F400.000000
G00 Z5.000000

(Change tool to Default tool)

G00 Z5.000000
G00 X1472.491426 Y125.911639

G01 Z-0.125000 F100.0(Penetrate)
G01 X1472.491426 Y58.413610 Z-0.125000 F400.000000
G00 Z5.000000

(Change tool to Default tool)

G00 Z5.000000
G00 X1478.880448 Y60.192898

G01 Z-0.125000 F100.0(Penetrate)
G01 X1478.880448 Y124.353191 Z-0.125000 F400.000000
G00 Z5.000000

(Change tool to Default tool)

G00 Z5.000000
G00 X1485.269470 Y122.071006

G01 Z-0.125000 F100.0(Penetrate)
G01 X1485.269470 Y62.704207 Z-0.125000 F400.000000
G00 Z5.000000

(Change tool to Default tool)

G00 Z5.000000
G00 X1491.658493 Y66.225435

G01 Z-0.125000 F100.0(Penetrate)
G01 X1491.658493 Y118.796306 Z-0.125000 F400.000000
G00 Z5.000000

(Change tool to Default tool)

G00 Z5.000000
G00 X1498.047515 Y113.814521

G01 Z-0.125000 F100.0(Penetrate)
G01 X1498.047515 Y71.357842 Z-0.125000 F400.000000
G00 Z5.000000

(Change tool to Default tool)

G00 Z5.000000
G00 X1504.436537 Y80.504288

G01 Z-0.125000 F100.0(Penetrate)
G01 X1504.436537 Y104.392871 Z-0.125000 F400.000000
G00 Z5.000000

(Change tool to Default tool)

G00 Z5.000000
G00 X1456.675082 Y127.829593

G01 Z-0.125000 F100.0(Penetrate)
G03 X1416.331681 Y118.681896 Z-0.125000 I-3.733006 J-77.072190 F400.000000
G03 X1400.418676 Y92.027751 Z-0.125000 I14.366228 J-26.654145
G03 X1416.189539 Y65.646211 Z-0.125000 I29.950985 J0.000000
G03 X1453.611679 Y56.261093 Z-0.125000 I37.284177 J69.365691
G03 X1491.141208 Y65.758863 Z-0.125000 I-0.139181 J79.446017
G03 X1506.856592 Y92.027751 Z-0.125000 I-14.169839 J26.312433
G03 X1504.152259 Y104.832771 Z-0.125000 I-31.193329 J0.100260
G03 X1495.330131 Y116.238631 Z-0.125000 I-27.829649 J-12.410722
G03 X1482.348835 Y123.190541 Z-0.125000 I-25.388521 J-31.812029
G03 X1456.675082 Y127.829593 Z-0.125000 I-30.441219 J-95.107612
G01 X1456.675082 Y127.829593 Z-0.125000
G00 Z5.000000

(Change tool to Default tool)

G00 Z5.000000
G00 X1075.388564 Y308.753748

G01 Z-0.125000 F100.0(Penetrate)
G03 X1098.531325 Y314.158020 Z-0.125000 I9.416464 J11.930155 F400.000000
G02 X1109.533629 Y334.713721 Z-0.125000 I221.056326 J-105.096637
G02 X1122.535800 Y354.358199 Z-0.125000 I225.092759 J-134.857933
G03 X1128.029848 Y367.165546 Z-0.125000 I-25.316016 J18.442051
G03 X1122.880764 Y371.058878 Z-0.125000 I-4.029800 J0.022030
G02 X1116.647805 Y373.656336 Z-0.125000 I-1.498225 J5.181955
G03 X1094.776756 Y342.125380 Z-0.125000 I108.832104 J-98.840783
G02 X1075.388564 Y308.753748 Z-0.125000 I-338.171202 J174.152226
G01 X1075.388564 Y308.753748 Z-0.125000
G00 Z5.000000

(Change tool to Default tool)

G00 Z5.000000
G00 X1103.843779 Y299.018094

G01 Z-0.125000 F100.0(Penetrate)
G03 X1125.739433 Y304.403744 Z-0.125000 I8.879165 J11.103085 F400.000000
G02 X1136.565156 Y324.978067 Z-0.125000 I151.100460 J-66.370209
G02 X1149.790953 Y344.711867 Z-0.125000 I286.798949 J-177.916686
G03 X1155.060310 Y357.432017 Z-0.125000 I-24.175530 J17.466280
G03 X1149.914468 Y361.323614 Z-0.125000 I-4.026517 J0.023715
G02 X1143.678267 Y363.920682 Z-0.125000 I-1.500115 J5.183716
G03 X1122.780005 Y333.699565 Z-0.125000 I115.776926 J-102.397379
G02 X1103.843779 Y299.018094 Z-0.125000 I-1256.293611 J663.431147
G01 X1103.843779 Y299.018094 Z-0.125000
G00 Z5.000000

(Change tool to Default tool)

G00 Z5.000000
G00 X921.738011 Y418.008367

G01 Z-0.125000 F100.0(Penetrate)
G03 X900.485031 Y383.964218 Z-0.125000 I444.107749 J-300.902212 F400.000000
G03 X880.479835 Y348.777524 Z-0.125000 I4751.935655 J-2724.966391
G03 X902.298986 Y358.379103 Z-0.125000 I5.605736 J16.853525
G02 X911.777525 Y376.901094 Z-0.125000 I181.282442 J-81.084115
G02 X926.232066 Y398.648728 Z-0.125000 I183.230704 J-106.106667
G03 X937.386856 Y414.763503 Z-0.125000 I-182.432607 J138.199573
G01 X937.386856 Y416.924976 Z-0.125000
G03 X931.267605 Y418.314967 Z-0.125000 I-4.927893 J-7.529799
G02 X921.738011 Y418.008367 Z-0.125000 I-6.283281 J47.043445
G01 X921.738011 Y418.008367 Z-0.125000
G00 Z5.000000

(Change tool to Default tool)

G00 Z5.000000
G00 X948.769644 Y414.763291

G01 Z-0.125000 F100.0(Penetrate)
G03 X927.144721 Y381.108443 Z-0.125000 I699.712686 J-473.375383 F400.000000
G03 X907.510403 Y345.532448 Z-0.125000 I402.236617 J-245.199610
G03 X930.312586 Y355.924026 Z-0.125000 I4.731839 J19.830092
G02 X940.232846 Y373.657079 Z-0.125000 I313.771863 J-163.889535
G02 X953.180521 Y394.574662 Z-0.125000 I671.975139 J-401.476718
G02 X964.418489 Y411.516303 Z-0.125000 I544.598981 J-349.052988
G03 X959.778714 Y415.262266 Z-0.125000 I-3.961308 J-0.160093
G02 X948.769644 Y414.763291 Z-0.125000 I-7.463304 J42.967571
G01 X948.769644 Y414.763291 Z-0.125000
G00 Z5.000000

(Change tool to Default tool)

G00 Z5.000000
G00 X934.540972 Y342.286203

G01 Z-0.125000 F100.0(Penetrate)
G03 X957.998429 Y352.965710 Z-0.125000 I5.463556 J19.101157 F400.000000
G02 X967.263414 Y370.411897 Z-0.125000 I177.419464 J-83.037286
G02 X981.619523 Y390.738461 Z-0.125000 I140.943672 J-84.311793
G03 X991.449058 Y409.353450 Z-0.125000 I-39.866470 J32.953964
G02 X984.336612 Y410.435147 Z-0.125000 I0.000000 J23.923959
G03 X977.222835 Y411.517046 Z-0.125000 I-7.113777 J-22.846537
G03 X954.726118 Y377.934841 Z-0.125000 I320.889416 J-239.290174
G03 X934.540972 Y342.286203 Z-0.125000 I716.943565 J-429.490274
G01 X934.540972 Y342.286203 Z-0.125000
G00 Z5.000000

(Change tool to Default tool)

G00 Z5.000000
G00 X961.572606 Y339.041658

G01 Z-0.125000 F100.0(Penetrate)
G03 X968.853254 Y335.431026 Z-0.125000 I11.825288 J14.699231 F400.000000
G03 X973.862323 Y335.555836 Z-0.125000 I2.277462 J9.175647
G03 X978.615767 Y338.223354 Z-0.125000 I-3.636544 J12.049235
G03 X983.320305 Y343.433775 Z-0.125000 I-21.965730 J24.562159
G03 X991.230383 Y357.324265 Z-0.125000 I-58.908272 J42.743384
G02 X997.139228 Y368.248619 Z-0.125000 I64.726983 J-27.949819
G02 X1011.924253 Y389.011009 Z-0.125000 I309.827585 J-204.984675
G03 X1018.480692 Y402.864041 Z-0.125000 I-29.049492 J22.226751
G02 X1010.440704 Y405.377064 Z-0.125000 I14.540587 J60.637902
G03 X1002.831846 Y405.027637 Z-0.125000 I-3.409416 J-8.776210
G03 X982.147354 Y372.083493 Z-0.125000 I1635.550086 J-1049.871115
G02 X961.572606 Y339.041658 Z-0.125000 I-2638.755807 J1620.194374
G01 X961.572606 Y339.041658 Z-0.125000
G00 Z5.000000

(Change tool to Default tool)

G00 Z5.000000
G00 X1032.708725 Y398.536422

G01 Z-0.125000 F100.0(Penetrate)
G03 X1009.904311 Y366.226894 Z-0.125000 I190.804016 J-158.874097 F400.000000
G03 X990.026862 Y331.469176 Z-0.125000 I1118.382480 J-662.649861
G03 X1002.872748 Y330.255770 Z-0.125000 I7.624706 J12.115916
G03 X1011.999108 Y337.144634 Z-0.125000 I-7.726951 J19.726384
G03 X1019.868672 Y350.266471 Z-0.125000 I-55.069386 J41.947505
G02 X1025.594548 Y360.676137 Z-0.125000 I73.643502 J-33.728289
G02 X1040.263939 Y382.316545 Z-0.125000 I571.310919 J-371.482547
G03 X1045.511260 Y394.209229 Z-0.125000 I-26.805559 J18.931179
G03 X1041.377101 Y397.389458 Z-0.125000 I-5.364777 J-2.696748
G03 X1032.708725 Y398.536422 Z-0.125000 I-11.980374 J-57.213858
G01 X1032.708725 Y398.536422 Z-0.125000
G00 Z5.000000

(Change tool to Default tool)

G00 Z5.000000
G00 X1018.481117 Y324.978492

G01 Z-0.125000 F100.0(Penetrate)
G03 X1041.756913 Y330.330109 Z-0.125000 I9.415493 J12.341717 F400.000000
G02 X1054.048804 Y352.021857 Z-0.125000 I229.856498 J-115.922423
G03 X1066.959470 Y372.706926 Z-0.125000 I-1771.038045 J1119.771870
G03 X1073.966581 Y385.556011 Z-0.125000 I-117.797504 J72.574778
G03 X1050.854726 Y381.110436 Z-0.125000 I-9.964825 J-10.494680
G02 X1038.398894 Y358.512647 Z-0.125000 I-161.735752 J74.416546
G03 X1025.542826 Y337.450162 Z-0.125000 I360.260039 J-234.349425
G03 X1018.481117 Y324.978492 Z-0.125000 I1520.236333 J-869.023209
G01 X1018.481117 Y324.978492 Z-0.125000
G00 Z5.000000

(Change tool to Default tool)

G00 Z5.000000
G00 X1088.192591 Y382.311678

G01 Z-0.125000 F100.0(Penetrate)
G03 X1066.796407 Y350.950694 Z-0.125000 I119.428129 J-104.459739 F400.000000
G02 X1046.935480 Y318.489296 Z-0.125000 I-240.489472 J124.832713
G03 X1070.126200 Y321.981097 Z-0.125000 I10.333992 J10.123248
G02 X1082.503167 Y343.369064 Z-0.125000 I226.977400 J-117.073984
G03 X1094.851630 Y363.949771 Z-0.125000 I-306.233297 J197.735458
G03 X1100.998321 Y376.901094 Z-0.125000 I-97.384548 J54.152929
G03 X1096.381302 Y380.719180 Z-0.125000 I-5.127120 J-1.499360
G02 X1088.192591 Y382.311678 Z-0.125000 I4.136442 J43.119456
G01 X1088.192591 Y382.311678 Z-0.125000
G00 Z5.000000

(Change tool to Default tool)

G00 Z5.000000
G00 X1130.875519 Y289.282441

G01 Z-0.125000 F100.0(Penetrate)
G03 X1153.154667 Y293.969618 Z-0.125000 I9.261730 J11.269380 F400.000000
G02 X1165.018453 Y315.242414 Z-0.125000 I267.898658 J-135.461830
G03 X1176.883577 Y335.664299 Z-0.125000 I-424.265721 J260.156305
G03 X1182.092051 Y348.777630 Z-0.125000 I-49.778819 J27.362652
G03 X1176.028409 Y351.268129 Z-0.125000 I-8.881910 J-12.998022
G02 X1170.711072 Y354.185029 Z-0.125000 I1.716678 J9.434449
G03 X1150.072374 Y324.006446 Z-0.125000 I93.619787 J-86.171769
G02 X1130.875519 Y289.282441 Z-0.125000 I-361.054312 J176.937241
G01 X1130.875519 Y289.282441 Z-0.125000
G00 Z5.000000

(Change tool to Default tool)

G00 Z5.000000
G00 X1169.288663 Y274.138539

G01 Z-0.125000 F100.0(Penetrate)
G03 X1179.048253 Y284.417146 Z-0.125000 I-15.482371 J24.473286 F400.000000
G02 X1190.629062 Y304.426767 Z-0.125000 I813.528593 J-457.483364
G02 X1198.100382 Y315.514964 Z-0.125000 I102.536376 J-61.028656
G03 X1205.187913 Y328.057980 Z-0.125000 I-42.748932 J32.429566
G03 X1206.574807 Y333.949358 Z-0.125000 I-19.000312 J7.581811
G03 X1205.582818 Y338.225895 Z-0.125000 I-7.156186 J0.593365
G03 X1202.463514 Y341.022884 Z-0.125000 I-6.060882 J-3.621440
G03 X1193.474307 Y343.369382 Z-0.125000 I-11.153648 J-24.336909
G03 X1186.881232 Y330.753560 Z-0.125000 I141.945706 J-82.212040
G02 X1176.401774 Y310.917557 Z-0.125000 I-212.264645 J99.454274
G02 X1169.178673 Y300.702923 Z-0.125000 I-65.803336 J38.870530
G03 X1161.539045 Y289.213348 Z-0.125000 I47.889471 J-40.127230
G03 X1159.508344 Y283.665574 Z-0.125000 I21.014493 J-10.837665
G03 X1159.765359 Y279.685411 Z-0.125000 I6.794477 J-1.559633
G03 X1162.066115 Y276.859310 Z-0.125000 I5.293592 J1.959980
G03 X1169.288663 Y274.138539 Z-0.125000 I10.372074 J16.586805
G01 X1169.288663 Y274.138539 Z-0.125000
G00 Z5.000000

(Change tool to Default tool)

G00 Z5.000000
G00 X1194.896716 Y262.239182

G01 Z-0.125000 F100.0(Penetrate)
G03 X1215.883013 Y292.607197 Z-0.125000 I-133.233073 J114.508287 F400.000000
G03 X1233.308582 Y326.061565 Z-0.125000 I-860.515764 J469.487267
G03 X1228.146541 Y330.465118 Z-0.125000 I-5.014685 J-0.651074
G02 X1221.927604 Y333.633622 Z-0.125000 I-0.211977 J7.271261
G02 X1220.304764 Y332.954318 Z-0.125000 I-5.583591 J11.060937
G02 X1217.659737 Y332.550231 Z-0.125000 I-2.473461 J7.331699
G02 X1212.522907 Y318.845934 Z-0.125000 I-29.099758 J3.092690
G03 X1200.587205 Y300.099468 Z-0.125000 I204.973255 J-143.677482
G02 X1193.570152 Y289.375797 Z-0.125000 I-96.514354 J55.496697
G03 X1186.831906 Y277.668616 Z-0.125000 I47.415643 J-35.083531
G03 X1185.186099 Y272.023976 Z-0.125000 I21.858374 J-9.435500
G03 X1185.632401 Y267.904069 Z-0.125000 I7.730079 J-1.246742
G03 X1188.038460 Y264.950136 Z-0.125000 I5.848757 J2.307106
G03 X1194.896716 Y262.239182 Z-0.125000 I10.013987 J15.303104
G01 X1194.896716 Y262.239182 Z-0.125000
G00 Z5.000000

(Change tool to Default tool)

G00 Z5.000000
G00 X1207.700742 Y255.747968

G01 Z-0.125000 F100.0(Penetrate)
G03 X1229.179958 Y260.442771 Z-0.125000 I8.916551 J10.688078 F400.000000
G02 X1240.423185 Y281.707941 Z-0.125000 I263.428352 J-125.673855
G03 X1252.067931 Y302.442436 Z-0.125000 I-653.114276 J380.434133
G03 X1257.495717 Y315.243157 Z-0.125000 I-64.497559 J34.899487
G03 X1252.888708 Y319.647666 Z-0.125000 I-4.253317 J0.162798
G02 X1247.535231 Y322.817339 Z-0.125000 I-0.446274 J5.352021
G03 X1245.146732 Y322.300547 Z-0.125000 I-0.470220 J-3.604705
G02 X1243.267364 Y321.733947 Z-0.125000 I-1.991666 J3.206045
G02 X1226.164485 Y287.932528 Z-0.125000 I-175.192562 J67.416547
G03 X1207.700742 Y255.747968 Z-0.125000 I321.276368 J-205.699321
G01 X1207.700742 Y255.747968 Z-0.125000
G00 Z5.000000

(Change tool to Default tool)

G00 Z5.000000
G00 X1160.174084 Y553.544259

G01 Z-0.125000 F100.0(Penetrate)
G03 X1137.128154 Y522.971344 Z-0.125000 I286.469789 J-239.914041 F400.000000
G03 X1120.337465 Y492.966740 Z-0.125000 I168.744398 J-114.130366
G03 X1142.180244 Y520.400486 Z-0.125000 I-60.542114 J70.616192
G02 X1161.595641 Y549.217066 Z-0.125000 I140.030164 J-73.397498
G03 X1161.057130 Y551.841549 Z-0.125000 I-2.913528 J0.769670
G02 X1160.174084 Y553.544259 Z-0.125000 I4.117810 J3.215880
G01 X1160.174084 Y553.544259 Z-0.125000
G00 Z5.000000

(Change tool to Default tool)

G00 Z5.000000
G00 X1170.132014 Y541.644903

G01 Z-0.125000 F100.0(Penetrate)
G03 X1147.981079 Y514.106378 Z-0.125000 I133.483718 J-130.047133 F400.000000
G03 X1128.874903 Y484.313310 Z-0.125000 I1211.487722 J-797.945175
G03 X1141.708758 Y495.807466 Z-0.125000 I-25.596775 J41.492131
G03 X1151.637924 Y509.193078 Z-0.125000 I-267.438373 J208.755609
G03 X1161.077339 Y523.490667 Z-0.125000 I-237.134727 J166.823573
G03 X1170.132014 Y538.400039 Z-0.125000 I-905.726479 J560.264838
G03 X1170.728051 Y540.211878 Z-0.125000 I-0.349159 J1.118820
G02 X1170.132014 Y541.644903 Z-0.125000 I2.649046 J1.942283
G01 X1170.132014 Y541.644903 Z-0.125000
G00 Z5.000000

(Change tool to Default tool)

G00 Z5.000000
G00 X1178.668386 Y531.909249

G01 Z-0.125000 F100.0(Penetrate)
G03 X1157.780002 Y504.515260 Z-0.125000 I403.087244 J-329.021771 F400.000000
G02 X1137.410211 Y476.742315 Z-0.125000 I-970.178939 J690.211660
G03 X1160.214153 Y498.863771 Z-0.125000 I-28.051462 J51.731370
G02 X1180.091009 Y527.583118 Z-0.125000 I193.303214 J-112.548344
G03 X1180.093260 Y529.953202 Z-0.125000 I-0.914614 J1.185912
G02 X1178.668386 Y531.909249 Z-0.125000 I2.658491 J3.433561
G01 X1178.668386 Y531.909249 Z-0.125000
G00 Z5.000000

(Change tool to Default tool)

G00 Z5.000000
G00 X1188.627275 Y522.173595

G01 Z-0.125000 F100.0(Penetrate)
G03 X1167.332749 Y496.168867 Z-0.125000 I565.988560 J-485.192889 F400.000000
G03 X1147.369099 Y469.170258 Z-0.125000 I491.842401 J-384.564468
G03 X1170.622147 Y492.649025 Z-0.125000 I-40.536023 J63.400450
G02 X1190.050962 Y517.847464 Z-0.125000 I138.362462 J-86.592613
G03 X1189.511488 Y520.471407 Z-0.125000 I-2.913013 J0.768523
G02 X1188.627275 Y522.173595 Z-0.125000 I4.121001 J3.221430
G01 X1188.627275 Y522.173595 Z-0.125000
G00 Z5.000000

(Change tool to Default tool)

G00 Z5.000000
G00 X1197.163647 Y512.437941

G01 Z-0.125000 F100.0(Penetrate)
G03 X1175.930068 Y487.462982 Z-0.125000 I2161.550141 J-1859.252409 F400.000000
G03 X1155.905472 Y461.598201 Z-0.125000 I312.751381 J-262.817063
G03 X1179.180284 Y484.041969 Z-0.125000 I-36.966538 J61.625526
G02 X1198.586270 Y508.111810 Z-0.125000 I127.437940 J-82.887295
G03 X1198.046951 Y510.735848 Z-0.125000 I-2.913455 J0.768639
G02 X1197.163647 Y512.437941 Z-0.125000 I4.114375 J3.215403
G01 X1197.163647 Y512.437941 Z-0.125000
G00 Z5.000000

(Change tool to Default tool)

G00 Z5.000000
G00 X1205.700020 Y503.785148

G01 Z-0.125000 F100.0(Penetrate)
G03 X1184.865882 Y479.572374 Z-0.125000 I540.222475 J-485.910031 F400.000000
G02 X1164.441844 Y455.107942 Z-0.125000 I-1738.581501 J1430.690401
G03 X1190.761705 Y478.314616 Z-0.125000 I-62.014359 J96.862295
G03 X1205.700020 Y503.785148 Z-0.125000 I-69.201263 J57.702009
G01 X1205.700020 Y503.785148 Z-0.125000
G00 Z5.000000

(Change tool to Default tool)

G00 Z5.000000
G00 X1214.236393 Y495.130231

G01 Z-0.125000 F100.0(Penetrate)
G03 X1193.282993 Y472.052399 Z-0.125000 I126.608298 J-136.004540 F400.000000
G02 X1172.978217 Y448.617683 Z-0.125000 I-202.794940 J155.195863
G03 X1197.222996 Y469.757755 Z-0.125000 I-46.924009 J78.288201
G03 X1214.236393 Y495.130231 Z-0.125000 I-138.848799 J111.494790
G01 X1214.236393 Y495.130231 Z-0.125000
G00 Z5.000000

(Change tool to Default tool)

G00 Z5.000000
G00 X1221.349185 Y487.558280

G01 Z-0.125000 F100.0(Penetrate)
G03 X1201.806967 Y465.611802 Z-0.125000 I589.138419 J-544.271563 F400.000000
G03 X1182.937318 Y443.209329 Z-0.125000 I1210.028633 J-1038.357837
G03 X1205.223901 Y463.285099 Z-0.125000 I-75.881500 J106.646145
G03 X1221.349185 Y487.558280 Z-0.125000 I-80.414284 J70.914033
G01 X1221.349185 Y487.558280 Z-0.125000
G00 Z5.000000

(Change tool to Default tool)

G00 Z5.000000
G00 X1799.069598 Y611.141623

G01 Z-0.125000 F100.0(Penetrate)
G01 X1799.069598 Y624.498364 Z-0.125000 F400.000000
G00 Z5.000000

(Change tool to Default tool)

G00 Z5.000000
G00 X1805.458620 Y626.728685

G01 Z-0.125000 F100.0(Penetrate)
G01 X1805.458620 Y605.741776 Z-0.125000 F400.000000
G00 Z5.000000

(Change tool to Default tool)

G00 Z5.000000
G00 X1811.847642 Y601.499672

G01 Z-0.125000 F100.0(Penetrate)
G01 X1811.847642 Y627.621368 Z-0.125000 F400.000000
G00 Z5.000000

(Change tool to Default tool)

G00 Z5.000000
G00 X1818.236665 Y627.621368

G01 Z-0.125000 F100.0(Penetrate)
G01 X1818.236665 Y597.586069 Z-0.125000 F400.000000
G00 Z5.000000

(Change tool to Default tool)

G00 Z5.000000
G00 X1824.625687 Y594.110708

G01 Z-0.125000 F100.0(Penetrate)
G01 X1824.625687 Y627.621368 Z-0.125000 F400.000000
G00 Z5.000000

(Change tool to Default tool)

G00 Z5.000000
G00 X1831.014709 Y627.621368

G01 Z-0.125000 F100.0(Penetrate)
G01 X1831.014709 Y590.749815 Z-0.125000 F400.000000
G00 Z5.000000

(Change tool to Default tool)

G00 Z5.000000
G00 X1837.403731 Y587.717997

G01 Z-0.125000 F100.0(Penetrate)
G01 X1837.403731 Y627.621368 Z-0.125000 F400.000000
G00 Z5.000000

(Change tool to Default tool)

G00 Z5.000000
G00 X1843.792754 Y627.621368

G01 Z-0.125000 F100.0(Penetrate)
G01 X1843.792754 Y584.706168 Z-0.125000 F400.000000
G00 Z5.000000

(Change tool to Default tool)

G00 Z5.000000
G00 X1850.181776 Y581.739248

G01 Z-0.125000 F100.0(Penetrate)
G01 X1850.181776 Y627.621368 Z-0.125000 F400.000000
G00 Z5.000000

(Change tool to Default tool)

G00 Z5.000000
G00 X1856.570798 Y627.621368

G01 Z-0.125000 F100.0(Penetrate)
G01 X1856.570798 Y578.842407 Z-0.125000 F400.000000
G00 Z5.000000

(Change tool to Default tool)

G00 Z5.000000
G00 X1862.959820 Y575.945556

G01 Z-0.125000 F100.0(Penetrate)
G01 X1862.959820 Y627.621368 Z-0.125000 F400.000000
G00 Z5.000000

(Change tool to Default tool)

G00 Z5.000000
G00 X1869.348843 Y627.621368

G01 Z-0.125000 F100.0(Penetrate)
G01 X1869.348843 Y573.048706 Z-0.125000 F400.000000
G00 Z5.000000

(Change tool to Default tool)

G00 Z5.000000
G00 X1875.737865 Y570.151865

G01 Z-0.125000 F100.0(Penetrate)
G01 X1875.737865 Y627.621368 Z-0.125000 F400.000000
G00 Z5.000000

(Change tool to Default tool)

G00 Z5.000000
G00 X1882.126887 Y627.621368

G01 Z-0.125000 F100.0(Penetrate)
G01 X1882.126887 Y567.255014 Z-0.125000 F400.000000
G00 Z5.000000

(Change tool to Default tool)

G00 Z5.000000
G00 X1888.515909 Y564.500863

G01 Z-0.125000 F100.0(Penetrate)
G01 X1888.515909 Y627.621368 Z-0.125000 F400.000000
G00 Z5.000000

(Change tool to Default tool)

G00 Z5.000000
G00 X1894.904931 Y627.621368

G01 Z-0.125000 F100.0(Penetrate)
G01 X1894.904931 Y561.749166 Z-0.125000 F400.000000
G00 Z5.000000

(Change tool to Default tool)

G00 Z5.000000
G00 X1901.293954 Y559.043448

G01 Z-0.125000 F100.0(Penetrate)
G01 X1901.293954 Y627.621368 Z-0.125000 F400.000000
G00 Z5.000000

(Change tool to Default tool)

G00 Z5.000000
G00 X1907.682976 Y627.621368

G01 Z-0.125000 F100.0(Penetrate)
G01 X1907.682976 Y556.431827 Z-0.125000 F400.000000
G00 Z5.000000

(Change tool to Default tool)

G00 Z5.000000
G00 X1914.071998 Y553.820205

G01 Z-0.125000 F100.0(Penetrate)
G01 X1914.071998 Y627.621368 Z-0.125000 F400.000000
G00 Z5.000000

(Change tool to Default tool)

G00 Z5.000000
G00 X1920.461020 Y627.621368

G01 Z-0.125000 F100.0(Penetrate)
G01 X1920.461020 Y551.317624 Z-0.125000 F400.000000
G00 Z5.000000

(Change tool to Default tool)

G00 Z5.000000
G00 X1926.850043 Y548.871751

G01 Z-0.125000 F100.0(Penetrate)
G01 X1926.850043 Y627.621368 Z-0.125000 F400.000000
G00 Z5.000000

(Change tool to Default tool)

G00 Z5.000000
G00 X1933.239065 Y627.621368

G01 Z-0.125000 F100.0(Penetrate)
G01 X1933.239065 Y546.425888 Z-0.125000 F400.000000
G00 Z5.000000

(Change tool to Default tool)

G00 Z5.000000
G00 X1939.628087 Y544.151924

G01 Z-0.125000 F100.0(Penetrate)
G01 X1939.628087 Y627.621368 Z-0.125000 F400.000000
G00 Z5.000000

(Change tool to Default tool)

G00 Z5.000000
G00 X1946.017109 Y627.621368

G01 Z-0.125000 F100.0(Penetrate)
G01 X1946.017109 Y541.889707 Z-0.125000 F400.000000
G00 Z5.000000

(Change tool to Default tool)

G00 Z5.000000
G00 X1952.406131 Y539.651961

G01 Z-0.125000 F100.0(Penetrate)
G01 X1952.406131 Y627.621368 Z-0.125000 F400.000000
G00 Z5.000000

(Change tool to Default tool)

G00 Z5.000000
G00 X1958.795154 Y627.621368

G01 Z-0.125000 F100.0(Penetrate)
G01 X1958.795154 Y537.582938 Z-0.125000 F400.000000
G00 Z5.000000

(Change tool to Default tool)

G00 Z5.000000
G00 X1965.184176 Y535.513905

G01 Z-0.125000 F100.0(Penetrate)
G01 X1965.184176 Y627.621368 Z-0.125000 F400.000000
G00 Z5.000000

(Change tool to Default tool)

G00 Z5.000000
G00 X1971.573198 Y627.621368

G01 Z-0.125000 F100.0(Penetrate)
G01 X1971.573198 Y533.482641 Z-0.125000 F400.000000
G00 Z5.000000

(Change tool to Default tool)

G00 Z5.000000
G00 X1977.962220 Y531.608438

G01 Z-0.125000 F100.0(Penetrate)
G01 X1977.962220 Y627.621368 Z-0.125000 F400.000000
G00 Z5.000000

(Change tool to Default tool)

G00 Z5.000000
G00 X1984.351243 Y627.621368

G01 Z-0.125000 F100.0(Penetrate)
G01 X1984.351243 Y529.734234 Z-0.125000 F400.000000
G00 Z5.000000

(Change tool to Default tool)

G00 Z5.000000
G00 X1990.740265 Y527.877630

G01 Z-0.125000 F100.0(Penetrate)
G01 X1990.740265 Y627.621368 Z-0.125000 F400.000000
G00 Z5.000000

(Change tool to Default tool)

G00 Z5.000000
G00 X1997.129287 Y627.621368

G01 Z-0.125000 F100.0(Penetrate)
G01 X1997.129287 Y526.176769 Z-0.125000 F400.000000
G00 Z5.000000

(Change tool to Default tool)

G00 Z5.000000
G00 X2003.518309 Y524.475898

G01 Z-0.125000 F100.0(Penetrate)
G01 X2003.518309 Y627.621368 Z-0.125000 F400.000000
G00 Z5.000000

(Change tool to Default tool)

G00 Z5.000000
G00 X2009.907332 Y627.621368

G01 Z-0.125000 F100.0(Penetrate)
G01 X2009.907332 Y522.775037 Z-0.125000 F400.000000
G00 Z5.000000

(Change tool to Default tool)

G00 Z5.000000
G00 X2016.296354 Y521.226934

G01 Z-0.125000 F100.0(Penetrate)
G01 X2016.296354 Y627.621368 Z-0.125000 F400.000000
G00 Z5.000000

(Change tool to Default tool)

G00 Z5.000000
G00 X2022.685376 Y627.621368

G01 Z-0.125000 F100.0(Penetrate)
G01 X2022.685376 Y519.726702 Z-0.125000 F400.000000
G00 Z5.000000

(Change tool to Default tool)

G00 Z5.000000
G00 X2029.074398 Y518.425698

G01 Z-0.125000 F100.0(Penetrate)
G01 X2029.074398 Y627.621368 Z-0.125000 F400.000000
G00 Z5.000000

(Change tool to Default tool)

G00 Z5.000000
G00 X2035.463420 Y627.621368

G01 Z-0.125000 F100.0(Penetrate)
G01 X2035.463420 Y517.166096 Z-0.125000 F400.000000
G00 Z5.000000

(Change tool to Default tool)

G00 Z5.000000
G00 X2041.852443 Y516.125105

G01 Z-0.125000 F100.0(Penetrate)
G01 X2041.852443 Y627.621368 Z-0.125000 F400.000000
G00 Z5.000000

(Change tool to Default tool)

G00 Z5.000000
G00 X2048.241465 Y627.621368

G01 Z-0.125000 F100.0(Penetrate)
G01 X2048.241465 Y515.170425 Z-0.125000 F400.000000
G00 Z5.000000

(Change tool to Default tool)

G00 Z5.000000
G00 X2054.630487 Y514.441642

G01 Z-0.125000 F100.0(Penetrate)
G01 X2054.630487 Y627.621368 Z-0.125000 F400.000000
G00 Z5.000000

(Change tool to Default tool)

G00 Z5.000000
G00 X2061.019509 Y627.621368

G01 Z-0.125000 F100.0(Penetrate)
G01 X2061.019509 Y513.858969 Z-0.125000 F400.000000
G00 Z5.000000

(Change tool to Default tool)

G00 Z5.000000
G00 X2067.408532 Y513.505549

G01 Z-0.125000 F100.0(Penetrate)
G01 X2067.408532 Y627.621368 Z-0.125000 F400.000000
G00 Z5.000000

(Change tool to Default tool)

G00 Z5.000000
G00 X2073.797554 Y627.621368

G01 Z-0.125000 F100.0(Penetrate)
G01 X2073.797554 Y513.376785 Z-0.125000 F400.000000
G00 Z5.000000

(Change tool to Default tool)

G00 Z5.000000
G00 X2080.186576 Y513.471954

G01 Z-0.125000 F100.0(Penetrate)
G01 X2080.186576 Y627.621368 Z-0.125000 F400.000000
G00 Z5.000000

(Change tool to Default tool)

G00 Z5.000000
G00 X2086.575598 Y627.621368

G01 Z-0.125000 F100.0(Penetrate)
G01 X2086.575598 Y513.881720 Z-0.125000 F400.000000
G00 Z5.000000

(Change tool to Default tool)

G00 Z5.000000
G00 X2092.964620 Y514.547400

G01 Z-0.125000 F100.0(Penetrate)
G01 X2092.964620 Y627.621368 Z-0.125000 F400.000000
G00 Z5.000000

(Change tool to Default tool)

G00 Z5.000000
G00 X2099.353643 Y627.621368

G01 Z-0.125000 F100.0(Penetrate)
G01 X2099.353643 Y515.675423 Z-0.125000 F400.000000
G00 Z5.000000

(Change tool to Default tool)

G00 Z5.000000
G00 X2105.742665 Y517.210759

G01 Z-0.125000 F100.0(Penetrate)
G01 X2105.742665 Y627.621368 Z-0.125000 F400.000000
G00 Z5.000000

(Change tool to Default tool)

G00 Z5.000000
G00 X2112.131687 Y627.621368

G01 Z-0.125000 F100.0(Penetrate)
G01 X2112.131687 Y519.128925 Z-0.125000 F400.000000
G00 Z5.000000

(Change tool to Default tool)

G00 Z5.000000
G00 X2118.520709 Y521.548563

G01 Z-0.125000 F100.0(Penetrate)
G01 X2118.520709 Y627.621368 Z-0.125000 F400.000000
G00 Z5.000000

(Change tool to Default tool)

G00 Z5.000000
G00 X2124.909732 Y627.621368

G01 Z-0.125000 F100.0(Penetrate)
G01 X2124.909732 Y524.711206 Z-0.125000 F400.000000
G00 Z5.000000

(Change tool to Default tool)

G00 Z5.000000
G00 X2131.298754 Y528.544107

G01 Z-0.125000 F100.0(Penetrate)
G01 X2131.298754 Y627.621368 Z-0.125000 F400.000000
G00 Z5.000000

(Change tool to Default tool)

G00 Z5.000000
G00 X2137.687776 Y627.621368

G01 Z-0.125000 F100.0(Penetrate)
G01 X2137.687776 Y533.210838 Z-0.125000 F400.000000
G00 Z5.000000

(Change tool to Default tool)

G00 Z5.000000
G00 X2144.076798 Y538.951591

G01 Z-0.125000 F100.0(Penetrate)
G01 X2144.076798 Y627.621368 Z-0.125000 F400.000000
G00 Z5.000000

(Change tool to Default tool)

G00 Z5.000000
G00 X2150.465820 Y627.223922

G01 Z-0.125000 F100.0(Penetrate)
G01 X2150.465820 Y546.000540 Z-0.125000 F400.000000
G00 Z5.000000

(Change tool to Default tool)

G00 Z5.000000
G00 X2156.854843 Y554.606748

G01 Z-0.125000 F100.0(Penetrate)
G01 X2156.854843 Y621.633070 Z-0.125000 F400.000000
G00 Z5.000000

(Change tool to Default tool)

G00 Z5.000000
G00 X2163.243865 Y613.764630

G01 Z-0.125000 F100.0(Penetrate)
G01 X2163.243865 Y565.846967 Z-0.125000 F400.000000
G00 Z5.000000

(Change tool to Default tool)

G00 Z5.000000
G00 X1808.848103 Y627.621368

G01 Z-0.125000 F100.0(Penetrate)
G01 X2149.979296 Y627.621368 Z-0.125000 F400.000000
G02 X2165.940307 Y608.012003 Z-0.125000 I-29.280202 J-40.132976
G02 X2169.499889 Y588.104396 Z-0.125000 I-37.374144 J-16.954727
G02 X2163.829767 Y566.978273 Z-0.125000 I-57.700073 J4.162373
G02 X2148.728113 Y543.831654 Z-0.125000 I-99.158662 J48.194806
G02 X2118.802106 Y521.874721 Z-0.125000 I-61.020155 J51.794718
G02 X2082.562334 Y513.507313 Z-0.125000 I-42.192157 J100.074820
G02 X2032.966020 Y517.444841 Z-0.125000 I-10.152734 J186.439544
G02 X1990.091886 Y528.050251 Z-0.125000 I157.408966 J728.317595
G02 X1915.021065 Y553.642964 Z-0.125000 I186.731394 J670.635676
G02 X1847.685904 Y582.870924 Z-0.125000 I575.878832 J1418.882528
G03 X1838.004331 Y587.230812 Z-0.125000 I-202.767889 J-437.337303
G02 X1808.129604 Y603.777194 Z-0.125000 I73.110379 J167.244630
G02 X1797.980907 Y612.102242 Z-0.125000 I42.368992 J61.998604
G02 X1794.947421 Y617.731437 Z-0.125000 I7.517619 J7.683076
G02 X1796.538666 Y622.017741 Z-0.125000 I4.309100 J0.838810
G02 X1808.848103 Y627.621368 Z-0.125000 I17.583824 J-22.304401
G01 X1808.848103 Y627.621368 Z-0.125000
G00 Z5.000000

(Change tool to Default tool)

G00 Z5.000000
G00 X3231.780253 Y792.537563

G01 Z-0.125000 F100.0(Penetrate)
G01 X3231.780253 Y720.311461 Z-0.125000 F400.000000
G00 Z5.000000

(Change tool to Default tool)

G00 Z5.000000
G00 X3211.178105 Y792.537563

G01 Z-0.125000 F100.0(Penetrate)
G01 X3211.178105 Y720.311461 Z-0.125000 F400.000000
G00 Z5.000000

(Change tool to Default tool)

G00 Z5.000000
G00 X3191.316446 Y792.537563

G01 Z-0.125000 F100.0(Penetrate)
G01 X3191.316446 Y720.311461 Z-0.125000 F400.000000
G00 Z5.000000

(Change tool to Default tool)

G00 Z5.000000
G00 X1763.742564 Y374.477462

G01 Z-0.125000 F100.0(Penetrate)
G01 X1763.742564 Y410.237306 Z-0.125000 F400.000000
G00 Z5.000000

(Change tool to Default tool)

G00 Z5.000000
G00 X1770.131587 Y408.449944

G01 Z-0.125000 F100.0(Penetrate)
G01 X1770.131587 Y373.171072 Z-0.125000 F400.000000
G00 Z5.000000

(Change tool to Default tool)

G00 Z5.000000
G00 X1776.520609 Y371.864682

G01 Z-0.125000 F100.0(Penetrate)
G01 X1776.520609 Y405.804652 Z-0.125000 F400.000000
G00 Z5.000000

(Change tool to Default tool)

G00 Z5.000000
G00 X1782.909631 Y402.834481

G01 Z-0.125000 F100.0(Penetrate)
G01 X1782.909631 Y370.228103 Z-0.125000 F400.000000
G00 Z5.000000

(Change tool to Default tool)

G00 Z5.000000
G00 X1789.298653 Y368.556376

G01 Z-0.125000 F100.0(Penetrate)
G01 X1789.298653 Y400.151547 Z-0.125000 F400.000000
G00 Z5.000000

(Change tool to Default tool)

G00 Z5.000000
G00 X1762.261483 Y410.578957

G01 Z-0.125000 F100.0(Penetrate)
G02 X1777.712864 Y405.206904 Z-0.125000 I-10.064966 J-53.856449 F400.000000
G03 X1791.154771 Y399.393470 Z-0.125000 I44.765168 J85.059675
G01 X1791.154771 Y368.070709 Z-0.125000
G03 X1777.466564 Y371.653363 Z-0.125000 I-119.138761 J-427.251697
G03 X1762.261483 Y374.780302 Z-0.125000 I-49.593082 J-202.620111
G01 X1762.261483 Y410.578957 Z-0.125000
G00 Z5.000000

(Change tool to Default tool)

G00 Z5.000000
G00 X1839.318415 Y351.281454

G01 Z-0.125000 F100.0(Penetrate)
G01 X1839.318415 Y371.486653 Z-0.125000 F400.000000
G00 Z5.000000

(Change tool to Default tool)

G00 Z5.000000
G00 X1845.707437 Y368.554454

G01 Z-0.125000 F100.0(Penetrate)
G01 X1845.707437 Y348.465571 Z-0.125000 F400.000000
G00 Z5.000000

(Change tool to Default tool)

G00 Z5.000000
G00 X1852.096459 Y345.098422

G01 Z-0.125000 F100.0(Penetrate)
G01 X1852.096459 Y365.387000 Z-0.125000 F400.000000
G00 Z5.000000

(Change tool to Default tool)

G00 Z5.000000
G00 X1858.485482 Y361.593695

G01 Z-0.125000 F100.0(Penetrate)
G01 X1858.485482 Y342.684190 Z-0.125000 F400.000000
G00 Z5.000000

(Change tool to Default tool)

G00 Z5.000000
G00 X1833.726210 Y374.780195

G01 Z-0.125000 F100.0(Penetrate)
G03 X1846.533665 Y368.330204 Z-0.125000 I20.350987 J24.469442 F400.000000
G02 X1861.094652 Y359.115628 Z-0.125000 I-6.397240 J-26.221013
G02 X1862.425007 Y356.077149 Z-0.125000 I-5.014759 J-4.006120
G02 X1862.969830 Y350.218408 Z-0.125000 I-49.651871 J-7.571987
G02 X1862.835559 Y343.854598 Z-0.125000 I-57.637822 J-1.967218
G02 X1862.612045 Y343.455310 Z-0.125000 I-0.542500 J0.041478
G02 X1857.673144 Y342.738168 Z-0.125000 I-3.164887 J4.430849
G02 X1850.426049 Y345.988800 Z-0.125000 I14.430573 J41.875931
G03 X1842.811157 Y350.025638 Z-0.125000 I-88.002759 J-156.803440
G03 X1833.726210 Y352.404974 Z-0.125000 I-10.197738 J-20.403663
G01 X1833.726210 Y374.780195 Z-0.125000
G00 Z5.000000

(Change tool to Default tool)

